davideferrari95/blind_handover_controller/data/Test 78 - [2024-02-07 -- 16-03-51]/joint_states_data.csv
shoulder_pan_joint,shoulder_lift_joint,elbow_joint,wrist_1_joint,wrist_2_joint,wrist_3_joint
0.0071742902509868145,-2.729918548993737e-07,-0.008312989957630634,0.010372082702815533,8.115431410260499e-05,0.008219433017075062
0.0071742902509868145,-2.729918548993737e-07,-0.008312989957630634,0.010372082702815533,8.115431410260499e-05,0.008219433017075062
0.007573366165161133,-4.913757248314887e-11,-0.008446755819022655,0.009456691332161427,7.911599823273718e-05,0.007701513823121786
0.007573366165161133,-4.913757248314887e-11,-0.008446755819022655,0.009456691332161427,7.911599823273718e-05,0.007701513823121786
0.007192288991063833,-6.592432762880795e-13,-0.009211156517267227,0.009421874769032001,7.813482079654932e-05,0.00802632886916399
0.007231054827570915,-8.844589286221421e-15,-0.00856033805757761,0.00881022959947586,7.717763219261542e-05,0.008333181031048298
0.007016231305897236,-1.1866145438578577e-16,-0.008342381566762924,0.008510563522577286,8.641561726108193e-05,0.008234773762524128
0.0075531937181949615,-1.5919948054492776e-18,-0.00797081645578146,0.008909416384994984,8.604668255429715e-05,0.008045166730880737
0.007409978192299604,-2.13586435214288e-20,-0.008294536732137203,0.009192788042128086,8.507332677254453e-05,0.00803949125111103
0.007367568556219339,-2.865534587642684e-22,-0.008162185549736023,0.00850513856858015,8.40826251078397e-05,0.00823388434946537
0.007445914205163717,-3.844480095006129e-24,-0.008150147274136543,0.008350566029548645,8.31122015370056e-05,0.007825687527656555
0.007820874452590942,-5.157861333752238e-26,-0.008771058171987534,0.009035167284309864,8.216382411774248e-05,0.008600473403930664
0.007002814672887325,-6.919928882906531e-28,-0.008748642168939114,0.009077163413167,9.181637142319232e-05,0.008094835095107555
0.006887779571115971,-9.283967866410206e-30,-0.008005687966942787,0.008301747031509876,9.99133480945602e-05,0.007929150015115738
0.006819880101829767,-1.2455628654377972e-31,-0.008185211569070816,0.008362090215086937,9.839081030804664e-05,0.007689754478633404
0.007197623141109943,-1.6710814834320177e-33,-0.008439114317297935,0.008679312653839588,9.632769069867209e-05,0.0074922447092831135
0.00728127034381032,-2.241968918746908e-35,-0.008712555281817913,0.008493989706039429,9.431170474272221e-05,0.007478530053049326
0.007262512110173702,-3.007887377880974e-37,-0.008651125244796276,0.00851634331047535,9.237581980414689e-05,0.007622324395924807
0.007036989089101553,-4.0354649227564655e-39,-0.008427148684859276,0.00905417650938034,9.051769302459434e-05,0.007739598862826824
0.007194148376584053,-5.414056746765363e-41,-0.00843799952417612,0.008735562674701214,8.873266779119149e-05,0.00805235281586647
0.007281970698386431,-9.80908925027372e-45,-0.00850642193108797,0.008723752573132515,0.00010130296868737787,0.007867961190640926
0.007565170060843229,0.0,-0.007700306363403797,0.008331934921443462,9.868997585726902e-05,0.007891063578426838
0.007565170060843229,0.0,-0.007700306363403797,0.008331934921443462,9.868997585726902e-05,0.007891063578426838
0.007565170060843229,0.0,-0.007700306363403797,0.008331934921443462,9.868997585726902e-05,0.007891063578426838
0.0071645136922597885,0.0,-0.007477913983166218,0.008987686596810818,9.692294406704605e-05,0.008029849268496037
0.006883170455694199,0.0,-0.007821359671652317,0.008841307833790779,9.521432366454974e-05,0.007665755692869425
0.006681220140308142,0.0,-0.00819766242057085,0.008587846532464027,9.356450755149126e-05,0.007952512241899967
0.0068959081545472145,0.0,-0.007900872267782688,0.008752013556659222,9.197096369462088e-05,0.007830386981368065
0.007128140889108181,0.0,-0.007353396620601416,0.009263847023248672,9.04307744349353e-05,0.008468261919915676
0.007345468271523714,0.0,-0.00806489773094654,0.009293979033827782,8.894132770365104e-05,0.008122416213154793
0.00729328440502286,0.0,-0.008195237256586552,0.009258314967155457,8.750013512326404e-05,0.00811697542667389
0.007221073377877474,0.0,-0.008203648030757904,0.009471955709159374,9.950350067811087e-05,0.007975392043590546
0.007417018059641123,0.0,-0.009181891568005085,0.00997050479054451,9.881694131763652e-05,0.007508404087275267
0.007408636622130871,0.0,-0.009597946889698505,0.00925323087722063,9.734707418829203e-05,0.008489401079714298
0.007363586686551571,0.0,-0.009198447689414024,0.009561090730130672,9.586945816408843e-05,0.008043373003602028
0.006881536450237036,-0.0001451589778298512,-0.00810675136744976,0.009524151682853699,9.443273302167654e-05,0.00840852502733469
0.007347064558416605,-0.0001407703384757042,-0.008664758875966072,0.009258078411221504,9.303807746618986e-05,0.0073827113956213
0.007496465463191271,-0.00013650229084305465,-0.009429623372852802,0.009462405927479267,9.168415272142738e-05,0.007417815737426281
0.007350844796746969,-0.0001324834447586909,-0.008775869384407997,0.008999590761959553,9.036903065862134e-05,0.007955145090818405
0.00732523575425148,-0.0001286946499021724,-0.008669683709740639,0.00869256816804409,8.909101597964764e-05,0.0078744413331151
0.007624363526701927,-0.0001251161884283647,-0.00879187136888504,0.009052376262843609,9.40323225222528e-05,0.007643677294254303
0.006955043878406286,-0.00012173188588349149,-0.008511821739375591,0.008867807686328888,9.860219870461151e-05,0.007621163036674261
0.00692874938249588,-0.00011852564057335258,-0.008913528174161911,0.008942573331296444,9.764745482243598e-05,0.0074000488966703415
0.006767905782908201,-0.00011548389011295512,-0.008772431872785091,0.008777612820267677,9.636561298975721e-05,0.007428672164678574
0.007126172073185444,-0.00011259427265031263,-0.008612377569079399,0.00903523713350296,9.509439405519515e-05,0.007936352863907814
0.0073411716148257256,-0.00010984597611241043,-0.007446490693837404,0.00889684446156025,9.385502198711038e-05,0.007787801790982485
0.007522089872509241,-0.00010722850856836885,-0.009211117401719093,0.008604971691966057,9.2647249402944e-05,0.007118596229702234
0.00688059302046895,-0.00010473294969415292,-0.009697639383375645,0.008918327279388905,9.147023956757039e-05,0.006959008518606424
0.007149094250053167,-0.00010235096124233678,-0.008137390948832035,0.008718015626072884,9.032287925947458e-05,0.007240446284413338
0.007000633515417576,-0.00010007475793827325,-0.007924617268145084,0.008716932497918606,8.920377149479464e-05,0.007592221722006798
0.00717841275036335,-9.789758769329637e-05,-0.008209317922592163,0.009181072004139423,8.811213047010824e-05,0.00794313196092844
0.00726539921015501,-9.581336053088307e-05,-0.009041041135787964,0.008935371413826942,0.00011125201126560569,0.007664648815989494
0.00726539921015501,-9.581336053088307e-05,-0.009041041135787964,0.008935371413826942,0.00011125201126560569,0.007664648815989494
0.007631001062691212,-9.381580457556993e-05,-0.008484884165227413,0.008307786658406258,0.00011192748934263363,0.007613921072334051
0.007117779925465584,-9.006064647110179e-05,-0.008899085223674774,0.008122916333377361,0.00010684683365980163,0.007707897573709488
0.007264261599630117,-8.829378930386156e-05,-0.008397888392210007,0.00885483343154192,0.00010436955199111253,0.0072553749196231365
0.007446981966495514,-8.659471495775506e-05,-0.008747807703912258,0.009049993008375168,0.00010200379620073363,0.006948795169591904
0.007516006473451853,-8.495982183376327e-05,-0.008802203461527824,0.008740326389670372,9.974271233659238e-05,0.007294764742255211
0.007207340560853481,-8.338551560882479e-05,-0.008847380056977272,0.008277012966573238,9.757978114066646e-05,0.007378693670034409
0.007108292542397976,-8.186849299818277e-05,-0.009192582219839096,0.00806663278490305,9.550873801345006e-05,0.007329394109547138
0.00751701183617115,-8.040570537559688e-05,-0.009217139333486557,0.007943435572087765,9.352368215331808e-05,0.006943398620933294
0.0076083168387413025,-7.899428601376712e-05,-0.00869782455265522,0.008712978102266788,9.161950583802536e-05,0.007392255589365959
0.007541395723819733,-7.763157918816432e-05,-0.00841739121824503,0.009285399690270424,8.979136327980086e-05,0.00738098006695509
0.00745848985388875,-7.63150819693692e-05,-0.008497639559209347,0.009077738039195538,8.803471428109333e-05,0.007819618098437786
0.007953837513923645,-7.504256791435182e-05,-0.008494789712131023,0.009224724024534225,8.63454260979779e-05,0.008166766725480556
0.00757231842726469,-7.381159957731143e-05,-0.008819115348160267,0.009075598791241646,9.944378689397126e-05,0.007900331169366837
0.007374105043709278,-7.262053259182721e-05,-0.008670162409543991,0.008900254033505917,9.964020136976615e-05,0.007633868604898453
0.007635657675564289,-7.146716234274209e-05,-0.009127241559326649,0.009158323518931866,9.796526865102351e-05,0.007024180144071579
0.007813462056219578,-7.034994632704183e-05,-0.008487701416015625,0.009057321585714817,9.622811921872199e-05,0.007138003129512072
0.008158012293279171,-6.92670582793653e-05,-0.008111784234642982,0.009508579038083553,9.454384417040274e-05,0.0073288241401314735
0.007968091405928135,-6.821710849180818e-05,-0.008826722390949726,0.009712797589600086,9.291715832659975e-05,0.007276393473148346
0.007038704119622707,-6.71984744258225e-05,-0.008514797315001488,0.009824661538004875,9.134531865129247e-05,0.007299749180674553
0.008111434057354927,-6.620980275329202e-05,-0.00868296716362238,0.009453502483665943,8.982589497463778e-05,0.00737338000908494
0.008282547816634178,-6.524976197397336e-05,-0.009312769398093224,0.008659441955387592,8.835615881253034e-05,0.007456489838659763
0.007532755844295025,-7.700551941525191e-05,-0.00878269225358963,0.008908911608159542,8.693368727108464e-05,0.007152382750064135
0.00785564910620451,-7.609074236825109e-05,-0.008822636678814888,0.009065693244338036,8.55563412187621e-05,0.007196440361440182
0.007701107766479254,-7.50357357901521e-05,-0.008563057519495487,0.00891230721026659,8.422188693657517e-05,0.007253564894199371
0.007841136306524277,-7.400745380437002e-05,-0.008858558721840382,0.009138607420027256,8.292854181490839e-05,0.00733149005100131
0.008195275440812111,-7.203305722214282e-05,-0.00886396411806345,0.008488441817462444,8.045732829486951e-05,0.007097051944583654
0.008520151488482952,-7.10848908056505e-05,-0.009598223492503166,0.009108425118029118,7.927624392323196e-05,0.007326964288949966
0.007747985422611237,-7.016136078163981e-05,-0.0087609076872468,0.00907500647008419,7.812920375727117e-05,0.007470813579857349
0.007747985422611237,-7.016136078163981e-05,-0.0087609076872468,0.00907500647008419,7.812920375727117e-05,0.007470813579857349
0.007435817737132311,-6.92614121362567e-05,-0.0083811329677701,0.009300685487687588,7.701491995248944e-05,0.00708850147202611
0.007718692533671856,-6.83843536535278e-05,-0.009107711724936962,0.008714159019291401,7.593196642119437e-05,0.0068865129724144936
0.008282219059765339,-6.752915942342952e-05,-0.0087698670104146,0.009141494520008564,8.572993101552129e-05,0.006707569118589163
0.00785072986036539,-6.669522554147989e-05,-0.008493868634104729,0.008712670765817165,8.605781476944685e-05,0.0072723510675132275
0.007284808903932571,-6.588155520148575e-05,-0.008744982071220875,0.0085133146494627,8.49946154630743e-05,0.006866799667477608
0.008909867145121098,-6.5087471739389e-05,-0.009301944635808468,0.009360781870782375,8.386955596506596e-05,0.006562873721122742
0.008100142702460289,-6.43123421468772e-05,-0.008859844878315926,0.009141087532043457,8.276812877738848e-05,0.006930238101631403
0.00780188525095582,-6.355541700031608e-05,-0.007990443147718906,0.009312694892287254,8.169489592546597e-05,0.007454826030880213
0.0076998211443424225,-6.281611422309652e-05,-0.008662325330078602,0.00919140875339508,8.064901339821517e-05,0.007318796589970589
0.008253529667854309,-6.209387356648222e-05,-0.009212863631546497,0.008895489387214184,7.962973904795945e-05,0.006883066613227129
0.008738266304135323,-6.138798198662698e-05,-0.008564798161387444,0.008776554837822914,7.863577047828585e-05,0.006784896831959486
0.00787428580224514,-6.069795199437067e-05,-0.009401245042681694,0.009985529817640781,7.766638009343296e-05,0.007384456228464842
0.007791499607264996,-6.002332520438358e-05,-0.009099581278860569,0.009466147050261497,7.672057108720765e-05,0.007675143890082836
0.008531788364052773,-2.0259079974493943e-05,-0.008526010438799858,0.009523693472146988,7.579752127639949e-05,0.007059787400066853
0.008867700584232807,-2.718014400215907e-07,-0.00898219458758831,0.009633908048272133,7.489645213354379e-05,0.006781319156289101
0.00782096479088068,-3.6465632735627196e-09,-0.008563525974750519,0.009469537064433098,7.401651964755729e-05,0.006698391865938902
0.008153810165822506,-4.892329943939622e-11,-0.008544101379811764,0.009431843645870686,7.315703987842426e-05,0.00700346427038312
0.008269479498267174,-6.563684600176256e-13,-0.009051855653524399,0.009068536572158337,7.231727067846805e-05,0.007009946275502443
0.008557824417948723,-8.806021335034091e-15,-0.009075948968529701,0.00910712406039238,7.149662269512191e-05,0.007207090500742197
0.007965786382555962,-1.18144009899242e-16,-0.008812866173684597,0.008961573243141174,7.069436105666682e-05,0.00664199935272336
0.008494153618812561,-1.5850524853632731e-18,-0.008473754860460758,0.00884221587330103,6.990986730670556e-05,0.006832586135715246
0.00888301245868206,-2.1265503307572755e-20,-0.008193878456950188,0.008972861804068089,1.7765129086910747e-05,0.007054927758872509
0.008158414624631405,-2.8530387784684933e-22,-0.008656608872115612,0.009018409065902233,1.1599360050240648e-06,0.007050102110952139
0.008285772986710072,-3.8277160119092774e-24,-0.009034252725541592,0.008488739840686321,7.573553517659093e-08,0.006919755134731531
0.00877003651112318,-5.135369553489706e-26,-0.00811825692653656,0.008480300195515156,4.944989306920888e-09,0.006901574786752462
0.008617519401013851,-9.243483464809694e-30,-0.008419711142778397,0.008947012014687061,2.1081261736277668e-11,0.006358823738992214
0.008321271277964115,-1.2401312586909526e-31,-0.008209701627492905,0.008762568235397339,1.3764556985526588e-12,0.0065345363691449165
0.008432605303823948,-1.663794336811881e-33,-0.008238287642598152,0.00909886509180069,8.987273680252303e-14,0.006509819068014622
0.008471923880279064,-2.2321924562090388e-35,-0.008388249203562737,0.009057315066456795,5.868047323417556e-15,0.006680795457214117
0.008629010990262032,-2.994771224254894e-37,-0.008128393441438675,0.008345529437065125,3.8314153646553067e-16,0.006492930930107832
0.008629010990262032,-2.994771224254894e-37,-0.008128393441438675,0.008345529437065125,3.8314153646553067e-16,0.006492930930107832
0.008886112831532955,-4.0178674166414744e-39,-0.008340391330420971,0.008852817118167877,2.501640506746774e-17,0.006694164592772722
0.009001577273011208,-5.390514932564706e-41,-0.008416395634412766,0.009156121872365475,1.6333924033729892e-18,0.006484282668679953
0.008857506327331066,-7.230700075916056e-43,-0.00869413185864687,0.008826438337564468,1.0664885520320788e-19,0.006968725007027388
0.008989930152893066,-9.80908925027372e-45,-0.008220985531806946,0.00909916590899229,6.963407537069557e-21,0.006716907490044832
0.008626236580312252,-0.0,-0.008242499083280563,0.009293241426348686,4.5466075265237365e-22,0.006514087785035372
0.008719195611774921,0.0,-0.008307250216603279,0.009273377247154713,2.968610119635865e-23,0.006678575184196234
0.008475515991449356,0.0,-0.007775202859193087,0.008904845453798771,1.9382902114806913e-24,0.0061856722459197044
0.00936458632349968,0.0,-0.007828819565474987,0.009454374201595783,1.265564989643961e-25,0.006436630617827177
0.0076204524375498295,0.0,-0.00913939718157053,0.008947759866714478,8.263234782016501e-27,0.006703041028231382
0.007726041600108147,0.0,-0.00848605576902628,0.008647759445011616,5.395301590653861e-28,0.006772743538022041
0.008586768992245197,0.0,-0.007884711027145386,0.008946279063820839,3.5227464474481975e-29,0.0066950758919119835
0.00892177689820528,0.0,-0.00793969351798296,0.008907857351005077,2.30010145715793e-30,0.0063120219856500626
0.00811958871781826,0.0,-0.00894171092659235,0.009087533690035343,1.5018017084580076e-31,0.006519991438835859
0.008623444475233555,0.0,-0.008162392303347588,0.009434028528630733,9.805692490599294e-33,0.006566917523741722
0.00911792553961277,0.0,-0.007866393774747849,0.008693535812199116,6.402416766297458e-34,0.00595342880114913
0.008080903440713882,0.0,-0.008961588144302368,0.008196622133255005,4.180320503645881e-35,0.006008207332342863
0.00834736693650484,0.0,-0.008575606159865856,0.00843842700123787,2.729450673424608e-36,0.006118765566498041
0.009175528772175312,0.0,-0.007963855750858784,0.009670155122876167,1.7821364105186328e-37,0.0060855671763420105
0.008662418462336063,0.0,-0.007653243839740753,0.008661098778247833,1.1636076964688058e-38,0.006080614868551493
0.008220857940614223,0.0,-0.008271120488643646,0.008486341685056686,7.597531987907007e-40,0.006330267526209354
0.008220857940614223,0.0,-0.008271120488643646,0.008486341685056686,7.597531987907007e-40,0.006330267526209354
0.008840532973408699,0.0,-0.008028935641050339,0.008344088681042194,3.238400751054652e-42,0.006323534529656172
0.00844257790595293,0.0,-0.008692657575011253,0.00821028370410204,2.1159606811304738e-43,0.0066499351523816586
0.008471646346151829,0.0,-0.009212080389261246,0.008962358348071575,1.401298464324817e-44,0.0063552348874509335
0.008877827785909176,0.0,-0.008120492100715637,0.009038923308253288,1.401298464324817e-45,0.006080353632569313
0.008609000593423843,0.0,-0.007567231077700853,0.009097413159906864,0.0,0.005539991892874241
0.008487544022500515,0.0,-0.007848911918699741,0.008899600245058537,0.0,0.005636972840875387
0.00878911092877388,0.0,-0.00829701405018568,0.009026232175529003,0.0,0.006005462259054184
0.009037774056196213,0.0,-0.007856432348489761,0.008577183820307255,0.0,0.005847547203302383
0.008986981585621834,0.0,-0.008145914413034916,0.008485169149935246,0.0,0.005653801374137402
0.00931803323328495,0.0,-0.008637994527816772,0.009068689309060574,0.0,0.005318413954228163
0.009231647476553917,0.0,-0.00850668828934431,0.008804877288639545,0.0,0.005757832434028387
0.008694413118064404,0.0,-0.0077450452372431755,0.008724833838641644,0.0,0.006177289877086878
0.009659387171268463,0.0,-0.00809397455304861,0.009399556554853916,3.443761215748964e-06,0.005854661110788584
0.009065551683306694,0.0,-0.008240262046456337,0.009374837391078472,2.2485298245555896e-07,0.005443998612463474
0.008916987106204033,0.0,-0.007753462065011263,0.008730676956474781,1.468129173787247e-08,0.005246491637080908
0.00860724225640297,0.0,-0.007519170641899109,0.008839437738060951,9.585834348513345e-10,0.005470752716064453
0.008967144414782524,0.0,-0.008547280915081501,0.009237387217581272,6.25886495408956e-11,0.006006715353578329
0.00924396887421608,0.0,-0.008573868311941624,0.008901502937078476,4.086591742086254e-12,0.0055410731583833694
0.008923553861677647,0.0,-0.008672639727592468,0.00844500120729208,2.668252446248742e-13,0.005434960592538118
0.00941526610404253,0.0,-0.008411768823862076,0.009101477451622486,1.7421782129455922e-14,0.005283812526613474
0.009302223101258278,0.0,-0.008780372329056263,0.009363115765154362,1.1375179201965975e-15,0.005652467254549265
0.009115036576986313,0.0,-0.008121048100292683,0.008900413289666176,7.427179942986261e-17,0.005562230944633484
0.0093833664432168,0.0,-0.008282325230538845,0.010246533900499344,4.8494178922151106e-18,0.00584601191803813
0.009134563617408276,0.0,-0.009142274968326092,0.009952547959983349,3.166323307761107e-19,0.005645951256155968
0.009132816456258297,0.0,-0.009326162748038769,0.00911788921803236,2.0673830062701524e-20,0.005436064675450325
0.009446856565773487,0.0,-0.007218379992991686,0.008721151389181614,1.3498533426260547e-21,0.005113378167152405
0.00914548896253109,0.0,-0.009140429086983204,0.009440448135137558,5.754636962808697e-24,0.005544905550777912
0.00914548896253109,0.0,-0.009140429086983204,0.009440448135137558,5.754636962808697e-24,0.005544905550777912
0.00952051393687725,0.0,-0.007971272803843021,0.009487501345574856,2.4532919336192375e-26,0.005618270020931959
0.00952051393687725,0.0,-0.007971272803843021,0.009487501345574856,2.4532919336192375e-26,0.005618270020931959
0.008554578758776188,0.0,-0.00887395441532135,0.009315514005720615,1.601824438510041e-27,0.005494537763297558
0.00895102508366108,0.0,-0.008792250417172909,0.01003063190728426,1.045876858152596e-28,0.006262214854359627
0.010021068155765533,0.0,-0.008611917495727539,0.008696087636053562,6.8288292368082e-30,0.005293919239193201
0.009560707025229931,0.0,-0.008831298910081387,0.009298697113990784,4.458737529448638e-31,0.004590306431055069
0.009351462125778198,0.0,-0.00900407787412405,0.009382962249219418,2.9112369499597576e-32,0.0045231604017317295
0.009432656690478325,0.0,-0.008927593939006329,0.00950440764427185,1.900829650248326e-33,0.004844044800847769
0.009270770475268364,0.0,-0.008735326118767262,0.009684213437139988,1.241105991463624e-34,0.0055686431005597115
0.009028186090290546,0.0,-0.008884668350219727,0.009764579124748707,8.103534764923781e-36,0.0054029617458581924
0.00921150203794241,0.0,-0.008520105853676796,0.009644696488976479,5.291029467830273e-37,0.005418510641902685
0.009067636914551258,0.0,-0.008539007045328617,0.009475991129875183,3.454663703573287e-38,0.005685688462108374
0.009052525274455547,0.0,-0.00933394767343998,0.009058310650289059,2.2556491185466932e-39,0.005241333972662687
0.009288306348025799,0.0,-0.008684015832841396,0.009483863599598408,1.472778698990026e-40,0.005356538575142622
0.00939160492271185,0.0,-0.008308709599077702,0.008834531530737877,9.615710062196895e-42,0.005360092036426067
0.009894325397908688,0.0,-0.009073080494999886,0.008719271048903465,6.2778171201751805e-43,0.00557452067732811
0.009577223099768162,0.0,-0.009016411378979683,0.008974451571702957,4.0637655465419695e-44,0.005556347779929638
0.009538980200886726,0.0,-0.008838987909257412,0.008656289428472519,2.802596928649634e-45,0.005546445958316326
0.009766980074346066,0.0,-0.009081024676561356,0.008627325296401978,0.0,0.005245504435151815
0.009750956669449806,0.0,-0.009296496398746967,0.00893182959407568,0.0,0.00503306882455945
0.00963392574340105,0.0,-0.009188619442284107,0.009368477389216423,0.0,0.0051289028488099575
0.009316904470324516,0.0,-0.009048433974385262,0.008726699277758598,0.0,0.0051523554138839245
0.00977066159248352,0.0,-0.00982392393052578,0.009128855541348457,0.0,0.004844787530601025
0.00974183902144432,0.0,-0.009189116768538952,0.009521792642772198,0.0,0.00486079603433609
0.009370257146656513,0.0,-0.008719237521290779,0.009457931853830814,0.0,0.004674356896430254
0.009604810737073421,0.0,-0.009258084930479527,0.009100480005145073,0.0,0.004880163352936506
0.009604810737073421,0.0,-0.009258084930479527,0.009100480005145073,0.0,0.004880163352936506
0.009414906613528728,0.0,-0.008863336406648159,0.008806150406599045,0.0,0.005487270653247833
0.009420099668204784,0.0,-0.010090474970638752,0.008767670020461082,0.0,0.005279116332530975
0.009337390772998333,0.0,-0.009194834157824516,0.009572756476700306,0.0,0.00481825228780508
0.00921416562050581,0.0,-0.009423251263797283,0.009662258438766003,0.0,0.004668987821787596
0.009900715202093124,0.0,-0.009842673316597939,0.009522407315671444,0.0,0.004724737256765366
0.00968361645936966,0.0,-0.009315297938883305,0.00984662864357233,0.0,0.004843341652303934
0.00934507790952921,0.0,-0.0088543351739645,0.009721694514155388,0.0,0.005166556686162949
0.009679311886429787,0.0,-0.009260956197977066,0.008870506659150124,0.0,0.005224349442869425
0.010866748169064522,0.0,-0.009502539411187172,0.009090241976082325,0.0,0.005145264323800802
0.009448390454053879,0.0,-0.009004645049571991,0.008920799009501934,0.0,0.0048629119992256165
0.009668598882853985,0.0,-0.00920448824763298,0.008786899037659168,0.0,0.004710458684712648
0.009757923893630505,0.0,-0.00927291251718998,0.009276947006583214,0.0,0.004616538528352976
0.009477333165705204,0.0,-0.00925200805068016,0.009999952279031277,0.0,0.0047336602583527565
0.009630260057747364,0.0,-0.009205417707562447,0.009271379560232162,0.0,0.00514930859208107
0.01008512917906046,0.0,-0.009742794558405876,0.00966146681457758,0.0,0.005070348735898733
0.009546034038066864,0.0,-0.00875026173889637,0.009700827300548553,0.0,0.0049485391937196255
0.00971498154103756,0.0,-0.008774779736995697,0.009184262715280056,0.0,0.004829185549169779
0.00940107274800539,0.0,-0.008924783207476139,0.009729154407978058,0.0,0.004687481094151735
0.00940107274800539,0.0,-0.008924783207476139,0.009729154407978058,0.0,0.004687481094151735
0.009607809595763683,0.0,-0.00887979008257389,0.009519650600850582,0.0,0.004967792890965939
0.010744170285761356,0.0,-0.009377993643283844,0.009509134106338024,0.0,0.0048381490632891655
0.009938497096300125,0.0,-0.009206150658428669,0.009563755244016647,0.0,0.004615576937794685
0.009797084145247936,0.0,-0.008579201065003872,0.009154658764600754,0.0,0.004236492328345776
0.009797084145247936,0.0,-0.008579201065003872,0.009154658764600754,0.0,0.004236492328345776
0.010382633656263351,0.0,-0.009007523767650127,0.008892484940588474,0.0,0.003965388052165508
0.009646056219935417,0.0,-0.008941186591982841,0.009195365943014622,0.0,0.004196543712168932
0.010708773508667946,0.0,-0.008543177507817745,0.008784589357674122,0.0,0.0050544170662760735
0.00955565832555294,0.0,-0.009081363677978516,0.00944867916405201,0.0,0.005010565742850304
0.0097495811060071,0.0,-0.00901127140969038,0.009409910067915916,0.0,0.004338674712926149
0.010470535606145859,0.0,-0.008705598302185535,0.00885565485805273,0.0,0.003910317085683346
0.00966815184801817,-8.28426254884107e-06,-0.009473897516727448,0.009319490753114223,0.0,0.0038321560714393854
0.009799628518521786,-1.111439615897325e-07,-0.008709748275578022,0.009637664072215557,0.0,0.0038741484750062227
0.010165960527956486,-1.4911381018833936e-09,-0.008656108751893044,0.009385277517139912,0.0,0.003958438988775015
0.009659809991717339,-2.0005519810184502e-11,-0.009391444735229015,0.00953048188239336,0.0,0.0043629189021885395
0.00971717108041048,-2.683995874944861e-13,-0.009568455629050732,0.009375760331749916,0.0,0.005010682623833418
0.010102037340402603,-3.600922982509953e-15,-0.008756098337471485,0.009021062403917313,0.0,0.005031658336520195
0.009636246599256992,-4.83109774416247e-17,-0.008564756251871586,0.009346993640065193,0.0,0.004781951196491718
0.011240874417126179,-6.481534472890813e-19,-0.00937228836119175,0.009515136480331421,0.0,0.004448121413588524
0.00967539194971323,-8.695805659710461e-21,-0.009212967939674854,0.00886026956140995,0.0,0.004095309879630804
0.009396784007549286,-1.1666533347073203e-22,-0.008565753698348999,0.008775685913860798,0.0,0.004045525100082159
0.010127757675945759,-1.5652144207897445e-24,-0.009339160285890102,0.009285475127398968,0.0,0.0044397711753845215
0.009896216914057732,-2.0999347874491071e-26,-0.009018764831125736,0.009236198849976063,0.0,0.0047510284930467606
0.009489369578659534,-2.8173304894835837e-28,-0.00844130851328373,0.00913451611995697,0.0,0.004500199109315872
0.010028812102973461,-3.779809043995622e-30,-0.009759118780493736,0.009288844652473927,0.0,0.004075247328728437
0.010048280470073223,-5.071096147632383e-32,-0.008828957565128803,0.009185334667563438,0.0,0.003968484699726105
0.010232498869299889,-6.803522530269389e-34,-0.008285037241876125,0.009329427033662796,0.0,0.003546207444742322
0.010081588290631771,-9.127793990194201e-36,-0.009242048487067223,0.009462336078286171,0.0,0.004022170789539814
0.009875473566353321,-1.2246099741007495e-37,-0.009207790717482567,0.009627047926187515,0.0,0.004134060814976692
0.010122730396687984,-1.642970601377668e-39,-0.00847891066223383,0.009051494300365448,0.0,0.004310309421271086
0.010122730396687984,-1.642970601377668e-39,-0.00847891066223383,0.009051494300365448,0.0,0.004310309421271086
0.00982096791267395,-4.203895392974451e-45,-0.00891936756670475,0.00942594837397337,0.0,0.003765793051570654
0.00982096791267395,-4.203895392974451e-45,-0.00891936756670475,0.00942594837397337,0.0,0.003765793051570654
0.010413761250674725,-0.0,-0.008667562156915665,0.009895574301481247,0.0,0.0037858521100133657
0.00990148913115263,0.0,-0.009168899618089199,0.009601172059774399,0.0,0.0037859471049159765
0.00964373629540205,0.0,-0.008930758573114872,0.008969788439571857,0.0,0.003877227194607258
0.010018030181527138,0.0,-0.008994008414447308,0.009411224164068699,0.0,0.003886010032147169
0.0103085245937109,0.0,-0.009089145809412003,0.009511389769613743,0.0,0.0038973111659288406
0.009542707353830338,0.0,-0.009444763883948326,0.008937490172684193,0.0,0.004239946138113737
0.009872687980532646,0.0,-0.008993059396743774,0.008948753587901592,0.0,0.00412022927775979
0.010111059062182903,0.0,-0.009619135409593582,0.009166511707007885,0.0,0.0035708853974938393
0.009560272097587585,0.0,-0.010562813840806484,0.00892049353569746,0.0,0.0033074587117880583
0.009818915277719498,0.0,-0.009105567820370197,0.008757896721363068,0.0,0.0032611838541924953
0.009964832104742527,0.0,-0.00992812030017376,0.009469717741012573,0.0,0.0035708285868167877
0.009595596231520176,0.0,-0.0093468576669693,0.00917284470051527,0.0,0.0038242917507886887
0.009891072288155556,0.0,-0.009486012160778046,0.008852723985910416,0.0,0.0040504527278244495
0.009822401218116283,0.0,-0.009481114335358143,0.009160091169178486,0.0,0.003708933014422655
0.00930254440754652,0.0,-0.008673716336488724,0.009693637490272522,0.0,0.0034790809731930494
0.009981933981180191,0.0,-0.008969563990831375,0.008812683634459972,0.0,0.003277406794950366
0.009959211573004723,0.0,-0.009766039438545704,0.009175482206046581,0.0,0.0034205825068056583
0.010083516128361225,0.0,-0.009845100343227386,0.009498167783021927,0.0,0.003594884416088462
0.009447409771382809,0.0,-0.009253643453121185,0.009453684091567993,0.0,0.003660213202238083
0.009883448481559753,0.0,-0.009072810411453247,0.009391090832650661,0.0,0.0033431006595492363
0.010304220020771027,9.619384945835918e-05,-0.009524403139948845,0.00973549485206604,0.0,0.003402786096557975
0.010004459880292416,0.0001045993558363989,-0.009336709976196289,0.009270765818655491,0.0,0.0031613761093467474
0.00982587318867445,0.00010236290108878165,-0.009787475690245628,0.009676038287580013,0.0,0.003099193098023534
0.010599133558571339,9.79104806901887e-05,-0.00936806108802557,0.00948370061814785,0.0,0.0032033040188252926
0.010599133558571339,9.79104806901887e-05,-0.00936806108802557,0.00948370061814785,0.0,0.0032033040188252926
0.009912773966789246,9.58255332079716e-05,-0.009029649198055267,0.009985464625060558,0.0,0.003122930880635977
0.009716439060866833,9.382772259414196e-05,-0.010019797831773758,0.010355251841247082,0.0,0.0029643147718161345
0.010021266527473927,9.191112621920183e-05,-0.009556914679706097,0.009829724207520485,0.0,0.002957053715363145
0.010632438585162163,0.00010736487456597388,-0.00917794555425644,0.010520693846046925,0.0,0.00287885800935328
0.010082255117595196,0.00010595520143397152,-0.009582370519638062,0.010199585929512978,0.0,0.002890130039304495
0.009944023564457893,0.00010392547119408846,-0.00991864688694477,0.009955307468771935,0.0,0.0028922436758875847
0.009751226752996445,0.00010196334187639877,-0.009130441583693027,0.010462461039423943,0.0,0.003027156461030245
0.010024269111454487,0.00011652470857370645,-0.009796373546123505,0.010066772811114788,0.0,0.0028285556472837925
0.010218015871942043,0.00011462534166639671,-0.009224549867212772,0.009686777368187904,0.0,0.0027335244230926037
0.009601361118257046,0.00011258011363679543,-0.00942158978432417,0.010422054678201675,0.0,0.0026338258758187294
0.010520011186599731,0.00011060408724006265,-0.010303439572453499,0.01001298800110817,0.0,0.0028485439252108335
0.010389774106442928,0.0001224091392941773,-0.009431562386453152,0.009939859621226788,0.0,0.0030792474281042814
0.010155854746699333,0.00012209212582092732,-0.009226814843714237,0.009829163551330566,0.0,0.0032826231326907873
0.010223239660263062,0.0001200796032208018,-0.010172584094107151,0.009572997689247131,0.0,0.0028563642408698797
0.010218081995844841,0.00011811012518592179,-0.010338332504034042,0.010106677189469337,0.0,0.0025231586769223213
0.010384085588157177,0.00011625950719462708,-0.009078435599803925,0.01000132504850626,0.0,0.0021339883096516132
0.010267532430589199,0.0002080085250781849,-0.0096189696341753,0.009261407889425755,0.0,0.002137544099241495
0.010616580955684185,0.00020005408441647887,-0.009845979511737823,0.009286673739552498,0.0,0.002214684383943677
0.01004713959991932,0.00019156567577738315,-0.00951909925788641,0.010068659670650959,0.0,0.002258740831166506
0.010411153547465801,0.0001837335294112563,-0.009892566129565239,0.009909741580486298,0.0,0.002696027746424079
0.010159237310290337,0.00017653497343417257,-0.009658538736402988,0.009197858162224293,0.0,0.0027724781539291143
0.010159237310290337,0.00017653497343417257,-0.009658538736402988,0.009197858162224293,0.0,0.0027724781539291143
0.011811365373432636,0.0001964233088074252,-0.009911241941154003,0.00965595431625843,0.0,0.002631498733535409
0.011332616209983826,0.0001895350287668407,-0.010735045187175274,0.009464289993047714,0.0,0.0025488119572401047
0.011844070628285408,0.00020647938072215766,-0.010029608383774757,0.00953193474560976,0.0,0.00229852506890893
0.011578519828617573,0.00020005636906716973,-0.009900218807160854,0.008921407163143158,0.0,0.002334938384592533
0.011976479552686214,0.0001939004723681137,-0.009811780415475368,0.009645386599004269,0.0,0.0023109663743525743
0.011976479552686214,0.0001939004723681137,-0.009811780415475368,0.009645386599004269,0.0,0.0023109663743525743
0.01194275263696909,0.0002087085449602455,-0.009889466688036919,0.00900687649846077,0.0,0.002558482112362981
0.01194275263696909,0.0002087085449602455,-0.009889466688036919,0.00900687649846077,0.0,0.002558482112362981
0.01170029491186142,0.00020286849758122116,-0.009852427989244461,0.009846549481153488,0.0,0.002488169353455305
0.011826494708657265,0.00027223851066082716,-0.010966140776872635,0.009842741303145885,0.0,0.0022742017172276974
0.011913804337382317,0.0003007829946000129,-0.010168138891458511,0.00949449185281992,0.0,0.0021393171045929193
0.012325926683843136,0.00030123748001642525,-0.010430507361888885,0.010126727633178234,0.0,0.0019396106945350766
0.011994303204119205,0.0002855387865565717,-0.010880866087973118,0.009913023561239243,0.0,0.0018189914990216494
0.011955801397562027,0.00031575921457260847,-0.010198134928941727,0.009665921330451965,0.0,0.0018069475190714002
0.011835596524178982,0.00030125994817353785,-0.01059890165925026,0.01047369185835123,0.0,0.0018211845308542252
0.01210921909660101,0.0002875185455195606,-0.010235432535409927,0.010254554450511932,0.0,0.002047912450507283
0.011635608971118927,0.0002749689156189561,-0.010347636416554451,0.010505796410143375,0.0,0.0020284533966332674
0.011923196725547314,0.0002995747490786016,-0.011197283864021301,0.01036668661981821,0.0,0.002238102722913027
0.012130340561270714,0.00028899923199787736,-0.010194037109613419,0.010362611152231693,0.0,0.0021623321808874607
0.012075264006853104,0.00027872819919139147,-0.010063295252621174,0.010326641611754894,0.0,0.0020676644053310156
0.012112502008676529,0.0003886015620082617,-0.01055662427097559,0.010396133176982403,0.0,0.0018858237890526652
0.011625893414020538,0.00042257129098288715,-0.010362738743424416,0.009984113276004791,0.0,0.0018805789295583963
0.012496528215706348,0.00039925132296048105,-0.010471785441040993,0.010084147565066814,1.3160796470401692e-06,0.0017280122265219688
0.012518475763499737,0.0004263963201083243,-0.010787537321448326,0.01054100040346384,8.593058709038814e-08,0.001789040514267981
0.012267612852156162,0.0004057813494000584,-0.010127597488462925,0.010113324038684368,5.610653719401171e-09,0.0018064467003569007
0.012379491701722145,0.00041695128311403096,-0.011109767481684685,0.010502390563488007,3.6633560074328386e-10,0.0017396786715835333
0.012633610516786575,0.00041065888945013285,-0.010639738291501999,0.009975983761250973,2.3919097605351602e-11,0.0016198246739804745
0.012667863629758358,0.0005405170377343893,-0.010492222383618355,0.009637310169637203,1.5617461750910833e-12,0.0014982637949287891
0.0128871388733387,0.0005368595593608916,-0.01034628041088581,0.009878062643110752,6.657969497719709e-15,0.0012950297677889466
0.012905793264508247,0.0004914200981147587,-0.010155493393540382,0.009270587004721165,4.3471787554965745e-16,0.0012286907294765115
0.012488012202084064,0.0005244355415925384,-0.01072926539927721,0.009921379387378693,2.838397149209565e-17,0.0011885473504662514
0.012378844432532787,0.0005459912354126573,-0.010482857003808022,0.010075671598315239,1.853270451874538e-18,0.0012967698276042938
0.012378844432532787,0.0005459912354126573,-0.010482857003808022,0.010075671598315239,1.853270451874538e-18,0.0012967698276042938
0.0131230428814888,0.0005913351196795702,-0.011090835556387901,0.010141552425920963,7.900782501263999e-21,0.0015492566162720323
0.0131230428814888,0.0005913351196795702,-0.011090835556387901,0.010141552425920963,7.900782501263999e-21,0.0015492566162720323
0.0125746363773942,0.0006275953492149711,-0.01051714550703764,0.01012192852795124,5.158646458908034e-22,0.0014508868334814906
0.013053160160779953,0.0006533971754834056,-0.010789691470563412,0.009844215586781502,3.36822749047038e-23,0.0013484987430274487
0.012388904578983784,0.0006699278601445258,-0.010849830694496632,0.010840172879397869,2.1992120695545564e-24,0.0011602304875850677
0.01311357319355011,0.0006235725595615804,-0.010318380780518055,0.010430924594402313,1.4359283768116222e-25,0.0010253352811560035
0.01275841798633337,0.0007490835851058364,-0.010237502865493298,0.009638112038373947,9.37558643627646e-27,0.0009982857154682279
0.013632276095449924,0.0007680390262976289,-0.010423495434224606,0.010120520368218422,6.121587587534273e-28,0.0010165214771404862
0.012450691312551498,0.0006766481674276292,-0.010065751150250435,0.01054030004888773,3.9969585480049446e-29,0.0012362056877464056
0.012800036929547787,0.0007000162731856108,-0.010721967555582523,0.009294743649661541,2.609728361876386e-30,0.001273228437639773
0.013564499095082283,0.0007175141363404691,-0.011065894737839699,0.009716981090605259,1.7039661656483017e-31,0.0012369126779958606
0.01311715878546238,0.0007436363957822323,-0.010070313699543476,0.010377083905041218,1.1125680811076565e-32,0.0013644060818478465
0.013444303534924984,0.0007739868015050888,-0.01095894817262888,0.009938026778399944,7.264274989818455e-34,0.0012768424348905683
0.01311254221946001,0.0007899736519902945,-0.01025912631303072,0.010617213323712349,4.74305283784729e-35,0.001132877659983933
0.01327758003026247,0.000794255523942411,-0.010262156836688519,0.009993311017751694,3.0968744490453384e-36,0.00109172856900841
0.013038046658039093,0.0009035900584422052,-0.010634789243340492,0.00992428045719862,2.0220378107800243e-37,0.0009661411168053746
0.013734105043113232,0.0009699707152321935,-0.010328952223062515,0.010144387371838093,-0.00014374729653354734,0.0007749886135570705
0.012963936664164066,0.0009713940089568496,-0.010816198773682117,0.010529079474508762,-0.0001569307642057538,0.0007548069697804749
0.013132558204233646,0.0009619246702641249,-0.009584715589880943,0.010117415338754654,-0.0001754180557327345,0.0007422238704748452
0.013163106516003609,0.0010247098980471492,-0.009913981892168522,0.010100046172738075,-0.00017689980450086296,0.000709247775375843
0.013438845984637737,0.0010053456062451005,-0.01100584864616394,0.010540285147726536,-0.00017174542881548405,0.0007252582581713796
0.013580056838691235,0.000988596468232572,-0.010528148151934147,0.01026731077581644,-0.00016648112796247005,0.0007421388872899115
0.01340778823941946,0.0009481057059019804,-0.009717456996440887,0.010039079003036022,-0.0001814378920244053,0.0008328099502250552
0.013497369363904,0.0008784361416473985,-0.010667880065739155,0.01044165063649416,-0.0001824926439439878,0.000845937174744904
0.013387919403612614,0.0009768819436430931,-0.010315691120922565,0.010212716646492481,-0.00017290374671574682,0.0009488181676715612
0.013248692266643047,0.000982657540589571,-0.01066729798913002,0.009948515333235264,-0.00016828665684442967,0.0008004156406968832
0.013985423371195793,0.0013261192943900824,-0.010031200014054775,0.010806631296873093,-0.00018575394642539322,0.0006802931893616915
0.013985423371195793,0.0013261192943900824,-0.010031200014054775,0.010806631296873093,-0.00018575394642539322,0.0006802931893616915
0.013512487523257732,0.001245366409420967,-0.010689078830182552,0.010714040137827396,-0.00018247087427880615,0.0006471547530964017
0.013770691119134426,0.001152951386757195,-0.011694741435348988,0.01001310907304287,-0.00017805139941629022,0.0006224847747944295
0.013398496434092522,0.0010439876932650805,-0.01120763923972845,0.010246125981211662,-0.00017376011237502098,0.0005609964719042182
0.013901342637836933,0.0010554660111665726,-0.010649127885699272,0.009919840842485428,-0.0001696658437140286,0.0005812706658616662
0.013695583678781986,0.0011389673454687,-0.010581210255622864,0.009695612825453281,-0.00016575939662288874,0.0005412154132500291
0.01389998011291027,0.001321979216299951,-0.01010914333164692,0.010781185701489449,-0.0001620898547116667,0.0004989769659005105
0.013452771119773388,0.0015489585930481553,-0.010810425505042076,0.010781137272715569,-0.00023550465994048864,0.000462373805930838
0.013731859624385834,0.0014650907833129168,-0.010829070582985878,0.010563553310930729,-0.00022887899831403047,0.00043072854168713093
0.013653965666890144,0.0015804247232154012,-0.010888222604990005,0.01043463684618473,-0.00021813162311445922,0.00040315923979505897
0.014124210923910141,0.001444340916350484,-0.01155675295740366,0.010217718780040741,-0.00020806712564080954,0.0004257032705936581
0.01391034759581089,0.001342168659903109,-0.010854728519916534,0.010407192632555962,-0.00019887030066456646,0.00040797283872962
0.014024311676621437,0.0012733819894492626,-0.011062441393733025,0.01047884114086628,-0.00019045216322410852,0.00038648617919534445
0.014099469408392906,0.001241661375388503,-0.0118299825116992,0.010548132471740246,-0.00020059777307324111,0.00036681510391645133
0.014125427231192589,0.0014557505492120981,-0.010540882125496864,0.011126711964607239,-0.00020948550081811845,0.00034903144114650786
0.014153230004012585,0.0016383344773203135,-0.011859165504574776,0.010513074696063995,-0.0002027097943937406,0.00033288891427218914
0.014144549146294594,0.0017816232284530997,-0.010632675141096115,0.009788763709366322,-0.00021140070748515427,0.0003181753563694656
0.014045397751033306,0.0018853010842576623,-0.010622270405292511,0.010760748758912086,-0.0002189717342844233,0.0003047060454264283
0.01448567770421505,0.001676704385317862,-0.011127499863505363,0.010350371710956097,-0.00021255886531434953,0.00029233231907710433
0.014357320964336395,0.0015575139550492167,-0.010717942379415035,0.010286811739206314,-0.00023117491218727082,0.0002809247234836221
0.014473216608166695,0.0016085889656096697,-0.011209761723876,0.010442832484841347,-0.0002273831923957914,0.0002703733625821769
0.014301475137472153,0.0017963034333661199,-0.011001157574355602,0.010571165941655636,-0.00022064396762289107,0.00026058696676045656
0.01396079920232296,0.0018240896752104163,-0.010504644364118576,0.010315541177988052,-0.0002750118146650493,0.00025148328859359026
0.014318347908556461,0.0020116085652261972,-0.011399141512811184,0.010901767760515213,-0.00026765730581246316,0.00024299525830429047
0.014401815831661224,0.0017125308513641357,-0.01042097620666027,0.010557598434388638,-0.000284366135019809,0.0002276285522384569
0.01408725418150425,0.0017554482910782099,-0.01138524804264307,0.010874411091208458,-0.0002729058323893696,0.0002206526551162824
0.01458431500941515,0.0018154465360566974,-0.010976209305226803,0.01035922858864069,-0.00025995439500547945,0.00021409025066532195
0.01458431500941515,0.0018154465360566974,-0.010976209305226803,0.01035922858864069,-0.00025995439500547945,0.00021409025066532195
0.014628048054873943,0.00206671841442585,-0.011345655657351017,0.010852796956896782,-0.000278549239737913,0.00020790808775927871
0.01406101230531931,0.0022371672093868256,-0.010941505432128906,0.010506353341042995,-0.00027594593120738864,0.00020207231864333153
0.014304439537227154,0.002213052473962307,-0.010496677830815315,0.010609917342662811,-0.00026496598729863763,0.00019655562937259674
0.014803140424191952,0.0023688478395342827,-0.01159934513270855,0.011011334136128426,-0.0002811643062159419,0.0001913322339532897
0.014919070526957512,0.002248548436909914,-0.011131704784929752,0.010805760510265827,-0.0002787447301670909,0.00018637944594956934
0.015317246317863464,0.0023736865259706974,-0.011828205548226833,0.010959445498883724,-0.0002688873209990561,0.00018167599046137184
0.015045837499201298,0.002411732915788889,-0.011210878379642963,0.010545702651143074,-0.00025924041983671486,0.00017720455070957541
0.01474011316895485,0.0025646716821938753,-0.010862739756703377,0.01049715094268322,-0.00025053307763300836,0.0001729477517073974
0.014849277213215828,0.0026482590474188328,-0.011417500674724579,0.010736517608165741,-0.00030194668215699494,0.00016889060498215258
0.014791028574109077,0.002446570200845599,-0.011170770041644573,0.010584944859147072,-0.00028714354266412556,0.00016501981008332223
0.014678671956062317,0.0022485782392323017,-0.01114287506788969,0.010231162421405315,-0.00027018634136766195,0.00016132197924889624
0.014672713354229927,0.0022054314613342285,-0.011523716151714325,0.010512860491871834,-0.00025489553809165955,0.00015778688248246908
0.015176544897258282,0.002019918290898204,-0.011197770945727825,0.010828754864633083,-0.00028614304028451443,0.00015440289280377328
0.0149680832400918,0.0024109650403261185,-0.011599987745285034,0.010701236315071583,-0.0002745218516793102,0.00015116124995984137
0.015233454294502735,0.002537946915253997,-0.011742185801267624,0.011042403988540173,-0.0002614198892842978,0.00014805291721131653
0.014929993078112602,0.0024429871700704098,-0.011411154642701149,0.0106002576649189,-0.0002853557525668293,0.00012814431102015078
0.015017090365290642,0.002452676184475422,-0.011574211530387402,0.010630409233272076,-0.0002777108456939459,0.00012450784561224282
0.014626669697463512,0.0024311814922839403,-0.01119918655604124,0.010961383581161499,-0.00026629268541000783,0.00012202424113638699
0.01542926300317049,0.0022624318953603506,-0.01175528671592474,0.010733547620475292,-0.0002871503820642829,0.00011970091873081401
0.015060068108141422,0.0024775848723948,-0.011726239696145058,0.011040081270039082,-0.00028031342662870884,0.00011746870586648583
0.015281337313354015,0.0027684394735842943,-0.010949233546853065,0.010563470423221588,-0.0003084232739638537,0.00011548960901563987
0.01505276095122099,0.0026618356350809336,-0.011845801956951618,0.01054945308715105,-0.00032314620329998434,3.997227395302616e-05
0.015593666583299637,0.0027218512259423733,-0.011674956418573856,0.011000985279679298,-0.0003037417773157358,3.442821980570443e-05
0.015633858740329742,0.0023231960367411375,-0.01218713540583849,0.010916193015873432,-0.00026773923309519887,1.6977606719592586e-05
0.015539242886006832,0.0021705401595681906,-0.0116269551217556,0.010716673918068409,-0.00025269793695770204,1.616354529687669e-05
0.015677670016884804,0.0022072431165724993,-0.011732763610780239,0.010382598266005516,-0.00026259224978275597,1.0553640095167793e-06
0.015951184555888176,0.0027207834646105766,-0.01189544890075922,0.010673015378415585,-0.0002710088447201997,6.890773107670611e-08
0.015951184555888176,0.0027207834646105766,-0.01189544890075922,0.010673015378415585,-0.0002710088447201997,6.890773107670611e-08
0.015873968601226807,0.00287745613604784,-0.012524292804300785,0.010401900857686996,-0.0002594001416582614,4.499182360007126e-09
0.01627257838845253,0.0025347864720970392,-0.012025061063468456,0.010386799462139606,-0.00024759559892117977,2.937644572043041e-10
0.015683606266975403,0.0016845647478476167,-0.012545416131615639,0.010182393714785576,-0.00023674441035836935,1.9180717777955714e-11
0.016124550253152847,0.0012243976816534996,-0.012277699075639248,0.010681324638426304,-0.0002452874614391476,1.2523638810019166e-12
0.01580161787569523,0.0009617290343157947,-0.011679202318191528,0.01046009548008442,-0.00025267081218771636,-0.0009670150466263294
0.01615913398563862,0.0009303364204242826,-0.012350541539490223,0.010896165855228901,-0.0002440089883748442,-0.0011063360143452883
0.01577550545334816,0.000925561529584229,-0.011823490262031555,0.010698174126446247,-0.0002640887105371803,-0.0009637729963287711
0.015884941443800926,0.0009372818749397993,-0.011804495938122272,0.01054203137755394,-0.00025860537425614893,-0.0008204566547647119
0.016180727630853653,0.0007337118731811643,-0.012189842760562897,0.010684694163501263,-0.0002508090401533991,-0.0007687706965953112
0.015792416408658028,0.0008588283671997488,-0.011676899157464504,0.01015915721654892,-0.00026084837736561894,-0.0007297819829545915
0.016276855021715164,0.0017572910292074084,-0.012206599116325378,0.010546998120844364,-0.00024807368754409254,-0.0007446546223945916
0.015837814658880234,0.00159898167476058,-0.011937623843550682,0.011141751892864704,-0.0002790091675706208,-0.0007109336438588798
0.016495414078235626,0.0014572390355169773,-0.012763181701302528,0.010546757839620113,-0.00026802116190083325,-0.0007964689866639674
0.016175542026758194,0.0012136626755818725,-0.011896689422428608,0.010979602113366127,-0.00025552272563800216,-0.0011407461715862155
0.016270538792014122,0.0010384166380390525,-0.013366230763494968,0.011642366647720337,-0.000279213854810223,-0.0015670813154429197
0.01631908491253853,0.0008275691652670503,-0.012246214784681797,0.010715221054852009,-0.000271989410975948,-0.0014848234131932259
0.0166038665920496,0.0007534336764365435,-0.011687888763844967,0.010903503745794296,-0.0002933548530563712,-0.0013390800449997187
0.016511229798197746,0.0006960537284612656,-0.0125819006934762,0.010587623342871666,-0.0002861513348761946,-0.0012471486115828156
0.015888869762420654,0.0007182795088738203,-0.01229098904877901,0.010061868466436863,-0.00035845270031131804,-0.0012738562654703856
0.016385158523917198,0.0007343063480220735,-0.012982982210814953,0.010294340550899506,-0.0004048903938382864,-0.0013623323757201433
0.016361474990844727,0.0007821619510650635,-0.012637912295758724,0.010209111496806145,-0.0004314177203923464,-0.001474838936701417
0.016545161604881287,0.0007155860657803714,-0.011728154495358467,0.010830646380782127,-0.0004156431823503226,-0.0018919893773272634
0.016552824527025223,0.000739665178116411,-0.012450365349650383,0.011360798962414265,-0.00044268398778513074,-0.0020443934481590986
0.01658664271235466,0.0007559024379588664,-0.012677449733018875,0.011266222223639488,-0.0004650553164537996,-0.002273659221827984
0.01654200069606304,0.0007056439062580466,-0.01221373025327921,0.010697364807128906,-0.0005789916031062603,-0.002225554548203945
0.01676863245666027,0.0008186681661754847,-0.01247811783105135,0.010847899131476879,-0.000558779458515346,-0.002102574799209833
0.01676863245666027,0.0008186681661754847,-0.01247811783105135,0.010847899131476879,-0.000558779458515346,-0.002102574799209833
0.016754647716879845,0.000876759469974786,-0.012603681534528732,0.011507375165820122,-0.0006054909317754209,-0.0021151204127818346
0.016754647716879845,0.000876759469974786,-0.012603681534528732,0.011507375165820122,-0.0006054909317754209,-0.0021151204127818346
0.016725383698940277,0.0013150738086551428,-0.012329252436757088,0.011668632738292217,-0.0006107121589593589,-0.002082906663417816
0.01667892001569271,0.0012528685620054603,-0.012163256295025349,0.011951818130910397,-0.0005994117236696184,-0.0021764514967799187
0.017005538567900658,0.0011941050179302692,-0.011951053515076637,0.012130345217883587,-0.0006852356600575149,-0.002206097124144435
0.017132429406046867,0.0011303514475002885,-0.011655587702989578,0.01255441177636385,-0.000716713082510978,-0.002616597805172205
0.017633864656090736,0.0010933411540463567,-0.012220022268593311,0.011830814182758331,-0.0006397680845111609,-0.002596783684566617
0.017481539398431778,0.0011632490204647183,-0.012348989024758339,0.011811072006821632,-0.0006607947871088982,-0.002535855397582054
0.01700510084629059,0.0012744003906846046,-0.012231633067131042,0.010592092759907246,-0.0006032592500559986,-0.00273096258752048
0.01722298562526703,0.001400531968101859,-0.012453665025532246,0.010187807492911816,-0.0005888507585041225,-0.002816791646182537
0.016626140102744102,0.0013244134606793523,-0.011621556244790554,0.0107768215239048,-0.0005762280197814107,-0.0027707344852387905
0.01769889146089554,0.0014905431307852268,-0.01250173058360815,0.011226670816540718,-0.0005603759200312197,-0.0025996509939432144
0.017385229468345642,0.0014316033339127898,-0.012175144627690315,0.0111929876729846,-0.0005090910126455128,-0.00266342144459486
0.017178021371364594,0.0013695111265406013,-0.012074077501893044,0.011399481445550919,-0.0005429469747468829,-0.002797273453325033
0.01718749664723873,0.0014327827375382185,-0.01215321570634842,0.011005538515746593,-0.0004983888939023018,-0.002764746779575944
0.016830941662192345,0.0014935662038624287,-0.012479487806558609,0.011592975817620754,-0.000522174290381372,-0.0028402472380548716
0.017860321328043938,0.0016208583256229758,-0.012209522537887096,0.011420822702348232,-0.0005419455701485276,-0.003030346240848303
0.017624283209443092,0.0015245997346937656,-0.011909629218280315,0.010941416025161743,-0.0005230031092651188,-0.003082280745729804
0.017781062051653862,0.0014626506017521024,-0.012364178895950317,0.011338789016008377,-0.000609554466791451,-0.0030549499206244946
0.01795300282537937,0.0015122690238058567,-0.012031066231429577,0.010578600689768791,-0.0006471285014413297,-0.0028525516390800476
0.018745696172118187,0.0013951152795925736,-0.01165328174829483,0.011415229178965092,-0.0006311335018835962,-0.002861099084839225
0.017430316656827927,0.0013172401813790202,-0.01227626670151949,0.011902129277586937,-0.0006122490158304572,-0.002962208818644285
0.01722261682152748,0.00129317760001868,-0.011681447736918926,0.011870070360600948,-0.0005605152109637856,-0.0034169727005064487
0.01770821399986744,0.0013909739209339023,-0.01253555528819561,0.011845685541629791,-0.0005688010132871568,-0.0037635464686900377
0.018212635070085526,0.001745993155054748,-0.011951487511396408,0.011608618311583996,-0.000532172794919461,-0.003505707485601306
0.018212635070085526,0.001745993155054748,-0.011951487511396408,0.011608618311583996,-0.000532172794919461,-0.003505707485601306
0.0185543242841959,0.0020301900804042816,-0.012320023961365223,0.011522314511239529,-0.0005017932271584868,-0.003199205035343766
0.01855025626718998,0.0019802215974777937,-0.011695587076246738,0.01046790461987257,-0.0005193609395064414,-0.003078288631513715
0.017841683700680733,0.002004982903599739,-0.012287726625800133,0.011115418747067451,-0.0004924751701764762,-0.003265193896368146
0.018362732604146004,0.0019552004523575306,-0.011803499422967434,0.011337646283209324,-0.0005078229587525129,-0.0037719819229096174
0.018449710682034492,0.0019005946815013885,-0.01251301635056734,0.011228090152144432,-0.00048586135380901396,-0.004077858757227659
0.018144838511943817,0.0018965337658300996,-0.011728591285645962,0.011667393147945404,-0.000512155587784946,-0.004441973753273487
0.01878984458744526,0.0022135726176202297,-0.011820422485470772,0.011157524771988392,-0.0005913606728427112,-0.004530150908976793
0.01808139868080616,0.0025402491446584463,-0.012300125323235989,0.011657382361590862,-0.0005563093582168221,-0.004082701168954372
0.017960483208298683,0.0024637284222990274,-0.01186738908290863,0.01199466921389103,-0.0005827227723784745,-0.0038444821257144213
0.018747856840491295,0.00255312817171216,-0.012772507034242153,0.011876141652464867,-0.0005796336336061358,-0.004404602572321892
0.01862492598593235,0.002203781856223941,-0.012005924247205257,0.011937747709453106,-0.0005670884856954217,-0.0045192972756922245
0.018771357834339142,0.0020982061978429556,-0.012439614161849022,0.011423181742429733,-0.0005226094508543611,-0.0044003133662045
0.018646975979208946,0.002238301560282707,-0.012523431330919266,0.011703712865710258,-0.00048270297702401876,-0.0041041066870093346
0.01842108555138111,0.002239017514511943,-0.01231080200523138,0.011648057959973812,-0.0004483385419007391,-0.00404793955385685
0.01865513250231743,0.002591395052149892,-0.012711914256215096,0.01133984886109829,-0.0004185345896985382,-0.004037738312035799
0.018934227526187897,0.002750760642811656,-0.011699176393449306,0.011688479222357273,-0.0004337323480285704,-0.0038899064529687166
0.018850810825824738,0.0025287498719990253,-0.012572001665830612,0.011273830197751522,-0.000421234144596383,-0.003849525935947895
0.019016385078430176,0.002204312477260828,-0.012688896618783474,0.012010137550532818,-0.00039873976493254304,-0.003884231671690941
0.01893092691898346,0.002087007276713848,-0.01283580344170332,0.01170293614268303,-0.00037789109046570957,-0.0038570065516978502
0.018717801198363304,0.002235056133940816,-0.012892966158688068,0.011524257250130177,-0.00035945556010119617,-0.00420043570920825
0.019102908670902252,0.002714236732572317,-0.012670546770095825,0.011671244166791439,-0.0003131366102024913,-0.004596782382577658
0.01905839703977108,0.0026678259018808603,-0.012474487535655499,0.011605692096054554,-0.0002914166543632746,-0.004660957492887974
0.018704157322645187,0.0028468300588428974,-0.012279807589948177,0.011883523315191269,-0.0003138933388981968,-0.004386468790471554
0.01911351829767227,0.002573847770690918,-0.013048665598034859,0.011491415090858936,-0.0003085411444772035,-0.0048548756167292595
0.019147496670484543,0.0023473165929317474,-0.013796008192002773,0.01138801034539938,-0.00032351285335607827,-0.004923626314848661
0.019201403483748436,0.0025662805419415236,-0.013159140944480896,0.0107888700440526,-0.00034903656342066824,-0.0048305257223546505
0.01917450875043869,0.002515798667445779,-0.013092093169689178,0.011637764051556587,-0.0005086386809125543,-0.0048738704062998295
0.01917918398976326,0.0029236534610390663,-0.012891323305666447,0.011247887276113033,-0.0005572990048676729,-0.0048730806447565556
0.01917918398976326,0.0029236534610390663,-0.012891323305666447,0.011247887276113033,-0.0005572990048676729,-0.0048730806447565556
0.01935427263379097,0.0026955651119351387,-0.013624920509755611,0.010868567042052746,-0.0005484195426106453,-0.004612376913428307
0.019320078194141388,0.002551507903262973,-0.013588829897344112,0.01112664770334959,-0.0005724741495214403,-0.0049512810073792934
0.019214937463402748,0.0026377011090517044,-0.012712094932794571,0.010857376269996166,-0.0005338866030797362,-0.004933432210236788
0.019649358466267586,0.002941741840913892,-0.012980903498828411,0.011808871291577816,-0.0006745941354893148,-0.004994697868824005
0.019649358466267586,0.002941741840913892,-0.012980903498828411,0.011808871291577816,-0.0006745941354893148,-0.004994697868824005
0.019979868084192276,0.0027565581258386374,-0.013469060882925987,0.011016884818673134,-0.0007132313912734389,-0.00530083104968071
0.01986822299659252,0.002935628406703472,-0.013119887560606003,0.011760534718632698,-0.0007361065945588052,-0.005355100613087416
0.019788658246397972,0.002707758219912648,-0.012268749065697193,0.011731784790754318,-0.0007412126869894564,-0.005247193854302168
0.019266512244939804,0.0025610546581447124,-0.013537758961319923,0.01147107221186161,-0.0008236843277700245,-0.004992090631276369
0.019046418368816376,0.002665954641997814,-0.014199313707649708,0.011835773475468159,-0.0008056091610342264,-0.005316540133208036
0.01980763114988804,0.00284439860843122,-0.013013795018196106,0.0114879310131073,-0.0008080938132479787,-0.005492825526744127
0.01969940774142742,0.002830312354490161,-0.013509592041373253,0.012042459100484848,-0.0007170855533331633,-0.005161532200872898
0.01979248784482479,0.0026645774487406015,-0.013210407458245754,0.011576766148209572,-0.0006338528473861516,-0.005280801095068455
0.019588656723499298,0.002934940392151475,-0.01360994391143322,0.011934923939406872,-0.0006548290839418769,-0.005476777907460928
0.019276456907391548,0.0029620304703712463,-0.01317635178565979,0.011872940696775913,-0.0005983199225738645,-0.005444915033876896
0.019790496677160263,0.00291528832167387,-0.013011339120566845,0.011733460240066051,-0.0005466954316943884,-0.005177815444767475
0.020554060116410255,0.002702356781810522,-0.013150524348020554,0.011670627631247044,-0.0005697859451174736,-0.0051402198150753975
0.0197223462164402,0.002853951184079051,-0.012841516174376011,0.011278977617621422,-0.0005135888932272792,-0.005280591547489166
0.019408326596021652,0.002669571666046977,-0.013485834002494812,0.011687703430652618,-0.0004479156341403723,-0.005774764809757471
0.02018686756491661,0.002514774212613702,-0.012789249420166016,0.01195257157087326,-0.000476457760669291,-0.0059077744372189045
0.019477616995573044,0.0026543147396296263,-0.013415098190307617,0.011675666086375713,-0.0005010889726690948,-0.005935055203735828
0.019311267882585526,0.0024515327531844378,-0.013126544654369354,0.0122531708329916,-0.0004804664058610797,-0.0054702297784388065
0.020475756376981735,0.0027566123753786087,-0.013285769149661064,0.012021534144878387,-0.00047697112313471735,-0.006099308840930462
0.020280344411730766,0.002986571518704295,-0.013941873796284199,0.012369325384497643,-0.0005314545705914497,-0.00654858723282814
0.020820671692490578,0.0024889821652323008,-0.013507173396646976,0.012252843007445335,-0.0005995575920678675,-0.006693369243294001
0.020635448396205902,0.0022456583101302385,-0.01379187311977148,0.012342134490609169,-0.0005867542931810021,-0.006352993659675121
0.020531030371785164,0.0019122681114822626,-0.013874412514269352,0.012114351615309715,-0.000608697475399822,-0.005926291458308697
0.02023688331246376,0.0020207311026751995,-0.014114770106971264,0.012407450005412102,-0.0006342789274640381,-0.006269773468375206
0.02071685530245304,0.002529972465708852,-0.013790366239845753,0.012051388621330261,-0.000718131079338491,-0.006545199081301689
0.02071685530245304,0.002529972465708852,-0.013790366239845753,0.012051388621330261,-0.000718131079338491,-0.006545199081301689
0.020927196368575096,0.0029178017284721136,-0.013636147603392601,0.011921996250748634,-0.0007218814571388066,-0.006331685930490494
0.020730677992105484,0.0027429007459431887,-0.013926110230386257,0.012328577227890491,-0.000719767005648464,-0.006132327485829592
0.020719032734632492,0.002313359174877405,-0.013625717721879482,0.012390517629683018,-0.0006600218475796282,-0.006326193921267986
0.021118059754371643,0.0021553351543843746,-0.014106717891991138,0.012397436425089836,-0.0005896827788092196,-0.006381142418831587
0.021213991567492485,0.0018787564476951957,-0.01385863684117794,0.012004266493022442,-0.0006138205644674599,-0.00662394892424345
0.020701035857200623,0.0018490664660930634,-0.01432886254042387,0.012702886015176773,-0.0006031306693330407,-0.00662912055850029
0.021114207804203033,0.002189221326261759,-0.01380484364926815,0.012482265010476112,-0.0005893966881558299,-0.00643300311639905
0.021431580185890198,0.0023410888388752937,-0.014185304753482342,0.0131000941619277,-0.0005451460601761937,-0.006263227667659521
0.02145157754421234,0.0025338218547403812,-0.013506152667105198,0.01290242001414299,-0.0004883933579549193,-0.006593108642846346
0.021261481568217278,0.002652436261996627,-0.014257117174565792,0.012894255109131336,-0.00052238954231143,-0.0070109921507537365
0.02158605307340622,0.0022684657014906406,-0.013996202498674393,0.012688795104622841,-0.0004811655089724809,-0.007142829243093729
0.021371029317378998,0.0021753313485533,-0.01426717545837164,0.01241336204111576,-0.0005105126183480024,-0.006967511493712664
0.021556783467531204,0.001972435973584652,-0.013632996007800102,0.01306965108960867,-0.00047638709656894207,-0.007133783772587776
0.02150673419237137,0.002105780178681016,-0.01449266541749239,0.013336330652236938,-0.0004978237557224929,-0.007125971373170614
0.021627426147460938,0.002431911416351795,-0.014007970690727234,0.01371017750352621,-0.0004726095939986408,-0.006913381163030863
0.021707870066165924,0.0024392660707235336,-0.014274570159614086,0.01280011236667633,-0.00048588879872113466,-0.006737875286489725
0.02189621515572071,0.0024920401629060507,-0.01383248157799244,0.013046784326434135,-0.0004754385445266962,-0.0069318595342338085
0.021416248753666878,0.0021680383943021297,-0.014587409794330597,0.012930572964251041,-0.0004323967732489109,-0.006542999763041735
0.021922623738646507,0.0020629395730793476,-0.014034462161362171,0.01244636345654726,-0.00046786622260697186,-0.007071810774505138
0.021935518831014633,0.002183271571993828,-0.014696784317493439,0.012669303454458714,-0.0004349635273683816,-0.0066759889014065266
0.021476050838828087,0.002850583055987954,-0.014402132481336594,0.013290219008922577,-0.0004329246294219047,-0.007050944957882166
0.022028593346476555,0.0027246344834566116,-0.013912086375057697,0.012812402099370956,-0.00040863084723241627,-0.007812818512320518
0.02207280695438385,0.002553716069087386,-0.014590690843760967,0.013195266015827656,-0.0003839610726572573,-0.0074632237665355206
0.021883290261030197,0.002403537044301629,-0.014115127734839916,0.012638261541724205,-0.0003870921500492841,-0.007372419349849224
0.021883290261030197,0.002403537044301629,-0.014115127734839916,0.012638261541724205,-0.0003870921500492841,-0.007372419349849224
0.022132284939289093,0.0024442048743367195,-0.014959356747567654,0.012644418515264988,-0.00038940427475608885,-0.00748748704791069
0.022347435355186462,0.0023807305842638016,-0.01411251351237297,0.012610387988388538,-0.0003708617587108165,-0.007630721665918827
0.022876253351569176,0.0028089408297091722,-0.014693710952997208,0.012518785893917084,-0.0003593690926209092,-0.008193611167371273
0.0229813102632761,0.0029738934244960546,-0.014010027050971985,0.01283322460949421,-0.0003406421164982021,-0.007730124983936548
0.022233635187149048,0.002567341784015298,-0.015040354803204536,0.012542068026959896,-0.0003171733987983316,-0.007381121627986431
0.02154582180082798,0.002549664117395878,-0.014296253211796284,0.013199289329349995,-0.00035142156411893666,-0.008141257800161839
0.02228354662656784,0.0023291721008718014,-0.015059622935950756,0.012464575469493866,-0.00033332777093164623,-0.008138909004628658
0.022986475378274918,0.0025396421551704407,-0.01442934013903141,0.013023565523326397,-0.0003628931299317628,-0.00795692577958107
0.023022036999464035,0.0027647691313177347,-0.015074888244271278,0.012392724864184856,-0.0003702591056935489,-0.008081250824034214
0.022373022511601448,0.0031056555453687906,-0.014722851105034351,0.012357369065284729,-0.00037355488166213036,-0.007984924130141735
0.022924726828932762,0.002742229960858822,-0.015228722244501114,0.012282796204090118,-0.00045220632455311716,-0.00774543359875679
0.02327040582895279,0.002559420419856906,-0.015244094654917717,0.012237530201673508,-0.0005402698297984898,-0.007317852228879929
0.023054558783769608,0.0026228337083011866,-0.015411141328513622,0.012783059850335121,-0.000535560364369303,-0.006759098265320063
0.022899774834513664,0.0025422610342502594,-0.01496698334813118,0.011867492459714413,-0.0005659552407450974,-0.006635824218392372
0.022812876850366592,0.00297830649651587,-0.015544022433459759,0.012931542471051216,-0.0005240208702161908,-0.007067178841680288
0.022548727691173553,0.0027776628267019987,-0.015808194875717163,0.012659952975809574,-0.0005437349900603294,-0.007605993654578924
0.02293095551431179,0.0026929336600005627,-0.01535723265260458,0.013023579493165016,-0.0005131178186275065,-0.007729865610599518
0.023949677124619484,0.0022831065580248833,-0.015447321347892284,0.013597427867352962,-0.0004819131863769144,-0.007677501533180475
0.02351953275501728,0.0023323933128267527,-0.01567048206925392,0.012293900363147259,-0.000538177031558007,-0.0076770298182964325
0.023270511999726295,0.0024188808165490627,-0.016244307160377502,0.012236406095325947,-0.0004873366851825267,-0.007776574231684208
0.0232867281883955,0.0025893040001392365,-0.0152707789093256,0.012451651506125927,-0.0005158504354767501,-0.008123606443405151
0.0232867281883955,0.0025893040001392365,-0.0152707789093256,0.012451651506125927,-0.0005158504354767501,-0.008123606443405151
0.02362242341041565,0.0027170791290700436,-0.015970274806022644,0.012647310271859169,-0.00047610796173103154,-0.008135066367685795
0.023707479238510132,0.002530007855966687,-0.015809237957000732,0.012618428096175194,-0.00047347560757771134,-0.008458668366074562
0.023707479238510132,0.002530007855966687,-0.015809237957000732,0.012618428096175194,-0.00047347560757771134,-0.008458668366074562
0.023608822375535965,0.002686221618205309,-0.015909312292933464,0.012915029190480709,-0.0004719700082205236,-0.008103021420538425
0.023608822375535965,0.002686221618205309,-0.015909312292933464,0.012915029190480709,-0.0004719700082205236,-0.008103021420538425
0.02375069633126259,0.0025556334294378757,-0.015721336007118225,0.012763239443302155,-0.0004966749693267047,-0.008303409442305565
0.024017997086048126,0.0026704452466219664,-0.015666048973798752,0.013150961138308048,-0.0005325688980519772,-0.008132059127092361
0.024087492376565933,0.0025762072764337063,-0.01566961780190468,0.012767360545694828,-0.0005268551758490503,-0.008094839751720428
0.023708540946245193,0.0024231551215052605,-0.01580045185983181,0.013093953020870686,-0.0005533981020562351,-0.00828241091221571
0.023614484816789627,0.00254452764056623,-0.01495578233152628,0.012781511060893536,-0.0005210140952840447,-0.008284409530460835
0.02420123666524887,0.0026963334530591965,-0.01562483049929142,0.012779217213392258,-0.0007065797108225524,-0.008300784975290298
0.023944061249494553,0.0025629864539951086,-0.016054920852184296,0.012878164649009705,-0.0007167259464040399,-0.007956634275615215
0.024414310231804848,0.0026605618186295033,-0.01642758771777153,0.01241751667112112,-0.0006581447669304907,-0.008133236318826675
0.02458656020462513,0.003035625908523798,-0.015419588424265385,0.012698373757302761,-0.0005882318946532905,-0.008493627421557903
0.024074379354715347,0.003077097237110138,-0.01550358161330223,0.012975049205124378,-0.0005951300263404846,-0.008597657084465027
0.024264050647616386,0.002819723216816783,-0.015977902337908745,0.013357077725231647,-0.000561924185603857,-0.00869559682905674
0.02413058839738369,0.002958909375593066,-0.016190314665436745,0.012749128974974155,-0.0005856964853592217,-0.00875178910791874
0.02431303821504116,0.0030739803332835436,-0.015868814662098885,0.012650895863771439,-0.0005548904882743955,-0.00886126421391964
0.024840885773301125,0.002924178261309862,-0.01549466047435999,0.012513852678239346,-0.0005048285820521414,-0.008457143791019917
0.024255674332380295,0.0026793295983225107,-0.016241222620010376,0.013134315609931946,-0.0005210136296227574,-0.00867221038788557
0.024334529414772987,0.002843925030902028,-0.015644336119294167,0.013148232363164425,-0.0005336673348210752,-0.00901489332318306
0.02486437000334263,0.0029839035123586655,-0.016268238425254822,0.013082461431622505,-0.0005264834617264569,-0.008543387055397034
0.024506235495209694,0.003074685577303171,-0.015880154445767403,0.013110343366861343,-0.000539331987965852,-0.008768449537456036
0.025067275390028954,0.002986765466630459,-0.01630578562617302,0.013147151097655296,-0.0005166712799109519,-0.00894156564027071
0.024234481155872345,0.00304631469771266,-0.016288720071315765,0.013353714719414711,-0.00048304078518413007,-0.009061728604137897
0.024234481155872345,0.00304631469771266,-0.016288720071315765,0.013353714719414711,-0.00048304078518413007,-0.009061728604137897
0.02574722096323967,0.0033805181737989187,-0.016033625230193138,0.013363193720579147,-0.000576519756577909,-0.008956009522080421
0.024343937635421753,0.0030963593162596226,-0.01656443439424038,0.013743043877184391,-0.0005657686269842088,-0.009146532043814659
0.024343937635421753,0.0030963593162596226,-0.01656443439424038,0.013743043877184391,-0.0005657686269842088,-0.009146532043814659
0.025001412257552147,0.002813753206282854,-0.015905456617474556,0.01321926899254322,-0.0005887621664442122,-0.009542617946863174
0.02532663382589817,0.002995615592226386,-0.016842277720570564,0.01333071943372488,-0.0005484426510520279,-0.00967007502913475
0.025339234620332718,0.0034207082353532314,-0.016232259571552277,0.013407787308096886,-0.0006883833557367325,-0.009698017500340939
0.025339234620332718,0.0034207082353532314,-0.016232259571552277,0.013407787308096886,-0.0006883833557367325,-0.009698017500340939
0.024695949628949165,0.003245826344937086,-0.01661960408091545,0.01365058496594429,-0.0006349610048346221,-0.00971203949302435
0.025000277906656265,0.0029379739426076412,-0.01631634309887886,0.01361758541315794,-0.0005696837324649096,-0.010202262550592422
0.025863610208034515,0.003017910523340106,-0.016525082290172577,0.013235176913440228,-0.0005153525853529572,-0.01032533310353756
0.025617660954594612,0.003375045722350478,-0.01604670286178589,0.013007134199142456,-0.0005278653115965426,-0.010245513170957565
0.02549297735095024,0.003318613162264228,-0.016861969605088234,0.01345600001513958,-0.0005034299683757126,-0.010238703340291977
0.02522392012178898,0.0034802148584276438,-0.016940124332904816,0.013385463505983353,-0.0004672307113651186,-0.010074636898934841
0.025381645187735558,0.0032119934912770987,-0.0169544517993927,0.013727068901062012,-0.0004886992392130196,-0.00984993763267994
0.025943074375391006,0.002956850454211235,-0.0168117918074131,0.013122417032718658,-0.00046449099318124354,-0.01017807237803936
0.026257207617163658,0.002878354862332344,-0.016186639666557312,0.013561286963522434,-0.00043677823850885034,-0.010720406658947468
0.025876514613628387,0.0028556357137858868,-0.016387054696679115,0.013419467955827713,-0.000414614740293473,-0.010499711148440838
0.02610446885228157,0.0030809107702225447,-0.016276320442557335,0.014007422141730785,-0.00035546350409276783,-0.010589271783828735
0.026159372180700302,0.003295362228527665,-0.017040016129612923,0.013549527153372765,-0.00035959770320914686,-0.011163243092596531
0.025993715971708298,0.003113706596195698,-0.017061637714505196,0.014134255237877369,-0.00036431473563425243,-0.010454017668962479
0.026480747386813164,0.0031362627632915974,-0.016906682401895523,0.013584988191723824,-0.00037087019882164896,-0.0101421307772398
0.026279442012310028,0.0032277076970785856,-0.017597753554582596,0.014103475958108902,-0.0003745358844753355,-0.010702640749514103
0.025727901607751846,0.003181205131113529,-0.016139311715960503,0.013634363189339638,-0.0003551002882886678,-0.010674824006855488
0.026402121409773827,0.003133786842226982,-0.01697522960603237,0.013830142095685005,-0.0003716756764333695,-0.010509736835956573
0.02653045393526554,0.0029267999343574047,-0.016585320234298706,0.0131943104788661,-0.0003639935457613319,-0.01060155313462019
0.02653045393526554,0.0029267999343574047,-0.016585320234298706,0.0131943104788661,-0.0003639935457613319,-0.01060155313462019
0.02650967426598072,0.0028416323475539684,-0.01692204922437668,0.012973953038454056,-0.0004193325585220009,-0.010658453218638897
0.02694275975227356,0.0034498916938900948,-0.017241450026631355,0.01407220121473074,-0.000450713443569839,-0.01066600065678358
0.02694275975227356,0.0034498916938900948,-0.017241450026631355,0.01407220121473074,-0.000450713443569839,-0.01066600065678358
0.027059398591518402,0.0031989323906600475,-0.016696885228157043,0.013867029920220375,-0.0004670585913117975,-0.010996636934578419
0.027533531188964844,0.003195555415004492,-0.01687297597527504,0.013717129826545715,-0.0004807831719517708,-0.011061888188123703
0.027006248012185097,0.0029791835695505142,-0.017338035628199577,0.013049168512225151,-0.00047897451440803707,-0.01087130419909954
0.027243537828326225,0.003180486150085926,-0.017358150333166122,0.01360081322491169,-0.0006080691237002611,-0.010775086469948292
0.02721322700381279,0.003266608342528343,-0.018125783652067184,0.01341436617076397,-0.000599313760176301,-0.011054378934204578
0.027128057554364204,0.0035027419216930866,-0.01716574840247631,0.01389862596988678,-0.0005822197417728603,-0.011320390738546848
0.027154739946126938,0.0032440542709082365,-0.017132293432950974,0.013308815658092499,-0.0005927333841100335,-0.010553215630352497
0.026461618021130562,0.002956205978989601,-0.017474092543125153,0.013531954027712345,-0.000560054904781282,-0.010726596228778362
0.02782582677900791,0.002763215219601989,-0.017188681289553642,0.01266301516443491,-0.0005790167488157749,-0.011103120632469654
0.02779759094119072,0.002888796851038933,-0.017846494913101196,0.012530652806162834,-0.0005439784144982696,-0.011009781621396542
0.027624856680631638,0.0034609998110681772,-0.01743191108107567,0.012633717618882656,-0.000556913495529443,-0.011066722683608532
0.027698319405317307,0.003720747772604227,-0.017901070415973663,0.01274040061980486,-0.0005122629809193313,-0.010629906319081783
0.026537451893091202,0.0033527708146721125,-0.017974071204662323,0.013684015721082687,-0.0005402523092925549,-0.010410167276859283
0.02704205922782421,0.003118952037766576,-0.01730230264365673,0.013665483333170414,-0.0005009278538636863,-0.010588728822767735
0.028139332309365273,0.0032150293700397015,-0.01793181523680687,0.01366831362247467,-0.0005300659104250371,-0.010736350901424885
0.027677489444613457,0.003165601287037134,-0.01778746210038662,0.01357210986316204,-0.0005273658316582441,-0.010564043186604977
0.027841491624712944,0.003535978961735964,-0.017900075763463974,0.013961231335997581,-0.0005206793430261314,-0.011037252843379974
0.02915263921022415,0.0032864073291420937,-0.018396830186247826,0.013254439458251,-0.0005395920015871525,-0.011648697778582573
0.028307314962148666,0.0035399009939283133,-0.017723437398672104,0.013461483642458916,-0.0006043547764420509,-0.011350182816386223
0.028309812769293785,0.0031780556309968233,-0.01783682033419609,0.013510376214981079,-0.0006494185654446483,-0.010873964056372643
0.02764466032385826,0.0031914180144667625,-0.01787603460252285,0.014382069930434227,-0.0006742750410921872,-0.010440416634082794
0.027469616383314133,0.003321156371384859,-0.017264630645513535,0.013963946141302586,-0.0009951728861778975,-0.011073563247919083
0.028091149404644966,0.0035940981470048428,-0.017636630684137344,0.013715467415750027,-0.0010113987373188138,-0.011367682367563248
0.028341522440314293,0.0034720979165285826,-0.017892422154545784,0.01326580997556448,-0.0009765186114236712,-0.010949610732495785
0.028130991384387016,0.0036393338814377785,-0.018013514578342438,0.013754339888691902,-0.0008748041000217199,-0.011320427991449833
0.028130991384387016,0.0036393338814377785,-0.018013514578342438,0.013754339888691902,-0.0008748041000217199,-0.011320427991449833
0.028111381456255913,0.0033057257533073425,-0.01683933101594448,0.014302338473498821,-0.0007886399980634451,-0.010880541056394577
0.02816173806786537,0.0032039866782724857,-0.017997389659285545,0.014631226658821106,-0.0006880754954181612,-0.011667123064398766
0.02816173806786537,0.0032039866782724857,-0.017997389659285545,0.014631226658821106,-0.0006880754954181612,-0.011667123064398766
0.028221052139997482,0.003359154798090458,-0.017626341432332993,0.014493484050035477,-0.0006338292150758207,-0.011773614212870598
0.027712779119610786,0.003469556337222457,-0.017935555428266525,0.014601814560592175,-0.0006566128577105701,-0.011415882967412472
0.02743791602551937,0.003411064622923732,-0.017918426543474197,0.014367653988301754,-0.0006412072689272463,-0.01139898132532835
0.02771087735891342,0.0035725536290556192,-0.018035264685750008,0.014593481086194515,-0.0006234089378267527,-0.011200678534805775
0.02761303074657917,0.0036846145521849394,-0.0179737638682127,0.014220965094864368,-0.0006403346196748316,-0.011480582877993584
0.028048647567629814,0.003643834963440895,-0.017481276765465736,0.014394163154065609,-0.0006546201766468585,-0.011013985611498356
0.027701586484909058,0.0036379883531481028,-0.017870090901851654,0.01433890126645565,-0.0006558293243870139,-0.010056726634502411
0.027897659689188004,0.003338133916258812,-0.017756463959813118,0.014549517072737217,-0.0006789074977859855,-0.01022246666252613
0.02870221622288227,0.00347217358648777,-0.01796780526638031,0.013978321105241776,-0.0006594180013053119,-0.010622452013194561
0.028260698541998863,0.003744215704500675,-0.01818707399070263,0.014314373023808002,-0.0007825485081411898,-0.010602549649775028
0.02750508114695549,0.0038571215700358152,-0.017516711726784706,0.014245456084609032,-0.0007962430827319622,-0.010630366392433643
0.02807721123099327,0.004369143396615982,-0.01772710680961609,0.014321060851216316,-0.0007647328311577439,-0.010813391767442226
0.027757907286286354,0.004255900625139475,-0.017894789576530457,0.01439028698951006,-0.0007274562958627939,-0.010942680761218071
0.02856585569679737,0.003951061517000198,-0.01735071837902069,0.014190430752933025,-0.0006550697144120932,-0.011094978079199791
0.028604015707969666,0.003394882893189788,-0.01808827742934227,0.01413172110915184,-0.0005934966029599309,-0.010717474855482578
0.02887934260070324,0.0034765037707984447,-0.018020428717136383,0.014420424588024616,-0.0005423558177426457,-0.01075211726129055
0.0270962156355381,0.004079706501215696,-0.017664041370153427,0.014536540023982525,-0.0005516774253919721,-0.01106127630919218
0.027901476249098778,0.004278083331882954,-0.01792156882584095,0.014369840733706951,-0.0005274823633953929,-0.010866925120353699
0.02863207831978798,0.004031884949654341,-0.01723184622824192,0.014666058123111725,-0.0004924471722915769,-0.010834703221917152
0.028336549177765846,0.0038690927904099226,-0.017843501642346382,0.014524966478347778,-0.00042369135189801455,-0.011143621988594532
0.02853369526565075,0.003917518071830273,-0.017578501254320145,0.014202793128788471,-0.0003837119147647172,-0.011161945760250092
0.029054202139377594,0.003930386155843735,-0.017756644636392593,0.014040421694517136,-0.0004051675205118954,-0.01125887967646122
0.028526974841952324,0.003922160714864731,-0.017862871289253235,0.014449629001319408,-0.00041120301466435194,-0.011300096288323402
0.028526974841952324,0.003922160714864731,-0.017862871289253235,0.014449629001319408,-0.00041120301466435194,-0.011300096288323402
0.02829781174659729,0.003961342852562666,-0.018321294337511063,0.014654136262834072,-0.00040244022966362536,-0.011463002301752567
0.02829781174659729,0.003961342852562666,-0.018321294337511063,0.014654136262834072,-0.00040244022966362536,-0.011463002301752567
0.02903900109231472,0.003917907364666462,-0.017557399347424507,0.014647542499005795,-0.0004040426865685731,-0.011329256929457188
0.029095016419887543,0.0038446937687695026,-0.01849380135536194,0.014743764884769917,-0.0004834739665966481,-0.01177198812365532
0.02907792665064335,0.003957278560847044,-0.018597157672047615,0.014573605731129646,-0.0005357405752874911,-0.011453813873231411
0.028900394216179848,0.0036271957214921713,-0.017829248681664467,0.014599856920540333,-0.0005495845689438283,-0.011232343502342701
0.02880609780550003,0.0035110609605908394,-0.01812557503581047,0.014411702752113342,-0.0005409953300841153,-0.01108982041478157
0.029039859771728516,0.003672227496281266,-0.017810964956879616,0.014472064562141895,-0.0005669710226356983,-0.011315681040287018
0.027743631973862648,0.003883860306814313,-0.018849696964025497,0.014630159363150597,-0.0006661693332716823,-0.011556237004697323
0.029823198914527893,0.00396260991692543,-0.01889648288488388,0.01465729158371687,-0.0007609474123455584,-0.011291024275124073
0.03003772906959057,0.003898154478520155,-0.01874668523669243,0.01474903617054224,-0.0007257613469846547,-0.011628862470388412
0.03002801351249218,0.003893244778737426,-0.019255613908171654,0.015315381810069084,-0.0007216808153316379,-0.011758694425225258
0.029908156022429466,0.0041054957546293736,-0.018881015479564667,0.015182721428573132,-0.0006691135349683464,-0.011742882430553436
0.029844993725419044,0.003918158356100321,-0.01834581233561039,0.015643440186977386,-0.0006695968331769109,-0.012058085761964321
0.030043451115489006,0.003706048708409071,-0.018570901826024055,0.014615686610341072,-0.0006305421702563763,-0.012070405296981335
0.030289506539702415,0.003637283109128475,-0.01885548047721386,0.014674029313027859,-0.0006206855759955943,-0.01216184999793768
0.030928179621696472,0.003728955751284957,-0.01867038570344448,0.013875246047973633,-0.0006414324161596596,-0.011980855837464333
0.030487537384033203,0.003804917447268963,-0.01919514872133732,0.014269370585680008,-0.0005964859738014638,-0.012096577323973179
0.031026672571897507,0.003773427801206708,-0.019085248932242393,0.01433576550334692,-0.0006158658652566373,-0.011895210482180119
0.031038636341691017,0.0038421188946813345,-0.018487805500626564,0.015605391003191471,-0.0006409472553059459,-0.012058171443641186
0.030892515555024147,0.003840000368654728,-0.019309302791953087,0.014985866844654083,-0.0007888785330578685,-0.01222425140440464
0.03099558688700199,0.0037736077792942524,-0.019272951409220695,0.015576803125441074,-0.0008184632170014083,-0.011889580637216568
0.030949346721172333,0.004192541353404522,-0.01907471939921379,0.015122555196285248,-0.0007264119340106845,-0.012238042429089546
0.031343113631010056,0.004066096153110266,-0.019404958933591843,0.015234404243528843,-0.0007401214679703116,-0.012145232409238815
0.030913257971405983,0.003995282109826803,-0.01934736594557762,0.01494005136191845,-0.0007377995643764734,-0.012690511532127857
0.030913257971405983,0.003995282109826803,-0.01934736594557762,0.01494005136191845,-0.0007377995643764734,-0.012690511532127857
0.031938839703798294,0.004340289160609245,-0.018896780908107758,0.014933928847312927,-0.0006534328567795455,-0.011501641944050789
0.03167305886745453,0.0043547749519348145,-0.01933189481496811,0.015846602618694305,-0.0005942689604125917,-0.012227063998579979
0.03201541677117348,0.004064177628606558,-0.01905503123998642,0.015539813786745071,-0.0006239247741177678,-0.012353499419987202
0.03321824595332146,0.0038775247521698475,-0.019414838403463364,0.015590504743158817,-0.0006524243508465588,-0.01291428692638874
0.03332580253481865,0.0038696646224707365,-0.019502563402056694,0.01566143147647381,-0.0006758534000255167,-0.01269117183983326
0.03051339089870453,0.0038608156610280275,-0.018956316635012627,0.015025814063847065,-0.0008379289065487683,-0.012571771629154682
0.031912561506032944,0.003811912378296256,-0.019338246434926987,0.015168043784797192,-0.0008626473136246204,-0.012674763798713684
0.03313552215695381,0.004235477652400732,-0.01932266168296337,0.014965901151299477,-0.0007602694095112383,-0.012797435745596886
0.03214003145694733,0.0041124834679067135,-0.018908467143774033,0.015497442334890366,-0.0007702904986217618,-0.012815465219318867
0.032661762088537216,0.003942746669054031,-0.019214197993278503,0.01526734884828329,-0.0006923209293745458,-0.01272869948297739
0.033975519239902496,0.0038444995880126953,-0.019212190061807632,0.016194825991988182,-0.0006892606616020203,-0.012843601405620575
0.03376812860369682,0.0038290596567094326,-0.01919369027018547,0.016211526468396187,-0.0006543475901708007,-0.01288335956633091
0.03203472122550011,0.0038634766824543476,-0.019526422023773193,0.016307374462485313,-0.0005887523293495178,-0.013117233291268349
0.03239144757390022,0.003806293709203601,-0.01966598629951477,0.015594969503581524,-0.0006183298537507653,-0.0125639159232378
0.03335403650999069,0.003967415541410446,-0.01898973435163498,0.015502145513892174,-0.0005604742327705026,-0.012444804422557354
0.03328148275613785,0.003849948290735483,-0.01936284825205803,0.015149659477174282,-0.0005866663414053619,-0.012719246558845043
0.03327838331460953,0.0037048538215458393,-0.019740888848900795,0.015437210910022259,-0.0005413651815615594,-0.01298525556921959
0.03376459702849388,0.003542121732607484,-0.019056150689721107,0.015478267334401608,-0.000498801120556891,-0.012734074145555496
0.033309780061244965,0.0035225164610892534,-0.01942768320441246,0.015376919880509377,-0.0005191995296627283,-0.012050130404531956
0.03333131968975067,0.003647317411378026,-0.01972074620425701,0.015652867034077644,-0.0004915113095194101,-0.012388864532113075
0.03326369822025299,0.0039985706098377705,-0.018842043355107307,0.015499981120228767,-0.0004605618887580931,-0.0123515073210001
0.03337143361568451,0.003969783429056406,-0.019490594044327736,0.015979720279574394,-0.00044421604252420366,-0.012597370892763138
0.033496540039777756,0.0037372985389083624,-0.019900567829608917,0.015646878629922867,-0.00040944694774225354,-0.013066287152469158
0.033872924745082855,0.0036019571125507355,-0.019348036497831345,0.016124093905091286,-0.00044037902262061834,-0.013123930431902409
0.03374972566962242,0.003741429653018713,-0.019893452525138855,0.015863221138715744,-0.0004662312858272344,-0.0136709688231349
0.03334568068385124,0.004316132050007582,-0.019185073673725128,0.016227584332227707,-0.000476290617370978,-0.013168467208743095
0.031914569437503815,0.004120007622987032,-0.020077893510460854,0.015675200149416924,-0.0007318694842979312,-0.013113003224134445
0.031914569437503815,0.004120007622987032,-0.020077893510460854,0.015675200149416924,-0.0007318694842979312,-0.013113003224134445
0.034234847873449326,0.004040357656776905,-0.02085133083164692,0.01599705033004284,-0.0007838195306248963,-0.013115026988089085
0.035433415323495865,0.0039824494160711765,-0.019978884607553482,0.015495609492063522,-0.0007997428183443844,-0.012704298831522465
0.03497263044118881,0.00426963297650218,-0.019612427800893784,0.016121026128530502,-0.0007644999423064291,-0.012852553278207779
0.033141348510980606,0.004234557040035725,-0.019959596917033195,0.0156257227063179,-0.0009160417830571532,-0.013126390986144543
0.033657729625701904,0.004456895869225264,-0.020057054236531258,0.015900297090411186,-0.0007928915438242257,-0.013261908665299416
0.03471766784787178,0.004102494567632675,-0.01990431174635887,0.015789568424224854,-0.0007737461710348725,-0.012960505671799183
0.03481375426054001,0.003851348767057061,-0.020664548501372337,0.016266299411654472,-0.0007026206003502011,-0.012477759271860123
0.03525124490261078,0.003927798476070166,-0.020939422771334648,0.016067316755652428,-0.0006731112953275442,-0.012846504338085651
0.0349600724875927,0.0041251275688409805,-0.02028605341911316,0.0161433108150959,-0.0006484236801043153,-0.013042338192462921
0.03457114100456238,0.004429419990628958,-0.020691459998488426,0.016051724553108215,-0.0006312161567620933,-0.013464686460793018
0.03415855020284653,0.004252878483384848,-0.021593909710645676,0.016177663579583168,-0.0006143242935650051,-0.013208026997745037
0.03443494066596031,0.0045091863721609116,-0.021464180201292038,0.016095053404569626,-0.0005682337796315551,-0.013204924762248993
0.034462470561265945,0.004586674273014069,-0.02087249420583248,0.015454132109880447,-0.00047900676145218313,-0.01323421485722065
0.034296851605176926,0.004185769706964493,-0.020956676453351974,0.015851762145757675,-0.0004911357536911964,-0.013551098294556141
0.034657806158065796,0.003993158228695393,-0.021141448989510536,0.015540716238319874,-0.0005248659872449934,-0.013468362390995026
0.034298717975616455,0.003982490859925747,-0.02099425718188286,0.015976926311850548,-0.0005019922973588109,-0.013750600628554821
0.034667618572711945,0.004032163415104151,-0.02089252881705761,0.01564393751323223,-0.0005279749748297036,-0.014817873015999794
0.03482634946703911,0.0039957123808562756,-0.021467994898557663,0.015359009616076946,-0.0007154241320677102,-0.013924439437687397
0.034546323120594025,0.00441201776266098,-0.02184327319264412,0.015531995333731174,-0.0007984785479493439,-0.013272514566779137
0.0347442589700222,0.005029819440096617,-0.021399302408099174,0.015773426741361618,-0.0008237442816607654,-0.0133733619004488
0.035043708980083466,0.004472534637898207,-0.021207870915532112,0.016152499243617058,-0.0008333756122738123,-0.014076820574700832
0.035783976316452026,0.004017517901957035,-0.021378912031650543,0.015832239761948586,-0.0009398190886713564,-0.014037427492439747
0.03491290658712387,0.004317821469157934,-0.02178999036550522,0.016333645209670067,-0.0009763878188095987,-0.014362635090947151
0.0354030579328537,0.003990549128502607,-0.021459754556417465,0.016301294788718224,-0.0008524790755473077,-0.014218926429748535
0.03537562116980553,0.004250486847013235,-0.021975237876176834,0.015953710302710533,-0.0008521022391505539,-0.014080138877034187
0.03537562116980553,0.004250486847013235,-0.021975237876176834,0.015953710302710533,-0.0008521022391505539,-0.014080138877034187
0.03564881160855293,0.004572349600493908,-0.02196907065808773,0.016150545328855515,-0.0007941342191770673,-0.014383373782038689
0.035597316920757294,0.004560851026326418,-0.021847672760486603,0.016514649614691734,-0.0007692572544328868,-0.014273879118263721
0.036202557384967804,0.004390819929540157,-0.02215123362839222,0.017935916781425476,-0.0007980631198734045,-0.014397471211850643
0.036202557384967804,0.004390819929540157,-0.02215123362839222,0.017935916781425476,-0.0007980631198734045,-0.014397471211850643
0.036162618547677994,0.0043446896597743034,-0.022294219583272934,0.01760600320994854,-0.0007681639981456101,-0.014945082366466522
0.036152563989162445,0.004068159498274326,-0.021862708032131195,0.016844484955072403,-0.0008626527269370854,-0.014906520023941994
0.03644131124019623,0.0042923009023070335,-0.02195168100297451,0.016827024519443512,-0.0008732263231649995,-0.014903616160154343
0.03681039437651634,0.004503815900534391,-0.022292496636509895,0.017177468165755272,-0.0008684761123731732,-0.014677261002361774
0.03629970923066139,0.0045463270507752895,-0.022443417459726334,0.0179060660302639,-0.0008296370506286621,-0.014653295278549194
0.03642875701189041,0.004153834655880928,-0.02246749959886074,0.017584804445505142,-0.0007871430716477334,-0.014837113209068775
0.03733052685856819,0.004375503398478031,-0.02201438695192337,0.017639799043536186,-0.0007546101696789265,-0.015209180302917957
0.03813176602125168,0.004283083137124777,-0.021751970052719116,0.017838425934314728,-0.0007504464010708034,-0.015085997059941292
0.035887349396944046,0.004228644538670778,-0.02172800339758396,0.017200617119669914,-0.0007393379346467555,-0.014870679005980492
0.03598523139953613,0.004481048323214054,-0.021930521354079247,0.01846146769821644,-0.0007068548584356904,-0.014638472348451614
0.037574902176856995,0.004551805555820465,-0.02153649926185608,0.01638483814895153,-0.0007230627816170454,-0.014923885464668274
0.03748094290494919,0.004417310934513807,-0.022039208561182022,0.016355618834495544,-0.0007254302618093789,-0.015277810394763947
0.03844619169831276,0.004285078961402178,-0.02190391533076763,0.017168259248137474,-0.0006789474282413721,-0.015247472561895847
0.037681665271520615,0.0043649678118526936,-0.022151300683617592,0.017596382647752762,-0.0006950825336389244,-0.015446915291249752
0.036981645971536636,0.004271811805665493,-0.021798433735966682,0.017846612259745598,-0.0007045136298984289,-0.015287288464605808
0.03702869638800621,0.0047911060974001884,-0.02154477685689926,0.01765705645084381,-0.0007005860679782927,-0.015506145544350147
0.038127247244119644,0.004890297539532185,-0.021927742287516594,0.017788948491215706,-0.0006768940947949886,-0.015677031129598618
0.03671044111251831,0.0044965618290007114,-0.022362178191542625,0.017704660072922707,-0.0006232841988094151,-0.015706736594438553
0.03879161551594734,0.004588000476360321,-0.021756522357463837,0.01773883029818535,-0.0006305963615886867,-0.015754947438836098
0.03879161551594734,0.004588000476360321,-0.021756522357463837,0.01773883029818535,-0.0006305963615886867,-0.015754947438836098
0.03843927010893822,0.004732111468911171,-0.022326767444610596,0.017289096489548683,-0.0006584686925634742,-0.015916835516691208
0.03811467066407204,0.004698663018643856,-0.02254226617515087,0.01775168441236019,-0.0006464390899054706,-0.0159921795129776
0.03858952969312668,0.004817582201212645,-0.022320473566651344,0.017452750355005264,-0.0008688051020726562,-0.016657955944538116
0.03858952969312668,0.004817582201212645,-0.022320473566651344,0.017452750355005264,-0.0008688051020726562,-0.016657955944538116
0.03864837437868118,0.004773175809532404,-0.02231121063232422,0.017863871529698372,-0.0008855530177243054,-0.015272891148924828
0.038215287029743195,0.004672018811106682,-0.022619422525167465,0.01763634942471981,-0.0008044723654165864,-0.015131084248423576
0.038477275520563126,0.0046012261882424355,-0.023377206176519394,0.017853213474154472,-0.0008028405718505383,-0.015876876190304756
0.038721226155757904,0.004511313978582621,-0.02304735593497753,0.018069390207529068,-0.0007330209482461214,-0.016031477600336075
0.04026344418525696,0.004637971520423889,-0.022683097049593925,0.01789153926074505,-0.0007416343432851136,-0.016052935272455215
0.0384272076189518,0.004829544108361006,-0.02256537228822708,0.018031606450676918,-0.0007439774926751852,-0.01583436131477356
0.03813860937952995,0.005147372838109732,-0.022778891026973724,0.01781482808291912,-0.0007624317659065127,-0.016488179564476013
0.03964206948876381,0.004903007764369249,-0.023271959275007248,0.017723742872476578,-0.0007778425351716578,-0.016557374969124794
0.03921656683087349,0.004893457051366568,-0.02317194640636444,0.0182645320892334,-0.0008968015899881721,-0.016141243278980255
0.04021047428250313,0.004758754279464483,-0.022468462586402893,0.017887474969029427,-0.0009185934904962778,-0.01599649339914322
0.04043396934866905,0.004796324763447046,-0.02286543883383274,0.01802072487771511,-0.0008182651945389807,-0.016215136274695396
0.03801753371953964,0.004794266074895859,-0.02367786318063736,0.018396388739347458,-0.0008143280865624547,-0.016930848360061646
0.03897833451628685,0.00471056904643774,-0.02353382669389248,0.017892543226480484,-0.0008233400294557214,-0.01683974079787731
0.04055238887667656,0.004723892081528902,-0.023338761180639267,0.017793025821447372,-0.000820091285277158,-0.016944902017712593
0.03944460302591324,0.004974926821887493,-0.0227395948022604,0.01759696565568447,-0.0008424636907875538,-0.01657717116177082
0.03974337503314018,0.0049860612489283085,-0.022643547505140305,0.017410913482308388,-0.000851048098411411,-0.01662171073257923
0.03966483101248741,0.004590178839862347,-0.023153522983193398,0.01779353618621826,-0.0008570291684009135,-0.016703706234693527
0.03955300152301788,0.004873756319284439,-0.02371729165315628,0.01749752275645733,-0.000989311607554555,-0.01701240800321102
0.0399651937186718,0.004909482318907976,-0.0233863927423954,0.017755622044205666,-0.0009983745403587818,-0.017052307724952698
0.03958023339509964,0.004859475884586573,-0.022488698363304138,0.018047338351607323,-0.0009842842118814588,-0.017319992184638977
0.03975154832005501,0.005081772338598967,-0.02289617620408535,0.017786137759685516,-0.0009176772437058389,-0.017375383526086807
0.0402231328189373,0.004884055815637112,-0.02372654154896736,0.01791095919907093,-0.0008602268644608557,-0.017246847972273827
0.04000326246023178,0.0048878854140639305,-0.023818273097276688,0.017781972885131836,-0.0007876650779508054,-0.017305050045251846
0.04066703841090202,0.005282587371766567,-0.02363467961549759,0.018313903361558914,-0.0007102421368472278,-0.016899459064006805
0.03901011869311333,0.005004351492971182,-0.02334650047123432,0.018054325133562088,-0.0007248302572406828,-0.01697901263833046
0.0408487506210804,0.0046322583220899105,-0.023313408717513084,0.018611380830407143,-0.0007068858831189573,-0.01724575087428093
0.04106413573026657,0.005034406669437885,-0.023811032995581627,0.0185566246509552,-0.0006854365929029882,-0.01744399219751358
0.04106413573026657,0.005034406669437885,-0.023811032995581627,0.0185566246509552,-0.0006854365929029882,-0.01744399219751358
0.04076995328068733,0.005272356793284416,-0.024470003321766853,0.018014738336205482,-0.0007968850550241768,-0.01740390993654728
0.04041287302970886,0.0050094542093575,-0.023746410384774208,0.018409624695777893,-0.0008167289779521525,-0.01682180166244507
