davideferrari95/blind_handover_controller/data/Test 300 - [2024-02-08 -- 14-04-38]/joint_states_data.csv
shoulder_pan_joint,shoulder_lift_joint,elbow_joint,wrist_1_joint,wrist_2_joint,wrist_3_joint
0.007263347040861845,0.00896903034299612,-0.012719365768134594,0.004432751331478357,-5.418744564167355e-08,0.007303968537598848
0.007263347040861845,0.00896903034299612,-0.012719365768134594,0.004432751331478357,-5.418744564167355e-08,0.007303968537598848
0.007263347040861845,0.00896903034299612,-0.012719365768134594,0.004432751331478357,-5.418744564167355e-08,0.007303968537598848
0.007407414261251688,0.009098704904317856,-0.012030044570565224,0.004259686451405287,-3.538052961715721e-09,0.007907217368483543
0.006939336657524109,0.009364061988890171,-0.0127967344596982,0.004267374984920025,-2.310095587043648e-10,0.007776868995279074
0.0073813702911138535,0.008738563396036625,-0.01225479505956173,0.0039306930266320705,-1.5083274906846356e-11,0.00752363121137023
0.007622167468070984,0.00852323416620493,-0.012204061262309551,0.0037612596061080694,-9.848300560472145e-13,0.006936501711606979
0.006785409990698099,0.009178233332931995,-0.012257813476026058,0.0037864891346544027,-6.430237066553865e-14,0.006935649551451206
0.006430820561945438,0.00978260487318039,-0.011901365593075752,0.003760511986911297,-4.198485245040075e-15,0.007249931804835796
0.0067012920044362545,0.007987504824995995,-0.012671282514929771,0.003761015832424164,-2.741310960714216e-16,0.007064377423375845
0.007254417985677719,0.01088699046522379,-0.012060328386723995,0.003850568551570177,-1.789880210094088e-17,0.0070424010045826435
0.00752963637933135,0.009930563159286976,-0.012455985881388187,0.0042955209501087666,-1.168663930472069e-18,0.007281934842467308
0.007031209766864777,0.009628166444599628,-0.012117394246160984,0.0040780650451779366,-7.630540817997078e-20,0.0073762754909694195
0.006456025876104832,0.00937017984688282,-0.011925706639885902,0.003581649623811245,-4.982198090596033e-21,0.007076152600347996
0.007247361820191145,0.009251158684492111,-0.012537496164441109,0.003295464674010873,-3.2530192777549e-22,0.007118844892829657
0.006931962911039591,0.008965153247117996,-0.01168079860508442,0.0034679370000958443,-2.12398921241803e-23,0.007542168255895376
0.006629949901252985,0.009009105153381824,-0.012150485999882221,0.003727441653609276,-1.3868133298587863e-24,0.007300745230168104
0.006600238382816315,0.00917136762291193,-0.011969282291829586,0.0038499068468809128,-9.054899841236541e-26,0.007214284036308527
0.0066176545806229115,0.009217208251357079,-0.012482183054089546,0.003914148546755314,-5.912202409910437e-27,0.007374632637947798
0.006688965950161219,0.009237091057002544,-0.011972595937550068,0.003957761917263269,-3.8602453877523337e-28,0.007906289771199226
0.006754491478204727,0.009318790398538113,-0.011589252389967442,0.004292009864002466,-2.5204645182195756e-29,0.007885102182626724
0.006545955780893564,0.009111677296459675,-0.012110673822462559,0.004125813953578472,-1.6456832514336843e-30,0.007183051202446222
0.006594063248485327,0.00941060297191143,-0.011615476571023464,0.004025951959192753,-1.074513626164334e-31,0.007114106323570013
0.007084428798407316,0.009565512649714947,-0.01229045633226633,0.0036806794814765453,-7.015805789768355e-33,0.00754031166434288
0.006818357855081558,0.009950954467058182,-0.010848481208086014,0.0035675608087331057,-4.580819751562874e-34,0.007844794541597366
0.006739024072885513,0.009130116552114487,-0.012704380787909031,0.004110658075660467,-2.990948087438568e-35,0.007799605373293161
0.006739024072885513,0.009130116552114487,-0.012704380787909031,0.004110658075660467,-2.990948087438568e-35,0.007799605373293161
0.007042294833809137,0.009695036336779594,-0.011373541317880154,0.004369731061160564,-1.2750879957981666e-37,0.006614201702177525
0.007147148251533508,0.009036087431013584,-0.011744808405637741,0.004337721969932318,-8.325414054425104e-39,0.006867933552712202
0.006954498123377562,0.008970971219241619,-0.011875553987920284,0.0043427599593997,-5.435902989824187e-40,0.007192413322627544
0.006764116697013378,0.008637484163045883,-0.01184412743896246,0.004315777216106653,-3.5492087504418967e-41,0.007580177392810583
0.006587940268218517,0.008487174287438393,-0.011727001518011093,0.004037246108055115,-2.3177476599932474e-42,0.007004607003182173
0.00696581183001399,0.0092937545850873,-0.011280938982963562,0.0036637180019170046,-1.5134023414708024e-43,0.007231548428535461
0.006808830425143242,0.008679200895130634,-0.012462948448956013,0.003522499930113554,-9.80908925027372e-45,0.007965212687849998
0.006815961562097073,0.008739538490772247,-0.012061221525073051,0.0036809369921684265,-0.0,0.006977823097258806
0.0070447782054543495,0.00938628613948822,-0.012215737253427505,0.004117361269891262,-0.0,0.006667795591056347
0.007339742500334978,0.008953598327934742,-0.012041021138429642,0.003981871996074915,-0.0,0.007121264468878508
0.00701714213937521,0.008511325344443321,-0.011243877001106739,0.0037144245579838753,-0.0,0.007429697550833225
0.007204404566437006,0.008730129338800907,-0.011948995292186737,0.0036027764435857534,-0.0,0.007034683600068092
0.0066888039000332355,0.008839190937578678,-0.01183908898383379,0.00342845031991601,-0.0,0.007119578775018454
0.007131656631827354,0.008675958961248398,-0.012391197495162487,0.0035741222091019154,-0.0,0.007521830033510923
0.0073250662535429,0.008521093055605888,-0.01168882381170988,0.0034110830165445805,-0.0,0.007701839320361614
0.007169446907937527,0.008160527795553207,-0.011331179179251194,0.0035903435200452805,-0.0,0.007567171007394791
0.006755482871085405,0.008490369655191898,-0.011843785643577576,0.004134255927056074,-0.0,0.007077314425259829
0.00735939247533679,0.00906549021601677,-0.011422654613852501,0.004211724270135164,-0.0,0.007130968850106001
0.007147978991270065,0.008149294182658195,-0.012561519630253315,0.003675762563943863,-0.0,0.007068507838994265
0.007128384429961443,0.008366054855287075,-0.011764205060899258,0.003522768383845687,-0.0,0.007008951622992754
0.006913681514561176,0.008735188283026218,-0.011369908228516579,0.0032503793481737375,-0.0,0.0073511903174221516
0.00740033620968461,0.00860737543553114,-0.011924835853278637,0.0034283234272152185,-0.0,0.007263027597218752
0.00761253759264946,0.007997123524546623,-0.011483398266136646,0.0037191323935985565,-0.0,0.007924363017082214
0.006862643174827099,0.00818602554500103,-0.011949080042541027,0.003843117505311966,-0.0,0.007722396869212389
0.007272925693541765,0.008044938556849957,-0.011597695760428905,0.0042191618122160435,-0.0,0.007062661927193403
0.006933878175914288,0.008795282803475857,-0.011428789235651493,0.004130680579692125,-0.0,0.006937726866453886
0.007248461712151766,0.008231177926063538,-0.011063983663916588,0.004075201228260994,-0.0,0.00794912874698639
0.007248461712151766,0.008231177926063538,-0.011063983663916588,0.004075201228260994,-0.0,0.00794912874698639
0.0072546666488051414,0.008855383843183517,-0.011699587106704712,0.003480427898466587,-0.0,0.008101504296064377
0.007195250131189823,0.00873131025582552,-0.011304548010230064,0.0036345135886222124,-0.0,0.008014467544853687
0.007195250131189823,0.00873131025582552,-0.011304548010230064,0.0036345135886222124,-0.0,0.008014467544853687
0.0069538913667202,0.00798100046813488,-0.011990190483629704,0.0038080159574747086,-0.0,0.007146620657294989
0.007153783924877644,0.007729848846793175,-0.011142444796860218,0.0038751771207898855,-0.0,0.007151625584810972
0.007493096869438887,0.008383776061236858,-0.011758822947740555,0.003803923260420561,-0.0,0.00672765402123332
0.007271965034306049,0.008463602513074875,-0.011642553843557835,0.0037248842418193817,-0.0,0.007282828446477652
0.007163756061345339,0.007746409624814987,-0.011570381931960583,0.003803290892392397,-0.0,0.007932987064123154
0.0070232851430773735,0.008146542124450207,-0.01190580241382122,0.00345227331854403,-0.0,0.007196514401584864
0.007254498545080423,0.008886154741048813,-0.011926168575882912,0.0034861075691878796,-0.0,0.006868868600577116
0.007701919414103031,0.008519397117197514,-0.011758341453969479,0.0035063147079199553,-0.0,0.006787467747926712
0.007466765120625496,0.007915559224784374,-0.011648708023130894,0.003586734877899289,-0.0,0.006809018552303314
0.006988235749304295,0.00816392432898283,-0.011651157401502132,0.00356847932562232,-0.0,0.0072867125272750854
0.007388506084680557,0.008298064582049847,-0.011787294410169125,0.0035511970054358244,-0.0,0.007533768657594919
0.007835384458303452,0.008285571821033955,-0.011644067242741585,0.0036418417003005743,-0.0,0.007495160214602947
0.007460874039679766,0.007895822636783123,-0.011932157911360264,0.003808228764683008,-0.0,0.007251582108438015
0.007159158121794462,0.008410858921706676,-0.011718359775841236,0.003830879693850875,-0.0,0.007267240434885025
0.007411146070808172,0.008804836310446262,-0.011920747347176075,0.003560776123777032,-0.0,0.007468033581972122
0.007274854462593794,0.008443156257271767,-0.011813189834356308,0.003412792691960931,-0.0,0.007646199315786362
0.007109834346920252,0.00843754131346941,-0.01123799942433834,0.003597174771130085,-0.0,0.0075773270800709724
0.007406493648886681,0.00850636139512062,-0.011863925494253635,0.0041777328588068485,-0.0,0.007440314628183842
0.007656918838620186,0.008178429678082466,-0.011881311424076557,0.003772263415157795,-0.0,0.007445567287504673
0.007634573150426149,0.008319448679685593,-0.012394122779369354,0.0035730598028749228,-0.0,0.007138936314731836
0.007758913561701775,0.008700275793671608,-0.011714344844222069,0.0036707385443150997,-0.0,0.007272967137396336
0.007405717857182026,0.008242186158895493,-0.01149502582848072,0.003864668309688568,-0.0,0.00744191138073802
0.00777234835550189,0.009159323759377003,-0.012048677541315556,0.003497418249025941,-0.0,0.007705162279307842
0.007367374841123819,0.008475902490317822,-0.011768304742872715,0.0036370824091136456,-0.0,0.007609651889652014
0.007189679890871048,0.008425400592386723,-0.01191608514636755,0.0037678892258554697,-0.0,0.006888893432915211
0.007501105312258005,0.00856036227196455,-0.011945994570851326,0.004081167280673981,-0.0,0.006853174418210983
0.007549601141363382,0.00868330616503954,-0.012245620600879192,0.00423390744253993,-0.0,0.00701324874535203
0.008269579149782658,0.008325587026774883,-0.011696567758917809,0.0036275037564337254,-0.0,0.007349813356995583
0.008269579149782658,0.008325587026774883,-0.011696567758917809,0.0036275037564337254,-0.0,0.007349813356995583
0.0072401282377541065,0.008937963284552097,-0.01244573574513197,0.0038919118233025074,-0.0,0.007647028658539057
0.007164265960454941,0.008680485188961029,-0.012198196724057198,0.0042043947614729404,-0.0,0.007509741932153702
0.008072134107351303,0.00883549079298973,-0.01199941337108612,0.004019414074718952,-0.0,0.0070945401675999165
0.007802742067724466,0.008608361706137657,-0.012346196919679642,0.003838471369817853,-0.0,0.007150495424866676
0.0076069096103310585,0.008415687829256058,-0.011590173467993736,0.0034850246738642454,-0.0,0.007298164069652557
0.00791406724601984,0.00888708047568798,-0.012124083004891872,0.0033613620325922966,-0.0,0.007349321618676186
0.007973606698215008,0.008437350392341614,-0.012220394797623158,0.0032460589427500963,-0.0,0.007327498868107796
0.0070347413420677185,0.008364205248653889,-0.012052356265485287,0.003241531318053603,-0.0,0.00799153745174408
0.007071358151733875,0.008459783159196377,-0.01176381018012762,0.003464663401246071,-0.0,0.00675817858427763
0.007560642436146736,0.00886543933302164,-0.011359037831425667,0.00422939145937562,-0.0,0.006275142077356577
0.008131759241223335,0.008597437292337418,-0.012195124290883541,0.004238400608301163,-0.0,0.007014596834778786
0.007713432423770428,0.0080775897949934,-0.011425670236349106,0.004010024480521679,-0.0,0.007722972426563501
0.007721219211816788,0.008761255070567131,-0.012318757362663746,0.0037986249662935734,-0.0,0.008015240542590618
0.008004531264305115,0.008813253603875637,-0.011848574504256248,0.003717039478942752,-0.0,0.0077664838172495365
0.007703004404902458,0.00822707824409008,-0.011148526333272457,0.003751574084162712,-0.0,0.00806494615972042
0.007531404495239258,0.0088240010663867,-0.011988160200417042,0.0037400168366730213,-0.0,0.007861197926104069
0.00810445100069046,0.00880406890064478,-0.011248808354139328,0.0038405561354011297,-0.0,0.0075829210691154
0.00810445100069046,0.00880406890064478,-0.011248808354139328,0.0038405561354011297,-0.0,0.0075829210691154
0.007879492826759815,0.00815687794238329,-0.011667748913168907,0.003529503010213375,-0.0,0.007613930385559797
0.007388688158243895,0.008005944080650806,-0.011394183151423931,0.003604065626859665,-0.0,0.007307966239750385
0.007388688158243895,0.008005944080650806,-0.011394183151423931,0.003604065626859665,-0.0,0.007307966239750385
0.007922808639705181,0.00802489835768938,-0.011240571737289429,0.0035728614311665297,-0.0,0.007230010349303484
0.007311947178095579,0.008970420807600021,-0.011685553006827831,0.003552936716005206,-0.0,0.007786812260746956
0.007311947178095579,0.008970420807600021,-0.011685553006827831,0.003552936716005206,-0.0,0.007786812260746956
0.007462577428668737,0.008105197921395302,-0.010911884717643261,0.003394009778276086,-0.0,0.007809269707649946
0.00824001431465149,0.007939079776406288,-0.011859076097607613,0.003744620131328702,-0.0,0.007507377304136753
0.008271446451544762,0.008278246968984604,-0.011347094550728798,0.004077807068824768,-0.0,0.007413999643176794
0.007784898858517408,0.00827768910676241,-0.01103237085044384,0.004079988691955805,-0.0,0.007528646383434534
0.007816527970135212,0.008297115564346313,-0.011083482764661312,0.004238835070282221,-0.0,0.007472002413123846
0.007815049029886723,0.008169450797140598,-0.01182509958744049,0.0040256669744849205,-0.0,0.0075592887587845325
0.007959765382111073,0.00865258276462555,-0.011858277022838593,0.004137429408729076,-0.0,0.0077078319154679775
0.007504563312977552,0.008271649479866028,-0.011327903717756271,0.004214092623442411,-0.0,0.008020677603781223
0.007528378162533045,0.008162155747413635,-0.011113874614238739,0.004112645518034697,-0.0,0.007822852581739426
0.007924153469502926,0.008384600281715393,-0.011303438805043697,0.003754167351871729,-0.0,0.007563733961433172
0.007897218689322472,0.008112077601253986,-0.011020532809197903,0.003847334533929825,-0.0,0.007486566435545683
0.008069336414337158,0.008306816220283508,-0.011942419223487377,0.004184928722679615,-0.0,0.0077986870892345905
0.008455180563032627,0.008678439073264599,-0.011411968618631363,0.004457269795238972,-0.0,0.00786704570055008
0.008103086613118649,0.008333920501172543,-0.011088206432759762,0.004225338343530893,-0.0,0.007764450274407864
0.007781450171023607,0.008350457064807415,-0.011390282772481441,0.004078053403645754,-0.0,0.00787043571472168
0.007484858389943838,0.007958256639540195,-0.010973231866955757,0.003681145142763853,-0.0,0.007607338484376669
0.008057333528995514,0.00870345626026392,-0.011793870478868484,0.003541422076523304,-0.0,0.007744371425360441
0.008786845952272415,0.00848295446485281,-0.011534477584064007,0.0036914029624313116,-0.0,0.007679544389247894
0.0079780463129282,0.008276618085801601,-0.010955765843391418,0.0039986674673855305,-0.0,0.007693130057305098
0.0079780463129282,0.008276618085801601,-0.010955765843391418,0.0039986674673855305,-0.0,0.007693130057305098
0.007772920187562704,0.009068346582353115,-0.011911869049072266,0.004113576840609312,-0.0,0.007423065602779388
0.007987012155354023,0.008124155923724174,-0.011641710065305233,0.004113765433430672,-0.0,0.007347214501351118
0.0080459825694561,0.008071726188063622,-0.011688797734677792,0.004128654487431049,-0.0,0.007763172499835491
0.00780752208083868,0.008859929628670216,-0.010684624314308167,0.0041884975507855415,-0.0,0.007442794274538755
0.008132297545671463,0.008414878509938717,-0.011113157495856285,0.00401215860620141,-0.0,0.007472872734069824
0.008209042251110077,0.007998977787792683,-0.010977676138281822,0.0039272792637348175,-0.0,0.007439058739691973
0.008117390796542168,0.00782299879938364,-0.011535140685737133,0.004144313279539347,-0.0,0.007984213531017303
0.008340134285390377,0.008940355852246284,-0.011349312961101532,0.004302832763642073,-0.0,0.00805658008903265
0.008258337154984474,0.008042366243898869,-0.010733586736023426,0.004248596727848053,-0.0,0.007623889483511448
0.007959834299981594,0.008115675300359726,-0.01179842185229063,0.0042140549048781395,-0.0,0.007982433773577213
0.008187277242541313,0.009118548594415188,-0.011292719282209873,0.003988475073128939,-0.0,0.007951590232551098
0.00859091617166996,0.008629566989839077,-0.011251943185925484,0.004185590427368879,-0.0,0.0075487797148525715
0.008505048230290413,0.008070376701653004,-0.011385554447770119,0.004119650926440954,-0.0,0.007798408158123493
0.007795346900820732,0.008214212022721767,-0.011033131740987301,0.004036335274577141,-0.0,0.007668076083064079
0.008304583840072155,0.008523661643266678,-0.011025178246200085,0.003966364543884993,-0.0,0.007600679993629456
0.008982518687844276,0.00837021879851818,-0.010900185443460941,0.0038871741853654385,-0.0,0.007774439640343189
0.008523184806108475,0.00817335769534111,-0.010597886517643929,0.0038318203296512365,-0.0,0.007648317143321037
0.008878124877810478,0.008367094211280346,-0.011391393840312958,0.004082943312823772,-0.0,0.0075934589840471745
0.009301682934165001,0.008476486429572105,-0.010914953425526619,0.0042140600271523,-0.0,0.008011854253709316
0.008356239646673203,0.008424529805779457,-0.01110405009239912,0.0040743970312178135,-0.0,0.007881556637585163
0.008185647428035736,0.007887066341936588,-0.011165425181388855,0.004070750437676907,-0.0,0.00753896776586771
0.008647686801850796,0.008697357960045338,-0.010689042508602142,0.003922628238797188,-0.0,0.00807866919785738
0.008892474696040154,0.008344041183590889,-0.011294225230813026,0.004134871996939182,-0.0,0.007757040672004223
0.008728994987905025,0.008167333900928497,-0.011319401673972607,0.003626225981861353,-0.0,0.007463822141289711
0.00881336908787489,0.008304567076265812,-0.011004594154655933,0.003561139339581132,-0.0,0.007877031341195107
0.008718795143067837,0.008241232484579086,-0.012045574374496937,0.003937333822250366,-0.0,0.008336419239640236
0.008718795143067837,0.008241232484579086,-0.012045574374496937,0.003937333822250366,-0.0,0.008336419239640236
0.008666123263537884,0.00753081776201725,-0.011563993990421295,0.004173867870122194,-0.0,0.00832886341959238
0.009300019592046738,0.008138731122016907,-0.011830289848148823,0.003985043615102768,-0.0,0.008960689418017864
0.008533830754458904,0.008122255094349384,-0.01139580737799406,0.004319662228226662,-0.0,0.007486588787287474
0.008592071942985058,0.007877953350543976,-0.011570475995540619,0.004225129261612892,-0.0,0.007435414008796215
0.009314281865954399,0.007972577586770058,-0.011283377185463905,0.004255909938365221,-0.0,0.007694255094975233
0.008764714002609253,0.008215581998229027,-0.010934998281300068,0.004013246390968561,-0.0,0.008587040938436985
0.009286684915423393,0.008102419786155224,-0.011053534224629402,0.003760728519409895,-0.0,0.008491800166666508
0.009151306003332138,0.00759125454351306,-0.01069228257983923,0.0037874020636081696,-0.0,0.00835137814283371
0.009686769917607307,0.0076312837190926075,-0.011518296785652637,0.0038673747330904007,-0.0,0.007970544509589672
0.008576378226280212,0.00830864068120718,-0.011806389316916466,0.004239557310938835,-0.0,0.008716973476111889
0.008753902278840542,0.007840190082788467,-0.01118738017976284,0.004579833708703518,-0.0,0.008421598002314568
0.00919486116617918,0.008142177015542984,-0.011958020739257336,0.004624778870493174,-0.0,0.00837248470634222
0.008852986618876457,0.008538651280105114,-0.01142552588135004,0.004407311789691448,-0.0,0.007870737463235855
0.008957033045589924,0.00795716978609562,-0.011511613614857197,0.004143099766224623,-0.0,0.008217982947826385
0.009268938563764095,0.0075248233042657375,-0.011697858572006226,0.0038198407273739576,-0.0,0.008213603869080544
0.009052607230842113,0.007854368537664413,-0.011199254542589188,0.0035184817388653755,-0.0,0.008150228299200535
0.009118502959609032,0.007824908010661602,-0.011728872545063496,0.0036202003248035908,-0.0,0.008480739779770374
0.00929655134677887,0.00721287727355957,-0.011101081036031246,0.004158833529800177,-0.0,0.00836985930800438
0.008855604566633701,0.006992465350776911,-0.01167070772498846,0.004719994030892849,-0.0,0.008204901590943336
0.009515073150396347,0.007072283420711756,-0.011467615142464638,0.004312676843255758,-0.0,0.008204287849366665
0.009371917694807053,0.007571008987724781,-0.01080226618796587,0.0044092158786952496,-0.0,0.008481277152895927
0.009455743245780468,0.0072047775611281395,-0.01178241241723299,0.004194045905023813,-0.0,0.008060173131525517
0.00913531519472599,0.006979260127991438,-0.01115624699741602,0.004025223199278116,-0.0,0.007646672893315554
0.00931892916560173,0.006812292616814375,-0.011179481633007526,0.0039548445492982864,-0.0,0.008000205270946026
0.00931892916560173,0.006812292616814375,-0.011179481633007526,0.0039548445492982864,-0.0,0.008000205270946026
0.009547567926347256,0.007411736063659191,-0.011102242395281792,0.004337896592915058,-0.0,0.008318188600242138
0.009409555234014988,0.006612197961658239,-0.011707606725394726,0.004280351102352142,-0.0,0.00833372212946415
0.009069075807929039,0.006634598132222891,-0.011138495989143848,0.004277921747416258,-0.0,0.008079280145466328
0.009238047525286674,0.0071080345660448074,-0.011028383858501911,0.00449736462906003,-0.0,0.008190372958779335
0.010331427678465843,0.007137051783502102,-0.011674508452415466,0.004458616487681866,-0.0,0.008466353639960289
0.009746566414833069,0.006929253693670034,-0.010988439433276653,0.004116946831345558,-0.0,0.008532209321856499
0.008951187133789062,0.006798083428293467,-0.011331758461892605,0.003950037993490696,-0.0,0.008447776548564434
0.009632301516830921,0.006651822943240404,-0.011716512963175774,0.004289230331778526,-0.0,0.008287632837891579
0.009709077887237072,0.006939284969121218,-0.011536002159118652,0.004186822567135096,-0.0,0.008877170272171497
0.009359752759337425,0.0069493986666202545,-0.011403149925172329,0.004111649934202433,-0.0,0.008672085590660572
0.00903587881475687,0.0065496996976435184,-0.010999162681400776,0.00414126506075263,-0.0,0.008615926839411259
0.009390267543494701,0.006320569198578596,-0.011459467001259327,0.004060136619955301,-0.0,0.008866668678820133
0.009393665939569473,0.007150616496801376,-0.011363853700459003,0.004242444410920143,-0.0,0.008480599150061607
0.009266749955713749,0.007408015429973602,-0.01102382317185402,0.004362847656011581,-0.0,0.008321668952703476
0.010042017325758934,0.006647882517427206,-0.011587546207010746,0.004366341046988964,-0.0,0.008231083862483501
0.010397526435554028,0.006829641759395599,-0.011257079429924488,0.0045949798077344894,-0.0,0.008377506397664547
0.009256013669073582,0.0070625790394842625,-0.011166858486831188,0.004568035714328289,-0.0,0.008672595955431461
0.009784271940588951,0.007053156848996878,-0.01152923796325922,0.004134912509471178,-0.0,0.008532317355275154
0.010387450456619263,0.006919629406183958,-0.011021720245480537,0.004258865024894476,-0.0,0.008580946363508701
0.009146567434072495,0.006996829994022846,-0.011517621576786041,0.004414000548422337,-0.0,0.00866627786308527
0.009622165933251381,0.0074613927863538265,-0.010934881865978241,0.004767062142491341,-0.0,0.00878463126718998
0.009934306144714355,0.00707570556551218,-0.011085947044193745,0.004686533939093351,-1.5622349565092009e-06,0.008649561554193497
0.009934306144714355,0.00707570556551218,-0.011085947044193745,0.004686533939093351,-1.5622349565092009e-06,0.008649561554193497
0.009504958055913448,0.006904715206474066,-0.011783737689256668,0.004563678987324238,-4.3485384737529387e-10,0.008427430875599384
0.009504958055913448,0.006904715206474066,-0.011783737689256668,0.004563678987324238,-4.3485384737529387e-10,0.008427430875599384
0.009054863825440407,0.00743050267919898,-0.011619184166193008,0.004602564498782158,-2.839284536648723e-11,0.008429278619587421
0.009986065328121185,0.007181505206972361,-0.011702525429427624,0.004459829069674015,-1.2104314946193018e-13,0.008796785958111286
0.009587688371539116,0.006948869209736586,-0.011365150101482868,0.004908958449959755,-7.903252772817511e-15,0.008875260129570961
0.009587688371539116,0.006948869209736586,-0.011365150101482868,0.004908958449959755,-7.903252772817511e-15,0.008875260129570961
0.009743009693920612,0.007124182768166065,-0.011825415305793285,0.004548606928437948,-5.160258651757982e-16,0.008620146661996841
0.009789261035621166,0.007139862049371004,-0.011548186652362347,0.004535989370197058,-3.369280342857118e-17,0.008936946280300617
0.00951350200921297,0.006920620333403349,-0.011115700006484985,0.004336655605584383,-2.1998992467939654e-18,0.00917589571326971
0.009969675913453102,0.007011173292994499,-0.011713911779224873,0.004375798162072897,-1.436377032466341e-19,0.008566750213503838
0.010289973579347134,0.007622524630278349,-0.011237263679504395,0.004574262071400881,-9.378515623989408e-21,0.009290115907788277
0.009159786626696587,0.007113118655979633,-0.011541447602212429,0.004794679116457701,-6.123500843688661e-22,0.009692865423858166
0.009849552996456623,0.006671311799436808,-0.01173232588917017,0.004765130579471588,-3.998208653936259e-23,0.008203575387597084
0.01036863774061203,0.006723048631101847,-0.011261838488280773,0.0047583612613379955,-2.6105444587051014e-24,0.008170614950358868
0.009248198941349983,0.006877305451780558,-0.011590270325541496,0.005007303785532713,-1.7044987837034773e-25,0.009018517099320889
0.00982035230845213,0.007154290564358234,-0.011340954340994358,0.004551529418677092,-1.112915874696466e-26,0.009026599116623402
0.01035718247294426,0.006786443758755922,-0.01192515715956688,0.0045429435558617115,-7.266545235752707e-28,0.008806904777884483
0.009638804942369461,0.006661251187324524,-0.012211635708808899,0.004635259509086609,-4.744534436529032e-29,0.008963165804743767
0.00957474485039711,0.007323086727410555,-0.011573977768421173,0.004737997893244028,-3.0978419526655054e-30,0.009813048876821995
0.01051148772239685,0.007519745733588934,-0.011934059672057629,0.004780643153935671,-2.0226693678779875e-31,0.009210705757141113
0.009370979852974415,0.007398463319987059,-0.0112868407741189,0.0046638729982078075,-1.3206584991940334e-32,0.009531318210065365
0.00978329312056303,0.0068547832779586315,-0.01173421647399664,0.0046529811806976795,-8.622956359891972e-34,0.00910147000104189
0.010487937368452549,0.00698854262009263,-0.01200067438185215,0.004621056839823723,-5.630174834169795e-35,0.009053345769643784
0.009374720975756645,0.00742065766826272,-0.011648750863969326,0.004611731041222811,-3.676101729793387e-36,0.00944556389003992
0.00966147892177105,0.0070019494742155075,-0.011545959860086441,0.004919903818517923,-2.400231899135229e-37,0.009512248449027538
0.009646042250096798,0.006513630971312523,-0.011204582639038563,0.004835736006498337,-1.567179692376503e-38,0.009037630632519722
0.009525783360004425,0.006845436990261078,-0.011607268825173378,0.004422229714691639,-1.023256164619268e-39,0.0095320800319314
0.009525783360004425,0.006845436990261078,-0.011607268825173378,0.004422229714691639,-1.023256164619268e-39,0.0095320800319314
0.009350820444524288,0.006971145514398813,-0.011127176694571972,0.0045456294901669025,-4.3622421194431555e-42,0.009163083508610725
0.009350820444524288,0.006971145514398813,-0.011127176694571972,0.0045456294901669025,-4.3622421194431555e-42,0.009163083508610725
0.009081474505364895,0.007145248353481293,-0.011622590944170952,0.0041811782866716385,-2.8446358825793787e-43,0.009182455949485302
0.010663943365216255,0.007041618227958679,-0.011751729995012283,0.005032782908529043,-1.401298464324817e-45,0.00926237553358078
0.009516076184809208,0.007008377928286791,-0.011860992759466171,0.004882992710918188,-0.0,0.009252890944480896
0.010048601776361465,0.006790929473936558,-0.011140041053295135,0.00463884137570858,-0.0,0.009388825856149197
0.010153398849070072,0.006922693457454443,-0.011808263137936592,0.004571155179291964,-0.0,0.009519679471850395
0.009615098126232624,0.006853139493614435,-0.011034784838557243,0.004931997507810593,-1.4256307622417808e-05,0.0102024395018816
0.009772084653377533,0.007370352745056152,-0.01152473408728838,0.005030110944062471,-0.00010976595513056964,0.01010171603411436
0.009950319305062294,0.0074952756986021996,-0.011340266093611717,0.005389739293605089,-0.0001132570905610919,0.009896283969283104
0.009533523581922054,0.006626840215176344,-0.011185544542968273,0.004738887771964073,-0.00011087484745075926,0.009783285669982433
0.00977324228733778,0.006526994053274393,-0.012005921453237534,0.004620148800313473,-0.0001242829457623884,0.009455923922359943
0.009890208020806313,0.00720807584002614,-0.011722560040652752,0.004621093161404133,-0.00012646727554965764,0.009167550131678581
0.009743536822497845,0.00705836433917284,-0.011824874207377434,0.005158086307346821,-0.00013405154459178448,0.009392231702804565
0.010415208525955677,0.006732714828103781,-0.01189062837511301,0.005180498119443655,-0.00014064545393921435,0.009490160271525383
0.010069446638226509,0.0064174095168709755,-0.011251074261963367,0.004962895065546036,-0.00013818674779031426,0.009558353573083878
0.009890655055642128,0.006593985948711634,-0.012489709071815014,0.0051025040447711945,-0.0001352606195723638,0.009431453421711922
0.010480817407369614,0.0069635105319321156,-0.011790532618761063,0.004616863559931517,-0.00014885456766933203,0.009773511439561844
0.009754439815878868,0.006939567159861326,-0.012289781123399734,0.004603752866387367,-0.0001480597275076434,0.009572558104991913
0.009718922898173332,0.007079015951603651,-0.012420134618878365,0.004639677703380585,-0.0001452215074095875,0.009051688015460968
0.010056358762085438,0.00706415856257081,-0.01171376183629036,0.005039853043854237,-0.0002950145862996578,0.009807096794247627
0.009824536740779877,0.0076865628361701965,-0.011907346546649933,0.005144887138158083,-0.0003224983811378479,0.009840131737291813
0.010079020634293556,0.006769515108317137,-0.011595221236348152,0.005608995445072651,-0.00030389809398911893,0.009748383425176144
0.010154950432479382,0.006651845760643482,-0.012514953501522541,0.005149629898369312,-0.0002848583972081542,0.009900546632707119
0.009889968670904636,0.0067597972229123116,-0.012629171833395958,0.004597654566168785,-0.00030737282941117883,0.010364997200667858
0.009821918793022633,0.007068490609526634,-0.012597570195794106,0.004468353930860758,-0.0003024949983227998,0.0094210896641016
0.010010617785155773,0.007262860424816608,-0.012224127538502216,0.005152243189513683,-0.00028720786212943494,0.009488620795309544
0.009645587764680386,0.006876567844301462,-0.011833636090159416,0.005304174963384867,-0.0002727493701968342,0.00955804344266653
0.010599794797599316,0.006399971898645163,-0.01225065253674984,0.005315563641488552,-0.0002807659038808197,0.009611813351511955
0.010132238268852234,0.006417927332222462,-0.012108777649700642,0.004896597005426884,-0.0002875617647077888,0.010269995778799057
0.010088023729622364,0.006969606503844261,-0.012503222562372684,0.004692909773439169,-0.00026470920420251787,0.009915987960994244
0.010655875317752361,0.006792797241359949,-0.013030879199504852,0.005634177941828966,-0.00028786039911210537,0.009966850280761719
0.010655875317752361,0.006792797241359949,-0.013030879199504852,0.005634177941828966,-0.00028786039911210537,0.009966850280761719
0.00982260424643755,0.006618311628699303,-0.012468823231756687,0.0059387837536633015,-0.00027891347417607903,0.009893830865621567
0.009980940259993076,0.006972011178731918,-0.011948679573833942,0.005678260698914528,-0.00026864963001571596,0.010636472143232822
0.009962248615920544,0.006958038546144962,-0.01273411139845848,0.004962746519595385,-0.00025899283355101943,0.011419935151934624
0.009801537729799747,0.00659606559202075,-0.01227882131934166,0.0048339045606553555,-0.0002663017367012799,0.009430303238332272
0.010026490315794945,0.006789499428123236,-0.012417075224220753,0.004747538361698389,-0.00025695006479509175,0.009022860787808895
0.010149018839001656,0.0069314902648329735,-0.012183557264506817,0.004934097174555063,-0.0002434293128317222,0.009611036628484726
0.010009422898292542,0.007397012319415808,-0.01196997333317995,0.005321749486029148,-0.00023095670621842146,0.009937725029885769
0.009823200292885303,0.006639185361564159,-0.0124525036662817,0.005541069898754358,-0.00021967952488921583,0.010080022737383842
0.009606434963643551,0.006498211063444614,-0.012280507013201714,0.00505486037582159,-0.00020945204596500844,0.010351520031690598
0.009227128699421883,0.006620299071073532,-0.012711841613054276,0.0047426181845366955,-0.00023742610937915742,0.010101797990500927
0.009964553639292717,0.007251913193613291,-0.01247244980186224,0.004681061487644911,-0.0002297539176652208,0.010413155891001225
0.010284904390573502,0.00693862047046423,-0.012454488314688206,0.005264159291982651,-0.0002205286582466215,0.010415980592370033
0.009989786893129349,0.007257666904479265,-0.011995597742497921,0.00569810951128602,-0.00021188415121287107,0.010406208224594593
0.00989886000752449,0.006636680569499731,-0.01065795961767435,0.0051362947560846806,-0.0002038836246356368,0.010137914679944515
0.009742661379277706,0.007029577158391476,-0.012482449412345886,0.004769877064973116,-0.00019646523287519813,0.010526916943490505
0.009697264060378075,0.006754518020898104,-0.012273536063730717,0.004924537148326635,-0.00021697006013710052,0.010216460563242435
0.010779470205307007,0.006843595765531063,-0.012474394403398037,0.005055096931755543,-0.0002133863599738106,0.010531779378652573
0.010072684846818447,0.0074189347214996815,-0.01191158127039671,0.005546250380575657,-0.00020663300529122353,0.010175780393183231
0.009495636448264122,0.007105541881173849,-0.012410447001457214,0.005849944427609444,-0.00020008576393593103,0.010467198677361012
0.010341177694499493,0.007327243685722351,-0.01199191901832819,0.005305983126163483,-0.0002197642024839297,0.010382227599620819
0.011063561774790287,0.006592013407498598,-0.01177767850458622,0.005204434506595135,-0.00021489031496457756,0.01043232623487711
0.009573088958859444,0.006703241262584925,-0.013119171373546124,0.005120360758155584,-0.00020876865892205387,0.009909112937748432
0.010132300667464733,0.007110175676643848,-0.011519297957420349,0.004999903030693531,-0.0002028926828643307,0.010200107470154762
0.00998890120536089,0.007051721680909395,-0.012118984013795853,0.005645402707159519,-0.0001973317557713017,0.010512505657970905
0.010028460994362831,0.006940776947885752,-0.01207571942359209,0.0057777720503509045,-0.00019206760043743998,0.0101237241178751
0.012021554633975029,0.006889182608574629,-0.012098449282348156,0.006036626175045967,-0.00018707681738305837,0.010088861919939518
0.01124317105859518,0.007488930597901344,-0.012010829523205757,0.005728407297283411,-0.00019038667960558087,0.010055523365736008
0.01124317105859518,0.007488930597901344,-0.012010829523205757,0.005728407297283411,-0.00019038667960558087,0.010055523365736008
0.011334782466292381,0.006333576049655676,-0.012534253299236298,0.006016514264047146,-0.00017689148080535233,0.010678980499505997
0.011334782466292381,0.006333576049655676,-0.012534253299236298,0.006016514264047146,-0.00017689148080535233,0.010678980499505997
0.010896394960582256,0.006881156004965305,-0.011910575442016125,0.006100215017795563,-0.00017020554514601827,0.010294266045093536
0.011058294214308262,0.007021462544798851,-0.012051894329488277,0.005711511708796024,-0.00015823454305063933,0.010333948768675327
0.011637299321591854,0.007248390931636095,-0.01192475389689207,0.0058244760148227215,-0.0001528587454231456,0.010298235341906548
0.010945404879748821,0.006658278871327639,-0.012378554791212082,0.005664037540555,-0.0001697218103799969,0.01015565637499094
0.011329475790262222,0.006911035627126694,-0.012291249819099903,0.005821581464260817,-0.00017125881277024746,0.009808364324271679
0.012203320860862732,0.006984759587794542,-0.012767499312758446,0.005937910173088312,-0.0001664319570409134,0.010433950461447239
0.012006054632365704,0.006871325429528952,-0.0122041255235672,0.005743345245718956,-0.00016148407303262502,0.010544500313699245
0.012142088264226913,0.006830818019807339,-0.012874334119260311,0.005583666730672121,-0.00015679679927416146,0.01039508543908596
0.011872939765453339,0.006679839920252562,-0.012302424758672714,0.00565470801666379,-0.0001523720275145024,0.01014567632228136
0.011640314012765884,0.007373906672000885,-0.012065520510077477,0.00623519578948617,-0.00014819062198512256,0.010512028820812702
0.012116833589971066,0.006788743659853935,-0.012508559040725231,0.005765160545706749,-0.0001442320499336347,0.010684268549084663
0.011800906620919704,0.0064720576629042625,-0.012143832631409168,0.0053654620423913,-0.0001608085003681481,0.01127693708986044
0.011758490465581417,0.006720653269439936,-0.012687369249761105,0.005286072380840778,-0.0001595358335180208,0.011386833153665066
0.011955883353948593,0.006742119789123535,-0.012415682896971703,0.005530298221856356,-0.00015577384328935295,0.010683250613510609
0.011567899957299232,0.007627107668668032,-0.012874983251094818,0.005427828989923,-0.00015202646318357438,0.010674627497792244
0.012036710977554321,0.006884440779685974,-0.012403634376823902,0.005747929681092501,-0.00014844510587863624,0.01103973388671875
0.011605668812990189,0.006498090922832489,-0.012068499810993671,0.005670308601111174,-0.00014502761769108474,0.011021039448678493
0.011967366561293602,0.006727052852511406,-0.01248797308653593,0.005619815085083246,-0.00014176427794154733,0.011081029660999775
0.012617858126759529,0.007070053834468126,-0.011924784630537033,0.00532307056710124,-0.00013864421634934843,0.010336297564208508
0.011706188321113586,0.006924808491021395,-0.012698989361524582,0.005434460937976837,-0.0001524941617390141,0.010471437126398087
0.012038512155413628,0.0063309199176728725,-0.012233632616698742,0.005820080637931824,-0.0001516043848823756,0.01144301425665617
0.012014893814921379,0.006261774804443121,-0.012259067967534065,0.006354444194585085,-0.00014862620446365327,0.011027317494153976
0.01194154191762209,0.006240936927497387,-0.011965770274400711,0.005953039042651653,-0.00014562993601430207,0.010492943227291107
0.011930343694984913,0.007110864855349064,-0.011660206131637096,0.005954755004495382,-0.00014274354907684028,0.011073297820985317
0.011930343694984913,0.007110864855349064,-0.011660206131637096,0.005954755004495382,-0.00014274354907684028,0.011073297820985317
0.011922153644263744,0.006494071800261736,-0.012438998557627201,0.006270234938710928,-0.0001399683824274689,0.010964920744299889
0.011671802960336208,0.006310347467660904,-0.012872056104242802,0.006163407117128372,-0.00013473021681420505,0.011035706847906113
0.01224538404494524,0.006307731848210096,-0.012281844392418861,0.00597987649962306,-0.00013225512520875782,0.0109011335298419
0.012092935852706432,0.006963625550270081,-0.012645174749195576,0.006100787781178951,-0.000129869717056863,0.011345828883349895
0.012422737665474415,0.007082413882017136,-0.012218090705573559,0.006845500785857439,-0.00012756862270180136,0.011012648232281208
0.012816363014280796,0.0066877733916044235,-0.012185422703623772,0.0069309258833527565,-0.00012534759298432618,0.011064715683460236
0.012042919173836708,0.006582248955965042,-0.012286587618291378,0.006631732452660799,-0.00012619441258721054,0.012203373946249485
0.01228691078722477,0.007505430374294519,-0.012227075174450874,0.006098365876823664,-0.0001232698414241895,0.011820236220955849
0.012243280187249184,0.007088418118655682,-0.012752488255500793,0.0062561980448663235,-0.00012001688446616754,0.01155789103358984
0.012251429259777069,0.006402472499758005,-0.011851058341562748,0.006585817318409681,-0.00011690112296491861,0.011204511858522892
0.01246702391654253,0.00657374132424593,-0.012515340931713581,0.006280106958001852,-0.00011394124885555357,0.011203051544725895
0.012465246953070164,0.0067497254349291325,-0.012354811653494835,0.005945281125605106,-0.00011112719948869199,0.01163400523364544
0.012545603327453136,0.006645731627941132,-0.012598877772688866,0.005501600913703442,-0.00010844895587069914,0.011466863565146923
0.012214981950819492,0.006536521017551422,-0.01275924127548933,0.0059585548005998135,-0.00010589690646156669,0.011280947364866734
0.012599069625139236,0.00624341145157814,-0.012267377227544785,0.006760267540812492,-0.00011880510282935575,0.011396272107958794
0.01218646951019764,0.006520690396428108,-0.012821655720472336,0.0068445405922830105,-0.0001210147311212495,0.011433133855462074
0.01267828606069088,0.007252427749335766,-0.012472573667764664,0.006349169183522463,-0.00011867316061398014,0.011920472607016563
0.012949254363775253,0.006867004092782736,-0.01301559992134571,0.0063049690797924995,-0.00011614170944085345,0.012181761674582958
0.012656199745833874,0.006416150834411383,-0.012957379221916199,0.006650391034781933,-0.00011369765707058832,0.01225322112441063
0.01290829572826624,0.006215293891727924,-0.013098766095936298,0.007364390883594751,-0.0001113530743168667,0.012063873931765556
0.012781443074345589,0.006766634527593851,-0.012987433932721615,0.006722687277942896,-0.00010910312266787514,0.01246296614408493
0.01321507804095745,0.007373477332293987,-0.012851109728217125,0.006356248166412115,-0.00010694246884668246,0.012041202746331692
0.01282771397382021,0.0068412646651268005,-0.01353980042040348,0.006401339545845985,-0.00010486567043699324,0.0115811200812459
0.013173006474971771,0.006407293491065502,-0.01284718792885542,0.007087875157594681,-0.00011887143045896664,0.011855271644890308
0.013173006474971771,0.006407293491065502,-0.01284718792885542,0.007087875157594681,-0.00011887143045896664,0.011855271644890308
0.012693523429334164,0.006561043206602335,-0.013607322238385677,0.007447934243828058,-0.00011769470438593999,0.011178686283528805
0.012886108830571175,0.006986053194850683,-0.012930636294186115,0.006752563640475273,-0.00011560304119484499,0.011254610493779182
0.012859273701906204,0.006744734942913055,-0.013604438863694668,0.006389414891600609,-0.00011352460569469258,0.011686144396662712
0.013236678205430508,0.006497458089143038,-0.013099943287670612,0.006884859409183264,-0.0001115151826525107,0.011851792223751545
0.013295314274728298,0.00641738111153245,-0.012820903211832047,0.006684900727123022,-0.00012256948684807867,0.012002848088741302
0.01305144838988781,0.006941389292478561,-0.01306904386729002,0.006586878094822168,-0.00012098560546291992,0.012043775990605354
0.013013120740652084,0.006487362552434206,-0.013036933727562428,0.006727670785039663,-0.00011901688412763178,0.01219956949353218
0.013605929911136627,0.0062447236850857735,-0.013482796028256416,0.007287701591849327,-0.00011708349484251812,0.011967448517680168
0.012943645939230919,0.0063106645829975605,-0.013715116307139397,0.00705205462872982,-0.00011521003034431487,0.011911948211491108
0.013416361063718796,0.007036730647087097,-0.013393041677772999,0.007117470260709524,-0.00011339566117385402,0.011920633725821972
0.013264108449220657,0.006959301419556141,-0.013665622100234032,0.007357639726251364,-0.00011163738963659853,0.012321092188358307
0.013663580641150475,0.006749233230948448,-0.013178573921322823,0.007589590270072222,-0.00012783159036189318,0.011895204894244671
0.013452048413455486,0.0064369309693574905,-0.013561843894422054,0.007474216632544994,-0.00014098217070568353,0.011817114427685738
0.014102485962212086,0.006662291008979082,-0.01288752630352974,0.007298198062926531,-0.0001377857697661966,0.01220742054283619
0.013553300872445107,0.006903513800352812,-0.013500104658305645,0.007193317636847496,-0.00013376312563195825,0.012410328723490238
0.013505877926945686,0.006775398273020983,-0.013313600793480873,0.0070297326892614365,-0.0001299061405006796,0.012891295365989208
0.013395778834819794,0.006649202201515436,-0.013900676742196083,0.007079027127474546,-0.00012626145326066762,0.011804849840700626
0.013791622593998909,0.006350984796881676,-0.01333201490342617,0.0074448720552027225,-0.00014101443230174482,0.01201232336461544
0.01376414019614458,0.007004439365118742,-0.013687818311154842,0.007024963386356831,-0.00014304700016509742,0.012605943717062473
0.013944635167717934,0.006816055625677109,-0.01332136057317257,0.007090679369866848,-0.00013972252781968564,0.012627349235117435
0.014303859323263168,0.0067557236179709435,-0.013417716138064861,0.00725517189130187,-0.0001362220209557563,0.012755957432091236
0.014130927622318268,0.006965897511690855,-0.013521391898393631,0.007301831617951393,-0.00013287170440889895,0.012375319376587868
0.014130927622318268,0.006965897511690855,-0.013521391898393631,0.007301831617951393,-0.00013287170440889895,0.012375319376587868
0.014032005332410336,0.0069447653368115425,-0.013749891892075539,0.007277776021510363,-0.00014570384519174695,0.012669907882809639
0.014805051498115063,0.006463313940912485,-0.013304309919476509,0.007351619191467762,-0.0001443367073079571,0.012424582615494728
0.014805051498115063,0.006463313940912485,-0.013304309919476509,0.007351619191467762,-0.0001443367073079571,0.012424582615494728
0.014529043808579445,0.006498434580862522,-0.013343063183128834,0.007346366997808218,-0.00015103680198080838,0.012663600035011768
0.014626017771661282,0.006501419004052877,-0.013331889174878597,0.0076432134956121445,-0.00015432720829267055,0.012773155234754086
0.015080761164426804,0.006419723387807608,-0.012920653447508812,0.007995623163878918,-0.0001511289447080344,0.012654585763812065
0.01470247097313404,0.006401632912456989,-0.01386511605232954,0.007844178006052971,-0.00019677859381772578,0.013046573847532272
0.01483918633311987,0.005966276861727238,-0.01332421600818634,0.008212641812860966,-0.00023265664640348405,0.013185923919081688
0.014504398219287395,0.006424755789339542,-0.014034953899681568,0.008094577118754387,-0.00022409754456020892,0.012906605377793312
0.014582311734557152,0.006529041565954685,-0.013129189610481262,0.008013470098376274,-0.00021363813721109182,0.012519489042460918
0.01504087820649147,0.006234718952327967,-0.013418413698673248,0.0075234766118228436,-0.00023930335009936243,0.012777382507920265
0.014934350736439228,0.005990003701299429,-0.012949604541063309,0.007346758618950844,-0.0002337910991627723,0.013073465786874294
0.015501548536121845,0.006244735326617956,-0.013711635023355484,0.007799013517796993,-0.00022439120220951736,0.013127822428941727
0.014942440204322338,0.006916600279510021,-0.013703959994018078,0.007412268314510584,-0.00024658150505274534,0.013140812516212463
0.015290528535842896,0.006856136955320835,-0.013593293726444244,0.006820194888859987,-0.00025831579114310443,0.01312037743628025
0.015230287797749043,0.006178853567689657,-0.013852087780833244,0.007119680289179087,-0.00026486936258152127,0.013484225608408451
0.015562272630631924,0.006313677411526442,-0.013497555628418922,0.007979932241141796,-0.00041568122105672956,0.013393145985901356
0.01493639312684536,0.0068682292476296425,-0.013408426195383072,0.007652607746422291,-0.0004768406506627798,0.013589134439826012
0.015584167093038559,0.006453449837863445,-0.01276939082890749,0.00795296672731638,-0.0005128468619659543,0.013375092297792435
0.015232333913445473,0.006255220156162977,-0.013611752539873123,0.007772623095661402,-0.000529043551068753,0.013423407450318336
0.015839913859963417,0.006515223998576403,-0.013326434418559074,0.007688688579946756,-0.0005076610832475126,0.013163086958229542
0.015582929365336895,0.00629360182210803,-0.013767587020993233,0.007740196771919727,-0.0004752282111439854,0.013603978790342808
0.016049953177571297,0.006605456583201885,-0.013246447779238224,0.007750863675028086,-0.0004482513468246907,0.013604434207081795
0.015825161710381508,0.006783612072467804,-0.013682035729289055,0.007843075320124626,-0.0005826910492032766,0.013858138583600521
0.01558432262390852,0.006542472634464502,-0.013269112445414066,0.00850543100386858,-0.0005270685651339591,0.013913176953792572
0.01558432262390852,0.006542472634464502,-0.013269112445414066,0.00850543100386858,-0.0005270685651339591,0.013913176953792572
0.0157224852591753,0.006405861582607031,-0.013274655677378178,0.007395503576844931,-0.0005098890978842974,0.013857127167284489
0.0157224852591753,0.006405861582607031,-0.013274655677378178,0.007395503576844931,-0.0005098890978842974,0.013857127167284489
0.016120152547955513,0.0064011551439762115,-0.013382124714553356,0.00766706932336092,-0.0004683858132921159,0.013905548490583897
0.015897195786237717,0.006235100794583559,-0.013570901937782764,0.008107463829219341,-0.0004838092136196792,0.013915647752583027
0.015846481546759605,0.006534600164741278,-0.013349249958992004,0.0073532951064407825,-0.00048713403521105647,0.014243111945688725
0.01657835952937603,0.006418963428586721,-0.013517790473997593,0.00770124327391386,-0.0004962404491379857,0.014166614972054958
0.016290176659822464,0.006390274967998266,-0.012983464635908604,0.007548389490693808,-0.0005316222668625414,0.014518516138195992
0.016290176659822464,0.006390274967998266,-0.012983464635908604,0.007548389490693808,-0.0005316222668625414,0.014518516138195992
0.016501938924193382,0.006355173420161009,-0.013839487917721272,0.007994642481207848,-0.0005625010817311704,0.013444477692246437
0.016243936493992805,0.00627983920276165,-0.01303394977003336,0.008443409577012062,-0.0005549153429456055,0.013656887225806713
0.016496583819389343,0.00634357612580061,-0.01348145492374897,0.008076302707195282,-0.0008279120665974915,0.014161388389766216
0.01643240638077259,0.0065336888656020164,-0.01310447882860899,0.008078779093921185,-0.000866657414007932,0.01422068290412426
0.016924019902944565,0.006638472434133291,-0.013513782992959023,0.008647407405078411,-0.0008563388837501407,0.01421663910150528
0.016838902607560158,0.006321789231151342,-0.01341137196868658,0.008605956099927425,-0.0008608190109953284,0.014138229191303253
0.016707099974155426,0.006439834367483854,-0.014062488451600075,0.008497463539242744,-0.0008001058013178408,0.014511171728372574
0.01675640232861042,0.006917576305568218,-0.013961675576865673,0.008088876493275166,-0.0008534948574379086,0.01473604142665863
0.016687089577317238,0.006931914947926998,-0.013492572121322155,0.008679586462676525,-0.0009139953181147575,0.014619986526668072
0.017270691692829132,0.006837248336523771,-0.013613947667181492,0.008638622239232063,-0.0009273827890865505,0.014295865781605244
0.016888532787561417,0.0066250041127204895,-0.01343638077378273,0.00863136537373066,-0.0012256995541974902,0.014356113038957119
0.016988227143883705,0.006144907791167498,-0.01413149293512106,0.008493917994201183,-0.0012256132904440165,0.014030448161065578
0.017124593257904053,0.005377928260713816,-0.013962644152343273,0.007993176579475403,-0.0011750598205253482,0.013945583254098892
0.016678471118211746,0.004900696687400341,-0.014051143079996109,0.00805675983428955,-0.0010409028036519885,0.014035427942872047
0.01689841039478779,0.005017956718802452,-0.013810379430651665,0.008301782421767712,-0.0009280929807573557,0.01452768873423338
0.017174843698740005,0.005840967874974012,-0.014194492250680923,0.008908797055482864,-0.000777243752963841,0.014531229622662067
0.01720762439072132,0.005653744097799063,-0.01325282920151949,0.008560928516089916,-0.0007853254210203886,0.015018031932413578
0.017770299687981606,0.005651743616908789,-0.01465820986777544,0.00822788942605257,-0.0007476516766473651,0.01511100959032774
0.016921333968639374,0.0052167875692248344,-0.01404956541955471,0.008847251534461975,-0.0007125118863768876,0.014554746448993683
0.017659883946180344,0.004990653600543737,-0.014176951721310616,0.008432159200310707,-0.0007100907969288528,0.014573462307453156
0.017419597133994102,0.0056383912451565266,-0.014244100078940392,0.008523713797330856,-0.0006652805022895336,0.014815382659435272
0.016981512308120728,0.005437672603875399,-0.014644823037087917,0.008576718159019947,-0.0005963268340565264,0.014729584567248821
0.0168855469673872,0.005801419727504253,-0.014166135340929031,0.00873794686049223,-0.0005764622474089265,0.014877136796712875
0.018188389018177986,0.005527906119823456,-0.014290016144514084,0.00882662832736969,-0.0005614475812762976,0.014607247896492481
0.01800789311528206,0.005717831663787365,-0.013918722048401833,0.008328578434884548,-0.0005735900485888124,0.014666376635432243
0.01800789311528206,0.005717831663787365,-0.013918722048401833,0.008328578434884548,-0.0005735900485888124,0.014666376635432243
0.01702139899134636,0.005870380438864231,-0.013961872085928917,0.008352521806955338,-0.0005361678195185959,0.014317218214273453
0.017596906051039696,0.005533798132091761,-0.01428910531103611,0.008236217312514782,-0.0005285041406750679,0.014259160496294498
0.01753193698823452,0.0058426633477211,-0.013971143402159214,0.008609527722001076,-0.0004942822270095348,0.014676378108561039
0.01803293637931347,0.005439411383122206,-0.014707667753100395,0.007784267887473106,-0.0004626401059795171,0.014895071275532246
0.017775891348719597,0.005186013877391815,-0.01399927120655775,0.00860290415585041,-0.00043470095261000097,0.01484237052500248
0.01757621020078659,0.005392405670136213,-0.014276455156505108,0.008599122986197472,-0.00040994049049913883,0.015247926115989685
0.01788228005170822,0.00562329450622201,-0.013749906793236732,0.008657480590045452,-0.0003878487623296678,0.015066755935549736
0.01687747612595558,0.005620847921818495,-0.014675280079245567,0.008910734206438065,-0.0003680177323985845,0.015255460515618324
0.017648518085479736,0.005603752564638853,-0.01382162980735302,0.008533506654202938,-0.00035011584986932576,0.015119405463337898
0.017406480386853218,0.005158883519470692,-0.014625989831984043,0.00825206097215414,-0.000333875825162977,0.015160422772169113
0.01758582703769207,0.0050194887444376945,-0.014302818104624748,0.00841637421399355,-0.0003190766728948802,0.014945410192012787
0.018242627382278442,0.005919256247580051,-0.014322781004011631,0.008956692181527615,-0.0002788903075270355,0.015424284152686596
0.017876317724585533,0.006360830273479223,-0.013879436999559402,0.00849052146077156,-0.0002595648111309856,0.015133104287087917
0.01811736263334751,0.005990372970700264,-0.014571565203368664,0.008628853596746922,-0.00024520442821085453,0.01627514697611332
0.017959019169211388,0.005668567959219217,-0.013435500673949718,0.008763091638684273,-0.00023251572565641254,0.014710454270243645
0.01760747656226158,0.005234307609498501,-0.014490136876702309,0.00829929206520319,-0.00022108768462203443,0.015143592841923237
0.017897631973028183,0.005802993196994066,-0.014011255465447903,0.00868824403733015,-0.000210730911931023,0.015137857757508755
0.01779322512447834,0.005922353360801935,-0.014400388114154339,0.009176952764391899,-0.00020130259508732706,0.015380460768938065
0.017989035695791245,0.006327654235064983,-0.014042518101632595,0.009471024386584759,-0.00019268023606855422,0.01518260594457388
0.018330328166484833,0.005599646829068661,-0.014711416326463223,0.009484137408435345,-0.00018476754485163838,0.015367344953119755
0.018081730231642723,0.005560902878642082,-0.01387898251414299,0.009739949367940426,-0.00017747881065588444,0.015554279088973999
0.017947306856513023,0.005676850210875273,-0.014234444126486778,0.00955834612250328,-0.00017074341303668916,0.015930982306599617
0.018529046326875687,0.005822005681693554,-0.013797219842672348,0.00929830688983202,-0.00016450125258415937,0.01595849171280861
0.01843482442200184,0.006221158895641565,-0.014700532890856266,0.009225151501595974,-0.0001586988364579156,0.015751441940665245
0.018450098112225533,0.0058571407571434975,-0.013881763443350792,0.00898507796227932,-0.00015329229063354433,0.01560625433921814
0.018453070893883705,0.005575574468821287,-0.014741509221494198,0.008930586278438568,-0.00014824183017481118,0.015716880559921265
0.018453070893883705,0.005575574468821287,-0.014741509221494198,0.008930586278438568,-0.00014824183017481118,0.015716880559921265
0.0181706715375185,0.00532523263245821,-0.014042308554053307,0.009121332317590714,-0.00014351337449625134,0.015879925340414047
0.018559321761131287,0.005817723926156759,-0.014778712764382362,0.009186716750264168,-0.00013907745596952736,0.015418121591210365
0.018365636467933655,0.0060105654411017895,-0.014104996807873249,0.009118763729929924,-0.0001349077356280759,0.015611476264894009
0.018681632354855537,0.005638665519654751,-0.014119806699454784,0.009427300654351711,-0.0001272757799597457,0.015744585543870926
0.018631422892212868,0.0057226973585784435,-0.014398050494492054,0.009301239624619484,-0.00012377466191537678,0.01567046344280243
0.01889299973845482,0.006092055235058069,-0.014152036048471928,0.009292841888964176,-0.00012046135816490278,0.016112608835101128
0.018998635932803154,0.006064298562705517,-0.014838820323348045,0.009667914360761642,-0.00011732035636669025,0.016110358759760857
0.018659738823771477,0.006280612666159868,-0.014325330033898354,0.009544897824525833,-0.00011433932377258316,0.015859106555581093
0.01883304864168167,0.00568061787635088,-0.01499139703810215,0.009840416721999645,-0.00011150594218634069,0.016019713133573532
0.018928062170743942,0.005749495700001717,-0.014372539706528187,0.009981989860534668,-0.00010880947957048193,0.016002504155039787
0.01888030581176281,0.005945004057139158,-0.01489858329296112,0.010461507365107536,-0.00010624068090692163,0.01639627479016781
0.019211534410715103,0.006452599540352821,-0.014178200624883175,0.011173543520271778,-0.0001037900146911852,0.01644808053970337
0.019254665821790695,0.006449508015066385,-0.014826240949332714,0.010570249520242214,-0.00010145009582629427,0.01632864400744438
0.0193986427038908,0.005765697918832302,-0.014277361333370209,0.009937411174178123,-9.921345917973667e-05,0.015560392290353775
0.019684135913848877,0.0056220050901174545,-0.014843219891190529,0.010412473231554031,-9.707303252071142e-05,0.01583288423717022
0.0196969136595726,0.006005558650940657,-0.014279224909842014,0.010011500678956509,-9.502311877440661e-05,0.016138315200805664
0.01955566368997097,0.0064865597523748875,-0.014886808581650257,0.009472406469285488,-9.30581009015441e-05,0.016252664849162102
0.019907696172595024,0.006202646531164646,-0.014710725285112858,0.009715736843645573,-9.117259469348937e-05,0.01671193540096283
0.019795184955000877,0.0058843474835157394,-0.014901736751198769,0.009718320332467556,-8.93620090209879e-05,0.016955358907580376
0.019548265263438225,0.0064370413310825825,-0.014743756502866745,0.009866180829703808,-0.00010284923337167129,0.01647075265645981
0.01953134872019291,0.00589495524764061,-0.015048573724925518,0.010475970804691315,-0.00010298823326593265,0.016278184950351715
0.01897096261382103,0.00656462088227272,-0.014350303448736668,0.010744759812951088,-0.00010119536455022171,0.01651744544506073
0.019648589193820953,0.005991444922983646,-0.014876124449074268,0.010390249080955982,-9.934263653121889e-05,0.01677531935274601
0.020189817994832993,0.005874060094356537,-0.014986846596002579,0.010561813600361347,-9.754866186995059e-05,0.016992827877402306
0.02044227533042431,0.006005004979670048,-0.01521636825054884,0.010007072240114212,-9.581774793332443e-05,0.016740867868065834
0.020337510854005814,0.006120632868260145,-0.015843618661165237,0.01051509939134121,-9.41471807891503e-05,0.016485385596752167
0.019542628899216652,0.006617479957640171,-0.015090158209204674,0.01011729333549738,-9.253388998331502e-05,0.01615963689982891
0.020268434658646584,0.006399359554052353,-0.015397473238408566,0.009811753407120705,-9.097489237319678e-05,0.016277223825454712
0.019673176109790802,0.005950301419943571,-0.015072004869580269,0.010066746734082699,-8.946766320150346e-05,0.01768621988594532
0.019733987748622894,0.006201287265866995,-0.014705360867083073,0.009739170782268047,-8.659807645017281e-05,0.015538926236331463
0.020338546484708786,0.0063367863185703754,-0.015720533207058907,0.010086683556437492,-8.523130236426368e-05,0.016737621277570724
0.020338546484708786,0.0063367863185703754,-0.015720533207058907,0.010086683556437492,-8.523130236426368e-05,0.016737621277570724
0.020213481038808823,0.006221843417733908,-0.015428410843014717,0.010738539509475231,-8.390691800741479e-05,0.016908228397369385
0.019818123430013657,0.006333743222057819,-0.01581929251551628,0.010335314087569714,-9.548060916131362e-05,0.017426254227757454
0.02048128843307495,0.0060197096318006516,-0.015082347206771374,0.010145689360797405,-9.488136129220948e-05,0.01723199523985386
0.02084854617714882,0.00616558687761426,-0.01563086546957493,0.00991080328822136,-9.352763299830258e-05,0.017277641221880913
0.020611658692359924,0.0056108650751411915,-0.015411603264510632,0.010087930597364902,-9.216294711222872e-05,0.017446938902139664
0.020402008667588234,0.005384926684200764,-0.015950337052345276,0.010767162777483463,-9.083434997592121e-05,0.01681029237806797
0.020495440810918808,0.005189517978578806,-0.015683187171816826,0.010327594354748726,-8.954332588473335e-05,0.01721028797328472
0.020226601511240005,0.005755078513175249,-0.01613868772983551,0.009856002405285835,-9.925465565174818e-05,0.017205512151122093
0.02008318342268467,0.005419567693024874,-0.016300132498145103,0.010015979409217834,-9.939917072188109e-05,0.01738973893225193
0.02017120271921158,0.005776300095021725,-0.016266310587525368,0.010275729931890965,-9.814314398681745e-05,0.01771484687924385
0.02033410407602787,0.005608025938272476,-0.01674552634358406,0.010103074833750725,-9.682971722213551e-05,0.017313191667199135
0.020389825105667114,0.005522242281585932,-0.015703458338975906,0.010167661122977734,-9.55452851485461e-05,0.017675701528787613
0.020749641582369804,0.0051602767780423164,-0.016579272225499153,0.009768699295818806,-8.433626499027014e-05,0.018056349828839302
0.02078338712453842,0.005215171724557877,-0.016306407749652863,0.01018610130995512,-7.358337461482733e-05,0.017749838531017303
0.020403405651450157,0.005477223079651594,-0.016427215188741684,0.010274022817611694,-7.17969742254354e-05,0.01795484684407711
0.020694535225629807,0.005405028350651264,-0.016776157543063164,0.010292910039424896,-7.063011435093358e-05,0.017525197938084602
0.02106609381735325,0.005675806198269129,-0.01609858125448227,0.010469337925314903,-6.953608681214973e-05,0.017591264098882675
0.02053789608180523,0.005195613019168377,-0.016407374292612076,0.010771609842777252,-6.847774784546345e-05,0.01789640635251999
0.02061588503420353,0.005538874305784702,-0.015384219586849213,0.010717748664319515,-7.746837218292058e-05,0.01765504665672779
0.020840201526880264,0.005215727258473635,-0.01630036160349846,0.010858217254281044,-7.951948646223173e-05,0.018154017627239227
0.021207278594374657,0.0053869858384132385,-0.01621788553893566,0.010922339744865894,-7.857096352381632e-05,0.017718786373734474
0.02066848799586296,0.005559649784117937,-0.01655070297420025,0.011076662689447403,-7.74575091782026e-05,0.017733341082930565
0.021316368132829666,0.005159259308129549,-0.01643572375178337,0.01052931509912014,-8.763413643464446e-05,0.01801924593746662
0.021190430968999863,0.005163982510566711,-0.016935303807258606,0.010215675458312035,-8.662595791975036e-05,0.018087901175022125
0.020841795951128006,0.004839793778955936,-0.01619616150856018,0.010730866342782974,-9.607962419977412e-05,0.01816519722342491
0.021347692236304283,0.005465556867420673,-0.017106695100665092,0.010742059908807278,-9.626250539440662e-05,0.01800203137099743
0.021869290620088577,0.005167949479073286,-0.016766047105193138,0.01125789899379015,-9.508700168225914e-05,0.018221773207187653
0.021869290620088577,0.005167949479073286,-0.016766047105193138,0.01125789899379015,-9.508700168225914e-05,0.018221773207187653
0.020380230620503426,0.004871750716120005,-0.016950905323028564,0.011221162043511868,-0.0001840736367739737,0.018295183777809143
0.02182464487850666,0.004919128958135843,-0.01726277358829975,0.011045222170650959,-0.0002576725964900106,0.01807464472949505
0.021923499181866646,0.004966610111296177,-0.016602426767349243,0.011721032671630383,-0.0002489206090103835,0.018076060339808464
0.02143743447959423,0.004828624427318573,-0.016822058707475662,0.011473285034298897,-0.0002802015806082636,0.01792885921895504
0.021669935435056686,0.005189477000385523,-0.016670018434524536,0.011239251121878624,-0.00026912629255093634,0.018493138253688812
0.021736813709139824,0.0050685410387814045,-0.01722239889204502,0.011351507157087326,-0.00028809159994125366,0.018801385536789894
0.02194052003324032,0.004671871662139893,-0.017256177961826324,0.01075357012450695,-0.000284988695057109,0.018676748499274254
0.021800123155117035,0.004846410360187292,-0.01694818213582039,0.010794444009661674,-0.0002732737339101732,0.019250376150012016
0.021969247609376907,0.00536844739690423,-0.017447521910071373,0.010817649774253368,-0.0002943834406323731,0.019375639036297798
0.02293468452990055,0.004963960964232683,-0.016106432303786278,0.010686182416975498,-0.0002870972966775298,0.018781298771500587
0.021956313401460648,0.004969029221683741,-0.016821712255477905,0.011145886033773422,-0.0002763661614153534,0.01897764764726162
0.022402985021471977,0.004894912242889404,-0.016838673502206802,0.010796929709613323,-0.0003641213697846979,0.019157472997903824
0.021933311596512794,0.004686782136559486,-0.017089540138840675,0.010710199363529682,-0.0003666238917503506,0.018701067194342613
0.02157546579837799,0.004572192672640085,-0.017197582870721817,0.010678877122700214,-0.00040433855610899627,0.019030621275305748
0.022353066131472588,0.004535837564617395,-0.01640576682984829,0.010662938468158245,-0.00042674949509091675,0.019426973536610603
0.022626295685768127,0.004993030801415443,-0.016902757808566093,0.01126222126185894,-0.00044230467756278813,0.020441489294171333
0.02244648151099682,0.004950568079948425,-0.01676199398934841,0.011184380389750004,-0.00044280209112912416,0.01878570206463337
0.022695716470479965,0.004966264124959707,-0.016938503831624985,0.011137692257761955,-0.0006745689315721393,0.01872212253510952
0.022729994729161263,0.004761459305882454,-0.016856007277965546,0.011309717781841755,-0.000715621339622885,0.018675735220313072
0.023132074624300003,0.0047783697955310345,-0.01645730808377266,0.011406395584344864,-0.000738152302801609,0.019729631021618843
0.023108260706067085,0.005122613627463579,-0.016741693019866943,0.011654320172965527,-0.0007365440251305699,0.02006448060274124
0.023357393220067024,0.005361828487366438,-0.016168612986803055,0.011688735336065292,-0.0006879455759190023,0.019350925460457802
0.022565504536032677,0.005176614969968796,-0.017109937965869904,0.011673894710838795,-0.0007327906205318868,0.018306663259863853
0.022935548797249794,0.004940229933708906,-0.016917167231440544,0.012043341994285583,-0.0006641772342845798,0.018570955842733383
0.0230870321393013,0.0046403598971664906,-0.016698984429240227,0.011492501012980938,-0.0006804385920986533,0.019284307956695557
0.023713376373052597,0.004636083729565144,-0.016582448035478592,0.011522163636982441,-0.0006656102486886084,0.02011806145310402
0.023853834718465805,0.0050582801923155785,-0.016995934769511223,0.011524811387062073,-0.0006579143228009343,0.019263507798314095
0.023853834718465805,0.0050582801923155785,-0.016995934769511223,0.011524811387062073,-0.0006579143228009343,0.019263507798314095
0.023561319336295128,0.005589102394878864,-0.01685485430061817,0.011209920048713684,-0.0006112914998084307,0.020422527566552162
0.023561319336295128,0.005589102394878864,-0.01685485430061817,0.011209920048713684,-0.0006112914998084307,0.020422527566552162
0.023669172078371048,0.0053003448992967606,-0.016936449334025383,0.011815767735242844,-0.0005462463013827801,0.02082710899412632
0.02390175126492977,0.00485064135864377,-0.016581740230321884,0.012213156558573246,-0.0005779403727501631,0.01994192972779274
0.02411150373518467,0.0053750998340547085,-0.01699112355709076,0.012265531346201897,-0.0005273766000755131,0.01943364553153515
0.023411529138684273,0.005313851870596409,-0.016198914498090744,0.012410045601427555,-0.00048075628001242876,0.01922271028161049
0.024509405717253685,0.0055561852641403675,-0.017036978155374527,0.011848890222609043,-0.0004770387604366988,0.019524909555912018
0.024225149303674698,0.005553903058171272,-0.016876349225640297,0.012232783250510693,-0.00047358349547721446,0.020524464547634125
0.024154681712388992,0.005167103838175535,-0.01691209152340889,0.011686837300658226,-0.00044243328738957644,0.02101825550198555
0.024593422189354897,0.005264536011964083,-0.01736815646290779,0.012126144021749496,-0.0004684597079176456,0.02039835788309574
0.024614764377474785,0.005044506397098303,-0.01685582473874092,0.01259914692491293,-0.0004432033165358007,0.020128807052969933
0.024660557508468628,0.005078804213553667,-0.01725558191537857,0.012123730964958668,-0.0004180125251878053,0.02034047059714794
0.024540992453694344,0.006004123017191887,-0.016918446868658066,0.01258885394781828,-0.00044000978232361376,0.02017359994351864
0.024643344804644585,0.005232835188508034,-0.01733306609094143,0.012313096784055233,-0.0004230329068377614,0.020378878340125084
0.024653788655996323,0.004938281606882811,-0.01759514771401882,0.01280614547431469,-0.000425149715738371,0.020780013874173164
0.024335606023669243,0.004971141926944256,-0.016885166987776756,0.012037507258355618,-0.00042560597648844123,0.020688071846961975
0.02493993379175663,0.005293646827340126,-0.01749708130955696,0.011972259730100632,-0.00044257502304390073,0.02067917212843895
0.025398198515176773,0.0054956236854195595,-0.01741410791873932,0.012727409601211548,-0.00042944488814100623,0.021166225895285606
0.025185802951455116,0.005307839717715979,-0.018079368397593498,0.012213712558150291,-0.0005363000673241913,0.020669611170887947
0.02518540993332863,0.005689102690666914,-0.017987996339797974,0.01246604137122631,-0.0005947063327766955,0.02033180370926857
0.025316961109638214,0.005339489318430424,-0.016912102699279785,0.012430013157427311,-0.0006042517488822341,0.020690040662884712
0.02541394531726837,0.005023546516895294,-0.017644377425312996,0.012956008315086365,-0.0005898470990359783,0.020922159776091576
0.025083009153604507,0.005075834225863218,-0.017470968887209892,0.012664672918617725,-0.0006137507734820247,0.020912321284413338
0.025578707456588745,0.005379444919526577,-0.01793338917195797,0.012898609973490238,-0.0005699966568499804,0.020967714488506317
0.025678738951683044,0.005554520059376955,-0.017948593944311142,0.012669840827584267,-0.0006800841074436903,0.02117135189473629
0.025963883846998215,0.005253234878182411,-0.018114937469363213,0.012624179013073444,-0.0006331210024654865,0.021424196660518646
0.025963883846998215,0.005253234878182411,-0.018114937469363213,0.012624179013073444,-0.0006331210024654865,0.021424196660518646
0.025914696976542473,0.00546096870675683,-0.01766469143331051,0.012211273424327374,-0.0006242727977223694,0.021072858944535255
0.02617695741355419,0.005092170555144548,-0.01690053939819336,0.012367772869765759,-0.000606587971560657,0.02103256992995739
0.026121266186237335,0.005449835676699877,-0.017700763419270515,0.012150892056524754,-0.0005558085395023227,0.02121306024491787
0.02649715356528759,0.0055151390843093395,-0.017958227545022964,0.012441546656191349,-0.0005108738550916314,0.021409370005130768
0.027286404743790627,0.00551085639744997,-0.017987551167607307,0.012353953905403614,-0.0005221176543273032,0.020981406792998314
0.026543328538537025,0.005250974558293819,-0.017955755814909935,0.012869028374552727,-0.0005011666216887534,0.02079310268163681
0.02347206138074398,0.005833862815052271,-0.017407339066267014,0.013067413121461868,-0.00046947901137173176,0.02134518139064312
0.026273302733898163,0.005832855589687824,-0.017559830099344254,0.012256313115358353,-0.00042833128827624023,0.021893855184316635
0.026862505823373795,0.005652220919728279,-0.017301324754953384,0.013294889591634274,-0.0003893213579431176,0.02175278216600418
0.026332836598157883,0.005226060748100281,-0.017691737040877342,0.012796345166862011,-0.0004199676914140582,0.021514317020773888
0.02638547308743,0.0057126195169985294,-0.01794898509979248,0.012660972774028778,-0.0003974477876909077,0.021195916458964348
0.027138374745845795,0.0053744008764624596,-0.017359590157866478,0.012147603556513786,-0.00042407211731188,0.02072080597281456
0.027577506378293037,0.005896267481148243,-0.017825141549110413,0.012710422277450562,-0.0004322821623645723,0.020716028288006783
0.02708182856440544,0.005492138210684061,-0.01779196225106716,0.013110625557601452,-0.00043263373663648963,0.02158067189157009
0.026061562821269035,0.005284115206450224,-0.017482731491327286,0.012826835736632347,-0.0005040222895331681,0.021982310339808464
0.026025880128145218,0.005377599038183689,-0.017925141379237175,0.012920128181576729,-0.000533081591129303,0.021556047722697258
0.02695883810520172,0.005294258240610361,-0.017424166202545166,0.012605959549546242,-0.0005711832782253623,0.021664148196578026
0.026708928868174553,0.005228123627603054,-0.017780426889657974,0.012697361409664154,-0.0005640898598358035,0.02218320593237877
0.026742855086922646,0.005350041668862104,-0.018354471772909164,0.012516952119767666,-0.0005528736510314047,0.022525375708937645
0.026835184544324875,0.00562507938593626,-0.017486808821558952,0.012784706428647041,-0.0005640765302814543,0.02242688462138176
0.027033308520913124,0.0052717761136591434,-0.017696982249617577,0.012809578329324722,-0.0005386178381741047,0.022111892700195312
0.026901839300990105,0.005032610148191452,-0.017514949664473534,0.012663240544497967,-0.0005867244326509535,0.021401258185505867
0.027038373053073883,0.00567226205021143,-0.018117010593414307,0.013451066799461842,-0.0005463192355819046,0.021714579313993454
0.02692064456641674,0.005419075023382902,-0.018219491466879845,0.012709329836070538,-0.0005729534314014018,0.02225228026509285
0.027198120951652527,0.005401534494012594,-0.01693444885313511,0.01277763769030571,-0.0005283546051941812,0.02251473441720009
0.027507930994033813,0.005250513553619385,-0.017934059724211693,0.012765221297740936,-0.0005511114723049104,0.02241070382297039
0.027287539094686508,0.004967533517628908,-0.01803281530737877,0.01381386537104845,-0.0005511185736395419,0.022348517552018166
0.027695786207914352,0.004756532609462738,-0.01807180419564247,0.012879087589681149,-0.0005834137555211782,0.02241560071706772
0.027695786207914352,0.004756532609462738,-0.01807180419564247,0.012879087589681149,-0.0005834137555211782,0.02241560071706772
0.027509910985827446,0.005675212945789099,-0.018247004598379135,0.013208295218646526,-0.0006699190125800669,0.022924460470676422
0.027509910985827446,0.005675212945789099,-0.018247004598379135,0.013208295218646526,-0.0006699190125800669,0.022924460470676422
0.027619721367955208,0.005016964860260487,-0.01801338605582714,0.013605110347270966,-0.0006927463691681623,0.022965142503380775
0.02749711647629738,0.004437130410224199,-0.017716731876134872,0.014019119553267956,-0.0009420209680683911,0.02269495092332363
0.025949751958251,0.004462715238332748,-0.018444743007421494,0.01361496839672327,-0.000971384986769408,0.022486139088869095
0.028219671919941902,0.00466320663690567,-0.01911458559334278,0.014307990670204163,-0.000962596561294049,0.02285461686551571
0.028637833893299103,0.004802539013326168,-0.01807277463376522,0.014446926303207874,-0.0009302882244810462,0.02300523966550827
0.02873297967016697,0.004855132196098566,-0.01867753639817238,0.01425838191062212,-0.00084776955191046,0.023385463282465935
0.0279838927090168,0.004905791021883488,-0.01839817874133587,0.014063256792724133,-0.0007823029882274568,0.023221855983138084
0.027352536097168922,0.00478197680786252,-0.01773996837437153,0.01414021197706461,-0.0007713956292718649,0.023986920714378357
0.02800574153661728,0.004239474423229694,-0.018456632271409035,0.013999472372233868,-0.0007863499340601265,0.023296214640140533
0.02882242202758789,0.004427974112331867,-0.01843293197453022,0.013449355959892273,-0.0007994080660864711,0.022683531045913696
0.028271859511733055,0.004551060032099485,-0.019085440784692764,0.013960413634777069,-0.0008535755332559347,0.023200761526823044
0.02858058735728264,0.005255101248621941,-0.019003601744771004,0.013676362112164497,-0.0008893085760064423,0.02335924282670021
0.029099497944116592,0.005194501020014286,-0.017801005393266678,0.01421127188950777,-0.0008271320257335901,0.023318644613027573
0.0291778314858675,0.00439993292093277,-0.018983813002705574,0.013798326253890991,-0.000824281363748014,0.023805957287549973
0.028661081567406654,0.004178268369287252,-0.01973416842520237,0.014093056321144104,-0.0007921407232061028,0.023700445890426636
0.028253933414816856,0.00478370813652873,-0.018712667748332024,0.013591688126325607,-0.0007552617462351918,0.023381797596812248
0.028798526152968407,0.004833051934838295,-0.018717700615525246,0.014044830575585365,-0.0007207263843156397,0.023430032655596733
0.029190469533205032,0.004918779246509075,-0.01919126883149147,0.013692985288798809,-0.0006953042466193438,0.023519104346632957
0.02926694229245186,0.004752440843731165,-0.018580473959445953,0.014203548431396484,-0.0006641226937063038,0.023582151159644127
0.029259057715535164,0.00440009031444788,-0.018477721139788628,0.013839492574334145,-0.0005944842123426497,0.023619942367076874
0.029371974989771843,0.004322248511016369,-0.018886344507336617,0.014346224255859852,-0.0006184599478729069,0.023481624200940132
0.02910578064620495,0.004061432555317879,-0.018985101953148842,0.013734645210206509,-0.0006072571850381792,0.023395156487822533
0.02935612015426159,0.0044517661444842815,-0.019291598349809647,0.014597729779779911,-0.0005930986953899264,0.02362682856619358
0.02971721813082695,0.004595679696649313,-0.01913563348352909,0.01406964473426342,-0.0005850517190992832,0.023439865559339523
0.030002553015947342,0.004411721136420965,-0.018705064430832863,0.01477650087326765,-0.0005314983427524567,0.023517174646258354
0.030002553015947342,0.004411721136420965,-0.018705064430832863,0.01477650087326765,-0.0005314983427524567,0.023517174646258354
0.030034001916646957,0.005035663489252329,-0.019088279455900192,0.014649126678705215,-0.0005219657905399799,0.02349061518907547
0.030793743208050728,0.004431369714438915,-0.01860501803457737,0.014419208280742168,-0.0005093257059343159,0.024751873686909676
0.030928904190659523,0.004177792463451624,-0.018938982859253883,0.015037909150123596,-0.0005032699555158615,0.024713588878512383
0.02870759181678295,0.004300373140722513,-0.01878383383154869,0.014837313443422318,-0.000525868555996567,0.024305490776896477
0.03092024102807045,0.004308920819312334,-0.018199458718299866,0.015330354683101177,-0.0005011269822716713,0.023438764736056328
0.030871659517288208,0.004560449160635471,-0.018924420699477196,0.014920404180884361,-0.000537655723746866,0.02373899146914482
0.03070186823606491,0.005004343576729298,-0.018769174814224243,0.01516695786267519,-0.0005760483327321708,0.02448076568543911
0.03024868667125702,0.004960011690855026,-0.018671972677111626,0.014783186838030815,-0.0005261626793071628,0.025029243901371956
0.030581874772906303,0.004313966259360313,-0.019117724150419235,0.01498430036008358,-0.00055400823475793,0.024626199156045914
0.030863044783473015,0.004298755899071693,-0.01873016357421875,0.014829305000603199,-0.0005675411666743457,0.025059690698981285
0.031016075983643532,0.004666523076593876,-0.01901843212544918,0.015343639068305492,-0.0005418286309577525,0.025602854788303375
0.03114195168018341,0.004760399926453829,-0.019500482827425003,0.015765642747282982,-0.0005701251211576164,0.024957412853837013
0.03124140202999115,0.004888593219220638,-0.018923912197351456,0.015738172456622124,-0.0005616223788820207,0.023562999442219734
0.03159993886947632,0.005105794873088598,-0.01885458081960678,0.016033507883548737,-0.0005028987652622163,0.024239858612418175
0.03161688894033432,0.0048203496262431145,-0.019198782742023468,0.015544693917036057,-0.0005364493117667735,0.025256384164094925
0.031711678951978683,0.004831881262362003,-0.018863949924707413,0.015458662062883377,-0.0005531387287192047,0.025695644319057465
0.03179284185171127,0.004674891475588083,-0.01910119317471981,0.014851738698780537,-0.0005258896271698177,0.025587426498532295
0.031453974545001984,0.004834609106183052,-0.01921865902841091,0.015065865591168404,-0.0005510849296115339,0.024978652596473694
0.03147084265947342,0.005356963258236647,-0.01875457726418972,0.014431671239435673,-0.0006058240542188287,0.024856597185134888
0.03201926499605179,0.005028539337217808,-0.018961066380143166,0.01519459392875433,-0.0007019965560175478,0.025166673585772514
0.03285931050777435,0.004740388132631779,-0.019054008647799492,0.014671018347144127,-0.0007276209071278572,0.025017544627189636
0.03191489353775978,0.004655062686651945,-0.0179982241243124,0.015354568138718605,-0.0007023565121926367,0.02495754510164261
0.03041890077292919,0.004845271818339825,-0.018512791022658348,0.014794374816119671,-0.0009205928654409945,0.024764476343989372
0.031980182975530624,0.004708218853920698,-0.019175028428435326,0.014374768361449242,-0.0009388802573084831,0.025259876623749733
0.03274739533662796,0.004745154175907373,-0.01900949515402317,0.013839504681527615,-0.0008177392301149666,0.025350457057356834
0.03327896445989609,0.004818285349756479,-0.019298061728477478,0.014806266874074936,-0.0007252695504575968,0.025116903707385063
0.03265824541449547,0.0047125923447310925,-0.018880268558859825,0.01595361903309822,-0.0007010726258158684,0.02560277283191681
0.031665921211242676,0.004585443064570427,-0.01933199167251587,0.015917664393782616,-0.0006773024797439575,0.025359947234392166
0.03177889063954353,0.004538304638117552,-0.0194820836186409,0.016264034435153008,-0.0005868323496542871,0.02575715258717537
0.03177889063954353,0.004538304638117552,-0.0194820836186409,0.016264034435153008,-0.0005868323496542871,0.02575715258717537
0.032696761190891266,0.00405611889436841,-0.01887352205812931,0.01641007326543331,-0.0006149854743853211,0.025745948776602745
0.03348850831389427,0.004351543262600899,-0.019306564703583717,0.01587706245481968,-0.0006256192573346198,0.026000481098890305
0.03153984248638153,0.004566279239952564,-0.019786939024925232,0.015476470813155174,-0.0006290884921327233,0.02577797695994377
0.03390366584062576,0.004730796907097101,-0.01945870742201805,0.015310094691812992,-0.0006136256852187216,0.02619210258126259
0.0337621234357357,0.004304066300392151,-0.020003018900752068,0.016013389453291893,-0.0007439873879775405,0.026361512020230293
0.03285464271903038,0.004411365836858749,-0.019907839596271515,0.016066906973719597,-0.0007862981874495745,0.026258006691932678
0.03296557441353798,0.00427517993375659,-0.01946333423256874,0.01667177863419056,-0.0008021493558771908,0.025966394692659378
0.033603984862565994,0.00445968983694911,-0.019880356267094612,0.016379818320274353,-0.0008064053836278617,0.026032909750938416
0.03317541256546974,0.0045387777499854565,-0.021087436005473137,0.016444943845272064,-0.0008405642583966255,0.026298843324184418
0.03355122730135918,0.004613908007740974,-0.0204148031771183,0.01661999151110649,-0.0007934622699394822,0.027244579046964645
0.03331323340535164,0.0045479778200387955,-0.019384339451789856,0.01642286218702793,-0.0007783762412145734,0.027224717661738396
0.03299379721283913,0.004309261683374643,-0.01975387893617153,0.016629071906208992,-0.0007065345998853445,0.026473207399249077
0.03313816711306572,0.004540381021797657,-0.020541395992040634,0.016269784420728683,-0.0006264036055654287,0.025811167433857918
0.033130060881376266,0.00444600498303771,-0.01989015005528927,0.016678808256983757,-0.0005612981040030718,0.026375662535429
0.034932538866996765,0.004628726281225681,-0.020546000450849533,0.01641443744301796,-0.0005813364987261593,0.02695307321846485
0.034744441509246826,0.004963364917784929,-0.02054683305323124,0.016419654712080956,-0.0005412590689957142,0.025985507294535637
0.03274437040090561,0.0047984360717237,-0.01990456134080887,0.016814760863780975,-0.0005335165187716484,0.02664504013955593
0.03303494304418564,0.004273389000445604,-0.02046014741063118,0.01651320978999138,-0.0005260418402031064,0.027708841487765312
0.0343758761882782,0.004320856183767319,-0.020975641906261444,0.01679970882833004,-0.0004533480678219348,0.027177637442946434
0.03391155228018761,0.004500465001910925,-0.021131552755832672,0.01615026779472828,-0.0004613987111952156,0.026957714930176735
0.03524474799633026,0.004595802631229162,-0.020176824182271957,0.016799209639430046,-0.0004768798826262355,0.026598384603857994
0.034763529896736145,0.00463379779830575,-0.020105727016925812,0.016619374975562096,-0.00047459048801101744,0.026494629681110382
0.03428397700190544,0.004487048368901014,-0.020027799531817436,0.016491347923874855,-0.0004899592022411525,0.027897899970412254
0.0347655825316906,0.004799267277121544,-0.019698908552527428,0.016064776107668877,-0.0006838151603005826,0.027722900733351707
0.03512429818511009,0.004466409329324961,-0.021161196753382683,0.01659991778433323,-0.0007142599206417799,0.027644237503409386
0.03432144597172737,0.004599453415721655,-0.020906368270516396,0.016408057883381844,-0.0006442574085667729,0.027409616857767105
0.03432144597172737,0.004599453415721655,-0.020906368270516396,0.016408057883381844,-0.0006442574085667729,0.027409616857767105
0.034749750047922134,0.004315958824008703,-0.020313290879130363,0.01708393543958664,-0.000576383841689676,0.027227118611335754
0.03465431183576584,0.004955574870109558,-0.020825529471039772,0.01718352735042572,-0.0005625979392789304,0.02735564298927784
0.03501356765627861,0.004386506509035826,-0.020913418382406235,0.017162200063467026,-0.0005511392955668271,0.027759093791246414
0.03484291583299637,0.004438777919858694,-0.020176295191049576,0.017373066395521164,-0.0005090518388897181,0.028122104704380035
0.03491821885108948,0.004645147360861301,-0.020525988191366196,0.016879798844456673,-0.0005336673930287361,0.027911033481359482
0.034606851637363434,0.004595177713781595,-0.021053258329629898,0.016969803720712662,-0.0005025144200772047,0.028126413002610207
0.03489170968532562,0.004818843211978674,-0.020922858268022537,0.01706196740269661,-0.0004524383111856878,0.02818169631063938
0.03547520563006401,0.004802661016583443,-0.020767981186509132,0.017242547124624252,-0.0004818980232812464,0.028098801150918007
0.03572435677051544,0.00491629634052515,-0.021077977493405342,0.01757202297449112,-0.00048765246174298227,0.02865094505250454
0.035476624965667725,0.004735066555440426,-0.02096415124833584,0.01693599671125412,-0.00048394902842119336,0.0286537017673254
0.035355862230062485,0.0046579004265367985,-0.020302657037973404,0.017354512587189674,-0.0005114451050758362,0.028292125090956688
0.03520064800977707,0.0047282204031944275,-0.02079586312174797,0.01732800342142582,-0.0006837662658654153,0.028279215097427368
0.034504249691963196,0.004745905753225088,-0.021123886108398438,0.016949892044067383,-0.0007653409265913069,0.02845844440162182
0.03647255152463913,0.004609567113220692,-0.02128061279654503,0.016894400119781494,-0.0006874535465613008,0.028081586584448814
0.036398425698280334,0.004752599634230137,-0.02090931124985218,0.016578394919633865,-0.0006982760387472808,0.0283964890986681
0.03560340777039528,0.004801022354513407,-0.020967861637473106,0.017455633729696274,-0.0006392590585164726,0.028455916792154312
0.0358746275305748,0.004768164828419685,-0.021373247727751732,0.01711893640458584,-0.0006524957134388387,0.02853965200483799
0.03606974706053734,0.004545688629150391,-0.02074054442346096,0.017498640343546867,-0.0006071881507523358,0.027567801997065544
0.0362074077129364,0.004892232362180948,-0.020381344482302666,0.01766517199575901,-0.0005993470549583435,0.02852136828005314
0.03653351590037346,0.004826541990041733,-0.021050674840807915,0.017185570672154427,-0.0006146224332042038,0.029286766424775124
0.036700401455163956,0.004417428746819496,-0.02158055454492569,0.01755242794752121,-0.000619824742898345,0.02908325381577015
0.036345697939395905,0.004528529942035675,-0.020746368914842606,0.0173359178006649,-0.0006034495891071856,0.029882414266467094
0.0362682044506073,0.004333777818828821,-0.02102162502706051,0.017386212944984436,-0.0006213593878783286,0.03018750622868538
0.03622814267873764,0.004217225126922131,-0.02153475023806095,0.01725299470126629,-0.0005841811653226614,0.029258649796247482
0.03789949789643288,0.004521181806921959,-0.02108934335410595,0.017045730724930763,-0.0007400217582471669,0.028565391898155212
0.037305690348148346,0.0045767598785459995,-0.020772632211446762,0.017581982538104057,-0.0007686231983825564,0.028792643919587135
0.037305690348148346,0.0045767598785459995,-0.020772632211446762,0.017581982538104057,-0.0007686231983825564,0.028792643919587135
0.03555963560938835,0.004646224435418844,-0.0213642455637455,0.018259624019265175,-0.0007846126682125032,0.030176276341080666
0.03635312244296074,0.004067328292876482,-0.02171178348362446,0.018845945596694946,-0.0010656114900484681,0.0303090400993824
0.03701130673289299,0.0037966701202094555,-0.02149026468396187,0.018541086465120316,-0.0010577354114502668,0.03064613975584507
0.03837055340409279,0.003751992480829358,-0.021126899868249893,0.017925826832652092,-0.0010359084699302912,0.030211009085178375
0.037794001400470734,0.003804045496508479,-0.02134648710489273,0.017931586131453514,-0.0010297279804944992,0.028926793485879898
0.035729944705963135,0.0038413824513554573,-0.021306904032826424,0.017286650836467743,-0.0010262439027428627,0.02833329513669014
0.036861713975667953,0.003791738534346223,-0.021587710827589035,0.01811652071774006,-0.0010069392155855894,0.029662858694791794
0.03813210502266884,0.003938967362046242,-0.021405469626188278,0.018711572512984276,-0.0009754126076586545,0.02995620109140873
0.03755659982562065,0.004003838635981083,-0.02180742286145687,0.018260106444358826,-0.0008929945761337876,0.02998693846166134
0.037613652646541595,0.003921388182789087,-0.02260461263358593,0.018762679770588875,-0.0008243880001828074,0.029536474496126175
0.037676528096199036,0.0037496048025786877,-0.022491952404379845,0.018840914592146873,-0.0008032191544771194,0.029724370688199997
0.03728700801730156,0.0036628050729632378,-0.021507639437913895,0.019386576488614082,-0.0007260322454385459,0.029608963057398796
0.03800685703754425,0.004246378783136606,-0.022463954985141754,0.019421301782131195,-0.0007406604709103703,0.030047666281461716
0.0375693142414093,0.004209091886878014,-0.0220772847533226,0.01893162727355957,-0.0007383361808024347,0.030211204662919044
0.037903763353824615,0.003994334023445845,-0.021460726857185364,0.018280476331710815,-0.0006894262623973191,0.030121982097625732
0.03749772533774376,0.0038844281807541847,-0.02188134379684925,0.01861559972167015,-0.0006433502421714365,0.029628532007336617
0.03767227753996849,0.0038789110258221626,-0.02278348058462143,0.018016690388321877,-0.0006241141818463802,0.029986701905727386
0.0392765998840332,0.004398545250296593,-0.022815829142928123,0.01799219287931919,-0.0006032738601788878,0.030419940128922462
0.0385836698114872,0.004171484615653753,-0.02240951545536518,0.01859217695891857,-0.0006119441241025925,0.030613597482442856
0.03649427369236946,0.003987778443843126,-0.021557407453656197,0.018803924322128296,-0.0005765590467490256,0.02962265908718109
0.03767508268356323,0.003437402890995145,-0.022053509950637817,0.01914648525416851,-0.0005848815781064332,0.03097653202712536
0.037742238491773605,0.003541895654052496,-0.0222301222383976,0.01916208304464817,-0.0005579076241701841,0.030992990359663963
0.03790263459086418,0.003833925584331155,-0.022212794050574303,0.018672803416848183,-0.0005947034223936498,0.03078911080956459
0.03915839269757271,0.003978189080953598,-0.02204214222729206,0.01885119080543518,-0.0006229965947568417,0.03089301846921444
0.03758629783987999,0.004438593052327633,-0.0219449270516634,0.019154218956828117,-0.0006394843803718686,0.03020954132080078
0.03665830194950104,0.00380052556283772,-0.022406402975320816,0.019135622307658195,-0.000674723123665899,0.030906137079000473
0.0384233221411705,0.0035341642796993256,-0.022714165970683098,0.01940372958779335,-0.0009746561991050839,0.030324134975671768
0.0384233221411705,0.0035341642796993256,-0.022714165970683098,0.01940372958779335,-0.0009746561991050839,0.030324134975671768
0.038305267691612244,0.003797171637415886,-0.021736588329076767,0.01899910159409046,-0.0010232093045488,0.03207714483141899
0.03827935457229614,0.003853647504001856,-0.022516444325447083,0.01927625574171543,-0.0009237841586582363,0.03178279846906662
0.03820369392633438,0.0037672396283596754,-0.02231326699256897,0.0196057241410017,-0.0009682374657131732,0.030216816812753677
0.03822549805045128,0.0037597594782710075,-0.02212570421397686,0.019129838794469833,-0.0009476120467297733,0.030110299587249756
0.03857118636369705,0.004317919723689556,-0.022123195230960846,0.019250305369496346,-0.0008224226767197251,0.031242841854691505
0.03827741742134094,0.0041444567032158375,-0.022228578105568886,0.019066648557782173,-0.000824697082862258,0.03142509236931801
0.03843722492456436,0.0035114623606204987,-0.022180622443556786,0.018642956390976906,-0.0008257757872343063,0.03206304460763931
0.03866017609834671,0.003557568648830056,-0.02177692949771881,0.018799902871251106,-0.0007614183705300093,0.03254317864775658
0.03895112872123718,0.003722431370988488,-0.021377310156822205,0.018812300637364388,-0.0006675637559965253,0.03172087296843529
0.03894127905368805,0.004353651311248541,-0.021536273881793022,0.01888689026236534,-0.0006899508880451322,0.030696416273713112
0.039213940501213074,0.004156079143285751,-0.02205735072493553,0.01909317634999752,-0.0007065029931254685,0.030758414417505264
0.03948338329792023,0.0039572399109601974,-0.021982867270708084,0.018856218084692955,-0.0007259146659635007,0.03216277062892914
0.03891671448945999,0.0038573003839701414,-0.021718749776482582,0.018595745787024498,-0.0009082820033654571,0.032224349677562714
0.039565328508615494,0.0037806883919984102,-0.02177310734987259,0.019283367320895195,-0.0009951271349564195,0.03191155195236206
0.03938838094472885,0.0042307693511247635,-0.021912334486842155,0.019393038004636765,-0.001004275749437511,0.032916877418756485
0.039651378989219666,0.004104351159185171,-0.022375820204615593,0.01898999884724617,-0.0013505148235708475,0.032686661928892136
0.03971339389681816,0.003924327436834574,-0.021682940423488617,0.019281581044197083,-0.0013028334360569715,0.032242584973573685
0.03971217945218086,0.003857533447444439,-0.02215568535029888,0.019449952989816666,-0.0012320252135396004,0.032259199768304825
0.039929233491420746,0.0038348124362528324,-0.022093189880251884,0.018980946391820908,-0.0011141941649839282,0.03195681795477867
0.03996698558330536,0.0038870603311806917,-0.022116174921393394,0.019269825890660286,-0.0009852515067905188,0.03224838525056839
0.0401327982544899,0.003868674859404564,-0.022177280858159065,0.01974731869995594,-0.0009556374279782176,0.032395295798778534
0.0406007282435894,0.004011026583611965,-0.022227665409445763,0.02041684091091156,-0.0009279735968448222,0.03248223662376404
0.04018797725439072,0.003923257812857628,-0.022628581151366234,0.020963745191693306,-0.0009230228024534881,0.032872505486011505
0.04040360078215599,0.0038916755001991987,-0.022826122120022774,0.020905937999486923,-0.0009012093651108444,0.03307740017771721
0.04176816716790199,0.0043209027498960495,-0.022655092179775238,0.019845537841320038,-0.0009392013307660818,0.03264671191573143
0.04109371453523636,0.004025217145681381,-0.02163049206137657,0.018998131155967712,-0.000945163716096431,0.032926835119724274
0.039353370666503906,0.004234536085277796,-0.022060444578528404,0.019516250118613243,-0.0009398687398061156,0.03276127949357033
0.04142628610134125,0.004482506308704615,-0.022593490779399872,0.019759325310587883,-0.001013445551507175,0.032957274466753006
0.04142628610134125,0.004482506308704615,-0.022593490779399872,0.019759325310587883,-0.001013445551507175,0.032957274466753006
0.041432783007621765,0.00423015933483839,-0.02178216725587845,0.020271701738238335,-0.0008729370892979205,0.033244773745536804
0.04316600784659386,0.004047606140375137,-0.021994473412632942,0.020636193454265594,-0.0008434274350292981,0.033531926572322845
0.04028870910406113,0.003955196123570204,-0.022982552647590637,0.02050485461950302,-0.0008207452483475208,0.03172184154391289
0.04078194499015808,0.003923999611288309,-0.022676775231957436,0.021096017211675644,-0.000780414033215493,0.03395634517073631
0.04202881455421448,0.004186990205198526,-0.02295481413602829,0.020584281533956528,-0.0006990305846557021,0.03528561815619469
0.04213467612862587,0.004172229673713446,-0.021857984364032745,0.01940804347395897,-0.000711635802872479,0.03537096828222275
0.041689518839120865,0.004306526854634285,-0.02196461521089077,0.019767913967370987,-0.000733109307475388,0.03261078894138336
0.04176650196313858,0.004183861427009106,-0.022042594850063324,0.020516395568847656,-0.000738418020773679,0.03302042931318283
0.042157068848609924,0.004059039056301117,-0.02317088656127453,0.019963663071393967,-0.0008181684534065425,0.034011032432317734
0.04217268526554108,0.003986710216850042,-0.02321082353591919,0.020145434886217117,-0.000934671435970813,0.034234508872032166
0.04185616970062256,0.003936264663934708,-0.022324208170175552,0.02095806784927845,-0.0009362155687995255,0.035340290516614914
0.04210539534687996,0.004236473701894283,-0.02217756398022175,0.021077821031212807,-0.00093185028526932,0.03495858609676361
0.04414021223783493,0.004626557230949402,-0.023053018376231194,0.020671764388680458,-0.0009984306525439024,0.033963948488235474
0.04141461104154587,0.004416340496391058,-0.02309146523475647,0.020339027047157288,-0.0009936466813087463,0.03320418670773506
0.041092343628406525,0.004062512889504433,-0.022492676973342896,0.020604576915502548,-0.0009794689249247313,0.034621454775333405
0.04218212142586708,0.0038657444529235363,-0.022547101601958275,0.02019752375781536,-0.0008772981818765402,0.03517531231045723
0.042754702270030975,0.004083903040736914,-0.022866830229759216,0.019702108576893806,-0.0008739092736504972,0.03507082909345627
0.04359831660985947,0.0042205979116261005,-0.023086443543434143,0.020008597522974014,-0.0007951610605232418,0.034760426729917526
0.042375169694423676,0.004371081944555044,-0.023378295823931694,0.020479749888181686,-0.0007105293916538358,0.03352672606706619
0.041412100195884705,0.004506988916546106,-0.02302781119942665,0.02003883197903633,-0.0007211907068267465,0.035329945385456085
0.04338278993964195,0.004650686867535114,-0.02270613983273506,0.019699638709425926,-0.000741730211302638,0.0358940027654171
0.043639376759529114,0.004378092009574175,-0.02301463484764099,0.01962137408554554,-0.0007705296156927943,0.03575567528605461
0.04286662116646767,0.003984969574958086,-0.02334902063012123,0.019694769755005836,-0.0009693872416391969,0.03558177128434181
0.042835552245378494,0.004134415648877621,-0.023256387561559677,0.02022484503686428,-0.0009696729830466211,0.035136573016643524
0.04278750345110893,0.004639981780201197,-0.02293294668197632,0.020286815240979195,-0.0009927712380886078,0.03530467674136162
0.04365033283829689,0.004275893792510033,-0.022641031071543694,0.020094498991966248,-0.0010735492687672377,0.03564789891242981
0.042999256402254105,0.004298747982829809,-0.023162946105003357,0.02070769853889942,-0.001062917523086071,0.03524986281991005
0.042999256402254105,0.004298747982829809,-0.023162946105003357,0.02070769853889942,-0.001062917523086071,0.03524986281991005
0.04322575032711029,0.004444123711436987,-0.023170022293925285,0.021142462268471718,-0.0010391055839136243,0.03518956899642944
0.043428823351860046,0.004198300186544657,-0.02300977148115635,0.02140887826681137,-0.0010082818334922194,0.03553805127739906
0.043488919734954834,0.004001274239271879,-0.023109421133995056,0.021409712731838226,-0.000996721675619483,0.03553592413663864
0.04379492625594139,0.004261382389813662,-0.0230594202876091,0.021724512800574303,-0.0010489808628335595,0.03576866537332535
0.043855831027030945,0.004521817434579134,-0.023550070822238922,0.021866027265787125,-0.0010905187809839845,0.03688308969140053
