davideferrari95/blind_handover_controller/data/Test 199 - [2024-02-08 -- 11-33-45]/joint_states_data.csv
shoulder_pan_joint,shoulder_lift_joint,elbow_joint,wrist_1_joint,wrist_2_joint,wrist_3_joint
0.000826624222099781,-0.006885663606226444,-0.015382712706923485,0.021539932116866112,0.0,0.0021114954724907875
0.000826624222099781,-0.006885663606226444,-0.015382712706923485,0.021539932116866112,0.0,0.0021114954724907875
0.0008374303579330444,-0.007002331782132387,-0.01518996711820364,0.022638920694589615,0.0,0.002096419222652912
0.0008374303579330444,-0.007002331782132387,-0.01518996711820364,0.022638920694589615,0.0,0.002096419222652912
0.0008449343731626868,-0.007374319713562727,-0.014864935539662838,0.02309270016849041,0.0,0.0021298849023878574
0.0007799250306561589,-0.0075230286456644535,-0.015356036834418774,0.02239050716161728,0.0,0.0022767740301787853
0.0009921710006892681,-0.007408889010548592,-0.015151305124163628,0.02129056118428707,0.0,0.0022655257489532232
0.0009802528657019138,-0.007625398226082325,-0.01510773878544569,0.021191099658608437,0.0,0.0024590766988694668
0.0009792352793738246,-0.007533455267548561,-0.014763296581804752,0.021661192178726196,0.0,0.002235638676211238
0.0012723987456411123,-0.00744854798540473,-0.015450458973646164,0.02180405892431736,0.0,0.0021935796830803156
0.0012252930318936706,-0.00745938066393137,-0.015019861981272697,0.021413544192910194,0.0,0.002068090019747615
0.0014382756780833006,-0.007950152270495892,-0.015761099755764008,0.021377218887209892,0.0,0.0022114492021501064
0.0014199503930285573,-0.007696045562624931,-0.015014808624982834,0.02195138670504093,0.0,0.0022611371241509914
0.001482064719311893,-0.0075891208834946156,-0.01589646376669407,0.0220339298248291,0.0,0.002270977944135666
0.0013899257173761725,-0.007859497331082821,-0.014887606725096703,0.021710865199565887,0.0,0.002569167409092188
0.0014321496710181236,-0.007858856581151485,-0.015086186118423939,0.02138030156493187,0.0,0.002426914405077696
0.0013857781887054443,-0.007662374060600996,-0.014990655705332756,0.020533517003059387,0.0,0.002260663313791156
0.001523462007753551,-0.00800506491214037,-0.01541986595839262,0.020027095451951027,0.0,0.0020479471422731876
0.0015364831779152155,-0.007865824736654758,-0.015248361974954605,0.020863259211182594,0.0,0.001979400869458914
0.0017402155790477991,-0.007774692960083485,-0.015365718863904476,0.021934285759925842,0.0,0.002021748572587967
0.001614824403077364,-0.008088854141533375,-0.015363882295787334,0.021893519908189774,0.0,0.002101272577419877
0.0017020436935126781,-0.007458684500306845,-0.014768383465707302,0.021229883655905724,0.0,0.0024886573664844036
0.001795699936337769,-0.007439569570124149,-0.015497634187340736,0.02074624039232731,0.0,0.002573727397248149
0.001795699936337769,-0.007439569570124149,-0.015497634187340736,0.02074624039232731,0.0,0.002573727397248149
0.0017832836601883173,-0.0084256362169981,-0.015678785741329193,0.020717931911349297,0.0,0.0025406116619706154
0.0016633166233077645,-0.007803948596119881,-0.014994639903306961,0.020988762378692627,0.0,0.0022510765120387077
0.0016953378217294812,-0.0076438854448497295,-0.015231500379741192,0.021446283906698227,0.0,0.002248460426926613
0.001701387926004827,-0.008249406702816486,-0.015171775594353676,0.020108617842197418,0.0,0.002153959823772311
0.002033328404650092,-0.007759721949696541,-0.01599166728556156,0.02143830992281437,0.0,0.002142776735126972
0.0018647430697456002,-0.00740834278985858,-0.014826766215264797,0.021348511800169945,0.0,0.0021504503674805164
0.002077855635434389,-0.007580268662422895,-0.015620239078998566,0.021292729303240776,0.0,0.0021303752437233925
0.00209506182000041,-0.008367969654500484,-0.014715698547661304,0.02116410993039608,0.0,0.002205898519605398
0.0022806215565651655,-0.0076932660304009914,-0.015009824186563492,0.020983818918466568,0.0,0.0020477890502661467
0.002405699575319886,-0.0072856987826526165,-0.015077679418027401,0.0209855567663908,0.0,0.002095569157972932
0.0022501356434077024,-0.007420728914439678,-0.015566851943731308,0.021002929657697678,0.0,0.002018083818256855
0.0023189105559140444,-0.008294018916785717,-0.015025867149233818,0.02124825119972229,0.0,0.0021940472070127726
0.002239977242425084,-0.007103702984750271,-0.015132497996091843,0.021311871707439423,0.0,0.0025036607403308153
0.0024048134218901396,-0.005651299841701984,-0.015456699766218662,0.021406706422567368,0.0,0.0024360157549381256
0.0024126016069203615,-0.004614905454218388,-0.014871940016746521,0.02149096131324768,0.0,0.002342604799196124
0.0022471374832093716,-0.005133855622261763,-0.015259074978530407,0.020840998739004135,0.0,0.002070355461910367
0.002290677512064576,-0.005729492288082838,-0.015364146791398525,0.02074163779616356,0.0,0.0019741435535252094
0.0022395560517907143,-0.006002483423799276,-0.01655561849474907,0.02162032015621662,0.0,0.001889126724563539
0.002409712178632617,-0.005549919325858355,-0.014393472112715244,0.022261912003159523,0.0,0.002079514553770423
0.0026739982422441244,-0.005612574052065611,-0.0150816161185503,0.021821098402142525,0.0,0.002137284493073821
0.002830761019140482,-0.0052829645574092865,-0.015051470138132572,0.02085469476878643,0.0,0.0022082291543483734
0.0026588663458824158,-0.005948930513113737,-0.01601652428507805,0.020545993000268936,0.0,0.002463296987116337
0.002710806904360652,-0.005948187783360481,-0.01488118153065443,0.020507633686065674,0.0,0.0022381956223398447
0.002731942804530263,-0.005467218812555075,-0.015313390642404556,0.02098708041012287,0.0,0.002126014092937112
0.0025696007069200277,-0.0052577233873307705,-0.01433552335947752,0.021625882014632225,0.0,0.001937408815138042
0.0027129282243549824,-0.005571024026721716,-0.014879721216857433,0.021869581192731857,0.0,0.0019042398780584335
0.002888198010623455,-0.005092274863272905,-0.015425059013068676,0.021599603816866875,0.0,0.0021774715278297663
0.0026648615021258593,-0.0051827821880578995,-0.014750966802239418,0.02230382151901722,0.0,0.002547570038586855
0.0025903733912855387,-0.004903947468847036,-0.014681024476885796,0.021986711770296097,0.0,0.0026513838674873114
0.0025903733912855387,-0.004903947468847036,-0.014681024476885796,0.021986711770296097,0.0,0.0026513838674873114
0.0027421312406659126,-0.005059694405645132,-0.014607245102524757,0.022450773045420647,0.0,0.0025578464847058058
0.0026331557892262936,-0.004964069463312626,-0.014721336774528027,0.021322865039110184,0.0,0.0023102755658328533
0.0029527179431170225,-0.00492962496355176,-0.014514920301735401,0.020330144092440605,0.0,0.002163713565096259
0.003401112975552678,-0.00564524857327342,-0.014729752205312252,0.021076159551739693,0.0,0.0018895416287705302
0.003244915511459112,-0.005215574987232685,-0.014487949199974537,0.021832600235939026,0.0,0.0018436675891280174
0.003108236938714981,-0.004810459446161985,-0.014685935340821743,0.02148122526705265,0.0,0.0017123883590102196
0.002867351984605193,-0.004941265098750591,-0.014344185590744019,0.02097623236477375,0.0,0.001725700800307095
0.0030095356050878763,-0.005410275887697935,-0.014829521998763084,0.02092106081545353,0.0,0.0017292405245825648
0.0030848560854792595,-0.005084123462438583,-0.014807065017521381,0.020622998476028442,0.0,0.0018267991254106164
0.0029165383893996477,-0.005235570482909679,-0.014930840581655502,0.020137639716267586,0.0,0.0018663175869733095
0.0031704436987638474,-0.005106739699840546,-0.014578672125935555,0.020532839000225067,0.0,0.002098723081871867
0.0029878236819058657,-0.004713632166385651,-0.014385330490767956,0.02077234350144863,0.0,0.0021919780410826206
0.003424013266339898,-0.00543468352407217,-0.0144459567964077,0.020188214257359505,0.0,0.0022319667041301727
0.00358566059730947,-0.0052315411157906055,-0.014721225947141647,0.01968579925596714,0.0,0.0023456152994185686
0.00339729362167418,-0.005009707994759083,-0.01484651118516922,0.020071063190698624,0.0,0.002110288478434086
0.0033379646483808756,-0.005644533317536116,-0.01441550999879837,0.020251553505659103,0.0,0.0020507541485130787
0.0032743115443736315,-0.0052207945846021175,-0.014613179489970207,0.020366908982396126,0.0,0.001845404040068388
0.003438421990722418,-0.005482146050781012,-0.014228270389139652,0.020286647602915764,0.0,0.001981231616809964
0.0031901453621685505,-0.00518746767193079,-0.015268971212208271,0.020052682608366013,0.0,0.002090094145387411
0.0034158637281507254,-0.005002549383789301,-0.015071317553520203,0.02012426033616066,0.0,0.002363709034398198
0.00310926279053092,-0.005688016302883625,-0.01537669263780117,0.020230557769536972,0.0,0.0023866358678787947
0.0033642142079770565,-0.005455118138343096,-0.01464785635471344,0.020417317748069763,0.0,0.0022350139915943146
0.0035495050251483917,-0.005233180243521929,-0.014202863909304142,0.0205801073461771,0.0,0.002005466027185321
0.0035129855386912823,-0.005188471172004938,-0.014536483213305473,0.02081592008471489,0.0,0.0018645700765773654
0.003326873295009136,-0.005285618361085653,-0.015173541381955147,0.02049913816154003,0.0,0.0018996817525476217
0.0034277711529284716,-0.0053269509226083755,-0.015285514295101166,0.02039657160639763,0.0,0.0023227729834616184
0.003676880383864045,-0.005490802228450775,-0.014225846156477928,0.020609231665730476,0.0,0.0023091521579772234
0.0029079194646328688,-0.005034888628870249,-0.01502908207476139,0.020956534892320633,0.0,0.0022367453202605247
0.0029079194646328688,-0.005034888628870249,-0.01502908207476139,0.020956534892320633,0.0,0.0022367453202605247
0.0014917165972292423,-0.005288597196340561,-0.014902101829648018,0.020588699728250504,0.0,0.0019942335784435272
0.0007873493013903499,-0.005176272708922625,-0.01576792076230049,0.020192677155137062,0.0,0.0018487704219296575
0.000605937500949949,-0.005141153000295162,-0.014920379035174847,0.020263567566871643,0.0,0.0016837662551552057
0.0006579412147402763,-0.005524056497961283,-0.015491868369281292,0.020636102184653282,0.0,0.0017643284518271685
0.00047416353481821716,-0.005080211441963911,-0.014630117453634739,0.020568113774061203,0.0,0.0017526964657008648
0.0016347148921340704,-0.005258845631033182,-0.015380811877548695,0.01997287943959236,0.0,0.002369011053815484
0.0020921649411320686,-0.005132752936333418,-0.015459286980330944,0.01970113068819046,0.0,0.002719142707064748
0.0016003245254978538,-0.004559199325740337,-0.015754930675029755,0.019300656393170357,0.0,0.0024590010289102793
0.001275775139220059,-0.005655271001160145,-0.014820045791566372,0.019467191770672798,0.0,0.0020489052403718233
0.00106054765637964,-0.005687833297997713,-0.015214410610496998,0.020076263695955276,0.0,0.0019293550867587328
0.0009075608104467392,-0.005036625545471907,-0.015349340625107288,0.019664648920297623,0.0,0.0016738889971747994
0.0009015529067255557,-0.004770867992192507,-0.015146246179938316,0.01967218518257141,0.0,0.0016713932855054736
0.000719568517524749,-0.00522616459056735,-0.01561353262513876,0.02008935809135437,0.0,0.001960631925612688
0.0007694658124819398,-0.0050684427842497826,-0.015212280675768852,0.019547682255506516,0.0,0.002377651631832123
0.0013545275432989001,-0.005119966808706522,-0.014941220171749592,0.01904296875,0.0,0.0027307099662721157
0.0016440949402749538,-0.005550128873437643,-0.014406154863536358,0.018982786685228348,0.0,0.0024668853729963303
0.0013640094548463821,-0.005068500526249409,-0.01522328332066536,0.01901571825146675,0.0,0.0022665371652692556
0.0012792827328667045,-0.004812401253730059,-0.014641964808106422,0.019123755395412445,0.0,0.0017312228446826339
0.0010590803576633334,-0.005040996242314577,-0.015225826762616634,0.019864613190293312,0.0,0.0016658753156661987
0.0011318143224343657,-0.005265441257506609,-0.014576851390302181,0.01898793876171112,0.0,0.0015676467446610332
0.0011465412098914385,-0.0051053185015916824,-0.015008489601314068,0.019105972722172737,0.0,0.0017497616354376078
0.001706081791780889,-0.0053222463466227055,-0.014359986409544945,0.018514256924390793,0.0,0.0023586240131407976
0.0015871766954660416,-0.004973341710865498,-0.014850616455078125,0.01807018369436264,0.0,0.002468561287969351
0.0017453058389946818,-0.004665149375796318,-0.014595997519791126,0.018584001809358597,7.3091032390948385e-06,0.0025059327017515898
0.001452794298529625,-0.005384147632867098,-0.01419354323297739,0.01907813735306263,3.115985336421545e-08,0.0019337639678269625
0.001452794298529625,-0.005384147632867098,-0.01419354323297739,0.01907813735306263,3.115985336421545e-08,0.0019337639678269625
0.0012767057633027434,-0.0051195560954511166,-0.014232451096177101,0.018838856369256973,1.3283933675278803e-10,0.002064208034425974
0.0012767057633027434,-0.0051195560954511166,-0.014232451096177101,0.018838856369256973,1.3283933675278803e-10,0.002064208034425974
0.0012530513340607285,-0.004944734741002321,-0.014748089015483856,0.01839599944651127,8.673459520047722e-12,0.0025767809711396694
0.00157166866119951,-0.004908460192382336,-0.014300128445029259,0.019037026911973953,5.663148986215227e-13,0.0025864506606012583
0.0016357892891392112,-0.005500634666532278,-0.014505857601761818,0.018617451190948486,3.6976315293067025e-14,0.002666882472112775
0.0018323070835322142,-0.00525363814085722,-0.01380446832627058,0.01819644868373871,2.414289115712986e-15,0.0024238862097263336
0.0016982576344162226,-0.004854694940149784,-0.014368104748427868,0.019300557672977448,1.5763582256912028e-16,0.002244033385068178
0.0016512743895873427,-0.004696323536336422,-0.014060820452868938,0.018329670652747154,1.0292493383892178e-17,0.0020630881190299988
0.0016663983697071671,-0.004605651367455721,-0.014578205533325672,0.017584601417183876,6.72026293357668e-19,0.00201203441247344
0.0016055701998993754,-0.004805658012628555,-0.014037124812602997,0.018243897706270218,4.387851614473707e-20,0.002447755541652441
0.0019060777267441154,-0.004857579246163368,-0.0145061444491148,0.018700553104281425,2.8649535821196577e-21,0.002635836834087968
0.001988429808989167,-0.004914157558232546,-0.013347179628908634,0.01847495324909687,1.870609961114736e-22,0.00259206211194396
0.00223398394882679,-0.005139504559338093,-0.013981705531477928,0.01915130764245987,1.2213745646641483e-23,0.0026603981386870146
0.002169697778299451,-0.004580419510602951,-0.014035425148904324,0.018954046070575714,7.974703359253676e-25,0.0025291230995208025
0.0020773375872522593,-0.004424538929015398,-0.014574429020285606,0.01897251419723034,5.206911533873474e-26,0.002409890992566943
0.0020251781679689884,-0.0046710181050002575,-0.013537879101932049,0.01938479207456112,3.399741286167757e-27,0.0024026595056056976
0.002041315194219351,-0.004807979799807072,-0.013856031000614166,0.018878845497965813,2.2197880945605973e-28,0.0024789057206362486
0.0023130946792662144,-0.004800829105079174,-0.013403752818703651,0.018503451719880104,0.00019705794693436474,0.002409096108749509
0.002562509384006262,-0.0050207264721393585,-0.013763727620244026,0.01829509809613228,0.00021182649652473629,0.0025836017448455095
0.002470204373821616,-0.004861358553171158,-0.013585184700787067,0.017951725050807,0.00022373329557012767,0.0025848504155874252
0.002527498174458742,-0.004641904029995203,-0.0137489540502429,0.018378347158432007,0.00023272415273822844,0.002479617251083255
0.0023472863249480724,-0.004432641435414553,-0.013456880114972591,0.018249306827783585,0.00022427535441238433,0.002215929329395294
0.0024468288756906986,-0.004739837255328894,-0.012876012362539768,0.01802022196352482,0.00024194768047891557,0.0020955230575054884
0.0026220534928143024,-0.005243225954473019,-0.0133484723046422,0.01865953765809536,0.0002410608431091532,0.0021472685039043427
0.0025203870609402657,-0.004897660110145807,-0.012808075174689293,0.01843160018324852,0.00023270273231901228,0.002007878152653575
0.002780656097456813,-0.0048646582290530205,-0.01281684823334217,0.018241968005895615,0.00024754644255153835,0.002663945546373725
0.002780656097456813,-0.0048646582290530205,-0.01281684823334217,0.018241968005895615,0.00024754644255153835,0.002663945546373725
0.0028041936457157135,-0.00474944245070219,-0.013489654287695885,0.01797432079911232,0.0003934913838747889,0.0028305251616984606
0.0026309972163289785,-0.004412190057337284,-0.012923482805490494,0.018430711701512337,0.0004486112738959491,0.002636351389810443
0.002736422698944807,-0.005016138777136803,-0.013807473704218864,0.018545368686318398,0.0004238593392074108,0.002377919852733612
0.002812804654240608,-0.005376359447836876,-0.013395996764302254,0.017740074545145035,0.0004502717056311667,0.00220731133595109
0.0028735718224197626,-0.005057289265096188,-0.013620967045426369,0.018317213281989098,0.0004274745879229158,0.0021657138131558895
0.0027284540701657534,-0.004832210950553417,-0.013375025242567062,0.018449896946549416,0.00045026536099612713,0.002052665688097477
0.002995343180373311,-0.0042477818205952644,-0.01328673493117094,0.018000753596425056,0.00043014908442273736,0.0024067822378128767
0.002958894707262516,-0.0045639220625162125,-0.013650842010974884,0.018212229013442993,0.0005566969630308449,0.002779638394713402
0.0029959504026919603,-0.004692741669714451,-0.01338158268481493,0.018183285370469093,0.0005917271482758224,0.0028515316080302
0.0032105392310768366,-0.0046510761603713036,-0.013959204778075218,0.01777864247560501,0.0005554670933634043,0.002753478940576315
0.002939437283203006,-0.005080914590507746,-0.013693578541278839,0.017951423302292824,0.0005666938377544284,0.0024360979441553354
0.0030250144191086292,-0.005056836176663637,-0.013982306234538555,0.017699191346764565,0.0005374384927563369,0.0024516338016837835
0.002958181081339717,-0.004419669043272734,-0.013302154839038849,0.017977016046643257,0.0005574934184551239,0.0024030697531998158
0.00347128720022738,-0.004151822533458471,-0.015221131034195423,0.018516477197408676,0.00052521878387779,0.0028560382779687643
0.0033482289873063564,-0.004879576154053211,-0.012856142595410347,0.01805742271244526,0.0005778034683316946,0.0029841994401067495
0.0034633094910532236,-0.005007560830563307,-0.01361499447375536,0.01826591044664383,0.000575900252442807,0.002634673146530986
0.003088264726102352,-0.0047691743820905685,-0.014158178120851517,0.017613966017961502,0.0005620075389742851,0.002608858048915863
0.0030429717153310776,-0.004524710588157177,-0.014896395616233349,0.01712252013385296,0.0005851773312315345,0.002739144489169121
0.003325939178466797,-0.004248518962413073,-0.013885851949453354,0.01720956712961197,0.0005823696847073734,0.00296292663551867
0.0033106233458966017,-0.003942284733057022,-0.014141569845378399,0.01673257164657116,0.000571027398109436,0.0031445869244635105
0.0035493806935846806,-0.004196603782474995,-0.013474671170115471,0.017325012013316154,0.0006027289782650769,0.0028937405440956354
0.003686183365061879,-0.0040849256329238415,-0.014398114755749702,0.016987226903438568,0.0005931055056862533,0.0026085965801030397
0.0037987660616636276,-0.003952683415263891,-0.013988896273076534,0.01687699928879738,0.000618709484115243,0.0023280889727175236
0.0035417061299085617,-0.004231729544699192,-0.013533612713217735,0.017192810773849487,0.0005758411716669798,0.0025043245404958725
0.00315567827783525,-0.003984459675848484,-0.013883024454116821,0.01811959221959114,0.0005453159101307392,0.0026495493948459625
0.0032772235572338104,-0.004334230441600084,-0.014106119982898235,0.017686132341623306,0.0005030081956647336,0.0027408720925450325
0.0032772235572338104,-0.004334230441600084,-0.014106119982898235,0.017686132341623306,0.0005030081956647336,0.0027408720925450325
0.0035356678999960423,-0.004138309042900801,-0.0143515570089221,0.01738988794386387,0.0005233139381743968,0.0027791231404989958
0.0035094551276415586,-0.004007881972938776,-0.014032659120857716,0.017694417387247086,0.0004951448063366115,0.0027301691006869078
0.0034994876477867365,-0.004020838998258114,-0.013959681615233421,0.016749609261751175,0.00047538484795950353,0.0025839079171419144
0.003383937058970332,-0.0040947748348116875,-0.013282370753586292,0.017258765175938606,0.0004427874810062349,0.002721205120906234
0.0034358371049165726,-0.004014897625893354,-0.013103923760354519,0.01717785745859146,0.00046311342157423496,0.0027167247608304024
0.00398549810051918,-0.004290291108191013,-0.013289941474795341,0.01748747006058693,0.00044341027387417853,0.0026184439193457365
0.004224907141178846,-0.004450964275747538,-0.012877045199275017,0.01818940043449402,0.00041085187694989145,0.002558834385126829
0.0035591658670455217,-0.004258135799318552,-0.013844851404428482,0.017861507833003998,0.00038185634184628725,0.0025033175479620695
0.00328466622158885,-0.004030088894069195,-0.013352325186133385,0.018409360200166702,0.00041190869524143636,0.003016212722286582
0.003403969807550311,-0.004336468875408173,-0.013697585090994835,0.018019938841462135,0.00039000448305159807,0.003117969958111644
0.004252723418176174,-0.004184079356491566,-0.013013770803809166,0.017364714294672012,0.00036748169804923236,0.003198638092726469
0.004166242200881243,-0.004250692669302225,-0.013873663730919361,0.017430907115340233,0.00034723387216217816,0.0032180286943912506
0.003936802037060261,-0.004128763452172279,-0.013470248319208622,0.017042599618434906,0.0003728626761585474,0.002848258940503001
0.003829248948022723,-0.004278054926544428,-0.013881228864192963,0.017480770125985146,0.00035721351741813123,0.003016255795955658
0.004173139110207558,-0.003962852992117405,-0.01322226319462061,0.017326025292277336,0.00034218200016766787,0.0029488136060535908
0.004221444018185139,-0.004281801637262106,-0.014161631464958191,0.01683153212070465,0.0003424190217629075,0.0031880836468189955
0.004125314764678478,-0.004233395680785179,-0.013436214998364449,0.01733023300766945,0.0003197937330696732,0.0032941040117293596
0.004020909313112497,-0.003942910581827164,-0.013722238130867481,0.016884591430425644,0.0003542253980413079,0.00308744958601892
0.003927548881620169,-0.0037813486997038126,-0.013529615476727486,0.017140574753284454,0.0003358192916493863,0.0031777271069586277
0.003927548881620169,-0.0037813486997038126,-0.013529615476727486,0.017140574753284454,0.0003358192916493863,0.0031777271069586277
0.003907899372279644,-0.0042498852126300335,-0.013410042971372604,0.017035607248544693,0.000365446787327528,0.003268916392698884
0.004114752635359764,-0.004216239787638187,-0.013416285626590252,0.01665608212351799,0.00039154195110313594,0.003097621025517583
0.004284256137907505,-0.003993724472820759,-0.013447449542582035,0.017045151442289352,0.0003785271546803415,0.003196392208337784
0.004019748419523239,-0.003904812503606081,-0.013130171224474907,0.016774529591202736,0.0005755636375397444,0.0031335451640188694
0.004288113210350275,-0.0035704560577869415,-0.0134735694155097,0.01647842489182949,0.0005412623868323863,0.003098634770140052
0.00433448888361454,-0.003534533316269517,-0.013243279419839382,0.016574814915657043,0.0005641283350996673,0.0029856886249035597
0.004016913939267397,-0.003858190029859543,-0.013786131516098976,0.016488932073116302,0.0005266584339551628,0.0030598563607782125
0.0033255983144044876,-0.003978357650339603,-0.013450675643980503,0.016619805246591568,0.0005779637722298503,0.002997731789946556
0.00370611110702157,-0.003721462329849601,-0.012943044304847717,0.016201596707105637,0.0005667786463163793,0.0028461117763072252
0.00370611110702157,-0.003721462329849601,-0.012943044304847717,0.016201596707105637,0.0005667786463163793,0.0028461117763072252
0.003880814416334033,-0.004234440624713898,-0.013470156118273735,0.016505172476172447,0.0006008768104948103,0.002788000740110874
0.0038833641447126865,-0.004110398702323437,-0.01321517862379551,0.016169065609574318,0.0006248164572753012,0.00276476563885808
0.003385063959285617,-0.0038731342647224665,-0.013101799413561821,0.016144396737217903,0.0005784511449746788,0.002808719640597701
0.0033314262982457876,-0.003725313814356923,-0.012928003445267677,0.016413353383541107,0.0006008024793118238,0.0029219677671790123
0.0034764939919114113,-0.0038081707898527384,-0.012759137898683548,0.0163436196744442,0.0006398399127647281,0.003043737495318055
0.003579352516680956,-0.0038521147798746824,-0.013341303914785385,0.016630912199616432,0.0006883613532409072,0.0031326732132583857
0.003500061808153987,-0.003839762881398201,-0.012615119107067585,0.015884101390838623,0.0006622730870731175,0.003056221641600132
0.003591357497498393,-0.0037622239906340837,-0.013175408355891705,0.016290772706270218,0.0006782478885725141,0.0032928711734712124
0.0036880839616060257,-0.0038015060126781464,-0.012797747738659382,0.0160048920661211,0.0006880273576825857,0.003390201134607196
0.003592477645725012,-0.0037863142788410187,-0.013067204505205154,0.016208667308092117,0.0006469886284321547,0.0030510597862303257
0.00371116423048079,-0.0037099295295774937,-0.012712409719824791,0.016173215582966805,0.0007002623751759529,0.002866958035156131
0.0037981271743774414,-0.003649127436801791,-0.013073734939098358,0.01599307544529438,0.0007291212095879018,0.002766564954072237
0.003796104108914733,-0.0036775649059563875,-0.01317527238279581,0.01652795448899269,0.0007084705284796655,0.0027158032171428204
0.003985191695392132,-0.002380611374974251,-0.012994554825127125,0.016264544799923897,0.0006979666068218648,0.002286795061081648
0.003985191695392132,-0.002380611374974251,-0.012994554825127125,0.016264544799923897,0.0006979666068218648,0.002286795061081648
0.0040067583322525024,-0.002247860888019204,-0.012615821324288845,0.015492517501115799,0.0007811806863173842,0.0021561968605965376
0.004152803216129541,-0.0025123003870248795,-0.013185020536184311,0.01586957275867462,0.0008046861621551216,0.0022782834712415934
0.003974562045186758,-0.003067623358219862,-0.012827256694436073,0.015916857868433,0.0008258585003204644,0.002263355301693082
0.0038464530371129513,-0.0030481196008622646,-0.0131615549325943,0.015950854867696762,0.0008279071771539748,0.0024108111392706633
0.004364607855677605,-0.0026825321838259697,-0.013014630414545536,0.015695719048380852,0.0009509535157121718,0.0024217055179178715
0.004238912835717201,-0.002346710069105029,-0.012819414027035236,0.015593565069139004,0.0008930359617806971,0.002476027002558112
0.004494976717978716,-0.0021812135819345713,-0.012648542411625385,0.015567436814308167,0.0008907061419449747,0.0023134315852075815
0.0045296321623027325,-0.0021587805822491646,-0.01304505206644535,0.016141606494784355,0.0008410338778048754,0.0022491703275591135
0.0045296321623027325,-0.0021587805822491646,-0.01304505206644535,0.016141606494784355,0.0008410338778048754,0.0022491703275591135
0.004324494395405054,-0.0024671817664057016,-0.012800976634025574,0.016219768673181534,0.0007561598904430866,0.0023098154924809933
0.004072550684213638,-0.002617972670122981,-0.013046367093920708,0.016447842121124268,0.0006941534811630845,0.0023249455261975527
0.003995589911937714,-0.002699685050174594,-0.012831722386181355,0.015332710929214954,0.0006058852886781096,0.0025923841167241335
0.003961244598031044,-0.0024524081964045763,-0.013400196097791195,0.015737390145659447,0.0006119564641267061,0.0030183899216353893
0.003944350406527519,-0.00228552776388824,-0.012867311015725136,0.015735121443867683,0.0005709804827347398,0.0028155511245131493
0.004454700741916895,-0.002284571761265397,-0.013733556494116783,0.0153867918998003,0.0005593269015662372,0.002528252312913537
0.004712765105068684,-0.002223770134150982,-0.012870285660028458,0.015508193522691727,0.0005483075510710478,0.0023459503427147865
0.004262056667357683,-0.0024647866375744343,-0.012783069163560867,0.01562014501541853,0.0005597780109383166,0.002453331369906664
0.004412996117025614,-0.002375957788899541,-0.01281215064227581,0.015982208773493767,0.0005377940251491964,0.002444865647703409
0.004089184105396271,-0.002570252399891615,-0.012822526507079601,0.015890631824731827,0.0005210629897192121,0.0026155137456953526
0.004045833833515644,-0.0026302053593099117,-0.013289223425090313,0.016196712851524353,0.0006068766233511269,0.002641851082444191
0.004143642261624336,-0.002280207583680749,-0.012743617407977581,0.015745416283607483,0.0006332137854769826,0.0025306716561317444
0.004501120187342167,-0.0021659191697835922,-0.013580579310655594,0.016358867287635803,0.0006186576210893691,0.002631991170346737
0.004745108541101217,-0.0024142919573932886,-0.013003869913518429,0.016009492799639702,0.000633788004051894,0.002725104335695505
0.004622413776814938,-0.0023676715791225433,-0.013485427014529705,0.016627436503767967,0.0007415527361445129,0.0025988880079239607
0.004370901733636856,-0.0026173184160143137,-0.012965251691639423,0.015741415321826935,0.0007736210827715695,0.002698348369449377
0.004396884236484766,-0.0026576074305921793,-0.013902424834668636,0.015619758516550064,0.000782423245254904,0.0025888849049806595
0.004580959212034941,-0.0024752775207161903,-0.013340077362954617,0.015951737761497498,0.0007081684889271855,0.0024783718399703503
0.004701043013483286,-0.002379918470978737,-0.013370332308113575,0.015410340391099453,0.0007156459614634514,0.002600370440632105
0.004913190379738808,-0.0021619827020913363,-0.014007518999278545,0.015332823619246483,0.0006606025854125619,0.0024484803434461355
0.005266221240162849,-0.00243416428565979,-0.013589064590632915,0.014676627703011036,0.0006759889074601233,0.0024083994794636965
0.005107674282044172,-0.002480176044628024,-0.013430874794721603,0.01462517399340868,0.0006294738850556314,0.0026822409126907587
0.0048172916285693645,-0.0025881584733724594,-0.013342393562197685,0.014564788900315762,0.0005558867705985904,0.002535104053094983
0.004480292089283466,-0.0026502329856157303,-0.015063414350152016,0.015347782522439957,0.0005424296832643449,0.002481292001903057
0.004480292089283466,-0.0026502329856157303,-0.015063414350152016,0.015347782522439957,0.0005424296832643449,0.002481292001903057
0.004898248706012964,-0.002427296480163932,-0.012707565911114216,0.014951216988265514,0.0005316207534633577,0.0026959581300616264
0.004999461118131876,-0.0022972740698605776,-0.01287169475108385,0.01449623703956604,0.0005845839623361826,0.0024380835238844156
0.005074411164969206,-0.002239373279735446,-0.013867033645510674,0.01469902042299509,0.0005490434123203158,0.002490198239684105
0.004937654826790094,-0.002414730843156576,-0.013309787027537823,0.014494561590254307,0.0006374203367158771,0.0025180873926728964
0.004891919903457165,-0.002466490725055337,-0.013970594853162766,0.015128652565181255,0.000660693971440196,0.0024165604263544083
0.005101338494569063,-0.0023195866961032152,-0.013340662233531475,0.014767360873520374,0.0006126450025476515,0.002457068534567952
0.004997113719582558,-0.002258598804473877,-0.013797637075185776,0.015006096102297306,0.0005959817790426314,0.0026842402294278145
0.0053715212270617485,-0.0024788687005639076,-0.01371669676154852,0.014652209356427193,0.000580948602873832,0.002842667745426297
0.006073861848562956,-0.0024093808606266975,-0.013730630278587341,0.01476048119366169,0.0005711730918847024,0.0029348016250878572
0.005492602474987507,-0.0025112919975072145,-0.01403938326984644,0.014566692523658276,0.0005604231846518815,0.002900343155488372
0.005280629266053438,-0.0023622922599315643,-0.01382379699498415,0.01469317078590393,0.0005520336562767625,0.0027073645032942295
0.0051459865644574165,-0.0024640876799821854,-0.013657612726092339,0.014112871140241623,0.000520023750141263,0.0025152484886348248
0.005529953166842461,-0.0023551504127681255,-0.01357543095946312,0.014260239899158478,0.0005484666326083243,0.002433306770399213
0.005701418966054916,-0.0021912124939262867,-0.014067924581468105,0.014230682514607906,0.000548769545275718,0.002623934531584382
0.005585603415966034,-0.0019743957091122866,-0.013524599373340607,0.014381611719727516,0.0005769028211943805,0.0027053900994360447
0.005611810367554426,-0.0019263980211690068,-0.013700676150619984,0.0138813816010952,0.0007059911149553955,0.0030093092937022448
0.00517705362290144,-0.0018822429701685905,-0.013403348624706268,0.013819991610944271,0.0008338918560184538,0.003276294330134988
0.0054365480318665504,-0.001930122496560216,-0.013821672648191452,0.013227453455328941,0.0008181718876585364,0.0029336309526115656
0.005317914765328169,-0.0021987780928611755,-0.013065043836832047,0.013406747952103615,0.0008267106604762375,0.0027089982759207487
0.005785898305475712,-0.002375651616603136,-0.013996605761349201,0.013043553568422794,0.0007880008197389543,0.0026270700618624687
0.005727110430598259,-0.0022709809709340334,-0.013605906628072262,0.01355179212987423,0.0009658049675635993,0.0025261372793465853
0.005607344210147858,-0.0022464976646006107,-0.014058518223464489,0.01327609270811081,0.0008945385343395174,0.002580952597782016
0.005140156485140324,-0.0022306046448647976,-0.01309946458786726,0.013847868889570236,0.0008911063196137547,0.0027623455971479416
0.005507488735020161,-0.002388262189924717,-0.013425808399915695,0.013876983895897865,0.0008414580952376127,0.003042811993509531
0.005727778654545546,-0.0024311025626957417,-0.013475933112204075,0.014173144474625587,0.0007966484408825636,0.003237385768443346
0.005531872157007456,-0.0023270882666110992,-0.013920965604484081,0.0137675441801548,0.0007606004364788532,0.003312470857053995
0.005531872157007456,-0.0023270882666110992,-0.013920965604484081,0.0137675441801548,0.0007606004364788532,0.003312470857053995
0.005607777740806341,-0.0021085862535983324,-0.013545005582273006,0.013567181304097176,0.0007805464556440711,0.002865233924239874
0.005712447687983513,-0.002113454043865204,-0.013684210367500782,0.013391266576945782,0.0007675965898670256,0.002902420936152339
0.006134428549557924,-0.001954098464921117,-0.01354425959289074,0.0131078427657485,0.0007350692176260054,0.0030043183360248804
0.005555974319577217,-0.002318320795893669,-0.013235393911600113,0.012871754355728626,0.0007965448312461376,0.002927652094513178
0.006020613946020603,-0.0024717263877391815,-0.013105410151183605,0.012967649847269058,0.0008154915412887931,0.0032221442088484764
0.005759093910455704,-0.002340442966669798,-0.013597455807030201,0.01266239583492279,0.0007811760297045112,0.0031125822570174932
0.006258686538785696,-0.0023214109241962433,-0.01277986355125904,0.013015310280025005,0.0007412975537590683,0.0033487887121737003
0.005884507670998573,-0.0020958760287612677,-0.013253378681838512,0.012739842757582664,0.0007544751279056072,0.003491708543151617
0.005965442396700382,-0.002040209947153926,-0.012934812344610691,0.013133915141224861,0.0007629614556208253,0.0033690044656395912
0.006236403249204159,-0.0020161764696240425,-0.013672105967998505,0.012868383899331093,0.0007778345607221127,0.002886204980313778
0.0056924642994999886,-0.002190056024119258,-0.013160848058760166,0.012924375012516975,0.000793624552898109,0.00266315508633852
0.006462485529482365,-0.002240742091089487,-0.013652650639414787,0.012921890243887901,0.0008060385007411242,0.0028573188465088606
0.006704510655254126,-0.0021978672593832016,-0.012876425869762897,0.013000145554542542,0.0008850304293446243,0.003442242043092847
0.006138300523161888,-0.0021155383437871933,-0.013162096962332726,0.013177307322621346,0.0009960337774828076,0.003683721646666527
0.006280738394707441,-0.0020317407324910164,-0.01323558110743761,0.01352181751281023,0.0009878358105197549,0.003517266595736146
0.006049156188964844,-0.0019156669732183218,-0.012819373980164528,0.01372832152992487,0.0009761023102328181,0.00356325414031744
0.006094133481383324,-0.0018821547273546457,-0.013304265215992928,0.012694623321294785,0.0008833977626636624,0.0033300118520855904
0.0066038258373737335,-0.0019735449459403753,-0.012775425799190998,0.012793948873877525,0.0009353128261864185,0.0034723877906799316
0.006747313775122166,-0.001944750896655023,-0.013264344073832035,0.01217831950634718,0.0009330756147392094,0.003243199083954096
0.006250664126127958,-0.0020171115174889565,-0.012865427881479263,0.01234923955053091,0.000928811205085367,0.003039121627807617
0.006376773584634066,-0.001965729519724846,-0.013154556043446064,0.01197623461484909,0.0009861852740868926,0.003196671372279525
0.007914255373179913,-0.0019424305064603686,-0.012832329608500004,0.012076131999492645,0.0010597767541185021,0.0034899001475423574
0.006101397797465324,-0.001959684770554304,-0.013285419903695583,0.0128709701821208,0.0011210698867216706,0.0034469016827642918
0.006021948531270027,-0.002154894173145294,-0.013041863217949867,0.012355495244264603,0.0011968243634328246,0.003535230178385973
0.006406305357813835,-0.0020019568037241697,-0.012640763074159622,0.012651177123188972,0.0012649919372051954,0.003302051220089197
0.007143418304622173,-0.0020077438093721867,-0.013010735623538494,0.012133383192121983,0.0011794704478234053,0.0034778183326125145
0.007275315001606941,-0.0018756986828520894,-0.013022092171013355,0.01243005320429802,0.0011327194515615702,0.003267232095822692
0.006690173875540495,-0.0019067985704168677,-0.012892104685306549,0.011822327971458435,0.0010109641589224339,0.0030525359325110912
0.006676784250885248,-0.0019257169915363193,-0.01343050878494978,0.012481193989515305,0.0009568127570673823,0.002848916221410036
0.007189471740275621,-0.001827637548558414,-0.012772269546985626,0.011952060274779797,0.0009805774316191673,0.0032391364220529795
0.007044229190796614,-0.0019869739189743996,-0.013535353355109692,0.012560770846903324,0.0010908135445788503,0.003602270968258381
0.006751261185854673,-0.0018253844464197755,-0.012688826769590378,0.0122103001922369,0.001248967251740396,0.0042644077911973
0.00723492493852973,-0.0016970986034721136,-0.013204500079154968,0.012330152094364166,0.0012222824152559042,0.00411092909052968
0.007709110155701637,-0.0016694387886673212,-0.012888515368103981,0.012082964181900024,0.0012370811309665442,0.0036906725727021694
0.007709110155701637,-0.0016694387886673212,-0.012888515368103981,0.012082964181900024,0.0012370811309665442,0.0036906725727021694
0.007652544882148504,-0.0014796798350289464,-0.012762855738401413,0.01145149115473032,0.0012031820369884372,0.0034319129772484303
0.0077741690911352634,-0.0015605379594489932,-0.013009989634156227,0.012218691408634186,0.0012397656682878733,0.0031692320480942726
0.006834454834461212,-0.0014590113423764706,-0.012520912103354931,0.011561215855181217,0.0012210872955620289,0.0033859109971672297
0.007196655496954918,-0.0015695582842454314,-0.013202565722167492,0.012047598138451576,0.0011967770988121629,0.0037036254070699215
0.0072566973976790905,-0.0016225064173340797,-0.01274812314659357,0.012135135941207409,0.0011437467765063047,0.003757590427994728
0.007258599158376455,-0.0017125285230576992,-0.013166125863790512,0.0119824493303895,0.0011050335597246885,0.0037183461245149374
0.006975312251597643,-0.0015901861479505897,-0.012685613706707954,0.011877563782036304,0.0010258054826408625,0.0033648961689323187
0.0076414854265749454,-0.0014562936266884208,-0.013249150477349758,0.011638615280389786,0.0010074474848806858,0.0034255969803780317
0.0076824091374874115,-0.0013604996493086219,-0.013084911741316319,0.01210866216570139,0.0009902769234031439,0.003620056202635169
0.007205347064882517,-0.0013084380188956857,-0.013195570558309555,0.011472831480205059,0.000994175556115806,0.003676800988614559
0.006935600191354752,-0.0012504651676863432,-0.013054464012384415,0.011247048154473305,0.0011804854730144143,0.0036152421962469816
0.0075185843743383884,-0.0013670000480487943,-0.012334886938333511,0.011539074592292309,0.00119960296433419,0.0036395788192749023
0.00751787843182683,-0.0012922226451337337,-0.01337490975856781,0.011137058027088642,0.0011806453112512827,0.0036960593424737453
0.007359605748206377,-0.001251242239959538,-0.012972862459719181,0.011058295145630836,0.0013889679685235023,0.003734772792086005
0.006979156285524368,-0.0013726517790928483,-0.013224273920059204,0.01075217965990305,0.0013283411972224712,0.004161573480814695
0.007920349016785622,-0.001293191802687943,-0.012619150802493095,0.010904857888817787,0.0012547008227556944,0.004124991595745087
0.007786078844219446,-0.0012258864007890224,-0.012608387507498264,0.011149104684591293,0.0011409381404519081,0.0035742362961173058
0.008031772449612617,-0.0011134985834360123,-0.013087673112750053,0.010512948967516422,0.0010975997429341078,0.003473300952464342
0.007681685965508223,-0.0011882686521857977,-0.013925967738032341,0.010668485425412655,0.001063670264557004,0.0035519942175596952
0.007681685965508223,-0.0011882686521857977,-0.013925967738032341,0.010668485425412655,0.001063670264557004,0.0035519942175596952
0.007894587703049183,-0.001142155029810965,-0.012511949986219406,0.011125747114419937,0.0010221314150840044,0.0035857174079865217
0.008119301870465279,-0.0010808114893734455,-0.01322365552186966,0.011055750772356987,0.0009774493519216776,0.0035533912014216185
0.007649487815797329,-0.0010888953693211079,-0.012315844185650349,0.010846871882677078,0.0009850385831668973,0.0038086241111159325
0.007528528105467558,-0.0010611603502184153,-0.0129627650603652,0.010714625008404255,0.0009830666240304708,0.003961746580898762
0.007861888036131859,-0.0011304208310320973,-0.012927684001624584,0.011206223629415035,0.0010472852736711502,0.003875885857269168
0.007662901654839516,-0.001104114344343543,-0.013316030614078045,0.010556327179074287,0.0011211453238502145,0.004001655615866184
0.007687222678214312,-0.0010568416910246015,-0.013241676613688469,0.010939553380012512,0.0010919955093413591,0.0037151311989873648
0.007920767180621624,-0.0010337941348552704,-0.012559458613395691,0.011183849535882473,0.0011018397053703666,0.0035834498703479767
0.008106245659291744,-0.0009164014481939375,-0.012967126443982124,0.010096105746924877,0.0011110720224678516,0.003902267664670944
0.008141856640577316,-0.0008261150796897709,-0.012409145012497902,0.010147465392947197,0.001076931948773563,0.0037798178382217884
0.007939368486404419,-0.000792184378951788,-0.013265653513371944,0.010198350064456463,0.0010681874118745327,0.0035457336343824863
0.00815991498529911,-0.0007276427350006998,-0.012273146770894527,0.010445347055792809,0.0010456566233187914,0.004522322211414576
0.008075200952589512,-0.0007469977135770023,-0.013191703706979752,0.011267459020018578,0.0011300338665023446,0.004106026142835617
0.007691080216318369,-0.0007632015040144324,-0.012444287538528442,0.01099157240241766,0.0011561654973775148,0.003717154497280717
0.008371864445507526,-0.0008137596305459738,-0.012293746694922447,0.010095124132931232,0.0013824281049892306,0.0035386858507990837
0.008440556935966015,-0.0008312205318361521,-0.012402325868606567,0.010672768577933311,0.0013663185527548194,0.003615125548094511
0.008137124590575695,-0.000836986000649631,-0.012502002529799938,0.01073455810546875,0.0013077887706458569,0.0037924768403172493
0.008182368241250515,-0.0008116979151964188,-0.012951803393661976,0.010807259008288383,0.0012212245492264628,0.003885693848133087
0.008236588910222054,-0.0007589059532620013,-0.01238398626446724,0.01053317729383707,0.0011678675655275583,0.0039011347107589245
0.008169210515916348,-0.000693420588504523,-0.013002201914787292,0.010161597281694412,0.0011314104776829481,0.004307770635932684
0.007932489737868309,-0.0006631110445596278,-0.012882034294307232,0.010202433913946152,0.00109627575147897,0.00426810747012496
0.008194547146558762,-0.0006894190446473658,-0.012752625159919262,0.01050613634288311,0.001117008738219738,0.00443044351413846
0.008503487333655357,-0.0006818308029323816,-0.01240351889282465,0.009292488917708397,0.0010869217803701758,0.00420599477365613
0.008392366580665112,-0.0006438946584239602,-0.012233591638505459,0.00944535993039608,0.0010935650207102299,0.004012729972600937
0.008191918022930622,-0.0006645200774073601,-0.012780728749930859,0.009793534874916077,0.00113994674757123,0.0039694346487522125
0.00840792991220951,-0.0006112754344940186,-0.012106189504265785,0.009336857125163078,0.0011271759867668152,0.00434252480044961
0.00840792991220951,-0.0006112754344940186,-0.012106189504265785,0.009336857125163078,0.0011271759867668152,0.00434252480044961
0.00836192723363638,-0.0005612760432995856,-0.012360148131847382,0.009043046273291111,0.0011854780605062842,0.0043404060415923595
0.008410247042775154,-0.0005946432938799262,-0.012489239685237408,0.008972047828137875,0.0011877112556248903,0.0041058664210140705
0.008917848579585552,-0.0005390525911934674,-0.012503685429692268,0.009059220552444458,0.0012520250165835023,0.0037718492094427347
0.008279052563011646,-0.0004901521606370807,-0.012148466892540455,0.009381050243973732,0.0012832427164539695,0.003679051762446761
0.008428724482655525,-0.0005151901859790087,-0.012417134828865528,0.008830477483570576,0.0014239635784178972,0.0037721949629485607
0.009214882738888264,-0.00048383744433522224,-0.012218600139021873,0.008735070936381817,0.0013798419386148453,0.0038373314309865236
0.008355418220162392,-0.00047912573791109025,-0.011854559183120728,0.008990814909338951,0.0014575698878616095,0.004543124232441187
0.008355418220162392,-0.00047912573791109025,-0.011854559183120728,0.008990814909338951,0.0014575698878616095,0.004543124232441187
0.008731338195502758,-0.0004494836030062288,-0.011288202367722988,0.008121288381516933,0.0014899709494784474,0.004669272806495428
0.008700159378349781,-0.00042838146327994764,-0.012227465398609638,0.008742774836719036,0.0014387916307896376,0.004346098750829697
0.008595802821218967,-0.00039174422272481024,-0.011261777952313423,0.009761681780219078,0.0014814878813922405,0.0042044189758598804
0.009079191833734512,-0.00031332726939581335,-0.011601677164435387,0.008950423449277878,0.001386099262163043,0.004201399628072977
0.0084410784766078,-0.0002085482410620898,-0.011573271825909615,0.008655752055346966,0.0014617756241932511,0.004048709291964769
0.008640505373477936,-0.00018647671095095575,-0.011798146180808544,0.008790016174316406,0.001387351774610579,0.004645531997084618
0.009099340997636318,0.0002961972786579281,-0.011917732656002045,0.008846286684274673,0.0013951833825558424,0.004545426461845636
0.008821671828627586,0.00013692119682673365,-0.011446232907474041,0.008648238144814968,0.0013798214495182037,0.004562661983072758
0.008607293479144573,1.8369727285971749e-06,-0.01191588956862688,0.008945244364440441,0.0013355164555832744,0.004173638764768839
0.008715386502444744,2.464533288559778e-08,-0.011443926952779293,0.009051337838172913,0.0014144849264994264,0.0042981114238500595
0.00882654171437025,3.306485640841572e-10,-0.011377415619790554,0.008723416365683079,0.0014683036133646965,0.0045025767758488655
0.009526357054710388,4.436072169322625e-12,-0.01171283982694149,0.008798535913228989,0.0015625425148755312,0.004592882003635168
0.008680774830281734,5.951556386390652e-14,-0.01130239199846983,0.00928964838385582,0.0015157603193074465,0.004702761769294739
0.008342293091118336,7.984772600089804e-16,-0.011926007457077503,0.008517006412148476,0.0014645473565906286,0.004593025892972946
0.008911605924367905,1.0712592774408872e-17,-0.011785313487052917,0.008614251390099525,0.0015011181822046638,0.004792480263859034
0.00862755998969078,1.9282286897982153e-21,-0.011736376211047173,0.00888092815876007,0.0013266938040032983,0.004718570038676262
0.009479781612753868,2.586964735716276e-23,-0.01143691223114729,0.008702385239303112,0.0013285246677696705,0.004473419394344091
0.009479781612753868,2.586964735716276e-23,-0.01143691223114729,0.008702385239303112,0.0013285246677696705,0.004473419394344091
0.009489503689110279,3.4707429430537677e-25,-0.01216115616261959,0.008636212907731533,0.001392032252624631,0.004518565721809864
0.009024939499795437,4.656444856433439e-27,-0.011577490717172623,0.00883099902421236,0.0015508420765399933,0.005020789802074432
0.009448875673115253,6.247215395953545e-29,-0.012262306176126003,0.008582244627177715,0.0015219665365293622,0.005094575230032206
0.009455621242523193,1.1244767939706463e-32,-0.011614665389060974,0.009022298268973827,0.0014896458014845848,0.004155673552304506
0.009455621242523193,1.1244767939706463e-32,-0.011614665389060974,0.009022298268973827,0.0014896458014845848,0.004155673552304506
0.009103648364543915,1.5086291054622132e-34,-0.012253343127667904,0.008922531269490719,0.0013964001554995775,0.004198163282126188
0.009780129417777061,2.024018641447643e-36,-0.011431710794568062,0.008113632909953594,0.0013465650845319033,0.004859219770878553
0.009041381068527699,2.7154793241613317e-38,-0.011957045644521713,0.008248155005276203,0.0013748924247920513,0.005063189193606377
0.008969813585281372,3.6431658124748757e-40,-0.012675559148192406,0.008197352290153503,0.0014326053205877542,0.00487682456150651
0.009372333064675331,4.887729043564962e-42,-0.011838585138320923,0.00812329538166523,0.0015473521780222654,0.0046385894529521465
0.009565920569002628,6.58610278232664e-44,-0.012258706614375114,0.007845471613109112,0.001540565863251686,0.0042259874753654
0.009105302393436432,1.401298464324817e-45,-0.01176449004560709,0.007596275769174099,0.001600534305907786,0.004489488899707794
0.00935312919318676,0.0,-0.012445208616554737,0.008021596819162369,0.0017430703155696392,0.004775047302246094
0.009833591990172863,0.0,-0.012405636720359325,0.0077499328181147575,0.0016159421065822244,0.005576109513640404
0.009315025992691517,0.0,-0.012416331097483635,0.007941779680550098,0.0015201999340206385,0.005407532677054405
0.009835259988904,0.0,-0.012133827432990074,0.007764321751892567,0.0014681617030873895,0.004935078322887421
0.009556933306157589,0.0,-0.011850709095597267,0.007875264622271061,0.0014796062605455518,0.004775169771164656
0.009390355087816715,0.00020984385628253222,-0.012265960685908794,0.007465560920536518,0.001607892569154501,0.004869392141699791
0.010196172632277012,0.0002616969868540764,-0.011813460849225521,0.007981173694133759,0.0017427046550437808,0.004931374918669462
0.009830310940742493,0.00024812808260321617,-0.012520851567387581,0.0075841075740754604,0.0018213004805147648,0.005529491230845451
0.00910861510783434,0.00028027474763803184,-0.012315590865910053,0.007059580180794001,0.0018772128969430923,0.0053902193903923035
0.009815450757741928,0.00026816202444024384,-0.011787070892751217,0.007034816313534975,0.0019663760904222727,0.004930055234581232
0.009359381161630154,0.0002439545060042292,-0.012125624343752861,0.007836408913135529,0.0018761084647849202,0.004720697645097971
0.009597099386155605,0.0002334094315301627,-0.012882417999207973,0.007376860827207565,0.0017227418720722198,0.0048416187055408955
0.009597099386155605,0.0002334094315301627,-0.012882417999207973,0.007376860827207565,0.0017227418720722198,0.0048416187055408955
0.010144821368157864,0.00024820087128318846,-0.01163524016737938,0.00675501162186265,0.0014338287292048335,0.005082686431705952
0.00970396026968956,0.0002504703006707132,-0.012091719545423985,0.00717933289706707,0.00140664866194129,0.005308882333338261
0.010106646455824375,0.000274087768048048,-0.012168092653155327,0.007371331099420786,0.0013864599168300629,0.0052342782728374004
0.009846312925219536,0.0002667955413926393,-0.012056848034262657,0.007114166859537363,0.0014808910200372338,0.005580263677984476
0.009555176831781864,0.000363267696229741,-0.012443723157048225,0.006478923838585615,0.0015519213629886508,0.005333006847649813
0.00998983159661293,0.0003375996893737465,-0.012884920462965965,0.006188619416207075,0.0017814432503655553,0.005284406244754791
0.01059689186513424,0.0003742526168935001,-0.011698718182742596,0.006595442071557045,0.0018188522662967443,0.0051200054585933685
0.009299184195697308,0.00035224182647652924,-0.011674828827381134,0.006920821499079466,0.0019207451259717345,0.004983873106539249
0.00957875233143568,0.0003306985890958458,-0.011994222179055214,0.0065275635570287704,0.0018491027876734734,0.00501778582111001
0.009873813018202782,0.00031161285005509853,-0.012342306785285473,0.006347963586449623,0.0016196966171264648,0.004928381182253361
0.009812336415052414,0.0003378634573891759,-0.01155428122729063,0.00657199090346694,0.0015537799336016178,0.004842324648052454
0.01029097568243742,0.0003563514619600028,-0.012176649644970894,0.006654087919741869,0.0014836410991847515,0.005136009305715561
0.009851307608187199,0.0004437668831087649,-0.01196602638810873,0.006774794775992632,0.001484344364143908,0.005447633098810911
0.009607705287635326,0.0005304929218254983,-0.012283052317798138,0.006644752807915211,0.001450407668016851,0.005345695652067661
0.00998102780431509,0.0005666008219122887,-0.012436318211257458,0.006527476944029331,0.0015271594747900963,0.005219773389399052
0.01010280754417181,0.0005941975396126509,-0.011847183108329773,0.006848988123238087,0.0018042824231088161,0.005019078962504864
0.010162853635847569,0.0011841892264783382,-0.011987256817519665,0.00668282900005579,0.0018593278946354985,0.004927813541144133
0.010034049861133099,0.0010396483121439815,-0.011751314625144005,0.006345320492982864,0.001871515647508204,0.005499758291989565
0.010219438001513481,0.0009663332020863891,-0.012387707829475403,0.006078037433326244,0.0017480162205174565,0.005573996342718601
0.010635975748300552,0.0008755259914323688,-0.011909706518054008,0.00624460494145751,0.001746366498991847,0.005477627739310265
0.009602735750377178,0.0008404111722484231,-0.011828812770545483,0.00677279569208622,0.0016314160311594605,0.00500063318759203
0.009143506176769733,0.0007845858344808221,-0.012481040321290493,0.006550959311425686,0.0016905332449823618,0.005161948502063751
0.00996349472552538,0.0007426557131111622,-0.011468092910945415,0.006150537170469761,0.0016735520912334323,0.005433736369013786
0.00982757844030857,0.0008215536363422871,-0.011991812847554684,0.0063149090856313705,0.001793936942704022,0.00587204284965992
0.009877691976726055,0.0013678261311724782,-0.012382525950670242,0.006230381317436695,0.0020397473126649857,0.006117342505604029
0.01022102776914835,0.0012847280595451593,-0.012039661407470703,0.006262459326535463,0.0020123033318668604,0.005743902642279863
0.010185184888541698,0.0012192849535495043,-0.011499444954097271,0.005959641188383102,0.0019969833083450794,0.005889777094125748
0.010185184888541698,0.0012192849535495043,-0.011499444954097271,0.005959641188383102,0.0019969833083450794,0.005889777094125748
0.010962641797959805,0.0011044701095670462,-0.012543536722660065,0.0056372336111962795,0.0018756448989734054,0.005775809288024902
0.010293054394423962,0.001053342828527093,-0.011366849765181541,0.005571804475039244,0.0016272737411782146,0.005742318462580442
0.00978812389075756,0.0010398940648883581,-0.011918166652321815,0.00525868684053421,0.0014576844405382872,0.005539705976843834
0.010166719555854797,0.0011950486805289984,-0.012033170089125633,0.0050357310101389885,0.001490771770477295,0.005562719888985157
0.010456073097884655,0.0013885521329939365,-0.012160261161625385,0.005299806594848633,0.0015199618646875024,0.005601885728538036
0.01076270081102848,0.0017013241304084659,-0.011768179014325142,0.005157476756721735,0.001600417192094028,0.006007927004247904
0.010383913293480873,0.0018171211704611778,-0.011293698102235794,0.005384696647524834,0.002134188311174512,0.005997559987008572
0.012015621177852154,0.0016736332327127457,-0.011989266611635685,0.005143861286342144,0.002280342159792781,0.005983087234199047
0.012467365711927414,0.0016590269515290856,-0.01223759725689888,0.0048150415532290936,0.0023103358689695597,0.0055937012657523155
0.012923100963234901,0.001638269517570734,-0.011561473831534386,0.0047770217061042786,0.002088204026222229,0.005745592527091503
0.01189073920249939,0.0017516082152724266,-0.011797698214650154,0.004755333997309208,0.0020329165272414684,0.006133298389613628
0.012067350558936596,0.0017848457209765911,-0.011662932112812996,0.00472228555008769,0.00182794698048383,0.005959706846624613
0.01176675595343113,0.0021460573188960552,-0.012418219819664955,0.005052141845226288,0.0016326926415786147,0.005824475083500147
0.012197080999612808,0.0024847709573805332,-0.011840914376080036,0.005011959467083216,0.0016409506788477302,0.005516543984413147
0.01236132625490427,0.002633939264342189,-0.011629942804574966,0.004886016249656677,0.0019796262495219707,0.005511184688657522
0.012298986315727234,0.0024710637517273426,-0.012279660440981388,0.005133408587425947,0.0022792983800172806,0.005447568837553263
0.012716779485344887,0.0023486879654228687,-0.011595931835472584,0.005257271230220795,0.0023330599069595337,0.006172853987663984
0.012550463899970055,0.002283096546307206,-0.012150770053267479,0.004961877595633268,0.002491384744644165,0.005975799169391394
0.012483961880207062,0.002409030683338642,-0.011786668561398983,0.004876491613686085,0.0023019632790237665,0.005965056829154491
0.01276938896626234,0.002355769509449601,-0.01206054538488388,0.004719220567494631,0.0024633933790028095,0.006164093967527151
0.012938578613102436,0.0028208487201482058,-0.011338341049849987,0.004353161435574293,0.0023238915018737316,0.005788210779428482
0.012665577232837677,0.003100157016888261,-0.012018521316349506,0.00489848991855979,0.002070546383038163,0.005934278480708599
0.012966941110789776,0.002844687784090638,-0.011808470822870731,0.003772171912714839,0.0019901241175830364,0.00606976542621851
0.012302055023610592,0.003026544349268079,-0.012199433520436287,0.0035915817134082317,0.0018149189418181777,0.005636848509311676
0.012302055023610592,0.003026544349268079,-0.012199433520436287,0.0035915817134082317,0.0018149189418181777,0.005636848509311676
0.013116221874952316,0.0034475079737603664,-0.011982551775872707,0.004134009592235088,0.001794670126400888,0.005612737499177456
0.012553656473755836,0.0033298914786428213,-0.01187964715063572,0.004263314884155989,0.0018163559725508094,0.0060012247413396835
0.013034678995609283,0.0032506382558494806,-0.012232244946062565,0.004008119460195303,0.0018416214734315872,0.0059062219224870205
0.012837805785238743,0.003342308569699526,-0.011586918495595455,0.003765655681490898,0.0022806236520409584,0.005798865109682083
0.013108082115650177,0.0036692109424620867,-0.012420933693647385,0.003688962198793888,0.002445327118039131,0.005985078401863575
0.013250788673758507,0.0038917516358196735,-0.01147063635289669,0.003877179464325309,0.0026438068598508835,0.0061810631304979324
0.012587560340762138,0.003957795444875956,-0.011653974652290344,0.0035841204226017,0.0023473023902624846,0.006561070214956999
0.013156553730368614,0.0034455645363777876,-0.012221941724419594,0.003353897947818041,0.0021785213612020016,0.006723595783114433
0.012862779200077057,0.004163703881204128,-0.012121579609811306,0.0033605494536459446,0.0021029061172157526,0.006264311261475086
0.013638654723763466,0.004217482637614012,-0.01192550826817751,0.0036784522235393524,0.00209497450850904,0.006238698493689299
0.013250907883048058,0.004495228640735149,-0.011759373359382153,0.003415585495531559,0.0023288954980671406,0.0063073597848415375
0.013490499928593636,0.004137085285037756,-0.012185865081846714,0.003533501410856843,0.0024613135028630495,0.006206695456057787
0.013166889548301697,0.0038935376796871424,-0.012042620219290257,0.0033309555146843195,0.0023908051662147045,0.006325262598693371
0.01377174723893404,0.004348110407590866,-0.011526424437761307,0.0032103238627314568,0.0021223672665655613,0.006365855224430561
0.013486160896718502,0.004379504360258579,-0.01236808393150568,0.0031862659379839897,0.002013325924053788,0.0061704921536147594
0.013193253427743912,0.004857643973082304,-0.011885297484695911,0.0035105973947793245,0.0018859457923099399,0.006355090998113155
0.013368637301027775,0.00538825336843729,-0.012264213524758816,0.0035167094320058823,0.0018649620469659567,0.0064685652032494545
0.01346936821937561,0.004681946709752083,-0.01255381666123867,0.0034394708927720785,0.0019695262890309095,0.006454105488955975
0.01347206998616457,0.004506996367126703,-0.011941957287490368,0.0036078537814319134,0.0021034148521721363,0.00648398557677865
0.013346681371331215,0.004575215745717287,-0.012090741656720638,0.0037750068586319685,0.002650425536558032,0.006317365448921919
0.013872558251023293,0.005106769502162933,-0.011531000025570393,0.003799141850322485,0.002479813527315855,0.006039917003363371
0.013397658243775368,0.004923790227621794,-0.012618731707334518,0.003796009114012122,0.002384920371696353,0.006573519669473171
0.013547242619097233,0.005499023012816906,-0.012447699904441833,0.003352677682414651,0.002100791083648801,0.0065384223125875
0.013935308903455734,0.005120006389915943,-0.012181551195681095,0.002692330861464143,0.0016896753804758191,0.006754287518560886
0.013585654087364674,0.005368899554014206,-0.011556094512343407,0.0026526949368417263,0.001838142517954111,0.0064954981207847595
0.014603760093450546,0.0050948611460626125,-0.012512407265603542,0.002565588802099228,0.002357680117711425,0.006502741482108831
0.014603760093450546,0.0050948611460626125,-0.012512407265603542,0.002565588802099228,0.002357680117711425,0.006502741482108831
0.013840632513165474,0.005308454390615225,-0.01230547297745943,0.0029182436410337687,0.0024216833990067244,0.006717282813042402
0.0139832878485322,0.005730377975851297,-0.012467931024730206,0.0030406867153942585,0.0025814056862145662,0.005982462782412767
0.013689090497791767,0.006047211121767759,-0.012232433073222637,0.002701945137232542,0.0024120903108268976,0.006295926868915558
0.014332343824207783,0.005716101732105017,-0.012315325438976288,0.002647770568728447,0.0023016445338726044,0.0071147349663078785
0.013949887827038765,0.005758413579314947,-0.012406103312969208,0.0026334195863455534,0.00235037156380713,0.007160603534430265
0.014160958118736744,0.006258578971028328,-0.012326783500611782,0.002305820118635893,0.002494431333616376,0.00663131894543767
0.013898367062211037,0.005892286077141762,-0.012732913717627525,0.001985602080821991,0.002569191623479128,0.006281344220042229
0.014179344289004803,0.005864194128662348,-0.011943281628191471,0.0018589686369523406,0.002809945261105895,0.0062237330712378025
0.01412191241979599,0.005712083075195551,-0.013021940365433693,0.0017610507784411311,0.0027941258158534765,0.0064215329475700855
0.014714791439473629,0.006128747947514057,-0.011987628415226936,0.001766943372786045,0.00248535955324769,0.0067743463441729546
0.01462508738040924,0.005959813017398119,-0.011770146898925304,0.0016470339614897966,0.002378833247348666,0.0069400956854224205
0.014605642296373844,0.005989053286612034,-0.01264399103820324,0.0017316483426839113,0.00237375614233315,0.006782097276300192
0.01411515660583973,0.005945717915892601,-0.011742807924747467,0.0016084362287074327,0.002306446898728609,0.007118202280253172
0.01500646397471428,0.005932606291025877,-0.012114938348531723,0.0015904030296951532,0.0023573373910039663,0.006613300647586584
0.014900615438818932,0.0061075398698449135,-0.011940773576498032,0.0014668510993942618,0.0023265096824616194,0.006565026938915253
0.014963329769670963,0.006906536407768726,-0.012191016227006912,0.0013717054389417171,0.002478570444509387,0.006868069060146809
0.014766719192266464,0.007016829214990139,-0.012792419642210007,0.0012715061893686652,0.002614410128444433,0.007160755805671215
0.015558604151010513,0.006649600341916084,-0.011272871866822243,0.0012441707076504827,0.0024968802463263273,0.006801944691687822
0.015188481658697128,0.0067785088904201984,-0.012406663037836552,0.0012086021015420556,0.002595740370452404,0.006581529043614864
0.015476576052606106,0.006617347709834576,-0.011552449315786362,0.001365048810839653,0.002681923098862171,0.006770575884729624
0.015289024449884892,0.007207536604255438,-0.012046627700328827,0.0013192299520596862,0.002419346012175083,0.006993802264332771
0.015734033659100533,0.007010795176029205,-0.012183592654764652,0.001284852740354836,0.002533335005864501,0.007046984974294901
0.015813149511814117,0.007028419058769941,-0.012637452222406864,0.001466018264181912,0.002367171226069331,0.007075504865497351
0.01578301563858986,0.007661064155399799,-0.012075603939592838,0.001668276498094201,0.0024554296396672726,0.007174964994192123
0.015708165243268013,0.007044243160635233,-0.01206678431481123,0.001549844746477902,0.002521947957575321,0.007090757600963116
0.01578482985496521,0.007003922946751118,-0.01170503068715334,0.0014355805469676852,0.002504386007785797,0.007197663187980652
0.01582811214029789,0.007085926830768585,-0.012101921252906322,0.0012273340253159404,0.0027686634566634893,0.0074803391471505165
0.01582811214029789,0.007085926830768585,-0.012101921252906322,0.0012273340253159404,0.0027686634566634893,0.0074803391471505165
0.01630750112235546,0.007027454674243927,-0.012311984784901142,0.0009866270702332258,0.002497353358194232,0.007576958741992712
0.01584935374557972,0.007251255679875612,-0.011508112773299217,0.0009589767432771623,0.0023872829042375088,0.007556458469480276
0.0161848496645689,0.007233441341668367,-0.011837592348456383,0.0008873784099705517,0.00231137964874506,0.007358255796134472
0.01600317843258381,0.007225504145026207,-0.011475588195025921,0.0008281984482891858,0.002156898844987154,0.007930268533527851
0.016414359211921692,0.007558337412774563,-0.011445778422057629,0.0007351686945185065,0.002415321534499526,0.007856983691453934
0.016721827909350395,0.007490192539989948,-0.011776715517044067,0.0007271402282640338,0.002785945311188698,0.007751038298010826
0.016260342672467232,0.007090456783771515,-0.01172877848148346,0.0006795640802010894,0.0028168661519885063,0.007685713469982147
0.01659316197037697,0.007677652407437563,-0.012590114027261734,0.0006221659714356065,0.002557865111157298,0.007277106400579214
0.016323305666446686,0.00860667321830988,-0.011875523254275322,0.0005311715649440885,0.00227428344078362,0.007275099866092205
0.016496438533067703,0.008544194512069225,-0.01161594782024622,0.000443971308413893,0.0021981976460665464,0.007471555378288031
0.016392340883612633,0.007890748791396618,-0.011556856334209442,0.00040196612826548517,0.0022314663510769606,0.007983747869729996
0.016956530511379242,0.007928973063826561,-0.011507921852171421,0.00036883397842757404,0.002383049577474594,0.007750970311462879
0.016845447942614555,0.008171317167580128,-0.012137939222157001,0.0003408602497074753,0.002401775913313031,0.007766390684992075
0.016442596912384033,0.007683614734560251,-0.011987612582743168,0.0003168425755575299,0.002913443837314844,0.007826712913811207
0.016661275178194046,0.00733307097107172,-0.011454249732196331,0.0003247569256927818,0.0028035398572683334,0.007664973381906748
0.016487322747707367,0.00749131990596652,-0.011361348442733288,0.00033126698690466583,0.0025888800155371428,0.007677269633859396
0.01705930195748806,0.00811776239424944,-0.011069919914007187,0.0002650587121024728,0.0024215630255639553,0.0076323640532791615
0.016949839890003204,0.008095099590718746,-0.012073049321770668,0.0002474164357408881,0.0028641894459724426,0.007611290086060762
0.01695248670876026,0.007815741933882236,-0.011529255658388138,0.00023432698799297214,0.003045247867703438,0.007874984294176102
0.01701592281460762,0.008487432263791561,-0.011901333928108215,0.00022271269699558616,0.003003552323207259,0.007815610617399216
0.016686229035258293,0.006544746924191713,-0.011637426912784576,0.00021220618509687483,0.0029290318489074707,0.008033981546759605
0.017319880425930023,0.0055768489837646484,-0.011691102758049965,0.00019391276873648167,0.0023649053182452917,0.00835279282182455
0.01726166158914566,0.006111754570156336,-0.011216952465474606,0.00018590035324450582,0.002477738307788968,0.00800574291497469
0.01726166158914566,0.006111754570156336,-0.011216952465474606,0.00018590035324450582,0.002477738307788968,0.00800574291497469
0.01719537191092968,0.006594390142709017,-0.011211480014026165,0.00017171050421893597,0.0030965758487582207,0.007852123118937016
0.01745537482202053,0.006270973477512598,-0.011136247776448727,0.00016539824719075114,0.003191653173416853,0.008081307634711266
0.017718147486448288,0.006058150436729193,-0.011923348531126976,0.00015953373804222792,0.0031445245258510113,0.007884982973337173
0.017462700605392456,0.006353477481752634,-0.011138779111206532,0.00015407087630592287,0.0030894260853528976,0.007982221432030201
0.0176768209785223,0.007038343232125044,-0.010953220538794994,0.00014896978973411024,0.003089164849370718,0.008035551756620407
0.0176768209785223,0.007038343232125044,-0.010953220538794994,0.00014896978973411024,0.003089164849370718,0.008035551756620407
0.017361704260110855,0.0064720166847109795,-0.011105175130069256,0.00014419577200897038,0.0033556169364601374,0.00795664731413126
0.017341269180178642,0.0060610477812588215,-0.010611618869006634,0.00011365740647306666,0.003159492276608944,0.008109696209430695
0.01681700348854065,0.0064829564653337,-0.011204459704458714,0.0001085311669157818,0.002965992083773017,0.008224688470363617
0.01747453399002552,0.00718381954357028,-0.011293018236756325,0.00010524680692469701,0.0030338733922690153,0.008402744308114052
0.0177869014441967,0.007074063178151846,-0.010853368788957596,8.970201452029869e-05,0.002920711413025856,0.00842809583991766
0.017633777111768723,0.006679934915155172,-0.01121702790260315,7.541888044215739e-05,0.0032813011202961206,0.008103802800178528
0.017578445374965668,0.006514870095998049,-0.011122625321149826,7.262035069288686e-05,0.003191588446497917,0.007686804048717022
0.01733880676329136,0.006991702131927013,-0.011208947747945786,-2.753354965534527e-05,0.0029149025212973356,0.00816140417009592
0.017714185640215874,0.0074276430532336235,-0.0124594671651721,-5.7636541896499693e-05,0.0028552282601594925,0.008763345889747143
0.018267620354890823,0.007082975935190916,-0.011503047309815884,-8.483090641675517e-05,0.0029291058890521526,0.008746135048568249
0.018117040395736694,0.006729362532496452,-0.011439863592386246,-0.00010844360804185271,0.002956433454528451,0.008594883605837822
0.017905984073877335,0.006759886629879475,-0.011152610182762146,-0.00012200236960779876,0.0028552094008773565,0.0085800401866436
0.01855066791176796,0.007198897190392017,-0.011323302984237671,-0.00046930319513194263,0.002930454211309552,0.0086143109947443
0.01708853989839554,0.007729839533567429,-0.011051761917769909,-0.000799569592345506,0.00294348387978971,0.008006379008293152
0.017734622582793236,0.007365088444203138,-0.010591263882815838,-0.0008310856064781547,0.0028968541882932186,0.008137847296893597
0.018074389547109604,0.006971175316721201,-0.011200623586773872,-0.0008406928391195834,0.0028387056663632393,0.008221940137445927
0.018013449385762215,0.007503559812903404,-0.011218078434467316,-0.0010081849759444594,0.0031464030034840107,0.008758336305618286
0.01833750493824482,0.00776364142075181,-0.010684908367693424,-0.0011310777626931667,0.0032535784412175417,0.008172462694346905
0.018228525295853615,0.007366681005805731,-0.011179173365235329,-0.00118121353443712,0.003327228594571352,0.007891766726970673
0.018259411677718163,0.00800168327987194,-0.010723942890763283,-0.002162431599572301,0.0031253311317414045,0.008817831054329872
0.018145781010389328,0.008368607610464096,-0.010702058672904968,-0.00235907849855721,0.002851611003279686,0.008791009895503521
0.018575385212898254,0.008443020284175873,-0.010423419065773487,-0.002505601616576314,0.0029614039231091738,0.009024050086736679
0.0185738205909729,0.008012162521481514,-0.010988130234181881,-0.002572600729763508,0.0029954968485981226,0.008929027244448662
0.01860051415860653,0.008178772404789925,-0.01142280176281929,-0.002513896906748414,0.0029944605194032192,0.00860886462032795
0.01860051415860653,0.008178772404789925,-0.01142280176281929,-0.002513896906748414,0.0029944605194032192,0.00860886462032795
0.018767191097140312,0.007030997425317764,-0.010788027197122574,-0.002893195953220129,0.0028403117321431637,0.00873564463108778
0.018461093306541443,0.009003404527902603,-0.011113898828625679,-0.0034467452205717564,0.002911008195951581,0.008764934726059437
0.01880580373108387,0.008370094001293182,-0.010724001564085484,-0.003690882585942745,0.0029254050459712744,0.008513524197041988
0.0193923506885767,0.008218714967370033,-0.011084702797234058,-0.0034076476003974676,0.002992129186168313,0.0086613018065691
0.018783938139677048,0.007958754897117615,-0.01176897156983614,-0.00374946859665215,0.00298459455370903,0.008669713512063026
0.018822018057107925,0.008152952417731285,-0.011512460187077522,-0.00415834179148078,0.003092236118391156,0.008762289769947529
0.018921757116913795,0.008368320763111115,-0.01149969082325697,-0.00361742009408772,0.003196797799319029,0.008658673614263535
0.01897418312728405,0.008187958039343357,-0.01168639212846756,-0.0035756630823016167,0.0030462665017694235,0.008556068874895573
0.01912674866616726,0.008117584511637688,-0.011534865945577621,-0.004160834942013025,0.0029344866052269936,0.0094516696408391
0.0191822312772274,0.008981186896562576,-0.012519830837845802,-0.004690513014793396,0.0033929329365491867,0.00909213162958622
0.01883178949356079,0.008632692508399487,-0.011447223834693432,-0.0046424889005720615,0.0032304238993674517,0.00895281508564949
0.01914055459201336,0.008508658967912197,-0.01208206731826067,-0.004427889361977577,0.003344824304804206,0.008792593143880367
0.019419271498918533,0.008771303109824657,-0.011573986150324345,-0.004267173819243908,0.0033400014508515596,0.008894704282283783
0.019047461450099945,0.009038710035383701,-0.01178732980042696,-0.004316411446779966,0.0035490263253450394,0.008541146293282509
0.019144104793667793,0.00849368330091238,-0.01178415771573782,-0.004296428989619017,0.0036464303266257048,0.008667158894240856
0.019117141142487526,0.008498103357851505,-0.01127329096198082,-0.004326791036874056,0.0037003117613494396,0.009241783060133457
0.018954288214445114,0.00954784732311964,-0.011661577969789505,-0.004852974787354469,0.0036442498676478863,0.008908177725970745
0.019360024482011795,0.008823256939649582,-0.011324113234877586,-0.005313948728144169,0.003246792359277606,0.008852124214172363
0.01935197412967682,0.00871485099196434,-0.01179887168109417,-0.00505412369966507,0.003039996139705181,0.009120401926338673
0.019298847764730453,0.009147973731160164,-0.01176578737795353,-0.004786449950188398,0.0029371040873229504,0.009021379984915257
0.01917361095547676,0.008717713877558708,-0.011435211636126041,-0.004703125916421413,0.003119123401120305,0.008989841677248478
0.019395392388105392,0.008735373616218567,-0.012141293846070766,-0.00476605212315917,0.0034474520944058895,0.008961412124335766
0.01947801187634468,0.008903391659259796,-0.011468037962913513,-0.004881400149315596,0.003555116942152381,0.00961117073893547
0.01959533430635929,0.008685128763318062,-0.011684969067573547,-0.005404127761721611,0.0032008555717766285,0.009128842502832413
0.01959533430635929,0.008685128763318062,-0.011684969067573547,-0.005404127761721611,0.0032008555717766285,0.009128842502832413
0.020068883895874023,0.00907073076814413,-0.011833155527710915,-0.0056207203306257725,0.0032487334683537483,0.008821126073598862
0.020494673401117325,0.008827373385429382,-0.011406107805669308,-0.006374747026711702,0.003087463090196252,0.009286929853260517
0.020436516031622887,0.008916182443499565,-0.012055899016559124,-0.006679559592157602,0.0039205956272780895,0.010151824913918972
0.020054824650287628,0.009480749256908894,-0.011966656893491745,-0.005726275034248829,0.004148716572672129,0.009434483014047146
0.020054824650287628,0.009480749256908894,-0.011966656893491745,-0.005726275034248829,0.004148716572672129,0.009434483014047146
0.0198367889970541,0.009839225560426712,-0.011514575220644474,-0.00528522627428174,0.004055990371853113,0.00946720503270626
0.02026708796620369,0.009457580745220184,-0.01184946857392788,-0.005714980885386467,0.00383089785464108,0.00964324176311493
0.0201202854514122,0.009646105580031872,-0.011731826700270176,-0.005832883529365063,0.0036894106306135654,0.009457414969801903
0.020325737074017525,0.009075197391211987,-0.011546299792826176,-0.005647007841616869,0.0036916169337928295,0.010086438618600368
0.020296741276979446,0.00917502585798502,-0.011721700429916382,-0.005621115677058697,0.003703547175973654,0.009512395597994328
0.02009289339184761,0.009572508744895458,-0.011418074369430542,-0.006306767463684082,0.0037153882440179586,0.009399250149726868
0.02037525735795498,0.009428954683244228,-0.011889549903571606,-0.0063256085850298405,0.003746384521946311,0.009558525867760181
0.02130645141005516,0.009614097885787487,-0.011799133382737637,-0.006081874016672373,0.003733298508450389,0.009769625030457973
0.02088668942451477,0.009899035096168518,-0.01172406505793333,-0.0063600544817745686,0.003735506907105446,0.010168271139264107
0.020606238394975662,0.009643252938985825,-0.011393936350941658,-0.006830800790339708,0.0037929171230643988,0.009431078098714352
0.02059328928589821,0.009737911634147167,-0.011082327924668789,-0.007275106851011515,0.003803806146606803,0.009572163224220276
0.020115753635764122,0.009912503883242607,-0.011338832788169384,-0.0067755174823105335,0.003418679814785719,0.009693190455436707
0.02063613198697567,0.010191766545176506,-0.011049171909689903,-0.0063302116468548775,0.0031852161046117544,0.009674986824393272
0.020821241661906242,0.009651285596191883,-0.011176220141351223,-0.006463243626058102,0.003146539907902479,0.010268057696521282
0.019580066204071045,0.010549924336373806,-0.01171685941517353,-0.006678384263068438,0.0035643104929476976,0.009911834262311459
0.021390613168478012,0.0100935073569417,-0.011071590706706047,-0.00661896588280797,0.0039000380784273148,0.010624829679727554
0.0212920680642128,0.00973797682672739,-0.013347079046070576,-0.00629072031006217,0.0035433603916317225,0.010284065268933773
0.020852403715252876,0.010641826316714287,-0.011417319066822529,-0.006648994982242584,0.003557313699275255,0.0096480967476964
0.020873548462986946,0.010118892416357994,-0.010354727506637573,-0.007482956163585186,0.003708510659635067,0.00995930377393961
0.020987344905734062,0.010593527927994728,-0.012021063826978207,-0.007638765033334494,0.003786378540098667,0.01002385001629591
0.020919807255268097,0.010295363143086433,-0.011428606696426868,-0.0072952876798808575,0.0038660999853163958,0.010079746134579182
0.021824998781085014,0.009945709258317947,-0.011188823729753494,-0.007602048572152853,0.003551343223080039,0.009881055913865566
0.02243487723171711,0.009863355197012424,-0.010891493409872055,-0.007412265054881573,0.003372642444446683,0.010258707217872143
0.022105231881141663,0.010566337034106255,-0.010812981054186821,-0.006781257223337889,0.003072746330872178,0.009896069765090942
0.021783247590065002,0.009639483876526356,-0.011296608485281467,-0.007664225064218044,0.004174474161118269,0.009961414150893688
0.022166511043906212,0.01048444863408804,-0.010653205215930939,-0.0076453424990177155,0.00422372343018651,0.009705279022455215
0.021925529465079308,0.010497133247554302,-0.011299227364361286,-0.007814759388566017,0.003976665437221527,0.009870616719126701
0.021848026663064957,0.011284592561423779,-0.010889493860304356,-0.007588065695017576,0.003449701704084873,0.010079938918352127
0.021848026663064957,0.011284592561423779,-0.010889493860304356,-0.007588065695017576,0.003449701704084873,0.010079938918352127
0.02186720445752144,0.01063584815710783,-0.011337228119373322,-0.008217657916247845,0.0031751294154673815,0.010301741771399975
0.021773584187030792,0.01031809113919735,-0.010966883972287178,-0.008513564243912697,0.0029288949444890022,0.010070647113025188
0.021839160472154617,0.010175858624279499,-0.010353676974773407,-0.007966392673552036,0.003183856839314103,0.009811142459511757
0.022093797102570534,0.01074585597962141,-0.011557217687368393,-0.008080104365944862,0.003436291590332985,0.010121411643922329
0.021737560629844666,0.010146859101951122,-0.010959801264107227,-0.007943871431052685,0.00343100493773818,0.009625038132071495
0.022052273154258728,0.010732271708548069,-0.010963591746985912,-0.007679724600166082,0.0036212638951838017,0.01003454253077507
0.022101595997810364,0.010480789467692375,-0.011094075627624989,-0.007565103936940432,0.004374828189611435,0.01002715528011322
0.021798327565193176,0.010776558890938759,-0.010537470690906048,-0.00766321225091815,0.004210644401609898,0.009681877680122852
0.021639883518218994,0.010634156875312328,-0.011250123381614685,-0.008677861653268337,0.003509006230160594,0.009780106134712696
0.022433634847402573,0.010594906285405159,-0.010814864188432693,-0.008152969181537628,0.0034623078536242247,0.00984103512018919
0.022333744913339615,0.010691655799746513,-0.009960046969354153,-0.0076481373980641365,0.0036116079427301884,0.010459166020154953
0.022032173350453377,0.010479404591023922,-0.010825710371136665,-0.008311377838253975,0.003287634579464793,0.010090676136314869
0.021898923441767693,0.010600942187011242,-0.010433926247060299,-0.008589793927967548,0.0034308533649891615,0.009707208722829819
0.022013885900378227,0.010769570246338844,-0.01067116018384695,-0.008450607769191265,0.003731231205165386,0.010020239278674126
0.022365650162100792,0.010634900070726871,-0.011076931841671467,-0.008410501293838024,0.004187929909676313,0.010717364028096199
0.022034743800759315,0.010244841687381268,-0.010287074372172356,-0.008614634163677692,0.004125429783016443,0.010212475433945656
0.022575857117772102,0.01098147127777338,-0.010686825960874557,-0.008878865279257298,0.004047205671668053,0.010149341076612473
0.022383177652955055,0.010754354298114777,-0.010856439359486103,-0.008273842744529247,0.00387045880779624,0.010144378058612347
0.022781889885663986,0.010333123616874218,-0.01101043913513422,-0.008484674617648125,0.003750529605895281,0.010322985239326954
0.02311578579246998,0.010837283916771412,-0.011284345760941505,-0.00889652594923973,0.003405370283871889,0.010801109485328197
0.02205677516758442,0.010736057534813881,-0.010879592038691044,-0.008211832493543625,0.0035041121300309896,0.0101883914321661
0.021801022812724113,0.011203465051949024,-0.010833176784217358,-0.00800726655870676,0.004120939876884222,0.009873993694782257
0.022614162415266037,0.01047209557145834,-0.011083470657467842,-0.009079300798475742,0.0045714969746768475,0.010550083592534065
0.02340082824230194,0.010477076284587383,-0.010719976387917995,-0.00896037369966507,0.004703420214354992,0.010271081700921059
0.022848650813102722,0.010977211408317089,-0.010808899998664856,-0.009011014364659786,0.004318685736507177,0.010601857677102089
0.02255307137966156,0.009922240860760212,-0.011001183651387691,-0.008843785151839256,0.0036036961246281862,0.010917965322732925
0.02338828518986702,0.010542142204940319,-0.011148245073854923,-0.008919036947190762,0.003592278342694044,0.011152670718729496
0.023457784205675125,0.010589021258056164,-0.010830076411366463,-0.009218248538672924,0.0041124094277620316,0.01114500779658556
0.02338946983218193,0.010250804014503956,-0.01097309123724699,-0.009365314617753029,0.004248894285410643,0.010486614890396595
0.02338946983218193,0.010250804014503956,-0.01097309123724699,-0.009365314617753029,0.004248894285410643,0.010486614890396595
0.022824598476290703,0.010803775861859322,-0.011086729355156422,-0.008733931928873062,0.004320736043155193,0.010860256850719452
0.022180765867233276,0.010818555019795895,-0.01094698067754507,-0.009610735811293125,0.004039182793349028,0.01157333143055439
0.022934675216674805,0.011199632659554482,-0.011396318674087524,-0.009955677203834057,0.0037824995815753937,0.011419910937547684
0.024000758305191994,0.010532294400036335,-0.011094428598880768,-0.009138965047895908,0.003817496821284294,0.011218284256756306
0.023626651614904404,0.010381054133176804,-0.010738995857536793,-0.009028952568769455,0.00395589554682374,0.011012505739927292
0.023302610963582993,0.010068976320326328,-0.01165897585451603,-0.009195251390337944,0.0038217431865632534,0.01113855466246605
0.02335873432457447,0.010144475847482681,-0.011535556986927986,-0.00947208609431982,0.0036689492408186197,0.011123894713819027
0.02356722764670849,0.010547247715294361,-0.011403866112232208,-0.009668656624853611,0.004190751351416111,0.011257445439696312
0.023606112226843834,0.011470592580735683,-0.011922068893909454,-0.009730001911520958,0.004050117917358875,0.010783124715089798
0.024011414498090744,0.010645102709531784,-0.011206110939383507,-0.009514136239886284,0.0038988576270639896,0.01084587350487709
0.024119731038808823,0.010568217374384403,-0.011839359067380428,-0.009741481393575668,0.004685825202614069,0.010718315839767456
0.023603495210409164,0.010995653457939625,-0.011784086003899574,-0.010310345329344273,0.0044968281872570515,0.010982243344187737
0.023758506402373314,0.010740199126303196,-0.011725817807018757,-0.00919658225029707,0.004039573948830366,0.010936441831290722
0.024377506226301193,0.010125531814992428,-0.011729181744158268,-0.009172138758003712,0.003790556453168392,0.010955661535263062
0.024201110005378723,0.01044749841094017,-0.01117939967662096,-0.009281245991587639,0.0039361570961773396,0.010999206453561783
0.0245270524173975,0.010136139579117298,-0.011557428166270256,-0.00975924450904131,0.0040810490027070045,0.011045332066714764
0.024542169645428658,0.011098851449787617,-0.011652892455458641,-0.00962253287434578,0.004410548601299524,0.011427359655499458
0.024510180577635765,0.010630253702402115,-0.011744746938347816,-0.009897909127175808,0.004417015705257654,0.011718828231096268
0.024915795773267746,0.01054153311997652,-0.0116343405097723,-0.01011313684284687,0.004385529085993767,0.010940445587038994
0.02433440461754799,0.011052357964217663,-0.011486518196761608,-0.010292957536876202,0.004419882781803608,0.01147554162889719
0.024856621399521828,0.01040775328874588,-0.012240197509527206,-0.010171953588724136,0.004003772512078285,0.01211443729698658
0.02506890892982483,0.010185317136347294,-0.011241459287703037,-0.010007698088884354,0.0037353362422436476,0.011989508755505085
0.02519579418003559,0.01041364949196577,-0.011810236610472202,-0.010433001443743706,0.004665356129407883,0.011160698719322681
0.02511296607553959,0.009988924488425255,-0.011154691688716412,-0.009834051132202148,0.004387058783322573,0.010956746526062489
0.02538410574197769,0.01083172857761383,-0.011277537792921066,-0.009788081049919128,0.004145675338804722,0.011147665791213512
0.025224629789590836,0.010668295435607433,-0.011394335888326168,-0.010318388231098652,0.004266643896698952,0.011750581674277782
0.025224629789590836,0.010668295435607433,-0.011394335888326168,-0.010318388231098652,0.004266643896698952,0.011750581674277782
0.025172898545861244,0.010277868248522282,-0.01171565055847168,-0.010318398475646973,0.004407825414091349,0.011543571017682552
0.025889698415994644,0.01076116506010294,-0.011861579492688179,-0.00994901917874813,0.003698111744597554,0.012021317146718502
0.026542887091636658,0.010496195405721664,-0.011010292917490005,-0.010388406924903393,0.0034404031466692686,0.011715147644281387
0.02650957554578781,0.010715101845562458,-0.011600114405155182,-0.010231791995465755,0.0035611740313470364,0.011483127251267433
0.025863008573651314,0.011195284314453602,-0.011499350890517235,-0.010343506000936031,0.004234625026583672,0.01175512932240963
0.025415673851966858,0.01018550619482994,-0.010910830460488796,-0.010631266050040722,0.0043581086210906506,0.011372036300599575
0.02710261195898056,0.010817190632224083,-0.010882417671382427,-0.010094513185322285,0.00433790497481823,0.011434139683842659
0.02676035836338997,0.010654300451278687,-0.010720915161073208,-0.0104137621819973,0.004656594712287188,0.011528895236551762
0.0260836910456419,0.010602852329611778,-0.011544639244675636,-0.010378253646194935,0.004185076337307692,0.011701667681336403
0.026424890384078026,0.011363038793206215,-0.011416134424507618,-0.01017787866294384,0.004113275092095137,0.012129111215472221
0.026798730716109276,0.01114832516759634,-0.010643222369253635,-0.010237066075205803,0.0039770277217030525,0.011477536521852016
0.026712100952863693,0.011360332369804382,-0.0123238330706954,-0.009804925881326199,0.0038819655310362577,0.011392910033464432
0.026009809225797653,0.011134770698845387,-0.011336203664541245,-0.009706682525575161,0.0038566654548048973,0.011767382733523846
0.025389378890395164,0.010772190056741238,-0.01122116670012474,-0.010507560335099697,0.004327982198446989,0.011994507163763046
0.026307396590709686,0.01196969486773014,-0.011145406402647495,-0.010203911922872066,0.00511701637879014,0.011951031163334846
0.02737661823630333,0.011862436309456825,-0.010782863944768906,-0.010423509404063225,0.004687794484198093,0.011105884797871113
0.027481183409690857,0.0117333410307765,-0.011505970731377602,-0.011184203438460827,0.004382815677672625,0.011349751614034176
0.02702721580862999,0.012540891766548157,-0.010857525281608105,-0.010497137904167175,0.0040761446580290794,0.011942042969167233
0.026665791869163513,0.012110426090657711,-0.01057437900453806,-0.010789920575916767,0.003952843602746725,0.011963605880737305
0.02701529487967491,0.012758731842041016,-0.011338193900883198,-0.011363811790943146,0.004316489212214947,0.01233623269945383
0.02746635116636753,0.012325676158070564,-0.010945122689008713,-0.010500473901629448,0.004512679763138294,0.0126964645460248
0.02711143158376217,0.012405280955135822,-0.011410897597670555,-0.010822678916156292,0.004774947185069323,0.012031902559101582
0.027007348835468292,0.012361099012196064,-0.011208194307982922,-0.011441364884376526,0.004591782111674547,0.011651084758341312
0.02755529247224331,0.012284288182854652,-0.010903963819146156,-0.010998801328241825,0.004524304531514645,0.012000152841210365
0.02759251743555069,0.01202808041125536,-0.011862539686262608,-0.011134662665426731,0.004413494374603033,0.01240251399576664
0.02759251743555069,0.01202808041125536,-0.011862539686262608,-0.011134662665426731,0.004413494374603033,0.01240251399576664
0.02747338078916073,0.012694446370005608,-0.011383998207747936,-0.01184691023081541,0.004469727631658316,0.011977520771324635
0.02715599164366722,0.012365355156362057,-0.011062429286539555,-0.011502892710268497,0.004705395549535751,0.01191825233399868
0.027237175032496452,0.012386234477162361,-0.010491833090782166,-0.010938270017504692,0.0046350532211363316,0.011972721666097641
0.02736641652882099,0.012803323566913605,-0.011371145024895668,-0.011336922645568848,0.004498150199651718,0.012235310859978199
0.027617072686553,0.012929012067615986,-0.010889848694205284,-0.011826816946268082,0.004449259489774704,0.012472112663090229
0.0276804156601429,0.012425845488905907,-0.010932473465800285,-0.011614665389060974,0.00447105010971427,0.012569406069815159
0.027542978525161743,0.012330819852650166,-0.011504706926643848,-0.012115013785660267,0.004652764648199081,0.012487154453992844
0.027546411380171776,0.01283168513327837,-0.010749994777143002,-0.011502481997013092,0.004692375659942627,0.012467228807508945
0.02778789773583412,0.012547777034342289,-0.010867470875382423,-0.011879484169185162,0.004761152900755405,0.012031948193907738
0.028318405151367188,0.012927364557981491,-0.010647394694387913,-0.012114775367081165,0.004636134020984173,0.01231937576085329
0.027882715687155724,0.012504709884524345,-0.010573141276836395,-0.012064499780535698,0.004857930354773998,0.012226387858390808
0.028139403089880943,0.012665165588259697,-0.011107387952506542,-0.012042073532938957,0.00467326957732439,0.011899815872311592
0.028322316706180573,0.013275262899696827,-0.010597198270261288,-0.01190536841750145,0.0043805851601064205,0.012251880019903183
0.02819768525660038,0.01281492505222559,-0.010487467050552368,-0.012412840500473976,0.004391837399452925,0.012244130484759808
0.026973668485879898,0.013213266618549824,-0.010807731188833714,-0.011863691732287407,0.004191230051219463,0.012521188706159592
0.027995940297842026,0.012601083144545555,-0.010360625572502613,-0.012342828325927258,0.004276299849152565,0.012635691091418266
0.028820902109146118,0.012968495488166809,-0.010959911160171032,-0.012569046579301357,0.004346610978245735,0.012404071167111397
0.028780503198504448,0.012929079122841358,-0.01093088835477829,-0.012474706396460533,0.004567970987409353,0.012366880662739277
0.028767380863428116,0.013350816443562508,-0.010595343075692654,-0.013274308294057846,0.004313221666961908,0.012189561501145363
0.02802032046020031,0.01310397032648325,-0.01122747641056776,-0.013149518519639969,0.004138546995818615,0.012808597646653652
0.027457110583782196,0.01302441954612732,-0.011218023486435413,-0.013526559807360172,0.0041214050725102425,0.012868215329945087
0.02847098745405674,0.012944254092872143,-0.01128082349896431,-0.013213669881224632,0.004040563944727182,0.01254943571984768
0.028759701177477837,0.01271902583539486,-0.01051473617553711,-0.013539955951273441,0.0043076081201434135,0.012432279996573925
0.02823476493358612,0.013502297922968864,-0.010432464070618153,-0.012939377687871456,0.004546330776065588,0.012344849295914173
0.02926277369260788,0.012947351671755314,-0.010495751164853573,-0.01343931071460247,0.004601795691996813,0.01262588519603014
0.029178382828831673,0.013500244356691837,-0.010979315266013145,-0.013575938530266285,0.004512614570558071,0.012484796345233917
0.02868824638426304,0.013265509158372879,-0.010524539276957512,-0.01387307234108448,0.004553438629955053,0.012783407233655453
0.02868824638426304,0.013265509158372879,-0.010524539276957512,-0.01387307234108448,0.004553438629955053,0.012783407233655453
0.027894102036952972,0.012853976339101791,-0.010520203039050102,-0.013368797488510609,0.004369932226836681,0.012874307110905647
0.028579862788319588,0.013426408171653748,-0.010355224832892418,-0.013321694917976856,0.004661773797124624,0.013056058436632156
0.02907983399927616,0.013096141628921032,-0.011140204966068268,-0.013246413320302963,0.0044997031800448895,0.013480354100465775
0.028761448338627815,0.013268503360450268,-0.010566609911620617,-0.013456424698233604,0.0045517017133533955,0.013359887525439262
0.02856156788766384,0.013455822132527828,-0.01046235952526331,-0.01324602123349905,0.004590461030602455,0.013150322251021862
0.028697552159428596,0.01354007888585329,-0.010851770639419556,-0.014102119021117687,0.004136388190090656,0.013217667117714882
0.02849641628563404,0.013653540052473545,-0.010625442489981651,-0.014109786599874496,0.004149873740971088,0.012914154678583145
0.028578627854585648,0.013991161249577999,-0.011251273564994335,-0.014320878311991692,0.004250844940543175,0.01313397753983736
0.028731754049658775,0.014024843461811543,-0.011303368955850601,-0.013645813800394535,0.004596775863319635,0.012123296968638897
0.028772277757525444,0.013936449773609638,-0.01041233167052269,-0.014118409715592861,0.0043842000886797905,0.01388043724000454
0.02862408198416233,0.013761106878519058,-0.011970424093306065,-0.01342085562646389,0.004735833499580622,0.013682541437447071
0.02840135432779789,0.013171926140785217,-0.011499845422804356,-0.013483671471476555,0.0049065155908465385,0.013302376493811607
0.028220275416970253,0.013992584310472012,-0.010289959609508514,-0.013672024942934513,0.0048754275776445866,0.012883198447525501
0.028523137792944908,0.013635845854878426,-0.012011423707008362,-0.01452635508030653,0.004613777622580528,0.012685329653322697
0.026997264474630356,0.01395252626389265,-0.01153101772069931,-0.014362731948494911,0.0046827844344079494,0.012680436484515667
0.028716398403048515,0.013362464495003223,-0.01155761443078518,-0.014743744395673275,0.004727636929601431,0.012686907313764095
0.02942494861781597,0.014103871770203114,-0.011266505345702171,-0.014217305928468704,0.00474166264757514,0.013189593330025673
0.02929341420531273,0.014671379700303078,-0.011321863159537315,-0.014483449049293995,0.004660347476601601,0.01274392381310463
0.028810877352952957,0.014545997604727745,-0.011498049832880497,-0.01397939957678318,0.005035447422415018,0.01299364771693945
0.028650926426053047,0.014067914336919785,-0.011224992573261261,-0.014589022845029831,0.0048831067979335785,0.012806030921638012
0.028763990849256516,0.014398137107491493,-0.01111062802374363,-0.014319689013063908,0.0045113819651305676,0.013056772761046886
0.030419377610087395,0.014029276557266712,-0.011619286611676216,-0.015015341341495514,0.004450635984539986,0.012942477129399776
0.03028794750571251,0.014708171598613262,-0.011067341081798077,-0.014335847459733486,0.0045920079573988914,0.01308686938136816
0.02936796471476555,0.01441909372806549,-0.011889878660440445,-0.014684207737445831,0.004741190001368523,0.013355448842048645
0.028338167816400528,0.014733419753611088,-0.011211751960217953,-0.014198104850947857,0.004841957241296768,0.012828344479203224
0.028338167816400528,0.014733419753611088,-0.011211751960217953,-0.014198104850947857,0.004841957241296768,0.012828344479203224
0.03066924586892128,0.014689997769892216,-0.012006834149360657,-0.014376085251569748,0.004732160829007626,0.013087626546621323
0.03045569732785225,0.014902534894645214,-0.01121559739112854,-0.01423250138759613,0.005085031967610121,0.013815402053296566
0.03088473528623581,0.014523041434586048,-0.011462411843240261,-0.01503342017531395,0.0048241689801216125,0.013773930259048939
0.03088473528623581,0.014523041434586048,-0.011462411843240261,-0.01503342017531395,0.0048241689801216125,0.013773930259048939
0.03087238036096096,0.015231244266033173,-0.011181451380252838,-0.015055939555168152,0.004542867187410593,0.013417460955679417
0.02978607639670372,0.014778347685933113,-0.01222524419426918,-0.015345594845712185,0.004591657314449549,0.013886773027479649
0.030242716893553734,0.015170500613749027,-0.011279158294200897,-0.015003813430666924,0.004548022523522377,0.013746676966547966
0.031158512458205223,0.0148473447188735,-0.01162582915276289,-0.015359262004494667,0.004975580144673586,0.013686403632164001
0.031119776889681816,0.014978005550801754,-0.011604035273194313,-0.015332724899053574,0.004969438072293997,0.013373917900025845
0.03132124990224838,0.014975915662944317,-0.011241794563829899,-0.015619706362485886,0.004810493439435959,0.01414868887513876
0.03100128285586834,0.015517673455178738,-0.01168103702366352,-0.01529900636523962,0.004825769457966089,0.014197696931660175
0.031186986714601517,0.015629759058356285,-0.011789595708251,-0.015523266978561878,0.004995105788111687,0.014165489003062248
0.031211964786052704,0.015413478016853333,-0.011644907295703888,-0.015648411586880684,0.004913151729851961,0.014220237731933594
0.03117184154689312,0.015681786462664604,-0.011264864355325699,-0.015707222744822502,0.005220614839345217,0.014306765049695969
0.03325239568948746,0.015365331433713436,-0.01089200098067522,-0.016234824433922768,0.005529041402041912,0.013995310291647911
0.032351117581129074,0.01548182126134634,-0.011621356010437012,-0.016077617183327675,0.005487225018441677,0.01428977306932211
0.032482851296663284,0.015226952731609344,-0.011365744285285473,-0.016755536198616028,0.005517559591680765,0.013978040777146816
0.032135218381881714,0.015748703852295876,-0.010953541845083237,-0.016186881810426712,0.005276926793158054,0.014482507482171059
0.03188705816864967,0.015428479760885239,-0.011056000366806984,-0.01620018668472767,0.004867995157837868,0.014630749821662903
0.032395102083683014,0.015962865203619003,-0.01124496292322874,-0.016003893688321114,0.005248902831226587,0.014029948972165585
0.03318234160542488,0.01571202464401722,-0.011635977774858475,-0.01642993837594986,0.0051876939833164215,0.013676251284778118
0.03269895538687706,0.01627221144735813,-0.011644460260868073,-0.016467466950416565,0.005250774323940277,0.014047820121049881
0.03314557299017906,0.016066452488303185,-0.011389529332518578,-0.015926526859402657,0.005198810249567032,0.014166801236569881
0.03298575431108475,0.015958327800035477,-0.011299102567136288,-0.016037311404943466,0.0050621917471289635,0.014177171513438225
0.03341309726238251,0.01585463248193264,-0.011161500588059425,-0.015779174864292145,0.005152575671672821,0.01392851211130619
0.03368590772151947,0.015488806180655956,-0.011423195712268353,-0.016638604924082756,0.005009134765714407,0.013974894769489765
0.033265843987464905,0.01642528362572193,-0.011347027495503426,-0.01662401109933853,0.004915983881801367,0.014383448287844658
0.03358687460422516,0.015908263623714447,-0.011214560829102993,-0.0169589314609766,0.005245252978056669,0.014738927595317364
0.03408965468406677,0.016056254506111145,-0.011566570028662682,-0.01727950945496559,0.005243771243840456,0.014534284360706806
0.03378239646553993,0.01596294716000557,-0.011031243950128555,-0.017273152247071266,0.004652583971619606,0.01421278901398182
0.034019339829683304,0.016204001381993294,-0.011640475131571293,-0.017253009602427483,0.004768619313836098,0.014520022086799145
