davideferrari95/blind_handover_controller/data/Test 66 - [2024-02-07 -- 15-47-07]/joint_states_data.csv
shoulder_pan_joint,shoulder_lift_joint,elbow_joint,wrist_1_joint,wrist_2_joint,wrist_3_joint
0.0027901739813387394,0.007745322771370411,-0.009567717090249062,0.003436002880334854,0.0001957286149263382,0.0063154436647892
0.002937417244538665,0.007683359086513519,-0.009502382948994637,0.0031652250327169895,0.00019092459115199745,0.004660647362470627
0.002937417244538665,0.007683359086513519,-0.009502382948994637,0.0031652250327169895,0.00019092459115199745,0.004660647362470627
0.0032918478827923536,0.008238156326115131,-0.009029153734445572,0.003363854717463255,0.00018601669580675662,0.0038217364344745874
0.003358987858518958,0.0076364451088011265,-0.009997093118727207,0.0036433227360248566,0.0001814103889046237,0.004022970795631409
0.0031293188221752644,0.007473271805793047,-0.010411040857434273,0.0032610734924674034,0.00022568044369108975,0.004211532883346081
0.0030659690964967012,0.00770659139379859,-0.010081161744892597,0.0029762405902147293,0.00020834692986682057,0.004594198428094387
0.0030905166640877724,0.006893382873386145,-0.009728727862238884,0.002980740973725915,0.00022855948191136122,0.004625543020665646
0.00315443379804492,0.0070600504986941814,-0.009083863347768784,0.0031136013567447662,0.00022815956617705524,0.0043096658773720264
0.003078425070270896,0.007897828705608845,-0.009517178870737553,0.0031189322471618652,0.0002194897533627227,0.003562360070645809
0.002910800278186798,0.007816256023943424,-0.009177936241030693,0.002944566775113344,0.00021095304691698402,0.0032190647907555103
0.003270692192018032,0.007114982698112726,-0.008688408881425858,0.002823683898895979,0.00020302347547840327,0.00327084818854928
0.0030240395572036505,0.007026985287666321,-0.009283660911023617,0.003057515947148204,0.0002260674664285034,0.004137073643505573
0.0032482005190104246,0.007166530005633831,-0.008913462981581688,0.003877679817378521,0.00022014931892044842,0.004124023020267487
0.003322148695588112,0.007633930537849665,-0.008313115686178207,0.004227601457387209,0.00021284029935486615,0.004442126955837011
0.003322148695588112,0.007633930537849665,-0.008313115686178207,0.004227601457387209,0.00021284029935486615,0.004442126955837011
0.0032376700546592474,0.007079491391777992,-0.008841120637953281,0.0036624781787395477,0.0002203127514803782,0.004163325764238834
0.003015323542058468,0.006986914202570915,-0.008616086095571518,0.003251713002100587,0.0002268794341944158,0.0039403680711984634
0.0028240070678293705,0.007434764876961708,-0.008582432754337788,0.0030546034686267376,0.00022080361668486148,0.003635304979979992
0.0029214518144726753,0.007379266899079084,-0.008137146942317486,0.003198876278474927,0.0002142893645213917,0.003658154746517539
0.00325257470831275,0.007146400865167379,-0.008472885005176067,0.0031724649015814066,0.00020809893612749875,0.0038020103238523006
0.0033990221563726664,0.007000971119850874,-0.008278309367597103,0.0031362310983240604,0.00023369786504190415,0.0034512432757765055
0.0033228136599063873,0.007291313260793686,-0.008232722990214825,0.0032311393879354,0.0002509797050151974,0.003470147494226694
0.003368704579770565,0.00740875955671072,-0.008582916110754013,0.003283384721726179,0.00023959673126228154,0.0036776720080524683
0.003164209658280015,0.006915269885212183,-0.008649894967675209,0.003278139280155301,0.00022760481806471944,0.004361907485872507
0.003424862865358591,0.0067159938625991344,-0.008240942843258381,0.00324068870395422,0.00021665144595317543,0.004603824578225613
0.003218558384105563,0.007400318048894405,-0.007856125012040138,0.0030445409938693047,0.00020669809600804,0.0038718481082469225
0.003236698918044567,0.0068206749856472015,-0.00769764231517911,0.003026541555300355,0.00019761844305321574,0.003564898855984211
0.003243762766942382,0.0063635194674134254,-0.008859877474606037,0.0031849730294197798,0.00022211360919754952,0.0036664328072220087
0.00316024012863636,0.00664914958178997,-0.008163567632436752,0.0030294901225715876,0.00021766204736195505,0.0039686523377895355
0.0032719590235501528,0.0068361577577888966,-0.007963060401380062,0.003022184129804373,0.00020950972975697368,0.00408683018758893
0.003168415976688266,0.006571032106876373,-0.008990151807665825,0.0029203130397945642,0.00020170237985439599,0.004101119004189968
0.0031296212691813707,0.006621131673455238,-0.008969919756054878,0.0037763684522360563,0.00018768091103993356,0.003541090991348028
0.0031723293941468,0.007177295628935099,-0.009519834071397781,0.003495518583804369,0.0001813761773519218,0.0035014867316931486
0.0033775654155761003,0.0070582786574959755,-0.008812084794044495,0.0031874491833150387,0.00017548116738907993,0.0036864057183265686
0.003228167537599802,0.007475240621715784,-0.008392673917114735,0.0030919574201107025,0.00018385016301181167,0.003886600024998188
0.0035241993609815836,0.006882865913212299,-0.009013339877128601,0.0032067575957626104,0.00019129054271616042,0.003977303393185139
0.0033041611313819885,0.006646228488534689,-0.009309940040111542,0.0030711505096405745,0.00018647918477654457,0.0038991381879895926
0.0030612614937126637,0.006504883989691734,-0.008704985491931438,0.0025929773692041636,0.0001811714464565739,0.004178186878561974
0.003025986719876528,0.007062836550176144,-0.00901635829359293,0.002454840810969472,0.00017611026123631746,0.00425818283110857
0.0031742090359330177,0.006311237346380949,-0.009436315856873989,0.0025781921576708555,0.0001713209057925269,0.004459691699594259
0.0034815308172255754,0.005851304158568382,-0.009064450860023499,0.0027971696108579636,0.0001667850447120145,0.00426710769534111
0.0034815308172255754,0.005851304158568382,-0.009064450860023499,0.0027971696108579636,0.0001667850447120145,0.00426710769534111
0.003357939189299941,0.006582809612154961,-0.00933050736784935,0.003194495104253292,0.0001583980192663148,0.003988643642514944
0.003079476300626993,0.006709955167025328,-0.008873766288161278,0.0032238548155874014,0.00015451281797140837,0.003996874671429396
0.003079476300626993,0.006709955167025328,-0.008873766288161278,0.0032238548155874014,0.00015451281797140837,0.003996874671429396
0.0033861498814076185,0.006406437139958143,-0.009371107444167137,0.0030040598940104246,0.00017091739573515952,0.0040461216121912
0.004108740016818047,0.006288100033998489,-0.009216517210006714,0.002819894813001156,0.0001682347065070644,0.004016448277980089
0.004224984906613827,0.0059697567485272884,-0.009468093514442444,0.0026613418012857437,0.00016447709640488029,0.00421532616019249
0.003571476321667433,0.006381414830684662,-0.00879770889878273,0.0028244222048670053,0.00016080893692560494,0.004007063340395689
0.00354562746360898,0.0065323119051754475,-0.009630592539906502,0.002892123069614172,0.00015729617734905332,0.003781332168728113
0.0033632111735641956,0.006151650100946426,-0.009059181436896324,0.00293255434371531,0.000153933055116795,0.003738158382475376
0.0034097766038030386,0.006194677669554949,-0.008720825426280499,0.0029388631228357553,0.00015071089728735387,0.004164536017924547
0.004155850037932396,0.00648113526403904,-0.008882930502295494,0.0030077507253736258,0.00014762072532903403,0.004138450603932142
0.004183345008641481,0.006389018148183823,-0.010018830187618732,0.0031516903545707464,0.00014032910985406488,0.004003487527370453
0.00394867779687047,0.006459154188632965,-0.008862635120749474,0.0030688561964780092,0.00013239461986813694,0.0038712795358151197
0.003720354987308383,0.006183054763823748,-0.008325538598001003,0.0029301021713763475,0.00012836883252020925,0.003772599156945944
0.0036129774525761604,0.005931118968874216,-0.009623484686017036,0.002902374370023608,0.00012479245197027922,0.004228295758366585
0.0035882345400750637,0.006137170363217592,-0.01019372045993805,0.0029300507158041,0.00012142383639002219,0.003904571058228612
0.0036378714721649885,0.007134739775210619,-0.008811673149466515,0.002894180826842785,0.00011823328532045707,0.0037303315475583076
0.0038498896174132824,0.005801776424050331,-0.008990907110273838,0.002571035409346223,0.00011233012628508732,0.003499019658192992
0.003868718631565571,0.00650325370952487,-0.009050827473402023,0.0027674867305904627,0.00010959429346257821,0.004196273162961006
0.0039407736621797085,0.006909056566655636,-0.009272892028093338,0.0029198192059993744,0.00010698857659008354,0.004126374144107103
0.003425338538363576,0.006143139209598303,-0.009715478867292404,0.003146813251078129,0.00010450374247739092,0.003912885673344135
0.003337007947266102,0.006076402962207794,-0.008512399159371853,0.003283051075413823,0.00012119362509110942,0.003507232293486595
0.0034672210458666086,0.006138395983725786,-0.008971204981207848,0.003584645688533783,0.00011974926019320264,0.0034007029607892036
0.00427804933860898,0.0061454689130187035,-0.009336418472230434,0.00331309181638062,0.00011723068018909544,0.0035248033236712217
0.004184745252132416,0.006634594406932592,-0.009093102067708969,0.003152421209961176,0.00011474484199425206,0.0041464949026703835
0.003574674716219306,0.006844750139862299,-0.008632820099592209,0.0032775867730379105,0.00011235765123274177,0.004129710141569376
0.00338962534442544,0.0063754539005458355,-0.009038669057190418,0.0032259856816381216,0.00011006735439877957,0.004029985051602125
0.0034778397530317307,0.006100351456552744,-0.009044647216796875,0.003302609082311392,0.00010786864731926471,0.003936971537768841
0.0034778397530317307,0.006100351456552744,-0.009044647216796875,0.003302609082311392,0.00010786864731926471,0.003936971537768841
0.003617875976487994,0.006260116584599018,-0.0087678711861372,0.0033193142153322697,0.00010575615306152031,0.003894137917086482
0.0034477675799280405,0.006273241713643074,-0.009925280697643757,0.0031536584720015526,0.00010372462566010654,0.0038640103302896023
0.0035188752226531506,0.006444019731134176,-0.00872486550360918,0.0029799574986100197,0.00010176983778364956,0.004135940223932266
0.003642232622951269,0.006591306533664465,-0.008572516031563282,0.0028196072671562433,9.988731471821666e-05,0.004253261256963015
0.0037281459663063288,0.006042775698006153,-0.009099115617573261,0.0029725905042141676,9.807314199861139e-05,0.004443040583282709
0.0037203188985586166,0.005964122712612152,-0.009308377280831337,0.003300243988633156,0.00011027570144506171,0.004255142528563738
0.003749140305444598,0.006558229215443134,-0.00876920111477375,0.0030196390580385923,0.00011027087748516351,0.004020371474325657
0.003807966597378254,0.006558535620570183,-0.008554297499358654,0.0028577223420143127,0.00010849755199160427,0.003999448847025633
0.0038578996900469065,0.006350906100124121,-0.009485315531492233,0.0026969306636601686,0.00010666876187315211,0.003978314343839884
0.003986528608947992,0.006102736573666334,-0.00878573302179575,0.0026609355118125677,0.00010489337000763044,0.00364971486851573
0.003933976404368877,0.006781045347452164,-0.008489677682518959,0.0028192864265292883,0.00010317547275917605,0.0035652942024171352
0.0036937929689884186,0.0070529961958527565,-0.008869643323123455,0.003197598038241267,0.00010151296010008082,0.003931279759854078
0.0036157367285341024,0.006068399176001549,-0.008717448450624943,0.00323161156848073,9.990321996156126e-05,0.004137948155403137
0.003704511560499668,0.0063742659986019135,-0.008639178238809109,0.0032502736430615187,9.834372031036764e-05,0.0043554664589464664
0.003820607904344797,0.0067074052058160305,-0.008756880648434162,0.0030149698723107576,9.683216194389388e-05,0.00405998295173049
0.004346606321632862,0.006486182101070881,-0.008439850993454456,0.0030873354990035295,0.00010561168164713308,0.0037706487346440554
0.004189644940197468,0.006246377248317003,-0.008586985059082508,0.003005438717082143,0.00010567295248620212,0.003800709033384919
0.0035431350115686655,0.006152076181024313,-0.009017210453748703,0.0028932644054293633,0.0001042481089825742,0.0038895353209227324
0.0033651096746325493,0.006126333028078079,-0.008873122744262218,0.002797375898808241,0.00010276703687850386,0.0039017247036099434
0.0033678526524454355,0.006716758478432894,-0.00825577974319458,0.003133220598101616,0.00010132131137652323,0.0039016269147396088
0.0035500209778547287,0.006092257797718048,-0.009333840571343899,0.00327721587382257,9.991527622332796e-05,0.004246292635798454
0.0035500209778547287,0.006092257797718048,-0.009333840571343899,0.00327721587382257,9.991527622332796e-05,0.004246292635798454
0.0037059299647808075,0.005958539433777332,-0.008665874600410461,0.003295393195003271,9.854773816186935e-05,0.004327966365963221
0.003771773772314191,0.006514817010611296,-0.008397460915148258,0.003324665129184723,9.721713286126032e-05,0.0044075786136090755
0.003760244930163026,0.006585005670785904,-0.00956173799932003,0.003373862709850073,9.59219250944443e-05,0.004208529833704233
0.003737927181646228,0.0065300604328513145,-0.009037887677550316,0.0029970614705234766,9.466080518905073e-05,0.0035302862524986267
0.0037422534078359604,0.00607388187199831,-0.008692152798175812,0.0028898122254759073,9.343244164483622e-05,0.003556759562343359
0.003542836057022214,0.0065111094154417515,-0.008532079868018627,0.0027235583402216434,9.223553206538782e-05,0.0037318714894354343
0.0035851390566676855,0.00607712147757411,-0.009085126221179962,0.0027547667268663645,9.106892684940249e-05,0.0038572403136640787
0.003941730130463839,0.0061043077148497105,-0.008958529680967331,0.002739019226282835,8.993144001578912e-05,0.004325884394347668
0.0040791230276227,0.006679764948785305,-0.00817823689430952,0.002933502197265625,9.111934923566878e-05,0.004312076140195131
0.004369123373180628,0.0062469663098454475,-0.008913662284612656,0.003169381758198142,9.155096631729975e-05,0.004136432893574238
0.004031461197882891,0.006069998722523451,-0.008935319259762764,0.0031416132114827633,8.98717189556919e-05,0.0039029684849083424
0.0038752155378460884,0.00655781477689743,-0.008597196079790592,0.003172735683619976,8.812153828330338e-05,0.003838528413325548
0.0038370774127542973,0.0068712392821908,-0.009300514124333858,0.0032471949234604836,8.642960892757401e-05,0.0038725256454199553
0.00431550107896328,0.006470202002674341,-0.008845867589116096,0.0030527752824127674,8.480090036755428e-05,0.004219082649797201
0.004111032001674175,0.006283945869654417,-0.008450469933450222,0.0030059856362640858,8.323237125296146e-05,0.00416350644081831
0.0039613195694983006,0.006281090434640646,-0.009055745787918568,0.002956356154754758,8.172078378265724e-05,0.0044073499739170074
0.003836370538920164,0.006451515480875969,-0.008912280201911926,0.0028550229035317898,8.026319846976548e-05,0.004097606521099806
0.0043702507391572,0.006261582486331463,-0.008530708961188793,0.00267455424182117,7.885663217166439e-05,0.004311808850616217
0.004135391674935818,0.006417861208319664,-0.008662687614560127,0.002757356269285083,7.749861833872274e-05,0.004131073597818613
0.003951351623982191,0.006012381985783577,-0.009285868145525455,0.002899407409131527,7.618655945407227e-05,0.004013650119304657
0.00397791713476181,0.006501281633973122,-0.00804915651679039,0.003375246888026595,7.369125523837283e-05,0.0034733759239315987
0.0037643194664269686,0.006677682977169752,-0.008294161409139633,0.0033702931832522154,7.2503971750848e-05,0.003961258102208376
0.004334901459515095,0.006159706972539425,-0.008730093948543072,0.003314548870548606,7.135428313631564e-05,0.004192108288407326
0.004656480625271797,0.0063388594426214695,-0.008462070487439632,0.0031702120322734118,7.02405086485669e-05,0.004278539214283228
0.004394767340272665,0.006588315591216087,-0.008250237442553043,0.002939961152151227,6.916098209330812e-05,0.0040761069394648075
0.004034609999507666,0.006421572994440794,-0.009553365409374237,0.002906211419031024,6.81141100358218e-05,0.003963048104196787
0.004323060158640146,0.006463665049523115,-0.008794531226158142,0.0029920581728219986,6.709850276820362e-05,0.003958443645387888
0.004323060158640146,0.006463665049523115,-0.008794531226158142,0.0029920581728219986,6.709850276820362e-05,0.003958443645387888
0.004476554691791534,0.006674811244010925,-0.008304200135171413,0.0031529353000223637,6.611269054701552e-05,0.0042288219556212425
0.004290638025850058,0.006262980401515961,-0.009223265573382378,0.003512285416945815,6.515543645946309e-05,0.004576446488499641
0.0043958337046206,0.006359020713716745,-0.00879798922687769,0.0036504322197288275,6.42255472484976e-05,0.004741475451737642
0.004797404166311026,0.006650922819972038,-0.008853597566485405,0.0035215613897889853,6.332176417345181e-05,0.004639717284590006
0.0047908048145473,0.006381779443472624,-0.008686047978699207,0.0032883009407669306,6.24431122560054e-05,0.004579314962029457
0.004674194846302271,0.006034942343831062,-0.00894932821393013,0.0031955926679074764,6.158848555060104e-05,0.004656095057725906
0.004676260985434055,0.006531747989356518,-0.009091140702366829,0.0028786449693143368,6.674485484836623e-05,0.004264789633452892
0.0041761756874620914,0.006876864470541477,-0.0082235187292099,0.002688148757442832,7.153463229769841e-05,0.004381461534649134
0.004386579617857933,0.006684417370706797,-0.009022234939038754,0.0027702481020241976,7.096508488757536e-05,0.004282545763999224
0.004766486585140228,0.006268845871090889,-0.008902212604880333,0.0028878317680209875,7.006849773460999e-05,0.004395009949803352
0.004587728995829821,0.006069033872336149,-0.008332162164151669,0.003347252029925585,6.91725144861266e-05,0.0042330422438681126
0.004521030932664871,0.006642816122621298,-0.009162500500679016,0.0032306129578500986,6.829776975791901e-05,0.004335607402026653
0.00444181589409709,0.0070556229911744595,-0.00878073088824749,0.0031140351202338934,6.744475831510499e-05,0.004094474017620087
0.0045378501527011395,0.006462047807872295,-0.0086252735927701,0.00310627487488091,6.661277438979596e-05,0.003879214869812131
0.0045754630118608475,0.0062615456990897655,-0.009359531104564667,0.0031722441781312227,6.580106128240004e-05,0.0038345777429640293
0.0046311975456774235,0.006320929154753685,-0.009120538830757141,0.0031160167418420315,6.500889139715582e-05,0.004349953960627317
0.005050250794738531,0.006786299403756857,-0.008596778847277164,0.0028790298383682966,6.348050374072045e-05,0.004693081136792898
0.004581870045512915,0.0066221426241099834,-0.008932454511523247,0.002874112455174327,6.274288170970976e-05,0.004381674807518721
0.005084651987999678,0.006355749908834696,-0.008822520263493061,0.0030894966330379248,6.20222490397282e-05,0.00435416167601943
0.005041740369051695,0.006166441831737757,-0.008497574366629124,0.003112470731139183,6.131800910225138e-05,0.004372307099401951
0.004831498023122549,0.006897365674376488,-0.008819110691547394,0.0030511682853102684,6.0629568906733766e-05,0.004732905421406031
0.004760446026921272,0.00688239187002182,-0.008964616805315018,0.0030099188443273306,5.995637548039667e-05,0.00444590300321579
0.005035842768847942,0.00667963782325387,-0.008614742197096348,0.00309985363855958,1.52357561091776e-05,0.004447270650416613
0.004973537288606167,0.006606096867471933,-0.008889144286513329,0.00317858112975955,9.947859780368162e-07,0.0044565703719854355
0.004841687623411417,0.006172999273985624,-0.008787228725850582,0.003148043528199196,6.495241677839658e-08,0.004508049227297306
0.005021229851990938,0.0066416505724191666,-0.007682345807552338,0.0033572427928447723,4.2409289413569695e-09,0.0044020432978868484
0.005021229851990938,0.0066416505724191666,-0.007682345807552338,0.0033572427928447723,4.2409289413569695e-09,0.0044020432978868484
0.005032071843743324,0.006956482771784067,-0.009243008680641651,0.003219662932679057,2.769023621507216e-10,0.004512577783316374
0.004976244177669287,0.006464135367423296,-0.009978885762393475,0.003365237032994628,1.8079744298904465e-11,0.004615850746631622
0.005091468803584576,0.005919439252465963,-0.009073211811482906,0.0031208801083266735,1.1804780243596102e-12,0.004609395284205675
0.004952759016305208,0.006404817570000887,-0.00797734409570694,0.003347608959302306,7.707677947494176e-14,0.0046690390445292
0.005263774190098047,0.007016957271844149,-0.008700186386704445,0.0035817171446979046,5.032562823366121e-15,0.00486348569393158
0.0050067901611328125,0.0062413583509624004,-0.009141490794718266,0.0034683337435126305,3.285903912008672e-16,0.004815094172954559
0.004896233789622784,0.006007334217429161,-0.009036414325237274,0.0032457993365824223,2.1454601745761355e-17,0.004772159270942211
0.0052070594392716885,0.006404441315680742,-0.00923587754368782,0.0032702581956982613,1.4008323319125072e-18,0.004646857734769583
0.005377126391977072,0.006680753082036972,-0.008977578021585941,0.0031744022853672504,9.146433301031463e-20,0.004795202985405922
0.00505455955862999,0.006436028517782688,-0.009037095122039318,0.003450538497418165,5.971966949439397e-21,0.004810476675629616
0.005441843997687101,0.0061212508007884026,-0.008658415637910366,0.0036630164831876755,3.899267762828395e-22,0.0047857556492090225
0.0052302926778793335,0.005728837102651596,-0.009186471812427044,0.003440225962549448,2.545943337556059e-23,0.004685312043875456
0.005045808386057615,0.005824750754982233,-0.009207244962453842,0.0032629184424877167,1.662319253917925e-24,0.004704910330474377
0.0058461884036660194,0.006674036383628845,-0.008695477619767189,0.003181332955136895,1.0853757236041898e-25,0.004576120525598526
0.005267767235636711,0.006658483296632767,-0.009712740778923035,0.003306573024019599,7.086727319821093e-27,0.0046018934808671474
0.005234172567725182,0.005837412551045418,-0.008881768211722374,0.0035824854858219624,3.0211828314890597e-29,0.004685304127633572
0.0054684286005795,0.006281164009124041,-0.008937761187553406,0.0036326604895293713,1.9726164422617822e-30,0.004537669010460377
0.00575453694909811,0.00622306065633893,-0.009397335350513458,0.003650632919743657,1.2879775228019073e-31,0.0046698288060724735
0.00555223086848855,0.00647025927901268,-0.008798559196293354,0.003299900097772479,8.409573278491018e-33,0.004919539205729961
0.005564042832702398,0.006069567054510117,-0.008742800913751125,0.0030998499132692814,5.490850284593545e-34,0.0049606491811573505
0.005447824951261282,0.005964736919850111,-0.009660984389483929,0.003127570264041424,3.585133505102238e-35,0.005338423419743776
0.005645839497447014,0.006575492210686207,-0.009892538189888,0.0032235542312264442,2.340835857065421e-36,0.0051354216411709785
0.00546486908569932,0.006767562124878168,-0.008927877992391586,0.003139384789392352,1.528398477116621e-37,0.00494886701926589
0.0066456906497478485,0.006087094079703093,-0.009918110445141792,0.003471395233646035,9.979349816286113e-39,0.005177358631044626
0.0066456906497478485,0.006087094079703093,-0.009918110445141792,0.003471395233646035,9.979349816286113e-39,0.005177358631044626
0.005167122930288315,0.00617562560364604,-0.009645989164710045,0.0037871028762310743,6.515799638371464e-40,0.005086080636829138
0.005249456036835909,0.006563272327184677,-0.009275824762880802,0.0035192405339330435,4.2543421376901446e-41,0.005251509137451649
0.005265635438263416,0.006410850677639246,-0.009125066921114922,0.0035271099768579006,2.7773735562917874e-42,0.005599507130682468
0.00585814518854022,0.006361060775816441,-0.00945369340479374,0.0036217363085597754,1.807675018979014e-43,0.005206798668950796
0.005814108531922102,0.006338402628898621,-0.009407195262610912,0.0037435106933116913,1.1210387714598537e-44,0.0048967693001031876
0.005584414582699537,0.00604582205414772,-0.009674621745944023,0.003427337622269988,1.401298464324817e-45,0.005124509800225496
0.0056148311123251915,0.006076963618397713,-0.00985710695385933,0.003441181732341647,0.0,0.005041936412453651
0.005979474633932114,0.00685694208368659,-0.009394093416631222,0.0035334236454218626,0.0,0.005261158104985952
0.005544910207390785,0.006257693748921156,-0.00942576490342617,0.00367179699242115,0.0,0.005597542971372604
0.005994543433189392,0.005763171706348658,-0.00946804229170084,0.0037384217139333487,0.0,0.005474533885717392
0.006553162354975939,0.005612506065517664,-0.009190889075398445,0.0037427209317684174,0.0,0.005516871344298124
0.0061385296285152435,0.006099293939769268,-0.010178531520068645,0.0037106305826455355,0.0,0.005299748852849007
0.0057571749202907085,0.00615922873839736,-0.009317412972450256,0.00357380835339427,0.0,0.005633160006254911
0.00546222273260355,0.005993660073727369,-0.009556476958096027,0.003490881063044071,0.0,0.005789300426840782
0.00593265425413847,0.005788619164377451,-0.009639925323426723,0.0037643867544829845,0.0,0.005447778385132551
0.0061029172502458096,0.006134455557912588,-0.009966286830604076,0.0038350066170096397,0.0,0.005828583613038063
0.005575138609856367,0.006532094907015562,-0.009410195983946323,0.003595594083890319,0.0,0.005553704686462879
0.005617417860776186,0.005840291269123554,-0.009461969137191772,0.00347102340310812,0.0,0.00539459427818656
0.006113458424806595,0.005806962959468365,-0.009537490084767342,0.0036258839536458254,0.0,0.005522419698536396
0.006084465887397528,0.005668011028319597,-0.009665874764323235,0.003600304014980793,0.0,0.005569414235651493
0.005988025572150946,0.00612882524728775,-0.009783975780010223,0.0034930293913930655,0.0,0.00553994020447135
0.006002622190862894,0.005562641192227602,-0.009224877692759037,0.00361600867472589,0.0,0.006062049884349108
0.005870556924492121,0.005874530877918005,-0.009345115162432194,0.0037785726599395275,0.0,0.005939408205449581
0.005870556924492121,0.005874530877918005,-0.009345115162432194,0.0037785726599395275,0.0,0.005939408205449581
0.006184217985719442,0.0054456149227917194,-0.01026049442589283,0.003908284939825535,0.0,0.005123897455632687
0.006084267515689135,0.005360099487006664,-0.009207306429743767,0.0036006628070026636,0.0,0.005078584887087345
0.00635566795244813,0.005481426138430834,-0.009702315554022789,0.00342082092538476,0.0,0.005425391718745232
0.005687444470822811,0.0060194977559149265,-0.010900558903813362,0.0035838496405631304,0.0,0.006116512231528759
0.005787950474768877,0.005647785495966673,-0.009499573148787022,0.004225138574838638,0.0,0.005939426366239786
0.006550608202815056,0.005387579090893269,-0.00945119559764862,0.004159065894782543,0.0,0.005893987603485584
0.0063372026197612286,0.005412920378148556,-0.010956928133964539,0.004391114227473736,0.0,0.005681080278009176
0.00620834669098258,0.006091893184930086,-0.009416993707418442,0.004087242763489485,0.0,0.005536530166864395
0.005988112185150385,0.006019261199980974,-0.009470334276556969,0.0038727002684026957,0.0,0.005402275361120701
0.005858515854924917,0.005829353351145983,-0.009693866595625877,0.0038769529201090336,0.0,0.00568053824827075
0.006241110153496265,0.005187795963138342,-0.009116251021623611,0.003956889268010855,0.0,0.005595286842435598
0.006470899097621441,0.005127330310642719,-0.008912399411201477,0.0035635135136544704,0.0,0.006061602383852005
0.006442083977162838,0.005413741338998079,-0.010022318921983242,0.0035688711795955896,0.0,0.006170729175209999
0.006388292647898197,0.005513757932931185,-0.009567699395120144,0.004262852948158979,0.0,0.0055377851240336895
0.0060918754898011684,0.005787364207208157,-0.00921366922557354,0.004658497404307127,0.0,0.005776579026132822
0.006099168211221695,0.005867229774594307,-0.009411775507032871,0.0042973468080163,0.0,0.005846931133419275
0.006626383867114782,0.005279812030494213,-0.009306380525231361,0.0038918491918593645,0.0,0.006296742241829634
0.0061567979864776134,0.005225618835538626,-0.010041930712759495,0.003604380413889885,0.0,0.005867647007107735
0.006254956126213074,0.0057626748457551,-0.00964590534567833,0.0036266546230763197,0.0,0.0059908609837293625
0.00671724509447813,0.005503099877387285,-0.009609120897948742,0.0037572018336504698,0.0,0.006101758219301701
0.006698085460811853,0.005180623847991228,-0.010082857683300972,0.003934078849852085,0.0,0.006169477943331003
0.006532351486384869,0.005441188346594572,-0.01011250913143158,0.004021632485091686,0.0,0.005733467172831297
0.006367101334035397,0.00568590359762311,-0.008809881284832954,0.004059259779751301,0.0,0.005656801629811525
0.006089316681027412,0.005753617268055677,-0.009953274391591549,0.00399176636710763,0.0,0.005484143737703562
0.006395278498530388,0.005601560231298208,-0.010800262913107872,0.0035620343405753374,0.0,0.005676340311765671
0.006395278498530388,0.005601560231298208,-0.010800262913107872,0.0035620343405753374,0.0,0.005676340311765671
0.006636136677116156,0.0056939516216516495,-0.009758098050951958,0.0035463087260723114,0.0,0.006471691653132439
0.006484356243163347,0.00559404818341136,-0.009840710088610649,0.003702531335875392,0.0,0.006011552177369595
0.006139959208667278,0.005602328106760979,-0.009942843578755856,0.003819238394498825,0.0,0.005692413542419672
0.006466968916356564,0.005181705579161644,-0.009181628935039043,0.00409780815243721,0.0,0.005755616817623377
0.006758619099855423,0.005528937093913555,-0.010171713307499886,0.004056251607835293,0.0,0.00590080302208662
0.006685319356620312,0.0056821866892278194,-0.010024923831224442,0.0038212649524211884,0.0,0.006553161423653364
0.006417186465114355,0.005487270187586546,-0.009089150466024876,0.0037451619282364845,0.0,0.006170674227178097
0.006285463459789753,0.005139637738466263,-0.00974753126502037,0.003784295404329896,0.0,0.005934113170951605
0.00697709433734417,0.005708659999072552,-0.009450128301978111,0.0038814879953861237,0.0,0.006041118409484625
0.0069953519850969315,0.005370682571083307,-0.008997710421681404,0.003814465831965208,0.0,0.006180994212627411
0.006671121343970299,0.006095590069890022,-0.009484918788075447,0.003751321230083704,0.0,0.00637580594047904
0.006509743630886078,0.005494411569088697,-0.009448723867535591,0.0038049982395023108,0.0,0.006446248386055231
0.006894308608025312,0.005753638688474894,-0.009761275723576546,0.004268682096153498,0.0,0.006543593946844339
0.006827064789831638,0.005371159873902798,-0.010155707597732544,0.004628857597708702,0.0,0.006208900362253189
0.007003192789852619,0.005817939527332783,-0.00941946730017662,0.004413953050971031,0.0,0.006763013079762459
0.007003192789852619,0.005817939527332783,-0.00941946730017662,0.004413953050971031,0.0,0.006763013079762459
0.007470868062227964,0.005557221360504627,-0.009496605023741722,0.0038821424823254347,0.0,0.006379491649568081
0.007519643288105726,0.005611403379589319,-0.009089886210858822,0.004198126029223204,0.0,0.006325103342533112
0.007473774254322052,0.00537411542609334,-0.010242117568850517,0.004565395414829254,0.0,0.006588267162442207
0.00699327839538455,0.0057905190624296665,-0.010061077773571014,0.004665992222726345,0.0,0.006528255995362997
0.0073976884596049786,0.006035197526216507,-0.009083231911063194,0.004420829471200705,0.0,0.006358535960316658
0.007507812697440386,0.005988394375890493,-0.010035473853349686,0.004521524533629417,0.0,0.00673330994322896
0.007280196063220501,0.005593108478933573,-0.009702792391180992,0.004290667828172445,0.0,0.006492321845144033
0.00734248710796237,0.005690715741366148,-0.009454995393753052,0.004309618379920721,0.0,0.006975140888243914
0.0073602464981377125,0.006181035190820694,-0.00952986627817154,0.00428497139364481,0.0,0.006921692751348019
0.008006827905774117,0.006122333463281393,-0.009740617126226425,0.00436520716175437,0.0,0.0067959679290652275
0.0070637925527989864,0.006232983898371458,-0.009356400929391384,0.004539313726127148,0.0,0.006492950022220612
0.0070637925527989864,0.006232983898371458,-0.009356400929391384,0.004539313726127148,0.0,0.006492950022220612
0.007231113966554403,0.0055389925837516785,-0.009323137812316418,0.00462608877569437,0.0,0.006889738608151674
0.00812609400600195,0.005441104993224144,-0.009758079424500465,0.0042198654264211655,0.0,0.007205307018011808
0.007789954077452421,0.005502128507941961,-0.009149494580924511,0.00424711499363184,0.0,0.006929298397153616
0.006995179690420628,0.006228944286704063,-0.01010269857943058,0.004248569719493389,0.0,0.007230299990624189
0.007459563203155994,0.006302746012806892,-0.009889250621199608,0.004798783455044031,0.0,0.007510777097195387
0.007572242524474859,0.005571641493588686,-0.009161426685750484,0.004959238693118095,0.0,0.00686380872502923
0.0074319615960121155,0.005780575331300497,-0.009516224265098572,0.004848983138799667,0.0,0.006636785808950663
0.007360147777944803,0.005699328146874905,-0.009653112851083279,0.004725221078842878,0.0,0.006926331203430891
0.007509477436542511,0.006383167579770088,-0.009580759331583977,0.0046674516052007675,0.0,0.0073919580318033695
0.008146333508193493,0.005959626287221909,-0.009686137549579144,0.004586444701999426,0.0,0.007420824375003576
0.0079039940610528,0.00576082244515419,-0.009954285807907581,0.004671091679483652,0.0,0.007294843904674053
0.007568870671093464,0.005551046691834927,-0.009684689342975616,0.00513311754912138,0.0,0.0072127641178667545
0.007655046880245209,0.005753227975219488,-0.010681133717298508,0.005116682033985853,0.0,0.0073011997155845165
0.007844941690564156,0.006503878626972437,-0.009742079302668571,0.004561295732855797,0.0,0.007291790097951889
0.007857066579163074,0.005845972802489996,-0.009209115989506245,0.004884444177150726,0.0,0.007217153441160917
0.007367672398686409,0.005749584641307592,-0.010998256504535675,0.004806926473975182,0.0,0.007206537760794163
0.007631655782461166,0.005835444666445255,-0.010324567556381226,0.004850717261433601,0.0,0.0070195854641497135
0.008400545455515385,0.006605586968362331,-0.010227113962173462,0.004968703258782625,0.0,0.006766070611774921
0.007856160402297974,0.006084330379962921,-0.00936693511903286,0.004841774236410856,0.0,0.007003165781497955
0.007727857679128647,0.005683626048266888,-0.009443924762308598,0.0045958012342453,0.0,0.007260926999151707
0.00812546443194151,0.005799273028969765,-0.01095331646502018,0.004433332476764917,0.0,0.008088274858891964
0.008150427602231503,0.005799081176519394,-0.010244973935186863,0.004875339101999998,0.0,0.007664321456104517
0.00834226980805397,0.0062016937881708145,-0.008688087575137615,0.005046182312071323,0.0,0.0075080618262290955
0.00846843607723713,0.005441275425255299,-0.010217317380011082,0.005227995570749044,0.0,0.007665795739740133
0.008268915116786957,0.005233625415712595,-0.011060179211199284,0.00497621763497591,0.0,0.007354933302849531
0.007914498448371887,0.005427058786153793,-0.00946864951401949,0.004724166821688414,0.0,0.006965352222323418
0.007731091696768999,0.005529559683054686,-0.009743835777044296,0.004498268477618694,0.0,0.007227465510368347
0.008952558971941471,0.005741740111261606,-0.01045810803771019,0.004812207072973251,5.905867510591634e-06,0.007515318226069212
0.008051572367548943,0.005576828494668007,-0.009260102175176144,0.004827642347663641,3.8561094584110833e-07,0.008056673221290112
0.008058438077569008,0.005484029650688171,-0.009677025489509106,0.00477244658395648,2.51776377524493e-08,0.00777588551864028
0.008239279501140118,0.0050261132419109344,-0.009832574054598808,0.004600449465215206,1.64391988910495e-09,0.008118433877825737
0.008239279501140118,0.0050261132419109344,-0.009832574054598808,0.004600449465215206,1.64391988910495e-09,0.008118433877825737
0.008622721768915653,0.005327399354428053,-0.009585799649357796,0.004697594791650772,1.0733620936509425e-10,0.009231536649167538
0.0085377162322402,0.005156888160854578,-0.010188443586230278,0.004796226508915424,7.008287179754991e-12,0.008196922019124031
0.008008504286408424,0.006006424780935049,-0.010532183572649956,0.004702135920524597,4.575910505545677e-13,0.0075321258045732975
0.008272780105471611,0.0055127800442278385,-0.010373509488999844,0.00504237599670887,2.987742364168704e-14,0.007504417095333338
0.00843892153352499,0.005357810761779547,-0.010073903948068619,0.0056074513122439384,1.950782310821829e-15,0.007787362206727266
0.00879277940839529,0.005501757841557264,-0.009432725608348846,0.00528094545006752,1.2737214269200199e-16,0.008256969042122364
0.008600804023444653,0.005114045459777117,-0.00957550946623087,0.005161511246114969,8.316490422220391e-18,0.008261561393737793
0.008640955202281475,0.005558620672672987,-0.0107492133975029,0.0049143629148602486,5.430073660013806e-19,0.008130471222102642
0.008749519474804401,0.005444486625492573,-0.010581940412521362,0.005041095428168774,3.54545023241485e-20,0.008761772885918617
0.008720644749701023,0.005239367950707674,-0.009462838992476463,0.005309356842190027,2.314925528747169e-21,0.008803578093647957
0.008548632264137268,0.005357548128813505,-0.010479874908924103,0.005513216368854046,1.511480970903998e-22,0.008341035805642605
0.00870637409389019,0.004908258561044931,-0.009769338183104992,0.005445447284728289,9.868889738030045e-24,0.008404181338846684
0.008953411132097244,0.005376799963414669,-0.010525834746658802,0.005189672578126192,4.2072623725455414e-26,0.00860107783228159
0.009022408165037632,0.005395390093326569,-0.011059951968491077,0.005450830794870853,2.747041894677973e-27,0.008226421661674976
0.009159316308796406,0.005414506420493126,-0.010257059708237648,0.005253558047115803,1.793622047955857e-28,0.008539967238903046
0.008821654133498669,0.005120794288814068,-0.010502170771360397,0.005204946734011173,-0.00019643869018182158,0.008021111600100994
0.009257126599550247,0.005329415202140808,-0.009988938458263874,0.0053898366168141365,-0.0002125942410202697,0.008233362808823586
0.009127984754741192,0.005302950274199247,-0.0100680161267519,0.005561013240367174,-0.00020459013467188925,0.008329306729137897
0.008975779637694359,0.005594878923147917,-0.010220036841928959,0.005192355252802372,-0.00022472690034192055,0.008350340649485588
0.00912510510534048,0.005224759224802256,-0.010453746654093266,0.004927701782435179,-0.0002244968491140753,0.008189807645976543
0.00904014054685831,0.005115114618092775,-0.010059721767902374,0.004821791313588619,-0.00021610657859127969,0.008294889703392982
0.009248844347894192,0.005347695667296648,-0.010356256738305092,0.0059778629802167416,-0.00020782682986464351,0.008975351229310036
0.009248844347894192,0.005347695667296648,-0.010356256738305092,0.0059778629802167416,-0.00020782682986464351,0.008975351229310036
0.008960944600403309,0.005544125568121672,-0.010986464098095894,0.005940116476267576,-0.00022456920123659074,0.00869407132267952
0.008960944600403309,0.005544125568121672,-0.010986464098095894,0.005940116476267576,-0.00022456920123659074,0.00869407132267952
0.009277929551899433,0.005527690052986145,-0.010316363535821438,0.005706866271793842,-0.00021732992900069803,0.00889016967266798
0.009503893554210663,0.005785900168120861,-0.009664362296462059,0.005801432300359011,-0.00023232982493937016,0.008812351152300835
0.009762866422533989,0.0051926057785749435,-0.010240908712148666,0.005477490834891796,-0.0002318722108611837,0.009179140441119671
0.009851125068962574,0.004858681000769138,-0.010345912538468838,0.0056962729431688786,-0.00022508198162540793,0.00902212131768465
0.010255136527121067,0.004678593948483467,-0.010633003897964954,0.0054963259026408195,-0.0003131726407445967,0.008977039717137814
0.009532026946544647,0.005230105947703123,-0.010396731086075306,0.005732657853513956,-0.0003057413559872657,0.008835285902023315
0.010204513557255268,0.0052414448000490665,-0.0100376196205616,0.005699556786566973,-0.00028713204665109515,0.00862291269004345
0.010055787861347198,0.005199876148253679,-0.009971681982278824,0.005452667362987995,-0.0003166453680023551,0.009326387196779251
0.00977172888815403,0.0048838029615581036,-0.010438038967549801,0.005318930838257074,-0.0003051342209801078,0.008976352401077747
0.010033237747848034,0.005133219063282013,-0.010715180076658726,0.005441534798592329,-0.0003247520362492651,0.008863723836839199
0.010417496785521507,0.005036232527345419,-0.01004935335367918,0.005304352845996618,-0.00031945263617672026,0.009480364620685577
0.010028719902038574,0.005317495670169592,-0.010564922355115414,0.005493570119142532,-0.0003047275822609663,0.009557790122926235
0.010596126317977905,0.00552333751693368,-0.010388056747615337,0.005782273598015308,-0.0003109982644673437,0.009489976800978184
0.010799656622111797,0.0053970711305737495,-0.010172915644943714,0.0059365760535001755,-0.0003161984495818615,0.009505257941782475
0.011443064548075199,0.005370504222810268,-0.010465269908308983,0.005957052111625671,-0.0002918287646025419,0.00920455064624548
0.010125357657670975,0.004940821323543787,-0.010157134383916855,0.005699173081666231,-0.0003443846362642944,0.010034394450485706
0.009335794486105442,0.005365920718759298,-0.010643046349287033,0.006058461498469114,-0.00032898286008276045,0.009657135233283043
0.010390718467533588,0.005155164282768965,-0.009927574545145035,0.005722694098949432,-0.00030715539469383657,0.009260019287467003
0.010511888191103935,0.005307272542268038,-0.009943794459104538,0.005730150733143091,-0.0002875580685213208,0.009412357583642006
0.010226532816886902,0.005464901216328144,-0.010288706980645657,0.0059114424511790276,-0.0003205812827218324,0.009701230563223362
0.01110285334289074,0.0050540524534881115,-0.009851662442088127,0.005972619168460369,-0.00034328794572502375,0.009708771482110023
0.010450986213982105,0.004946637898683548,-0.010710774920880795,0.006265114061534405,-0.0003369078040122986,0.009709496051073074
0.009876742027699947,0.0053886668756604195,-0.010101953521370888,0.005932151805609465,-0.0003631928120739758,0.009500705637037754
0.010156943462789059,0.00518710957840085,-0.009762665256857872,0.00578398397192359,-0.0004945853142999113,0.009034333750605583
0.010156943462789059,0.00518710957840085,-0.009762665256857872,0.00578398397192359,-0.0004945853142999113,0.009034333750605583
0.010170304216444492,0.005222243722528219,-0.010928865522146225,0.005996205843985081,-0.0005459532840177417,0.00929019320756197
0.009850134141743183,0.005004262086004019,-0.010261342860758305,0.006192848086357117,-0.0005799041246064007,0.009946557693183422
0.010624571703374386,0.005025662947446108,-0.009773443453013897,0.0063980501145124435,-0.0005781964864581823,0.009324095211923122
0.010655400343239307,0.005527621600776911,-0.010413219220936298,0.00606070552021265,-0.000567298149690032,0.009367415681481361
0.010147486813366413,0.005150879733264446,-0.009975142776966095,0.006267139222472906,-0.0005308872205205262,0.009713159874081612
0.01063979510217905,0.005270822439342737,-0.01085464283823967,0.006158770993351936,-0.0006549090030603111,0.009739496745169163
0.01033379789441824,0.005153357516974211,-0.01142148207873106,0.0068238889798521996,-0.0006389986956492066,0.00995181780308485
0.010474068112671375,0.004949014168232679,-0.009983260184526443,0.006538519635796547,-0.0006163713987916708,0.010509194806218147
0.010684571228921413,0.005247072782367468,-0.0095624178647995,0.006245221011340618,-0.0005561243742704391,0.010026821866631508
0.011050951667129993,0.005107628647238016,-0.010336496867239475,0.006265816278755665,-0.0005658547161146998,0.011757859960198402
0.010542372241616249,0.005292134825140238,-0.010865768417716026,0.006547088734805584,-0.0005366215482354164,0.009654924273490906
0.010744859464466572,0.005409912671893835,-0.010471903719007969,0.006632580421864986,-0.0004956162301823497,0.009221442975103855
0.010656767524778843,0.005211500450968742,-0.010488527826964855,0.006403796840459108,-0.0004913563025183976,0.009633897803723812
0.010428379289805889,0.005258410237729549,-0.009789143688976765,0.006405830383300781,-0.0004872384306509048,0.010159069672226906
0.01036254595965147,0.005015196278691292,-0.01032122690230608,0.006631596479564905,-0.00045812976895831525,0.010270664468407631
0.011218703351914883,0.005462664645165205,-0.0099067073315382,0.006390555761754513,-0.0004065012326464057,0.009604626335203648
0.012118061073124409,0.005059337243437767,-0.01082841120660305,0.006274035666137934,-0.0003579340409487486,0.009822599589824677
0.012304729782044888,0.005253772251307964,-0.01072454359382391,0.006574117112904787,-0.00032453733729198575,0.010632019490003586
0.012089932337403297,0.005388972349464893,-0.009803850203752518,0.006488644052296877,-0.0003022291057277471,0.010963418520987034
0.012253773398697376,0.0054700663313269615,-0.010386073030531406,0.007121114060282707,-0.0003321213589515537,0.011015204712748528
0.012186585925519466,0.005156123545020819,-0.009979123249650002,0.007387929130345583,-0.0003191713767591864,0.010508514009416103
0.011876923963427544,0.005094174761325121,-0.010944045148789883,0.00696873664855957,-0.00030176600557751954,0.01021552924066782
0.012350569479167461,0.0050284722819924355,-0.011612758971750736,0.006464891601353884,-0.0003301676770206541,0.010301188565790653
0.012333216145634651,0.004974303767085075,-0.01026927214115858,0.007028590422123671,-0.0003164728404954076,0.010758909396827221
0.012872586958110332,0.005110720172524452,-0.01002796832472086,0.0074655902571976185,-0.00030151111423037946,0.010418199934065342
0.012872586958110332,0.005110720172524452,-0.01002796832472086,0.0074655902571976185,-0.00030151111423037946,0.010418199934065342
0.012642565183341503,0.00550581980496645,-0.010604959912598133,0.007818024605512619,-0.00028774849488399923,0.010742347687482834
0.013303696177899837,0.0049645788967609406,-0.011228296905755997,0.0071884808130562305,-0.0002751782594714314,0.010922271758317947
0.012786376290023327,0.004839511588215828,-0.011496533639729023,0.007045386824756861,-0.00029875728068873286,0.010730278678238392
0.012984315864741802,0.00537658017128706,-0.011240406893193722,0.007462055888026953,-0.0002890505420509726,0.010827956721186638
0.012923740781843662,0.00524592399597168,-0.01090211234986782,0.0075678094290196896,-0.0002780371287371963,0.010793173685669899
0.012581695802509785,0.005141150206327438,-0.01153680868446827,0.007352069020271301,-0.0002677067241165787,0.010544314049184322
0.012890532612800598,0.005072473082691431,-0.011863106861710548,0.007474980782717466,-0.000258109241258353,0.01025347225368023
0.012631550431251526,0.0051522525027394295,-0.01179142389446497,0.0070991734974086285,-0.0002491751220077276,0.010401718318462372
0.012979281134903431,0.005256493575870991,-0.011518965475261211,0.006512032821774483,-0.00024869016488082707,0.010213993489742279
0.012641391716897488,0.004617905244231224,-0.010947701521217823,0.006567532662302256,-0.00024316087365150452,0.010712375864386559
0.012697767466306686,0.005046555306762457,-0.012068602256476879,0.0070139141753315926,-0.0002311822900082916,0.0104315634816885
0.013140443712472916,0.004971933085471392,-0.011558180674910545,0.0073309591971337795,-0.00021991498942952603,0.010493332520127296
0.012560509145259857,0.004884700290858746,-0.010755564086139202,0.007088800426572561,-0.0002096685639116913,0.010951166041195393
0.013246806338429451,0.005130027420818806,-0.011212747544050217,0.006872400175780058,-0.00023504375712946057,0.010914805345237255
0.012575105763971806,0.00491298595443368,-0.01144783291965723,0.007328573614358902,-0.00022979985806159675,0.011036649346351624
0.012898892164230347,0.005204197950661182,-0.011387812905013561,0.007317056879401207,-0.00021206754900049418,0.011130990460515022
0.013268107548356056,0.005017025861889124,-0.011164599098265171,0.007133530918508768,-0.00020405450777616352,0.011714567430317402
0.013050046749413013,0.005227433517575264,-0.011806545779109001,0.007553115952759981,-0.00019662274280562997,0.01159687526524067
0.013067616149783134,0.005482287611812353,-0.011426202952861786,0.007628969848155975,-0.00018971449753735214,0.011881893500685692
0.013558912090957165,0.004591800272464752,-0.012050323188304901,0.007438150234520435,-0.0001832745474530384,0.011465084739029408
0.013317057862877846,0.004540613386780024,-0.011810250580310822,0.006741062272340059,-0.00017725757788866758,0.011535790748894215
0.013135785236954689,0.004586861934512854,-0.01196347363293171,0.0070864055305719376,-0.00017162344011012465,0.012294292449951172
0.012776854448020458,0.005407918710261583,-0.012889301404356956,0.00773510942235589,-0.00017993550864048302,0.012234137393534184
0.013386385515332222,0.005242770072072744,-0.011345284059643745,0.007509155664592981,-0.00018733766046352684,0.01182324718683958
0.013198820874094963,0.004734431393444538,-0.012046937830746174,0.0071582249365746975,-0.00018273654859513044,0.011494266800582409
0.014101322740316391,0.004344212356954813,-0.012286975979804993,0.007199302781373262,-0.00017763777577783912,0.01152123510837555
0.013225494883954525,0.004392653238028288,-0.012319371104240417,0.007463132031261921,-0.00017276988364756107,0.011836322955787182
0.013140100054442883,0.004625953733921051,-0.012088943272829056,0.007706101983785629,-0.00016815843991935253,0.011839154176414013
0.01312212087213993,0.004813763312995434,-0.011915726587176323,0.007429114542901516,-0.00018410143093205988,0.012267145328223705
0.01312212087213993,0.004813763312995434,-0.011915726587176323,0.007429114542901516,-0.00018410143093205988,0.012267145328223705
0.013440970331430435,0.005066362209618092,-0.012441541068255901,0.00686744786798954,-0.00018223983352072537,0.01279566902667284
0.013529349118471146,0.004894334357231855,-0.01209417637437582,0.007372675463557243,-0.0001779190934030339,0.011684651486575603
0.013546469621360302,0.004671954549849033,-0.012491191737353802,0.00775405066087842,-0.00017363969527650625,0.011319605633616447
0.01348456647247076,0.004487349186092615,-0.012370203621685505,0.007512723095715046,-0.00017383207159582525,0.01160410325974226
0.01364064496010542,0.004626078065484762,-0.012322619557380676,0.007247659377753735,-0.00017158934497274458,0.012450307607650757
0.014010744169354439,0.0047631170600652695,-0.012360837310552597,0.007806532550603151,-0.00016556185437366366,0.012255274690687656
0.013794493861496449,0.005007317289710045,-0.01177296508103609,0.008074075914919376,-0.00015970428648870438,0.012210411950945854
0.013986922800540924,0.005021743942052126,-0.012533193454146385,0.007572510279715061,-0.00018299611110705882,0.012157091870903969
0.013950427994132042,0.005183493718504906,-0.011979817412793636,0.007281879894435406,-0.00017880745872389525,0.0120890187099576
0.013998794369399548,0.004630140028893948,-0.012479004450142384,0.00798770971596241,-0.00018735024787019938,0.012463048100471497
0.013918206095695496,0.004529540427029133,-0.01251984853297472,0.007857711985707283,-0.00019482884090393782,0.01215701550245285
0.014336148276925087,0.004510754253715277,-0.012928299605846405,0.007506515830755234,-0.00018982515030074865,0.012334301136434078
0.013975483365356922,0.00505745830014348,-0.012498571537435055,0.007895220071077347,-0.0002088893816107884,0.01292511634528637
0.014044977724552155,0.00497962674126029,-0.011914022266864777,0.00822419486939907,-0.0002045805158559233,0.012290366925299168
0.013725480996072292,0.0048937201499938965,-0.012772062793374062,0.007864990271627903,-0.00037486833753064275,0.01223284937441349
0.01430992316454649,0.004632851108908653,-0.01242214348167181,0.008014003746211529,-0.000406483537517488,0.012930831871926785
0.014579334296286106,0.004657440818846226,-0.012017401866614819,0.007864714600145817,-0.00042881720582954586,0.012357959523797035
0.013853750191628933,0.004965709988027811,-0.011931057088077068,0.007581552490592003,-0.00041548916487954557,0.012720541097223759
0.014580502174794674,0.005461852066218853,-0.012443283572793007,0.007445828523486853,-0.00044255168177187443,0.012615473009645939
0.014179921709001064,0.005658471491187811,-0.012020571157336235,0.007575265131890774,-0.0005989329656586051,0.012865451164543629
0.014761161990463734,0.004613371565937996,-0.012791711837053299,0.008080000057816505,-0.0005813583265990019,0.012993303127586842
0.014425542205572128,0.004601340275257826,-0.0123311597853899,0.008052184246480465,-0.0006072911201044917,0.012453313916921616
0.015002288855612278,0.005263432394713163,-0.012569991871714592,0.00867160502821207,-0.0005569419008679688,0.012003360316157341
0.014739593490958214,0.005646855570375919,-0.011838871985673904,0.009240235202014446,-0.0005460423999466002,0.012175013311207294
0.015266289934515953,0.005708866287022829,-0.012158801779150963,0.009222186170518398,-0.0005364209064282477,0.012812928296625614
0.015031303279101849,0.005610297434031963,-0.012476966716349125,0.008966241031885147,-0.000496565829962492,0.01312855165451765
0.015031303279101849,0.005610297434031963,-0.012476966716349125,0.008966241031885147,-0.000496565829962492,0.01312855165451765
0.015123079530894756,0.005115676671266556,-0.01184930931776762,0.008772461675107479,-0.0005214431439526379,0.013222885318100452
0.015099462121725082,0.004818442277610302,-0.012785310856997967,0.008549336344003677,-0.0004900236381217837,0.013371830806136131
0.015364510007202625,0.0051624285988509655,-0.011895282194018364,0.008605852723121643,-0.0004732987144961953,0.013322249054908752
0.015264775604009628,0.004912777803838253,-0.012253477238118649,0.008084705099463463,-0.0004344162007328123,0.013147803023457527
0.015278598293662071,0.00562089029699564,-0.012796995230019093,0.008535666391253471,-0.00046485106577165425,0.013257300481200218
0.015384086407721043,0.005320429336279631,-0.011949604377150536,0.00852602906525135,-0.0004365884233266115,0.01332276500761509
0.015396458096802235,0.005189456976950169,-0.012599291279911995,0.00833726767450571,-0.0004626444715540856,0.012737666256725788
0.015590697526931763,0.00485250074416399,-0.012115885503590107,0.008845547214150429,-0.00043842411832883954,0.013817553408443928
0.015507813543081284,0.004761831369251013,-0.012358242645859718,0.008813691325485706,-0.00046490784734487534,0.013743296265602112
0.015602615661919117,0.004756586160510778,-0.012120861560106277,0.008497926406562328,-0.0005167747149243951,0.013723190873861313
0.015222218818962574,0.005889584310352802,-0.012389014475047588,0.008536278270184994,-0.0005818664212711155,0.013658476062119007
0.016068067401647568,0.005566388834267855,-0.012316372245550156,0.009348987601697445,-0.0005712569691240788,0.01469871774315834
0.015775995329022408,0.004961046855896711,-0.011994082480669022,0.009571882896125317,-0.0005829574656672776,0.012997220270335674
0.015873750671744347,0.004773546475917101,-0.012492907233536243,0.009053220972418785,-0.0005516320816241205,0.012888158671557903
0.015673529356718063,0.005175265949219465,-0.01206029299646616,0.009290717542171478,-0.0005758545594289899,0.013652458786964417
0.015910204499959946,0.005439859814941883,-0.012508338317275047,0.009155366569757462,-0.0005373391322791576,0.014096110127866268
0.01573331467807293,0.005219537299126387,-0.012775233015418053,0.008584219962358475,-0.000558994070161134,0.013886408880352974
0.015833424404263496,0.005126884672790766,-0.012267508544027805,0.00894565973430872,-0.0005709459655918181,0.01410841103643179
0.01582653634250164,0.005017972085624933,-0.011815807782113552,0.008438531309366226,-0.0005365326651372015,0.013832807540893555
0.01608920283615589,0.005155833438038826,-0.012772289104759693,0.00824011117219925,-0.0005490623298101127,0.014011207036674023
0.015873020514845848,0.0050425115041434765,-0.012597771361470222,0.008355632424354553,-0.0005220826715230942,0.013927173800766468
0.016587257385253906,0.00543332751840353,-0.012669723480939865,0.00830930843949318,-0.0004832239937968552,0.014019859954714775
0.016338659450411797,0.005426345858722925,-0.011746825650334358,0.008694497868418694,-0.0005084638250991702,0.013779927976429462
0.01612287200987339,0.0056052496656775475,-0.013524227775633335,0.009256504476070404,-0.00048219633754342794,0.01409581396728754
0.016233449801802635,0.005131988786160946,-0.013093620538711548,0.008777671493589878,-0.00046042978647165,0.014092735946178436
0.016346165910363197,0.004761418327689171,-0.012175638228654861,0.009088950231671333,-0.000491493905428797,0.013987517915666103
0.016346165910363197,0.004761418327689171,-0.012175638228654861,0.009088950231671333,-0.000491493905428797,0.013987517915666103
0.016603194177150726,0.005012860521674156,-0.012842223979532719,0.009090473875403404,-0.0004965639673173428,0.013760332949459553
0.016627507284283638,0.005448261741548777,-0.012073012068867683,0.009367433376610279,-0.0004922169027850032,0.014042377471923828
0.01711358316242695,0.005548909306526184,-0.012812595814466476,0.008729810826480389,-0.0005151838413439691,0.01382522564381361
0.016764411702752113,0.005558055825531483,-0.01274312473833561,0.008816216140985489,-0.0004914724268019199,0.014319555833935738
0.016648557037115097,0.005182988941669464,-0.013209753669798374,0.008589409291744232,-0.0006292950711213052,0.014059646055102348
0.01671336591243744,0.005387111101299524,-0.012278049252927303,0.008602357469499111,-0.0006685616681352258,0.0140043580904603
0.01630282960832119,0.005165759939700365,-0.012349441647529602,0.008706356398761272,-0.0006496712449006736,0.01414490770548582
0.016908815130591393,0.00528288260102272,-0.013047214597463608,0.009219684638082981,-0.0006286229472607374,0.014346427284181118
0.017130456864833832,0.005530694965273142,-0.012682613916695118,0.008973334915935993,-0.0005741536151617765,0.014087284915149212
0.018012788146734238,0.005197693128138781,-0.012935731559991837,0.008971375413239002,-0.0005961600109003484,0.014369241893291473
0.017654217779636383,0.005095433909446001,-0.012699587270617485,0.008634014055132866,-0.0005547604523599148,0.014187694527208805
0.016843413934111595,0.005037220194935799,-0.013615219853818417,0.009193887934088707,-0.0005367038538679481,0.01440515648573637
0.0177934430539608,0.005208317656069994,-0.012606893666088581,0.009005524218082428,-0.000501529430039227,0.014294659718871117
0.017886994406580925,0.005469644442200661,-0.013276088051497936,0.009222330525517464,-0.00045263447100296617,0.014502015896141529
0.01829502172768116,0.005062950309365988,-0.012583456002175808,0.008979867212474346,-0.0004510179569479078,0.014368435367941856
0.017950374633073807,0.00523401377722621,-0.012637404724955559,0.00920099951326847,-0.00044942632666788995,0.014519237913191319
0.018469173461198807,0.004918253980576992,-0.013255237601697445,0.009894001297652721,-0.0004185086290817708,0.014843354932963848
0.017514318227767944,0.005426274612545967,-0.013523411005735397,0.009352919645607471,-0.0004194032517261803,0.01613246649503708
0.017668750137090683,0.00507543096318841,-0.012507415376603603,0.009569360874593258,-0.00039498016121797264,0.014404009096324444
0.018367646262049675,0.005054416600614786,-0.013151990249752998,0.010511172004044056,-0.0003717854851856828,0.01400829292833805
0.018666336312890053,0.0052852388471364975,-0.012933310121297836,0.010078387334942818,-0.00039444060530513525,0.014484422281384468
0.01872233673930168,0.005041740834712982,-0.013348759151995182,0.009667748585343361,-0.0003795919183176011,0.01466694287955761
0.01886727660894394,0.005339408293366432,-0.012896700762212276,0.009914001449942589,-0.00036939664278179407,0.015417106449604034
0.018124572932720184,0.005549269262701273,-0.013168477453291416,0.009073113091289997,-0.00034522675559856,0.015077034011483192
0.018790697678923607,0.005032365210354328,-0.013207157142460346,0.009392612613737583,-0.0003762849955819547,0.015183533541858196
0.018580719828605652,0.005254718475043774,-0.013489829376339912,0.00971425510942936,-0.00035884571843780577,0.015153991058468819
0.018580719828605652,0.005254718475043774,-0.013489829376339912,0.00971425510942936,-0.00035884571843780577,0.015153991058468819
0.018191274255514145,0.005172661505639553,-0.014191999100148678,0.009459884837269783,-0.00038549149758182466,0.015591944567859173
0.01900121197104454,0.0049621788784861565,-0.013035159558057785,0.009468169882893562,-0.0003695385530591011,0.015433288179337978
0.018529796972870827,0.005193616263568401,-0.013238685205578804,0.009801207110285759,-0.00038627246976830065,0.015110845677554607
0.0184920821338892,0.004390875343233347,-0.013498402200639248,0.009697199799120426,-0.00037756937672384083,0.015373402275145054
0.019030507653951645,0.0039016143418848515,-0.014262247830629349,0.009217271581292152,-0.000510352139826864,0.015359463170170784
0.019097913056612015,0.004207370337098837,-0.013211842626333237,0.00959516316652298,-0.0004790743987541646,0.015370229259133339
0.018886400386691093,0.004374651703983545,-0.013905133120715618,0.009819883853197098,-0.00047617146628908813,0.015466824173927307
0.019140375778079033,0.004476635251194239,-0.013002565130591393,0.009794941172003746,-0.0004724110767710954,0.015649519860744476
0.018868789076805115,0.004505402408540249,-0.013816652819514275,0.010666373185813427,-0.00043666671263054013,0.01539591234177351
0.018931902945041656,0.004527922719717026,-0.013622255995869637,0.010551906190812588,-0.0004367846413515508,0.015705982223153114
0.01999710127711296,0.00433539180085063,-0.014634516090154648,0.010169518180191517,-0.0004363758198451251,0.015578014776110649
0.019603826105594635,0.004062495194375515,-0.013923337683081627,0.01002490520477295,-0.0004099249199498445,0.01567433401942253
0.018854204565286636,0.004287441726773977,-0.014279982075095177,0.010488330386579037,-0.0004361639148555696,0.015833353623747826
0.019731706008315086,0.004421414341777563,-0.013817677274346352,0.01118595339357853,-0.00045529744238592684,0.015929188579320908
0.019615545868873596,0.0045274714939296246,-0.014654140919446945,0.010611339472234249,-0.0004905251553282142,0.01605517975986004
0.01917853392660618,0.0044024488888680935,-0.013982896693050861,0.009403196163475513,-0.0005257489392533898,0.01604657806456089
0.01972084678709507,0.004527679644525051,-0.014479744248092175,0.010069595649838448,-0.0005377358174882829,0.015989456325769424
0.01963718980550766,0.004552717786282301,-0.0140714505687356,0.009975217282772064,-0.0005318888579495251,0.016004418954253197
0.019127286970615387,0.004218304995447397,-0.014851270243525505,0.009455028921365738,-0.0009021696168929338,0.01634220965206623
0.019726891070604324,0.004695049487054348,-0.014601035043597221,0.009799427352845669,-0.0008617650019004941,0.016529951244592667
0.019699757918715477,0.00475821690633893,-0.014140053652226925,0.009706558659672737,-0.0008624818874523044,0.016642708331346512
0.019650716334581375,0.004438005853444338,-0.014793709851801395,0.010618608444929123,-0.000847186311148107,0.017375323921442032
0.019464457407593727,0.004581146407872438,-0.014045904390513897,0.010329215787351131,-0.0007746948977001011,0.016288459300994873
0.019734494388103485,0.004439400043338537,-0.014622362330555916,0.00973112415522337,-0.000778462621383369,0.016215160489082336
0.01997910626232624,0.004209601320326328,-0.014122189953923225,0.009908999316394329,-0.0006938521401025355,0.016426149755716324
0.019715415313839912,0.00437671784311533,-0.01481649186462164,0.010732742957770824,-0.0006648278213106096,0.016572386026382446
0.01966666243970394,0.004510402679443359,-0.014260327443480492,0.010195550508797169,-0.0006411906215362251,0.01654164120554924
0.019960472360253334,0.004310120362788439,-0.014797364361584187,0.010246933437883854,-0.0005845311679877341,0.017078489065170288
0.019960472360253334,0.004310120362788439,-0.014797364361584187,0.010246933437883854,-0.0005845311679877341,0.017078489065170288
0.02040254883468151,0.004597683437168598,-0.014868011698126793,0.01050663273781538,-0.0005609860527329147,0.017378460615873337
0.02040254883468151,0.004597683437168598,-0.014868011698126793,0.01050663273781538,-0.0005609860527329147,0.017378460615873337
0.019585397094488144,0.004461719188839197,-0.014232702553272247,0.010902206413447857,-0.0005224577034823596,0.016818128526210785
0.019878484308719635,0.004083199892193079,-0.015560034662485123,0.010290433652698994,-0.0004496874753385782,0.016410119831562042
0.02005275897681713,0.004304808098822832,-0.014268726110458374,0.010425824671983719,-0.00044427590910345316,0.016639864072203636
0.01965162716805935,0.004260112531483173,-0.014258376322686672,0.011252331547439098,-0.00044298748252913356,0.017031896859407425
0.019968852400779724,0.004423391539603472,-0.014357581734657288,0.010306679643690586,-0.0004115137562621385,0.017540793865919113
0.01982867158949375,0.004514989443123341,-0.015257569029927254,0.009577533230185509,-0.0004293549864087254,0.01772884652018547
0.019694356247782707,0.004667127970606089,-0.014620568603277206,0.009570232592523098,-0.000415618036640808,0.017550721764564514
0.02025224268436432,0.004671947099268436,-0.014809342101216316,0.009160780347883701,-0.00039078097324818373,0.01723666675388813
0.02075708471238613,0.004785286728292704,-0.01425483450293541,0.009810772724449635,-0.00040673892362974584,0.01737229898571968
0.02039896883070469,0.0046623810194432735,-0.01485773641616106,0.010690301656723022,-0.00039645866490900517,0.01739332638680935
0.020034266635775566,0.004876662511378527,-0.014522149227559566,0.010075158439576626,-0.00037651287857443094,0.01761784590780735
0.020564906299114227,0.0049135941080749035,-0.015074397437274456,0.009966570883989334,-0.00035784512874670327,0.017803261056542397
0.019729357212781906,0.004858853295445442,-0.01417507417500019,0.010548724792897701,-0.00037695729406550527,0.017424171790480614
0.019734347239136696,0.005067277234047651,-0.015062582679092884,0.010234889574348927,-0.0003535366849973798,0.01736818253993988
0.020251350477337837,0.0048537361435592175,-0.014559647999703884,0.010314270853996277,-0.000328144698869437,0.01706826128065586
0.020460408180952072,0.004865692928433418,-0.015032640658318996,0.009969242848455906,-0.0003355657390784472,0.0172191821038723
0.02019641175866127,0.004812873899936676,-0.014451166614890099,0.009533056989312172,-0.0003416015824768692,0.017782680690288544
0.02079837955534458,0.005089149810373783,-0.014792745932936668,0.010136122815310955,-0.00030482845613732934,0.017977561801671982
0.02065137028694153,0.004814283922314644,-0.015352611429989338,0.01016098354011774,-0.0003333141503389925,0.01938224956393242
0.020213356241583824,0.004754571709781885,-0.014792101457715034,0.010133779607713223,-0.0003193355805706233,0.01767026260495186
0.020622340962290764,0.004866608884185553,-0.014821987599134445,0.010699490085244179,-0.00030410668114200234,0.017122816294431686
0.020801587030291557,0.004869306925684214,-0.01464428286999464,0.010086855851113796,-0.00032601100974716246,0.017411455512046814
0.020718971267342567,0.005136085674166679,-0.015112723223865032,0.010979537852108479,-0.00031659557134844363,0.018061744049191475
0.020801609382033348,0.005499820690602064,-0.015000677667558193,0.011232376098632812,-0.0003040029259864241,0.018500501289963722
0.0212993323802948,0.004876520484685898,-0.014896459877490997,0.010390511713922024,-0.0003287751751486212,0.01831258088350296
0.021270709112286568,0.004975480493158102,-0.014998337253928185,0.011279783211648464,-0.00030925028841011226,0.018254155293107033
0.021022655069828033,0.004890406038612127,-0.014845184981822968,0.010772799141705036,-0.0002895427751354873,0.01861589588224888
0.02107691578567028,0.004844711162149906,-0.015304990112781525,0.010163564234972,-0.000312113348627463,0.018366700038313866
0.021459409967064857,0.00507072638720274,-0.015236489474773407,0.011049853637814522,-0.00030689744744449854,0.018227469176054
0.021319929510354996,0.00531521113589406,-0.015293898060917854,0.0113135427236557,-0.00029116528457961977,0.01868479512631893
0.021319929510354996,0.00531521113589406,-0.015293898060917854,0.0113135427236557,-0.00029116528457961977,0.01868479512631893
0.02086689881980419,0.004694321658462286,-0.014957770705223083,0.011540966108441353,-0.0002763149095699191,0.018208885565400124
0.02155713364481926,0.005060460884124041,-0.015491310507059097,0.011774810962378979,-0.00026286355569027364,0.018043993040919304
0.022003674879670143,0.004915660712867975,-0.014812287874519825,0.011928567662835121,-0.00025065819500014186,0.018318336457014084
0.02196223847568035,0.004912122618407011,-0.01541396789252758,0.011212141253054142,-0.00027412426425144076,0.018370110541582108
0.022035863250494003,0.00471206521615386,-0.014964763075113297,0.012001371942460537,-0.0002672387345228344,0.018805725499987602
0.022217240184545517,0.005044153891503811,-0.01564231514930725,0.01252934243530035,-0.0002566598413977772,0.01911325566470623
0.022453617304563522,0.004989395849406719,-0.01481667160987854,0.012271461077034473,-0.0002638758742250502,0.018784983083605766
0.02245010808110237,0.004780320916324854,-0.0158863328397274,0.01196485199034214,-0.00027007056633010507,0.018663156777620316
0.02191644161939621,0.0053240456618368626,-0.01542956754565239,0.011821380816400051,-0.0002613187534734607,0.018950795754790306
0.022261736914515495,0.005092799197882414,-0.015712058171629906,0.011781207285821438,-0.0002796923217829317,0.01914050802588463
0.02241973765194416,0.004882309585809708,-0.01566641964018345,0.011934562586247921,-0.00029349589021876454,0.01967989094555378
0.022452423349022865,0.005440213717520237,-0.01606406643986702,0.01116873137652874,-0.000301435065921396,0.01976052112877369
0.02246681973338127,0.005135343875735998,-0.016306882724165916,0.01120724156498909,-0.0003103381604887545,0.01944556087255478
0.022445663809776306,0.004803023766726255,-0.015524161048233509,0.011541442014276981,-0.0003164494701195508,0.01903967373073101
0.022859415039420128,0.004780170973390341,-0.01617625169456005,0.011250031180679798,-0.0003345889854244888,0.018782630562782288
0.023429660126566887,0.005132990423589945,-0.016641942784190178,0.011364067904651165,-0.0005419302033260465,0.019285837188363075
0.023579983040690422,0.005318782292306423,-0.016569122672080994,0.011779885739088058,-0.0005886987200938165,0.019886527210474014
0.02315634861588478,0.004992739297449589,-0.016599657014012337,0.011855133809149265,-0.0005980856367386878,0.019428163766860962
0.023230059072375298,0.004864221904426813,-0.016658499836921692,0.011445869691669941,-0.0005843313410878181,0.02002699114382267
0.02286910079419613,0.005158678628504276,-0.016311442479491234,0.011391857638955116,-0.0006084946217015386,0.02023516595363617
0.023025063797831535,0.004892571363598108,-0.016335537657141685,0.011472784914076328,-0.0007338525610975921,0.020244862884283066
0.023250604048371315,0.005147486459463835,-0.01556969154626131,0.011385176330804825,-0.0006818171823397279,0.019858572632074356
0.023395346477627754,0.005052472464740276,-0.01623789593577385,0.011530675925314426,-0.0005953215877525508,0.01984572410583496
0.022832969203591347,0.004895733203738928,-0.016350535675883293,0.01127086766064167,-0.0006232412997633219,0.01951597072184086
0.022832969203591347,0.004895733203738928,-0.016350535675883293,0.01127086766064167,-0.0006232412997633219,0.01951597072184086
0.02379697933793068,0.005025437101721764,-0.015416879206895828,0.012266444973647594,-0.0005643980111926794,0.01945250853896141
0.02418787218630314,0.004919493105262518,-0.017087997868657112,0.012280247174203396,-0.0005113029037602246,0.019698921591043472
0.024005448445677757,0.00487778102979064,-0.016104815527796745,0.012078111991286278,-0.0005393301835283637,0.020169587805867195
0.023743635043501854,0.0057737636379897594,-0.016402043402194977,0.012422279454767704,-0.0005011172033846378,0.02071584016084671
0.02348160929977894,0.005435739643871784,-0.016173090785741806,0.012234366498887539,-0.0005217326106503606,0.020735664293169975
0.023228736594319344,0.004960398655384779,-0.017258867621421814,0.01256561279296875,-0.0004937643534503877,0.020547829568386078
0.023754708468914032,0.005095398519188166,-0.016443852335214615,0.011758999899029732,-0.00043924100464209914,0.020120497792959213
0.024846062064170837,0.004947086796164513,-0.016555828973650932,0.012549418024718761,-0.000398474105168134,0.020359044894576073
0.024799497798085213,0.004482035990804434,-0.017215227708220482,0.01272641308605671,-0.00041960348607972264,0.02097373828291893
0.024325864389538765,0.004484562203288078,-0.01640988327562809,0.012655411846935749,-0.0004047753755003214,0.021262362599372864
0.02437148615717888,0.005065528675913811,-0.016872573643922806,0.013180803507566452,-0.00042381786624900997,0.020785903558135033
0.02481292001903057,0.004971874412149191,-0.016155490651726723,0.012519515119493008,-0.00041066305129788816,0.0209282785654068
0.02498283050954342,0.004308327566832304,-0.01668565720319748,0.012865226715803146,-0.00042706448584795,0.021164724603295326
0.025013677775859833,0.004229498561471701,-0.01703547313809395,0.012512979097664356,-0.00041519725346006453,0.02099415846168995
0.024629319086670876,0.004191744606941938,-0.017040710896253586,0.012988749891519547,-0.0003957510052714497,0.02063622884452343
0.025068126618862152,0.004834980238229036,-0.016823261976242065,0.012678451836109161,-0.0004586912982631475,0.021335819736123085
0.025448275730013847,0.004779943265020847,-0.017030756920576096,0.012906232848763466,-0.00046306088916026056,0.020266329869627953
0.025222647935152054,0.004459094256162643,-0.016597699373960495,0.012692314572632313,-0.0004793310072273016,0.021011654287576675
0.025442665442824364,0.004423634149134159,-0.016814790666103363,0.013002302497625351,-0.0004605311551131308,0.021456241607666016
0.025681214407086372,0.0045792520977556705,-0.017001572996377945,0.012636841274797916,-0.00047533150063827634,0.021187597885727882
0.025716325268149376,0.004896503407508135,-0.01652168482542038,0.013159164227545261,-0.0004591611213982105,0.020895272493362427
0.025420691817998886,0.004671747330576181,-0.016761155799031258,0.012809805572032928,-0.0004324941837694496,0.021029692143201828
0.02572169154882431,0.0048768166452646255,-0.01630968227982521,0.013134963810443878,-0.00045103291631676257,0.0212311539798975
0.025994593277573586,0.004806086421012878,-0.017281102016568184,0.012692096643149853,-0.00044842399074696004,0.021621963009238243
0.025869963690638542,0.004697087220847607,-0.017132967710494995,0.012597021646797657,-0.0004102852544747293,0.0214234571903944
0.026008833199739456,0.004449343774467707,-0.016817938536405563,0.012648436240851879,-0.0004312993260100484,0.021651338785886765
0.025797385722398758,0.004248311743140221,-0.017022477462887764,0.012785857543349266,-0.0004152221081312746,0.021831514313817024
0.026001594960689545,0.004365290515124798,-0.01653011329472065,0.012883839197456837,-0.00038659668643958867,0.02154284343123436
0.02615904062986374,0.004615523386746645,-0.01717226393520832,0.01243570912629366,-0.00041674976819194853,0.021705277264118195
0.025610577315092087,0.004735410213470459,-0.016713328659534454,0.013048538938164711,-0.0004430346889421344,0.021717095747590065
0.025610577315092087,0.004735410213470459,-0.016713328659534454,0.013048538938164711,-0.0004430346889421344,0.021717095747590065
0.025974135845899582,0.004568867851048708,-0.016968367621302605,0.012533847242593765,-0.0004238448163960129,0.02155831828713417
0.02703195810317993,0.004183389712125063,-0.016701092943549156,0.013171108439564705,-0.00047906767576932907,0.021505441516637802
0.02673601359128952,0.004325203597545624,-0.01639694534242153,0.012878007255494595,-0.0005095172673463821,0.021838663145899773
0.02610650844871998,0.004165484104305506,-0.017387934029102325,0.013057904317975044,-0.00048465223517268896,0.022345921024680138
0.025111528113484383,0.004519172944128513,-0.017239997163414955,0.012704089283943176,-0.0005100647686049342,0.022583376616239548
0.02718629688024521,0.00476957019418478,-0.01729324460029602,0.012861574999988079,-0.00047999684466049075,0.022280428558588028
0.027462350204586983,0.004762326832860708,-0.0171024389564991,0.013187923468649387,-0.0005016196519136429,0.022296098992228508
0.026339540258049965,0.004660200793296099,-0.01686744950711727,0.01310829259455204,-0.00047599547542631626,0.02262961119413376
0.02677949145436287,0.004600541200488806,-0.01748279295861721,0.01373316254466772,-0.000447916507255286,0.02264479361474514
0.026926465332508087,0.004280236549675465,-0.01669674552977085,0.013324525207281113,-0.000510461803060025,0.023185472935438156
0.02713140845298767,0.0045038810931146145,-0.017408352345228195,0.013512649573385715,-0.0005331530119292438,0.02159370295703411
0.026429764926433563,0.004256715066730976,-0.017417993396520615,0.013518376275897026,-0.000504693016409874,0.02183697000145912
0.02605392411351204,0.004316156264394522,-0.017560908570885658,0.014649394899606705,-0.0004628023016266525,0.022281566634774208
0.027719199657440186,0.0043714046478271484,-0.016506310552358627,0.01429683156311512,-0.0004563222755677998,0.02323470637202263
0.027618998661637306,0.0045361509546637535,-0.017743611708283424,0.013621469959616661,-0.0004292099620215595,0.0233168788254261
0.027343619614839554,0.004480487667024136,-0.018369359895586967,0.01412246748805046,-0.0004020635096821934,0.02337917871773243
0.027072366327047348,0.004355492535978556,-0.017856881022453308,0.013936840929090977,-0.0003779497346840799,0.022580277174711227
0.027422957122325897,0.004304102156311274,-0.017737362533807755,0.01478933822363615,-0.0004006141680292785,0.02231934480369091
0.027852559462189674,0.0047890315763652325,-0.017600437626242638,0.014382436871528625,-0.00038520238013006747,0.022538773715496063
0.02745344303548336,0.00490511953830719,-0.017711544409394264,0.01443758700042963,-0.0003660090733319521,0.023044250905513763
0.02757207304239273,0.004741527605801821,-0.017704565078020096,0.013579444028437138,-0.00034832232631742954,0.022979792207479477
0.027713725343346596,0.004233528394252062,-0.017461584880948067,0.014159342274069786,-0.0003322464763186872,0.023076066747307777
0.027443617582321167,0.004162641707807779,-0.018054425716400146,0.013909583911299706,-0.0003050780505873263,0.02302897535264492
0.027830487117171288,0.004041646141558886,-0.01812819391489029,0.014455084688961506,-0.00028470755205489695,0.023457299917936325
0.02786155976355076,0.003924536984413862,-0.017730556428432465,0.014336593449115753,-0.00026769429678097367,0.02359103597700596
0.02786155976355076,0.003924536984413862,-0.017730556428432465,0.014336593449115753,-0.00026769429678097367,0.02359103597700596
0.027861664071679115,0.004270200617611408,-0.018758850172162056,0.014914746396243572,-0.0002996872353833169,0.02285056933760643
0.02825319953262806,0.004564748145639896,-0.017523471266031265,0.014595565386116505,-0.00028683149139396846,0.02264515310525894
0.027959058061242104,0.004215563647449017,-0.01738562434911728,0.014956429600715637,-0.000306068075587973,0.023237157613039017
0.027604268863797188,0.003962630871683359,-0.017770331352949142,0.014005100354552269,-0.0003019335272256285,0.023410160094499588
0.028409523889422417,0.004294857382774353,-0.017332926392555237,0.014531492255628109,-0.0003245207481086254,0.023671986535191536
0.028418639674782753,0.004194296430796385,-0.01772487536072731,0.013966834172606468,-0.0003158259205520153,0.023559683933854103
0.028190700337290764,0.00396144762635231,-0.017470451071858406,0.014378219842910767,-0.00045415115891955793,0.02365114912390709
0.028157219290733337,0.004171471111476421,-0.01774512603878975,0.013812300749123096,-0.0004226580203976482,0.023453591391444206
0.028898777440190315,0.004645582754164934,-0.01835552230477333,0.014225338585674763,-0.000458884343970567,0.023389089852571487
0.02840173989534378,0.004283934365957975,-0.01762431301176548,0.014013025909662247,-0.0004795964923687279,0.023989543318748474
0.028880571946501732,0.004369597416371107,-0.01797138899564743,0.014520911499857903,-0.0004930587601847947,0.0238887257874012
0.028947889804840088,0.004285025876015425,-0.018104899674654007,0.014025446958839893,-0.0004898846964351833,0.023997599259018898
0.02902383543550968,0.004011000506579876,-0.017486799508333206,0.013968816958367825,-0.0006274166516959667,0.02425694651901722
0.02797333337366581,0.004316676873713732,-0.01811697892844677,0.014020995236933231,-0.0006725987186655402,0.02432877942919731
0.029707757756114006,0.004335423000156879,-0.018112875521183014,0.014508910477161407,-0.0006604205118492246,0.024591775611042976
0.029958337545394897,0.004242316819727421,-0.018372299149632454,0.014369186013936996,-0.0006823790608905256,0.024483468383550644
0.02937483973801136,0.004262210801243782,-0.017790712416172028,0.014439672231674194,-0.0007778885774314404,0.024295061826705933
0.02825039252638817,0.00443953787907958,-0.018300898373126984,0.014978430233895779,-0.0008145137107931077,0.024361705407500267
0.028959671035408974,0.004297463223338127,-0.018407542258501053,0.014804713428020477,-0.0007164612761698663,0.024485455825924873
0.029904915019869804,0.004003026522696018,-0.017872357740998268,0.014964946545660496,-0.0007306533516384661,0.024770164862275124
0.029327165335416794,0.0042646038345992565,-0.018888913094997406,0.014588793739676476,-0.0007293064263649285,0.024595297873020172
0.029600339010357857,0.0043273987248539925,-0.018500251695513725,0.014893991872668266,-0.0006817924440838397,0.024192271754145622
0.029600339010357857,0.0043273987248539925,-0.018500251695513725,0.014893991872668266,-0.0006817924440838397,0.024192271754145622
0.02977633662521839,0.004146141931414604,-0.018485931679606438,0.015344124287366867,-0.0006836575921624899,0.025875894352793694
0.02977633662521839,0.004146141931414604,-0.018485931679606438,0.015344124287366867,-0.0006836575921624899,0.025875894352793694
0.029508907347917557,0.004366952460259199,-0.018527349457144737,0.014923148788511753,-0.0006688212160952389,0.025441117584705353
0.029512273147702217,0.00410597026348114,-0.018719065934419632,0.015531170181930065,-0.0006900979205965996,0.024114439263939857
0.03024750016629696,0.004392195027321577,-0.018515385687351227,0.015115836635231972,-0.000670036009978503,0.02413644827902317
0.030799390748143196,0.004176843911409378,-0.018098963424563408,0.015551324933767319,-0.0007817483856342733,0.024651994928717613
0.030520033091306686,0.004469480365514755,-0.01881188526749611,0.01512081827968359,-0.000804279581643641,0.025583956390619278
0.030437352135777473,0.004138614982366562,-0.019153939560055733,0.015519442036747932,-0.0007936466136015952,0.024888817220926285
0.030667845159769058,0.004083010368049145,-0.018389996141195297,0.01540367677807808,-0.0007785005727782845,0.02489287778735161
0.030496427789330482,0.00418989360332489,-0.018563207238912582,0.015420030802488327,-0.0007448315736837685,0.025424566119909286
0.030209602788090706,0.004458604846149683,-0.019079066812992096,0.015606923028826714,-0.0007690964266657829,0.025827746838331223
0.030461646616458893,0.004439996555447578,-0.01854272559285164,0.015534068457782269,-0.0007284656749106944,0.02545623481273651
0.030165238305926323,0.004254620987921953,-0.0191135723143816,0.015602345578372478,-0.0006913249380886555,0.024698531255126
0.03020206280052662,0.004520753398537636,-0.019005566835403442,0.014894166961312294,-0.0007111675222404301,0.02454965002834797
0.030360249802470207,0.004410865250974894,-0.018237942829728127,0.015199833549559116,-0.0006447528139688075,0.024193327873945236
0.030909404158592224,0.004288895986974239,-0.019228477030992508,0.015003309585154057,-0.0006627924158237875,0.02493760548532009
0.029573101550340652,0.004482853692024946,-0.019335201010107994,0.015583069995045662,-0.0006355540244840086,0.025633051991462708
0.030811913311481476,0.004600862041115761,-0.018832124769687653,0.0151355667039752,-0.0005794238531962037,0.02529258467257023
0.031692229211330414,0.00454304413869977,-0.0192580483853817,0.015670349821448326,-0.0005897767259739339,0.0253454577177763
0.03139404207468033,0.00441883597522974,-0.019394082948565483,0.01531335897743702,-0.0005524784210138023,0.02537064254283905
0.03102397918701172,0.004848881624639034,-0.01949732005596161,0.015200966969132423,-0.0005921879201196134,0.025424636900424957
0.03145451471209526,0.004410088527947664,-0.01956062577664852,0.015319755300879478,-0.0005635468987748027,0.025478864088654518
0.03232480585575104,0.004542723298072815,-0.019636888056993484,0.016118124127388,-0.0005946501041762531,0.025914739817380905
0.03205188736319542,0.004706961568444967,-0.0201469287276268,0.016232982277870178,-0.0006014471873641014,0.026137810200452805
0.030053114518523216,0.004927090369164944,-0.019848311319947243,0.016654305160045624,-0.000584956316743046,0.0263570137321949
0.031166400760412216,0.0050056627951562405,-0.019349245354533195,0.016145771369338036,-0.000612678355537355,0.026180565357208252
0.03187407925724983,0.004733348730951548,-0.020203880965709686,0.01591990888118744,-0.0006328012677840889,0.026376545429229736
0.03147231787443161,0.0048414673656225204,-0.020707616582512856,0.015102535486221313,-0.000766926328651607,0.02666717953979969
0.032281212508678436,0.004842811729758978,-0.02039194665849209,0.015963230282068253,-0.0007090062717907131,0.026246236637234688
0.03324728086590767,0.004809897858649492,-0.0203731507062912,0.01618278957903385,-0.0007298003765754402,0.026740211993455887
0.03324728086590767,0.004809897858649492,-0.0203731507062912,0.01618278957903385,-0.0007298003765754402,0.026740211993455887
0.03306335583329201,0.00478796660900116,-0.020265668630599976,0.016918666660785675,-0.000749898434150964,0.026839585974812508
0.031824976205825806,0.005092082545161247,-0.01982942409813404,0.017005225643515587,-0.0007659600814804435,0.02704600989818573
0.031721822917461395,0.004867665469646454,-0.019815772771835327,0.016357071697711945,-0.0008292859420180321,0.026933738961815834
0.032566461712121964,0.004447085317224264,-0.020939068868756294,0.01644829288125038,-0.000843601010274142,0.02677862159907818
0.03297777473926544,0.004552816040813923,-0.020961856469511986,0.016027556732296944,-0.0008043617126531899,0.026922650635242462
0.03319019824266434,0.005045476369559765,-0.0186732467263937,0.01738528162240982,-0.0007606464205309749,0.02628493495285511
0.03309134021401405,0.005022041499614716,-0.020957961678504944,0.01740710251033306,-0.0007720190333202481,0.026728585362434387
0.03297547996044159,0.004874259699136019,-0.022100314497947693,0.01719154231250286,-0.0007584437844343483,0.027102842926979065
0.032970868051052094,0.004597827326506376,-0.02108345925807953,0.017233721911907196,-0.0007347606006078422,0.02732359990477562
0.0330490916967392,0.004586230963468552,-0.020279010757803917,0.016487203538417816,-0.0007825591019354761,0.027534333989024162
0.03384995087981224,0.004595055710524321,-0.021502485498785973,0.016788171604275703,-0.0007978879730217159,0.027534514665603638
0.034002888947725296,0.0047843195497989655,-0.020832713693380356,0.016223743557929993,-0.0007467218092642725,0.027968592941761017
0.033799346536397934,0.0050001852214336395,-0.02044481597840786,0.016385823488235474,-0.0009223967208527029,0.027668165042996407
0.03383905440568924,0.005259563215076923,-0.021137354895472527,0.01692405715584755,-0.0009648855775594711,0.02767210640013218
0.03457539528608322,0.0046995216980576515,-0.02135949395596981,0.01751490868628025,-0.0010602108668535948,0.02697148732841015
0.03409745916724205,0.004786753561347723,-0.020968496799468994,0.017069730907678604,-0.0010726416949182749,0.02781234309077263
0.03442578762769699,0.004685758613049984,-0.021324172616004944,0.017095370218157768,-0.0010461516212671995,0.028970178216695786
0.035005487501621246,0.005051636602729559,-0.021495312452316284,0.01715364307165146,-0.0010079159401357174,0.02822565846145153
0.0347180999815464,0.005436019040644169,-0.021846400573849678,0.016764087602496147,-0.0009101955220103264,0.026803961023688316
0.03475230932235718,0.005111340433359146,-0.021201135590672493,0.016879843547940254,-0.0008187511120922863,0.027745822444558144
0.034645047038793564,0.0046039181761443615,-0.02148887887597084,0.01648968644440174,-0.0007021896308287978,0.029128650203347206
0.035216063261032104,0.004968832712620497,-0.021688202396035194,0.01698918081820011,-0.0006657576886937022,0.02878406271338463
0.03568839654326439,0.004920434206724167,-0.02171761356294155,0.017249442636966705,-0.0006382760475389659,0.029023118317127228
0.03604908660054207,0.0049671512097120285,-0.021050019189715385,0.017303697764873505,-0.0006559790926985443,0.030166588723659515
0.03547581657767296,0.005257213022559881,-0.021090058609843254,0.017354518175125122,-0.0006675880867987871,0.02921205200254917
0.0357542522251606,0.0050338818691670895,-0.021690944209694862,0.016732709482312202,-0.0006303497939370573,0.027873795479536057
0.03692356497049332,0.004824550822377205,-0.02177770808339119,0.017049942165613174,-0.0007023075013421476,0.027812093496322632
0.03692356497049332,0.004824550822377205,-0.02177770808339119,0.017049942165613174,-0.0007023075013421476,0.027812093496322632
0.03671896085143089,0.004779582377523184,-0.02149132452905178,0.01671382039785385,-0.0007295768009498715,0.029217272996902466
0.03433375805616379,0.0047892918810248375,-0.02134908363223076,0.017235321924090385,-0.0007005827501416206,0.029609959572553635
0.03613317757844925,0.005118640139698982,-0.021605992689728737,0.017411688342690468,-0.000717436894774437,0.029504908248782158
0.03650099039077759,0.005060905124992132,-0.02131701074540615,0.017168257385492325,-0.0008542857831344008,0.029215805232524872
0.03664921224117279,0.005151149816811085,-0.021059678867459297,0.017206944525241852,-0.0008497844683006406,0.029402386397123337
0.037415314465761185,0.004939343314617872,-0.021684398874640465,0.01679922826588154,-0.0007932876469567418,0.029136328026652336
0.037411414086818695,0.004889958538115025,-0.02224121429026127,0.017123030498623848,-0.0008026832365430892,0.029455650597810745
0.0356174074113369,0.004850799683481455,-0.02242543175816536,0.017417874187231064,-0.0008065141155384481,0.029524562880396843
0.03672931715846062,0.004765956196933985,-0.021648317575454712,0.017545945942401886,-0.0007962018717080355,0.029365168884396553
0.037485141307115555,0.005112872458994389,-0.021348072215914726,0.017935125157237053,-0.0008013717015273869,0.029916098341345787
0.0377298928797245,0.005207184702157974,-0.021726636216044426,0.01750199683010578,-0.0008140551508404315,0.02979680895805359
0.03701319918036461,0.004947819747030735,-0.021870363503694534,0.017546337097883224,-0.0007464257068932056,0.029681771993637085
0.03650767728686333,0.004875678103417158,-0.021847210824489594,0.017461439594626427,-0.0007575388881377876,0.02963370643556118
0.037343624979257584,0.004832923877984285,-0.021805541589856148,0.017139336094260216,-0.0009043928002938628,0.029612738639116287
0.03753319010138512,0.004870855715125799,-0.022451872006058693,0.01775205507874489,-0.0009231595322489738,0.029769685119390488
0.037568312138319016,0.004947029985487461,-0.0231033768504858,0.017371060326695442,-0.0008555829408578575,0.02976806089282036
0.03755945339798927,0.0043721310794353485,-0.02202700823545456,0.01748088374733925,-0.0007799913291819394,0.02920948714017868
0.03753296658396721,0.0042631435208022594,-0.022168884053826332,0.017400650307536125,-0.0007939402712509036,0.02968652732670307
0.0378740131855011,0.0041976189240813255,-0.022583015263080597,0.018360190093517303,-0.0008000095840543509,0.03084528259932995
0.037797603756189346,0.004432090558111668,-0.022668326273560524,0.019205551594495773,-0.0007674986263737082,0.03066900372505188
0.03724750503897667,0.004610130563378334,-0.022859124466776848,0.0181135181337595,-0.0007799878367222846,0.029298683628439903
0.03895743563771248,0.004806963726878166,-0.022997116670012474,0.01829017698764801,-0.0007472431170754135,0.028617534786462784
0.03948404639959335,0.00508152088150382,-0.023130755871534348,0.01792062632739544,-0.0007202379056252539,0.029738012701272964
0.03682192787528038,0.004364358726888895,-0.022599082440137863,0.017284482717514038,-0.0007189837051555514,0.03008117713034153
0.03698207437992096,0.004395912401378155,-0.02289741300046444,0.018040955066680908,-0.0006854770472273231,0.030385740101337433
0.03910928964614868,0.004113693721592426,-0.022567305713891983,0.018108630552887917,-0.0006991042755544186,0.030858460813760757
0.03879264369606972,0.004391943570226431,-0.022846216335892677,0.018423598259687424,-0.0007070065476000309,0.030864538624882698
0.03914520516991615,0.0043464838527143,-0.023380571976304054,0.01816842332482338,-0.0006670770235359669,0.030015289783477783
0.03935535252094269,0.00435847882181406,-0.02337772585451603,0.017550647258758545,-0.0007147960131987929,0.029212871566414833
0.03935535252094269,0.00435847882181406,-0.02337772585451603,0.017550647258758545,-0.0007147960131987929,0.029212871566414833
0.03791869059205055,0.004851630888879299,-0.02321862243115902,0.01863257959485054,-0.0007411916740238667,0.03027907945215702
0.03827306628227234,0.0044417912140488625,-0.022398915141820908,0.018843403086066246,-0.0007605769787915051,0.031367260962724686
0.03924117609858513,0.00401817774400115,-0.02241445519030094,0.01914246194064617,-0.0007757108542136848,0.031366508454084396
0.039458781480789185,0.004263616167008877,-0.02317044511437416,0.018749196082353592,-0.0008852819446474314,0.031038574874401093
0.039099711924791336,0.004169968888163567,-0.02392185851931572,0.017519008368253708,-0.0008388223359361291,0.03078041970729828
0.038634367287158966,0.004246183671057224,-0.02307572402060032,0.01767721213400364,-0.0008446109713986516,0.03103579953312874
0.03913536295294762,0.004640379920601845,-0.022714341059327126,0.018496427685022354,-0.0007968337158672512,0.03123585507273674
0.03972157463431358,0.004269775934517384,-0.02291528321802616,0.01829957775771618,-0.0008047854644246399,0.031115790829062462
0.03966859355568886,0.004341377876698971,-0.022930191829800606,0.018666863441467285,-0.0007881542551331222,0.0315563939511776
0.039300817996263504,0.004245714284479618,-0.0228916946798563,0.01945505291223526,-0.00068228057352826,0.031985241919755936
0.0405193567276001,0.004499947186559439,-0.023059057071805,0.01904546096920967,-0.0006946225184947252,0.031880125403404236
0.03942452743649483,0.0042525348253548145,-0.023144491016864777,0.019256891682744026,-0.0007038756157271564,0.03237457945942879
0.040310926735401154,0.004338201135396957,-0.02322188951075077,0.018746081739664078,-0.000654893578030169,0.031246213242411613
0.039871856570243835,0.0046690525487065315,-0.0229889377951622,0.01885303296148777,-0.0006485001649707556,0.03194399178028107
0.04039674997329712,0.004700108431279659,-0.022745275869965553,0.018904604017734528,-0.0005920812836848199,0.03169536218047142
0.04033467173576355,0.004526796750724316,-0.023019395768642426,0.018376369029283524,-0.0006220374489203095,0.031631045043468475
0.040737975388765335,0.004241177812218666,-0.02308216132223606,0.018471168354153633,-0.0006506668287329376,0.03146382421255112
0.04068593308329582,0.0043901014141738415,-0.023082002997398376,0.01827174983918667,-0.0006685129483230412,0.031318359076976776
0.040418095886707306,0.0045960647985339165,-0.02305518090724945,0.01803029142320156,-0.0007281816797330976,0.03160461038351059
0.04125048965215683,0.004939970560371876,-0.022805459797382355,0.01905481517314911,-0.0007872057612985373,0.03182939812541008
0.041121043264865875,0.004809270612895489,-0.022694651037454605,0.01914912834763527,-0.0007455412414856255,0.031918130815029144
0.04052508622407913,0.004673129413276911,-0.02260507643222809,0.01911364495754242,-0.0007605281425639987,0.031775135546922684
0.040929824113845825,0.0047448365949094296,-0.023631492629647255,0.019306624308228493,-0.0007688000332564116,0.03195876255631447
0.040929824113845825,0.0047448365949094296,-0.023631492629647255,0.019306624308228493,-0.0007688000332564116,0.03195876255631447
0.04229612648487091,0.00477871997281909,-0.023523418232798576,0.01870831474661827,-0.0007902103243395686,0.03202071413397789
0.04061008244752884,0.004350882489234209,-0.023313937708735466,0.019135495647788048,-0.0008704218780621886,0.03222235292196274
0.04009592533111572,0.004496184177696705,-0.02367115020751953,0.019661400467157364,-0.0008787918486632407,0.03294261544942856
0.04180627688765526,0.0048999483697116375,-0.02323729731142521,0.019425755366683006,-0.0008670894312672317,0.032954141497612
0.04188910499215126,0.0044488306157290936,-0.02345360442996025,0.01876930706202984,-0.0009148954995907843,0.031606920063495636
0.04281770437955856,0.004506989382207394,-0.02381291799247265,0.01952815055847168,-0.0008575982647016644,0.03187422826886177
0.041257403790950775,0.0045572975650429726,-0.024575157091021538,0.019287217408418655,-0.0008605459006503224,0.03298870101571083
0.04055501148104668,0.004668679088354111,-0.024553680792450905,0.018992358818650246,-0.0008095905650407076,0.0327126607298851
0.04189528152346611,0.0047467960976064205,-0.024270346388220787,0.01978335715830326,-0.0007644154247827828,0.03387139365077019
0.04039410501718521,0.004874463193118572,-0.023866752162575722,0.020057475194334984,-0.0007687969482503831,0.03372602164745331
0.04164646193385124,0.004847795702517033,-0.02344680018723011,0.019732637330889702,-0.0007055038586258888,0.031354017555713654
0.04192022234201431,0.004988893400877714,-0.023624559864401817,0.019507167860865593,-0.0006294278427958488,0.032521482557058334
0.04146106168627739,0.004869266413152218,-0.0244614165276289,0.019423479214310646,-0.0006482818280346692,0.033530548214912415
0.041929833590984344,0.00473422184586525,-0.024296903982758522,0.019352087751030922,-0.0006621491047553718,0.03406297788023949
0.04157007485628128,0.005114403087645769,-0.023848196491599083,0.01980423927307129,-0.0006962685147300363,0.03319549188017845
0.04191027581691742,0.005130900535732508,-0.02366730011999607,0.019710751250386238,-0.00089531164849177,0.03317154198884964
0.042213913053274155,0.0048685758374631405,-0.024744538590312004,0.01954227313399315,-0.0009998660534620285,0.033173732459545135
0.04146893322467804,0.005120695102959871,-0.02469351328909397,0.020211640745401382,-0.0009312171605415642,0.03325195237994194
0.04338754341006279,0.004447015933692455,-0.023596161976456642,0.01986941508948803,-0.0010836462024599314,0.033579275012016296
0.042552437633275986,0.004334629978984594,-0.023940660059452057,0.02003367617726326,-0.001062145922333002,0.03376094251871109
0.04094148427248001,0.004646058194339275,-0.02422567456960678,0.02037722058594227,-0.0010385856730863452,0.034054387360811234
0.04212934151291847,0.004629096016287804,-0.02437780238687992,0.020258154720067978,-0.0009410852217115462,0.03370629623532295
0.042450111359357834,0.004636881873011589,-0.024382539093494415,0.020436491817235947,-0.0009182266076095402,0.03386110067367554
0.042450111359357834,0.004636881873011589,-0.024382539093494415,0.020436491817235947,-0.0009182266076095402,0.03386110067367554
0.043850526213645935,0.004744837060570717,-0.02452944964170456,0.021880632266402245,-0.0007891186396591365,0.03376017510890961
0.0413399264216423,0.004675142467021942,-0.02481047436594963,0.020780522376298904,-0.000795622996520251,0.03422164544463158
0.04345465078949928,0.004830433055758476,-0.024324188008904457,0.019788183271884918,-0.0007613720372319221,0.03441614657640457
0.04345465078949928,0.004830433055758476,-0.024324188008904457,0.019788183271884918,-0.0007613720372319221,0.03441614657640457
0.04369398579001427,0.00474853441119194,-0.02428666688501835,0.02013459987938404,-0.0007284543244168162,0.03413882106542587
0.04290349781513214,0.004775261506438255,-0.024662941694259644,0.020401539281010628,-0.0006570647819899023,0.033833641558885574
0.042659614235162735,0.004712192341685295,-0.024828294292092323,0.021332919597625732,-0.0006584633374586701,0.03476998955011368
0.043458014726638794,0.00494640227407217,-0.024896621704101562,0.021386869251728058,-0.0006839552661404014,0.035224560648202896
0.04316016286611557,0.004713757894933224,-0.02493160590529442,0.02103651687502861,-0.0007058735936880112,0.03423435986042023
0.043495096266269684,0.004918565507978201,-0.024758368730545044,0.020369336009025574,-0.0009023263119161129,0.033268000930547714
0.043488867580890656,0.004883000161498785,-0.024740051478147507,0.020966695621609688,-0.0009755392675288022,0.03467360511422157
0.04415605962276459,0.004770833998918533,-0.024358725175261497,0.021103499457240105,-0.0009684971300885081,0.0348462238907814
0.043838679790496826,0.004574994090944529,-0.024699946865439415,0.020709358155727386,-0.0009664167882874608,0.0356840156018734
0.044239506125450134,0.004605162423104048,-0.024923697113990784,0.01952231116592884,-0.0011877333745360374,0.03581071272492409
0.0441233292222023,0.004715764429420233,-0.02540316991508007,0.01974879577755928,-0.001171702053397894,0.03503013029694557
0.04283643886446953,0.004726442974060774,-0.024989519268274307,0.020678676664829254,-0.001147924573160708,0.03424626588821411
0.04515821486711502,0.004767088685184717,-0.025067729875445366,0.020922239869832993,-0.0013158362125977874,0.03523814678192139
0.04511694982647896,0.005159199703484774,-0.025621961802244186,0.020978884771466255,-0.0012702118838205934,0.035954225808382034
