davideferrari95/blind_handover_controller/data/Test 114 - [2024-02-07 -- 16-27-56]/joint_states_data.csv
shoulder_pan_joint,shoulder_lift_joint,elbow_joint,wrist_1_joint,wrist_2_joint,wrist_3_joint
0.007621137425303459,0.00744160870090127,-0.013282219879329205,0.007209762465208769,-1.1687807168756576e-34,0.007552457507699728
0.007621137425303459,0.00744160870090127,-0.013282219879329205,0.007209762465208769,-1.1687807168756576e-34,0.007552457507699728
0.006843008566647768,0.00819468591362238,-0.01332142110913992,0.006912712007761002,-7.63130301184793e-36,0.007165664341300726
0.006949511356651783,0.007849933579564095,-0.013473286293447018,0.006064034998416901,-0.00010504617966944352,0.006880102679133415
0.007488504517823458,0.00784134678542614,-0.013221651315689087,0.005791022442281246,-0.00011277495650574565,0.007085890509188175
0.007455425802618265,0.007767415139824152,-0.013459363952279091,0.005303249694406986,-0.00011067804007325321,0.00688543077558279
0.007998074404895306,0.00695903692394495,-0.013370072469115257,0.005106604192405939,-0.00010806423233589157,0.007206873036921024
0.007832995615899563,0.00808001309633255,-0.013046931475400925,0.004953408148139715,-0.00010553264291957021,0.006862064357846975
0.007669691927731037,0.00797402672469616,-0.013285938650369644,0.0049022501334548,-0.00010311458026990294,0.006788436323404312
0.007669691927731037,0.00797402672469616,-0.013285938650369644,0.0049022501334548,-0.00010311458026990294,0.006788436323404312
0.00805850513279438,0.007289835251867771,-0.013134386390447617,0.0050736055709421635,-9.859594138106331e-05,0.006976480595767498
0.00805850513279438,0.007289835251867771,-0.013134386390447617,0.0050736055709421635,-9.859594138106331e-05,0.006976480595767498
0.007875213399529457,0.0073590148240327835,-0.012744235806167126,0.004621738567948341,-9.648189006838948e-05,0.006884800270199776
0.00767151452600956,0.008174065500497818,-0.013660294935107231,0.004104422405362129,-9.445666364626959e-05,0.007233486510813236
0.007108637131750584,0.007727517746388912,-0.013472587801516056,0.0038732485845685005,-9.251465235138312e-05,0.007252340205013752
0.007250920403748751,0.006986701395362616,-0.013410069979727268,0.0042919255793094635,-9.065097401617095e-05,0.006877316627651453
0.007654503919184208,0.007165174465626478,-0.012811806984245777,0.0048860604874789715,-8.886084106052294e-05,0.006622001528739929
0.008117006160318851,0.008227064274251461,-0.01290341280400753,0.0048730638809502125,-9.571497503202409e-05,0.006646682508289814
0.007158169522881508,0.007048993371427059,-0.013219313696026802,0.004346210975199938,-0.0001006314269034192,0.006718915421515703
0.007684815209358931,0.0073052807711064816,-0.01367570273578167,0.00422091456130147,-9.88243191386573e-05,0.006756276357918978
0.007195320446044207,0.008162694983184338,-0.012889624573290348,0.004332331009209156,-9.7050447948277e-05,0.006792176049202681
0.007062620483338833,0.00782489962875843,-0.013410109095275402,0.004633407108485699,-9.53371127252467e-05,0.006683525629341602
0.00724775018170476,0.00748634384945035,-0.012910058721899986,0.00484733609482646,-9.368306200485677e-05,0.006433747708797455
0.00730528961867094,0.00748108746483922,-0.01365242712199688,0.00497421296313405,-9.208558185491711e-05,0.006977598648518324
0.008128298446536064,0.007898296229541302,-0.013186025433242321,0.004677292425185442,-9.054155816556886e-05,0.007509902119636536
0.00701859500259161,0.007757487706840038,-0.01370355486869812,0.0043116370216012,-8.904840069590136e-05,0.006930919364094734
0.006258525885641575,0.007435820531100035,-0.013160362839698792,0.0040651168674230576,-8.760383207118139e-05,0.00686535844579339
0.00670063029974699,0.007474486716091633,-0.01314386073499918,0.004446857143193483,-8.620532025815919e-05,0.006626418326050043
0.007449669297784567,0.008373038843274117,-0.013235270045697689,0.00462054368108511,-8.485071884933859e-05,0.006474824156612158
0.0075250789523124695,0.008422208949923515,-0.013065891340374947,0.005085729528218508,-8.353812154382467e-05,0.007033198606222868
0.006969156675040722,0.007801461964845657,-0.013595513999462128,0.0050160945393145084,-8.226541831390932e-05,0.006692442111670971
0.006464526057243347,0.008253234438598156,-0.013261322863399982,0.004782321862876415,-9.105909703066573e-05,0.006372838746756315
0.007080944254994392,0.008451438508927822,-0.013468029908835888,0.004740387666970491,-9.291152673540637e-05,0.006799565628170967
0.0070375665090978146,0.008203857578337193,-0.01337459497153759,0.004622840788215399,-9.176684397971258e-05,0.00685669481754303
0.006631690543144941,0.007787842769175768,-0.01394116971641779,0.004409248940646648,-9.046278864843771e-05,0.006643481552600861
0.006951306946575642,0.00840526632964611,-0.013204299844801426,0.004573420621454716,-8.91830277396366e-05,0.0064645931124687195
0.006957619450986385,0.008509617298841476,-0.013911275193095207,0.005169700365513563,-8.793822780717164e-05,0.006431915331631899
0.007401455659419298,0.008510967716574669,-0.01342464704066515,0.004959119949489832,-8.672769035911188e-05,0.00658195186406374
0.0067634847946465015,0.008685353212058544,-0.013918043114244938,0.004671785980463028,-8.554996747989208e-05,0.006564089562743902
0.006891756318509579,0.008710047230124474,-0.013214821927249432,0.004196726251393557,-8.440386591246352e-05,0.0070162019692361355
0.006891756318509579,0.008710047230124474,-0.013214821927249432,0.004196726251393557,-8.440386591246352e-05,0.0070162019692361355
0.006784886587411165,0.008304344490170479,-0.013672302477061749,0.00390987191349268,-8.328799594892189e-05,0.007097849156707525
0.007227330002933741,0.008318478241562843,-0.013399205170571804,0.004135436378419399,-8.220124436775222e-05,0.006717102136462927
0.007201031781733036,0.008684651926159859,-0.014004548080265522,0.005141830537468195,-8.114254887914285e-05,0.00681874668225646
0.007037936244159937,0.008516666479408741,-0.013294113799929619,0.005367650650441647,-8.011075988179073e-05,0.006921031512320042
0.0073454310186207294,0.008333177305758,-0.01352242287248373,0.004835118539631367,-7.81239359639585e-05,0.006674870382994413
0.007577435579150915,0.008747666142880917,-0.01299984659999609,0.0043730116449296474,-7.716700929449871e-05,0.006372933275997639
0.006811793427914381,0.008621578104794025,-0.013262517750263214,0.004517494235187769,-7.623324199812487e-05,0.006544865667819977
0.006827811244875193,0.007816165685653687,-0.012916794046759605,0.00460059242323041,-7.532181916758418e-05,0.007065252400934696
0.00701175769791007,0.010097666643559933,-0.013858483172953129,0.004967881366610527,-7.443193317158148e-05,0.00681771244853735
0.007276172749698162,0.009078314527869225,-0.012743312865495682,0.004530811682343483,-7.356281275860965e-05,0.006265892647206783
0.00717893335968256,0.008798377588391304,-0.013395760208368301,0.004496944602578878,-7.271380309248343e-05,0.0059803505428135395
0.006922398693859577,0.009173015132546425,-0.013084884732961655,0.004562823101878166,-7.188410381786525e-05,0.006193319335579872
0.007022569887340069,0.00877345446497202,-0.01354331336915493,0.004575346130877733,-7.107316196197644e-05,0.006668580695986748
0.007398463319987059,0.008751468732953072,-0.012665784917771816,0.004548286087810993,-7.028032996458933e-05,0.006784469820559025
0.007559441030025482,0.009156792424619198,-0.012883737683296204,0.004852407146245241,-6.950497481739148e-05,0.006827638950198889
0.006988218519836664,0.00886460579931736,-0.012996085919439793,0.004903716035187244,-4.538178473012522e-06,0.0067598591558635235
0.007474109530448914,0.009070135653018951,-0.01273376401513815,0.004847649484872818,-2.9631061693180527e-07,0.006532076746225357
0.008263208903372288,0.008682633750140667,-0.012845407240092754,0.004810374695807695,-1.9346964919009224e-08,0.006452090572565794
0.007322000805288553,0.009075104258954525,-0.012767553329467773,0.004723982885479927,-1.2632186408012558e-09,0.006712029688060284
0.0071783061139285564,0.008905978873372078,-0.013102848082780838,0.004694385454058647,-8.247914851100546e-11,0.006631376687437296
0.007628626190125942,0.00916691031306982,-0.012577798217535019,0.005200055427849293,-5.385298977589326e-12,0.006500567309558392
0.007593448739498854,0.009586174041032791,-0.012874308042228222,0.00526387756690383,-3.516215367916492e-13,0.006555530708283186
0.007354268338531256,0.008844968862831593,-0.012715614400804043,0.0049652522429823875,-2.2958375719733977e-14,0.006574028637260199
0.007345257326960564,0.008971882052719593,-0.01314255315810442,0.004739442840218544,-1.4990179236784584e-15,0.0060053011402487755
0.007628193590790033,0.00922464020550251,-0.013210362754762173,0.004367124754935503,-9.787515998104684e-17,0.00602713692933321
0.007063060533255339,0.009290152229368687,-0.01298657339066267,0.004474549554288387,-6.390548431220313e-18,0.006716180592775345
0.007063060533255339,0.009290152229368687,-0.01298657339066267,0.004474549554288387,-6.390548431220313e-18,0.006716180592775345
0.006994300521910191,0.009416863322257996,-0.012354651466012001,0.004718691110610962,-2.724391402629568e-20,0.006423145066946745
0.006792196538299322,0.009412766434252262,-0.012964434921741486,0.004669669084250927,-1.7788329241464628e-21,0.006283702794462442
0.006792196538299322,0.009412766434252262,-0.012964434921741486,0.004669669084250927,-1.7788329241464628e-21,0.006283702794462442
0.0073065320029854774,0.009382843039929867,-0.012731269001960754,0.004550343845039606,-1.1614508917006964e-22,0.006533354055136442
0.00731292087584734,0.008613334968686104,-0.012947481125593185,0.004430723842233419,-7.583443733051706e-24,0.007222186308354139
0.006985548883676529,0.010065408423542976,-0.012338696047663689,0.004272509831935167,-4.951447188105251e-25,0.006845714990049601
0.007064393721520901,0.00897852424532175,-0.01246747188270092,0.004219461232423782,-3.232940884804652e-26,0.006861728150397539
0.007155777886509895,0.009103743359446526,-0.012462526559829712,0.004544668365269899,-1.3782537275843237e-28,0.0065116919577121735
0.006726650521159172,0.008822773583233356,-0.012693033553659916,0.0048851389437913895,-8.99901073249404e-30,0.006609918083995581
0.00665670121088624,0.008955196477472782,-0.012103800661861897,0.0057624527253210545,-5.875711333771646e-31,0.006663799751549959
0.007195814047008753,0.009260233491659164,-0.012862707488238811,0.005530823487788439,-3.836419476602833e-32,0.006520366761833429
0.006996556185185909,0.008940030820667744,-0.011811462230980396,0.005169060081243515,-2.504907748270253e-33,0.006788763217628002
0.006893023382872343,0.00882154144346714,-0.012315241619944572,0.005552010145038366,-1.6355256721377725e-34,0.006877811159938574
0.006880424451082945,0.009361016564071178,-0.01270818430930376,0.005463358014822006,-1.067881444677872e-35,0.006317224819213152
0.007386287208646536,0.008943473920226097,-0.012236556969583035,0.005321887321770191,-6.97250332290444e-37,0.006231809500604868
0.006999448873102665,0.008956118486821651,-0.01268730778247118,0.005022205412387848,-4.552546298169866e-38,0.0058606876991689205
0.007160501088947058,0.00858103297650814,-0.011938579380512238,0.0051980833522975445,-2.972487551867446e-39,0.006238795816898346
0.00670050922781229,0.009044136852025986,-0.012455444782972336,0.005459341686218977,-1.940826399059158e-40,0.006831968203186989
0.006666927598416805,0.009044169448316097,-0.012106762267649174,0.005356387700885534,-1.267194201288932e-41,0.006419464014470577
0.007214014418423176,0.008647539652884007,-0.012854276224970818,0.00537609588354826,-8.26766093951642e-43,0.00611703097820282
0.006893058307468891,0.009637253358960152,-0.012468121014535427,0.005049210507422686,-5.465064010866787e-44,0.006079656071960926
0.007004274986684322,0.008666378445923328,-0.012356401421129704,0.0048873838968575,-4.203895392974451e-45,0.006368760950863361
0.007070943713188171,0.00862822774797678,-0.012732158415019512,0.005087223369628191,-0.0,0.0061513502150774
0.007585952989757061,0.0091512780636549,-0.011981398798525333,0.005066640209406614,-0.0,0.006232903338968754
0.007594124414026737,0.008981550112366676,-0.012894900515675545,0.005276914220303297,-0.0,0.006301430054008961
0.007505346089601517,0.008863193914294243,-0.01190113089978695,0.005291113629937172,-0.0,0.005738022271543741
0.0074965208768844604,0.008280511014163494,-0.012295451946556568,0.0049112774431705475,-0.0,0.006339552812278271
0.007846591994166374,0.008871940895915031,-0.012622417882084846,0.0045877378433942795,-0.0,0.006053081713616848
0.00789828784763813,0.008638269267976284,-0.01197715662419796,0.004412596579641104,-0.0,0.006010086741298437
0.00789828784763813,0.008638269267976284,-0.01197715662419796,0.004412596579641104,-0.0,0.006010086741298437
0.00715166050940752,0.008071810938417912,-0.01257634162902832,0.004924482200294733,-0.0,0.006229978986084461
0.007277886848896742,0.008521392941474915,-0.012011951766908169,0.005004092585295439,-0.0,0.006216044072061777
0.007630697451531887,0.008493011817336082,-0.012839674018323421,0.005055016838014126,-0.0,0.006290338933467865
0.008116019889712334,0.008290900848805904,-0.012225349433720112,0.005202011205255985,-0.0,0.006383443716913462
0.00714415917173028,0.009240720421075821,-0.01249651238322258,0.00521812355145812,-0.0,0.005754896905273199
0.008056213147938251,0.008567693643271923,-0.012582466937601566,0.005094707477837801,-0.0,0.005808918736875057
0.007799901533871889,0.00815633311867714,-0.012975278310477734,0.004974036477506161,-0.0,0.006101866718381643
0.007802475709468126,0.00836196169257164,-0.01246256660670042,0.00517710205167532,-0.0,0.006226870696991682
0.007395835127681494,0.00837073102593422,-0.01316917035728693,0.005404014606028795,-0.0,0.006007090210914612
0.007500916253775358,0.008075534366071224,-0.012641837820410728,0.005536528304219246,-0.0,0.006058092229068279
0.007554787211120129,0.00809500552713871,-0.01292737852782011,0.005204626824706793,-0.0,0.005796343553811312
0.007734160404652357,0.007687842473387718,-0.012636465951800346,0.005062379874289036,-0.0,0.006083779968321323
0.007579783443361521,0.007053053006529808,-0.012949024327099323,0.0052008070051670074,-0.0,0.006266371812671423
0.00750246737152338,0.00719117047265172,-0.01304492074996233,0.005250174086540937,-0.0,0.00575922429561615
0.00827790331095457,0.007316283881664276,-0.012444654479622841,0.005540126468986273,-0.0,0.006296128500252962
0.007907462306320667,0.00830975640565157,-0.012968398630619049,0.005314326379448175,-0.0,0.006201958749443293
0.008328589610755444,0.0078025199472904205,-0.011928916908800602,0.0057138134725391865,-0.0,0.0060664452612400055
0.007869281806051731,0.007462236098945141,-0.012335318140685558,0.00587500212714076,-0.0,0.005958034656941891
0.008001971058547497,0.007470676209777594,-0.012052853591740131,0.006217482499778271,-0.0,0.005477033089846373
0.007852047681808472,0.00750319566577673,-0.012683337554335594,0.006052020937204361,-0.0,0.005754576064646244
0.007938933558762074,0.0072807734832167625,-0.01244430523365736,0.0052662743255496025,-0.0,0.005571027286350727
0.008187618106603622,0.007297118194401264,-0.012839985080063343,0.004790408071130514,-0.0,0.006239557173103094
0.008251288905739784,0.007910436950623989,-0.012574844993650913,0.004372101742774248,-0.0,0.005834544077515602
0.007940069772303104,0.007919017225503922,-0.011940972879529,0.004900109488517046,-0.0,0.005860878620296717
0.008077838458120823,0.007518730591982603,-0.012868138961493969,0.005387500859797001,-0.0,0.005594996735453606
0.008077838458120823,0.007518730591982603,-0.012868138961493969,0.005387500859797001,-0.0,0.005594996735453606
0.0077767507173120975,0.007436488755047321,-0.012316981330513954,0.005231623537838459,-0.0,0.005385853350162506
0.007681007497012615,0.0075652408413589,-0.013141845352947712,0.005003270693123341,-0.0,0.005582001060247421
0.008439578115940094,0.00730503536760807,-0.01220334880053997,0.004728550557047129,-0.0,0.005634467117488384
0.008439578115940094,0.00730503536760807,-0.01220334880053997,0.004728550557047129,-0.0,0.005634467117488384
0.008512676693499088,0.007629655301570892,-0.012737012468278408,0.005003537051379681,-0.0,0.005962166003882885
0.007788654416799545,0.007418484892696142,-0.01268410962074995,0.005100904498249292,-0.0,0.005921023897826672
0.00812974851578474,0.0072963726706802845,-0.012181706726551056,0.0050764987245202065,-0.0,0.005951671861112118
0.007874068804085255,0.007389714941382408,-0.012585547752678394,0.005322320852428675,-0.0,0.005629683379083872
0.007452588062733412,0.00748920813202858,-0.012155363336205482,0.005142764654010534,-0.0,0.005601187236607075
0.007793988101184368,0.007496809121221304,-0.012203019112348557,0.005203917622566223,-0.0,0.005306936334818602
0.008702862076461315,0.007290874607861042,-0.012323294766247272,0.005165698938071728,-0.0,0.0058219837956130505
0.008040224201977253,0.007284429855644703,-0.012030752375721931,0.0056373742409050465,-0.0,0.005667421966791153
0.008028139360249043,0.007729349657893181,-0.012629112228751183,0.005360674113035202,-0.0,0.0054090265184640884
0.008521944284439087,0.007550105452537537,-0.012119884602725506,0.00533073116093874,-0.0,0.005282887723296881
0.008303862065076828,0.007299862336367369,-0.0128824757412076,0.005640638992190361,-0.0,0.005063425749540329
0.008125951513648033,0.007310959510505199,-0.012482437305152416,0.005491869989782572,-0.0,0.005468794144690037
0.007843522354960442,0.008232531137764454,-0.0123569555580616,0.005612432956695557,-0.0,0.005449088290333748
0.00823668111115694,0.00837548915296793,-0.012585930526256561,0.005533907562494278,-0.0,0.005847952328622341
0.008772981353104115,0.007916167378425598,-0.012237315997481346,0.005452615208923817,-0.0,0.00539757963269949
0.007882549427449703,0.0077681634575128555,-0.012790030799806118,0.005459313280880451,-0.0,0.005388858262449503
0.008378404192626476,0.007859017699956894,-0.012671458534896374,0.005580310709774494,-0.0,0.005150092765688896
0.008353238925337791,0.007899409160017967,-0.01264337357133627,0.005467078648507595,-0.0,0.005308092106133699
0.008240621536970139,0.007513517048209906,-0.01241893321275711,0.005345556885004044,-0.0,0.0055023725144565105
0.00940883532166481,0.007432076148688793,-0.01227537076920271,0.0054217055439949036,-0.0,0.005416066385805607
0.008502471260726452,0.007970179431140423,-0.012409991584718227,0.005568457301706076,-0.0,0.005488658789545298
0.008139853365719318,0.007623262703418732,-0.011953146196901798,0.00559332687407732,-0.0,0.005243704654276371
0.008041305467486382,0.007334094028919935,-0.012852367013692856,0.00560747878625989,-0.0,0.004990573041141033
0.008744567632675171,0.0073613193817436695,-0.012126597575843334,0.005149997770786285,-0.0,0.005155153572559357
0.008650008589029312,0.008372598327696323,-0.01252275612205267,0.005311165004968643,-0.0,0.005610876716673374
0.008650008589029312,0.008372598327696323,-0.01252275612205267,0.005311165004968643,-0.0,0.005610876716673374
0.008192731998860836,0.007916607894003391,-0.012446132488548756,0.005715061444789171,-0.0,0.006001134868711233
0.008479839190840721,0.007602384313941002,-0.012234012596309185,0.005745128728449345,-0.0,0.00536456611007452
0.008311431854963303,0.008208482526242733,-0.011853490956127644,0.005510286428034306,-0.0,0.005116473417729139
0.00815603882074356,0.007710602134466171,-0.012305171228945255,0.005424766801297665,-0.0,0.005094563588500023
0.008447929285466671,0.007602103985846043,-0.012145956978201866,0.005555274430662394,-0.0,0.005581079050898552
0.008831365033984184,0.007807682268321514,-0.012697302736341953,0.005360541865229607,-0.0,0.005352681968361139
0.00838708970695734,0.008415035903453827,-0.011901569552719593,0.0050811185501515865,-0.0,0.005213987547904253
0.00821818970143795,0.007736974395811558,-0.012018730863928795,0.005598701070994139,-0.0,0.005084746051579714
0.008597984910011292,0.0074090780690312386,-0.012512491084635258,0.005424170754849911,-0.0,0.00503915548324585
0.008494660258293152,0.008232475258409977,-0.011787245981395245,0.005426177754998207,-0.0,0.00571279413998127
0.008057654835283756,0.008230202831327915,-0.012695351615548134,0.005128901917487383,-0.0,0.005300299730151892
0.008287976495921612,0.007790427189320326,-0.012064864858984947,0.005724806804209948,-0.0,0.004953313153237104
0.009109935723245144,0.007778993807733059,-0.012278327718377113,0.005542602855712175,-0.0,0.004841846879571676
0.008467684499919415,0.007935652509331703,-0.012924992479383945,0.005744082387536764,-0.0,0.0047762710601091385
0.008216861635446548,0.0077493516728281975,-0.012146462686359882,0.005299631506204605,-0.0,0.0047571188770234585
0.00856194831430912,0.0077066621743142605,-0.012372621335089207,0.005735463462769985,-0.0,0.0052040391601622105
0.00836140476167202,0.007699142675846815,-0.012075481005012989,0.005557127296924591,-0.0,0.005137947387993336
0.007996820844709873,0.008446385152637959,-0.01254039816558361,0.0058093504048883915,-0.0,0.0044967373833060265
0.008171265944838524,0.007906530983746052,-0.012950005009770393,0.005476238671690226,-0.0,0.004396775737404823
0.009162360802292824,0.00764281814917922,-0.01250265259295702,0.00569176534190774,-0.0,0.004981562029570341
0.008259891532361507,0.008355723693966866,-0.01245850883424282,0.005405147559940815,-0.0,0.004941981751471758
0.008569917641580105,0.007835803553462029,-0.012995411641895771,0.005643194075673819,-0.0,0.004630438983440399
0.008569917641580105,0.007835803553462029,-0.012995411641895771,0.005643194075673819,-0.0,0.004630438983440399
0.008626393973827362,0.007630420383065939,-0.012124637141823769,0.005617722403258085,-0.0,0.00483584962785244
0.00822584331035614,0.008123931474983692,-0.012789343483746052,0.005557254888117313,-0.0,0.004951386246830225
0.008768413215875626,0.008609097450971603,-0.012050519697368145,0.005409129895269871,-0.0,0.0046238466165959835
0.008715293370187283,0.007874708622694016,-0.012374596670269966,0.005187297705560923,-2.1392477265180787e-06,0.004334531258791685
0.008616243489086628,0.0081429248675704,-0.012919575907289982,0.005035870708525181,-1.3967759571187344e-07,0.004531054757535458
0.00914373155683279,0.008070954121649265,-0.012818148359656334,0.005302718840539455,-9.119949240243841e-09,0.005075771827250719
0.008620223961770535,0.007753276731818914,-0.01320868544280529,0.005489912815392017,-5.954675086350392e-10,0.00474252924323082
0.00868998933583498,0.007524140179157257,-0.012592318467795849,0.005436026956886053,-3.88797778694272e-11,0.004569525830447674
0.008180239237844944,0.007486990187317133,-0.012831948697566986,0.005382357630878687,-2.5385715664988373e-12,0.004885304719209671
0.008393361233174801,0.008042973466217518,-0.01236081961542368,0.0050037153996527195,-1.65750578410076e-13,0.0045741284266114235
0.00867436546832323,0.00782937090843916,-0.013023678213357925,0.005160854663699865,-1.0822328208831382e-14,0.004573646932840347
0.008473346941173077,0.008146259002387524,-0.01312948763370514,0.005581432022154331,-7.066206661648694e-16,0.004383933264762163
0.008579854853451252,0.007863231934607029,-0.01340845413506031,0.005217459052801132,-4.61372758320109e-17,0.004934933967888355
0.00828565564006567,0.008097623474895954,-0.013196197338402271,0.0052461219020187855,-3.0124344198065886e-18,0.005058596841990948
0.008653330616652966,0.007585001643747091,-0.013301827944815159,0.0051495167426764965,-1.9669043109758277e-19,0.0048827072605490685
0.008814318105578423,0.007766668684780598,-0.012972742319107056,0.005746927578002214,-1.2842478226310127e-20,0.004835762549191713
0.008271160535514355,0.007958176545798779,-0.01277613639831543,0.006098554935306311,-8.385220847200519e-22,0.004916659090667963
0.008553991094231606,0.008048745803534985,-0.013082154095172882,0.006089983507990837,-5.474950273167114e-23,0.004993636626750231
0.008362844586372375,0.008140906691551208,-0.01276189461350441,0.005609850399196148,-3.574751591001603e-24,0.0046948594972491264
0.008379551582038403,0.00788463931530714,-0.013408600352704525,0.0055031683295965195,-2.3340572409836745e-25,0.0044056205078959465
0.00837207492440939,0.008357981219887733,-0.01304883137345314,0.00514138163998723,-1.523972495330878e-26,0.004446246195584536
0.00837207492440939,0.008357981219887733,-0.01304883137345314,0.00514138163998723,-1.523972495330878e-26,0.004446246195584536
0.008751209825277328,0.007840489968657494,-0.013590105809271336,0.0054455348290503025,-9.950451872772761e-28,0.004696826916188002
0.007880667224526405,0.007750469725579023,-0.01292753778398037,0.0053103286772966385,-6.496934481808332e-29,0.004751490894705057
0.008665143512189388,0.008063576184213161,-0.012877200730144978,0.005473214667290449,-2.7697453985882857e-31,0.0044928486458957195
0.008665143512189388,0.008063576184213161,-0.012877200730144978,0.005473214667290449,-2.7697453985882857e-31,0.0044928486458957195
0.008575450628995895,0.007666036486625671,-0.012918123975396156,0.005816994234919548,-1.8084457492414777e-32,0.004482713527977467
0.008630183525383472,0.007345341611653566,-0.013297276571393013,0.005913310684263706,-1.1807858202754148e-33,0.004537643399089575
0.008803725242614746,0.008333560079336166,-0.013371102511882782,0.005908096209168434,-5.0338755499254195e-36,0.004668475594371557
0.00846901722252369,0.007925844751298428,-0.01279872003942728,0.005890655796974897,-3.2867607942011503e-37,0.004419018514454365
0.008534533903002739,0.0076776957139372826,-0.01320798322558403,0.006118391640484333,-2.1460200746185519e-38,0.00473345210775733
0.008371811360120773,0.007825087755918503,-0.012744195759296417,0.005825311876833439,-9.148797413883866e-41,0.004563941620290279
0.008371811360120773,0.007825087755918503,-0.012744195759296417,0.005825311876833439,-9.148797413883866e-41,0.004563941620290279
0.008408242836594582,0.0074223545379936695,-0.013941680081188679,0.005427541211247444,-5.973735353416695e-42,0.004119969438761473
0.008731259033083916,0.007314395159482956,-0.013680502772331238,0.005711842328310013,-3.8956097308229915e-43,0.003911709878593683
0.008504873141646385,0.00753270648419857,-0.013150899671018124,0.0054752519354224205,-2.5223372357846707e-44,0.004108847584575415
0.00816360954195261,0.007882026955485344,-0.012749972753226757,0.005738631822168827,-1.401298464324817e-45,0.004423818085342646
0.008728438057005405,0.007338428404182196,-0.012790883891284466,0.006050754338502884,-0.0,0.004624857567250729
0.008690781891345978,0.007288946770131588,-0.01228699553757906,0.006100430153310299,-0.0,0.004847883712500334
0.008353369310498238,0.008249822072684765,-0.013385575264692307,0.005548194050788879,-0.0,0.0043742419220507145
0.008687897585332394,0.007705385331064463,-0.012474149465560913,0.005120868794620037,-0.0,0.004229242913424969
0.008630583062767982,0.007453225553035736,-0.012752375565469265,0.005219470243901014,-0.0,0.004072590731084347
0.008651182055473328,0.007610704749822617,-0.012176433578133583,0.005624349694699049,-0.0,0.0038878032937645912
0.008581665344536304,0.007955740205943584,-0.012890839017927647,0.00574235524982214,-0.0,0.003798204241320491
0.008556026965379715,0.006955264136195183,-0.012745825573801994,0.005611162167042494,-0.0,0.003828752087429166
0.008556026965379715,0.006955264136195183,-0.012745825573801994,0.005611162167042494,-0.0,0.003828752087429166
0.008788974955677986,0.006896869745105505,-0.012789689935743809,0.00579758221283555,-0.0,0.004284082446247339
0.008491539396345615,0.006774201989173889,-0.013136372901499271,0.005840623751282692,-0.0,0.004102089907974005
0.00873500481247902,0.007185371592640877,-0.012434475123882294,0.00630041491240263,-0.0,0.003875694004818797
0.00892940629273653,0.007296707481145859,-0.012547686696052551,0.006321980617940426,-0.0,0.003781002014875412
0.008889592252671719,0.006827816367149353,-0.012053980492055416,0.006017888896167278,-0.0,0.003821377642452717
0.008755555376410484,0.006658061407506466,-0.012929965741932392,0.0055152177810668945,-0.0,0.003820163430646062
0.008523431606590748,0.007473479025065899,-0.013020630925893784,0.0053771426901221275,-0.0,0.0037811275105923414
0.008478357456624508,0.006721811834722757,-0.013120044954121113,0.006161096040159464,-0.0,0.004224613308906555
0.008805256336927414,0.0065004294738173485,-0.01302508357912302,0.006392790004611015,-0.0,0.0038016648031771183
0.008800869807600975,0.006733406335115433,-0.013119817711412907,0.00611847685649991,-0.0,0.003503975924104452
0.008636729791760445,0.007428239099681377,-0.012471971102058887,0.006101434584707022,-0.0,0.003616579109802842
0.009061038494110107,0.0070120226591825485,-0.013220436871051788,0.005821601953357458,-0.0,0.0038718003779649734
0.009338282980024815,0.00660308450460434,-0.01271771639585495,0.0057363067753612995,-0.0,0.003945827484130859
0.008867633529007435,0.006729243788868189,-0.01329787727445364,0.005441581830382347,-0.0,0.0036017317324876785
0.009044202975928783,0.006865127477794886,-0.012687246315181255,0.005334322806447744,-0.0,0.0033748813439160585
0.009290588088333607,0.006986828055232763,-0.013780119828879833,0.005353864282369614,-0.0,0.0034537487663328648
0.008820856921374798,0.006865811999887228,-0.012957419268786907,0.005958654917776585,-0.0,0.0036881223786622286
0.009521989151835442,0.006651067640632391,-0.01270877756178379,0.005268414504826069,-0.0,0.003766106441617012
0.009325924329459667,0.006545058451592922,-0.012883481569588184,0.005850818939507008,-0.0,0.003694819286465645
0.009627750143408775,0.006814764346927404,-0.012947699055075645,0.006372303236275911,-0.0,0.003455942729488015
0.008630447089672089,0.006903932895511389,-0.013325447216629982,0.005931831896305084,-0.0,0.0035412865690886974
0.009182869456708431,0.006671797018498182,-0.012465564534068108,0.006065524648874998,-0.0,0.0036625112406909466
0.009074331261217594,0.006457467097789049,-0.01328332256525755,0.0062275477685034275,-0.0,0.003388143377378583
0.008755626156926155,0.0071215503849089146,-0.012617088854312897,0.006020168773829937,-0.0,0.0031482786871492863
0.009139209054410458,0.007333890534937382,-0.012805014848709106,0.005674936808645725,-0.0,0.003342275507748127
0.009550274349749088,0.006611594930291176,-0.01250985823571682,0.0052787018939852715,-0.0,0.0036269130650907755
0.009093058295547962,0.006496015004813671,-0.013026229105889797,0.005610797554254532,-0.0,0.003508614841848612
0.009320395067334175,0.006820764858275652,-0.012635787948966026,0.0054749995470047,-0.0,0.0033835533540695906
0.009320395067334175,0.006820764858275652,-0.012635787948966026,0.0054749995470047,-0.0,0.0033835533540695906
0.009465638548135757,0.006954111624509096,-0.012218186631798744,0.005760794971138239,-0.0,0.003390283090993762
0.009624424390494823,0.00667622359469533,-0.012954027391970158,0.005461412016302347,-0.0,0.0034010717645287514
0.009190382435917854,0.006350219249725342,-0.012651583179831505,0.0057050734758377075,-0.0,0.003536123549565673
0.009526094421744347,0.0063341110944747925,-0.012721563689410686,0.0057892994955182076,-0.0,0.0033014791551977396
0.009507670998573303,0.007001169957220554,-0.012851601466536522,0.0062140366062521935,-0.0,0.0030788148287683725
0.009528680704534054,0.006510199513286352,-0.013317516073584557,0.006483746226876974,-0.0,0.0032368151005357504
0.009124677628278732,0.006800700910389423,-0.013081524521112442,0.006340985186398029,-0.0,0.0035661670845001936
0.009485771879553795,0.006920328829437494,-0.013343813829123974,0.006881645414978266,-0.0,0.003226031782105565
0.010104750283062458,0.006980166770517826,-0.012691943906247616,0.007169398944824934,-0.0,0.0030772543977946043
0.009945116005837917,0.006827363278716803,-0.013090203516185284,0.0067293052561581135,-0.0,0.002977041993290186
0.009363559074699879,0.006628285627812147,-0.012534437701106071,0.006279171910136938,-0.0,0.002852883655577898
0.009503861889243126,0.006533567328006029,-0.013244093395769596,0.0060240584425628185,-0.0,0.002657916396856308
0.009522652253508568,0.006741081830114126,-0.012643304653465748,0.00620630569756031,-0.0,0.002879972103983164
0.009262717328965664,0.0064574056304991245,-0.013383603654801846,0.005802474915981293,-0.0,0.0031039840541779995
0.010018687695264816,0.0062942481599748135,-0.013315959833562374,0.005844702012836933,-0.0,0.0034027276560664177
0.00990313570946455,0.006410080473870039,-0.013392373919487,0.005889715626835823,-0.0,0.0034072555135935545
0.01010949444025755,0.006663787644356489,-0.012969066388905048,0.006224137730896473,-0.0,0.0030698287300765514
0.00947488658130169,0.0066497656516730785,-0.012875125743448734,0.006375169847160578,-0.0,0.002973968395963311
0.00957648828625679,0.006617222912609577,-0.013272562064230442,0.006403965409845114,-0.0,0.0027227471582591534
0.009712734259665012,0.006193595472723246,-0.012860988266766071,0.006122918333858252,-0.0,0.0024206028319895267
0.010041465982794762,0.0065570068545639515,-0.014197240583598614,0.006334558594971895,-0.0,0.0024687531404197216
0.00938293058425188,0.007156149949878454,-0.013415154069662094,0.006210348568856716,-1.7039014892361593e-06,0.002675404539331794
0.009418356232345104,0.006539270281791687,-0.013348770327866077,0.006555104162544012,-1.1125259646860286e-07,0.0024807616136968136
0.009418356232345104,0.006539270281791687,-0.013348770327866077,0.006555104162544012,-1.1125259646860286e-07,0.0024807616136968136
0.010323744267225266,0.006255795247852802,-0.013040877878665924,0.006667612586170435,-7.263999624029793e-09,0.002464395947754383
0.009205683134496212,0.006249437108635902,-0.013615874573588371,0.006790132727473974,-4.742872761198669e-10,0.0022473365534096956
0.011296178214251995,0.006805818993598223,-0.013117345049977303,0.006152206566184759,-3.096757225651281e-11,0.0022229496389627457
0.01136078592389822,0.00668693333864212,-0.01373295858502388,0.006238497328013182,-2.0219611575333918e-12,0.002473714528605342
0.01021280512213707,0.006643020082265139,-0.01345851831138134,0.006775895599275827,-1.3201962580870058e-13,0.0025001049507409334
0.01067403145134449,0.0067984480410814285,-0.013739997521042824,0.006497339345514774,-8.619938360917689e-15,0.0024473280645906925
0.01087616104632616,0.007517633493989706,-0.013677299953997135,0.006262688431888819,-5.628203591655397e-16,0.002500708680599928
0.01065783016383648,0.006535157561302185,-0.013197948224842548,0.006663309410214424,-2.3993912223039916e-18,0.002652628580108285
0.010666762478649616,0.006275605875998735,-0.012852823361754417,0.007196534890681505,-1.566630966326564e-19,0.002775100991129875
0.010495557449758053,0.0065380907617509365,-0.013704088516533375,0.0069390251301229,-1.0228980886109663e-20,0.0024536624550819397
0.01068573072552681,0.00716773234307766,-0.013406741432845592,0.006414204370230436,-0.0001771747920429334,0.0022497051395475864
0.010674100369215012,0.0067230830900371075,-0.013620092533528805,0.006561016198247671,-0.0002977877447847277,0.0018611308187246323
0.011154255829751492,0.006176328286528587,-0.013265668414533138,0.0072268894873559475,-0.00028742419090121984,0.0017958920216187835
0.011292025446891785,0.006433302070945501,-0.013567784801125526,0.007344059646129608,-0.00027069461066275835,0.0016636273358017206
0.010694009251892567,0.0067915599793195724,-0.012975471094250679,0.007183562498539686,-0.00025536303292028606,0.0018468041671440005
0.01079257670789957,0.006599303334951401,-0.01361877378076315,0.007400155067443848,-0.0002416474890196696,0.002399036893621087
0.010667053051292896,0.006288755219429731,-0.013329087756574154,0.007462960667908192,-0.00027203813078813255,0.0026339953765273094
0.010684816166758537,0.006105742417275906,-0.013864670880138874,0.0073411534540355206,-0.0002616403508000076,0.0027370972093194723
0.011085500940680504,0.0059542409144341946,-0.013347161933779716,0.0070259771309792995,-0.0002497191308066249,0.002377311233431101
0.010971198789775372,0.006447529885917902,-0.01329995971173048,0.007145453244447708,-0.00023869075812399387,0.0021888422779738903
0.011217924766242504,0.006980259437114,-0.013346192426979542,0.007545221596956253,-0.00022858526790514588,0.001986308488994837
0.011153615079820156,0.006350880954414606,-0.01339167170226574,0.007402907591313124,-0.0002463164855726063,0.0019273610087111592
0.010783903300762177,0.0058306739665567875,-0.013327976688742638,0.007082019932568073,-0.0002452405751682818,0.0020516058430075645
0.01111944392323494,0.006211761850863695,-0.012743000872433186,0.006776911672204733,-0.00023658703139517456,0.0020413303282111883
0.01111944392323494,0.006211761850863695,-0.012743000872433186,0.006776911672204733,-0.00023658703139517456,0.0020413303282111883
0.010619217529892921,0.006702993996441364,-0.01320932898670435,0.006647630129009485,-0.00022805757180321962,0.0023049484007060528
0.010731713846325874,0.0065222387202084064,-0.012830901890993118,0.006639860570430756,-0.00022009207168594003,0.0022336128167808056
0.011331631802022457,0.006088503636419773,-0.013678541406989098,0.006586253177374601,-0.00021266179101075977,0.0019237062660977244
0.011064496822655201,0.006189651787281036,-0.01314885076135397,0.006404106970876455,-0.00020571665663737804,0.0016732565127313137
0.010987568646669388,0.006640140898525715,-0.012872072868049145,0.006898185238242149,-0.00019310419156681746,0.0011802733642980456
0.010650877840816975,0.00674328813329339,-0.013107068836688995,0.0070747206918895245,-0.00021232535073067993,0.0010276035172864795
0.011070327833294868,0.006017027888447046,-0.012832707725465298,0.006826047785580158,-0.00020782442879863083,0.0011373929446563125
0.011038859374821186,0.005950389429926872,-0.013461700640618801,0.006989642977714539,-0.00020209711510688066,0.0017737019807100296
0.010459056124091148,0.006519895512610674,-0.013533277437090874,0.007288813591003418,-0.0001965855626622215,0.0021219165064394474
0.010858658701181412,0.006782279349863529,-0.01314797718077898,0.007296121213585138,-0.00019136126502417028,0.0024628436658531427
0.010702822357416153,0.006372607778757811,-0.01354877557605505,0.007086273282766342,-0.00018640627968125045,0.0020402336958795786
0.011172258295118809,0.006112690083682537,-0.012935801409184933,0.00720515800639987,-0.00018170212570112199,0.0014530272455886006
0.01150138396769762,0.0062313624657690525,-0.013524412177503109,0.007440587040036917,-0.00016688376490492374,0.0012832263018935919
0.011037692427635193,0.00617913156747818,-0.012737692333757877,0.007514278404414654,-0.00015974325651768595,0.001181779196485877
0.012094276025891304,0.006375976838171482,-0.013302328996360302,0.007013789378106594,-0.0001541897072456777,0.0011337753385305405
0.011259140446782112,0.006147021893411875,-0.012983384542167187,0.00733904866501689,-0.00014907591685187072,0.0009293133043684065
0.011221910826861858,0.006074394099414349,-0.013583758845925331,0.006936429068446159,-0.000144294579513371,0.0010085466783493757
0.011615130119025707,0.006219550967216492,-0.013271830976009369,0.00703480513766408,-0.00013981122174300253,0.0010331235826015472
0.01101626455783844,0.006752218119800091,-0.013207091018557549,0.0068444437347352505,-0.00014890411694068462,0.0017778548644855618
0.011386066675186157,0.006611901335418224,-0.01319965161383152,0.006918296217918396,-0.00015705550322309136,0.0017062368569895625
0.011449620127677917,0.006334275472909212,-0.01294454000890255,0.0075683193281292915,-0.0001534090843051672,0.0017065814463421702
0.011372558772563934,0.006302816327661276,-0.013139375485479832,0.00796324573457241,-0.00014922284753993154,0.0015502345049753785
0.012129575945436954,0.0067024147137999535,-0.012960698455572128,0.00758341746404767,-0.00014521394041366875,0.0014212147798389196
0.011338083073496819,0.00688323937356472,-0.013196475803852081,0.007118018344044685,-0.0001414105499861762,0.0011519906111061573
0.011338083073496819,0.00688323937356472,-0.013196475803852081,0.007118018344044685,-0.0001414105499861762,0.0011519906111061573
0.01151944138109684,0.006238879635930061,-0.013109398074448109,0.006905318703502417,-0.00013780157314613461,0.0010462263599038124
0.011700606904923916,0.006362000945955515,-0.013469533063471317,0.006830180529505014,-0.0001538199867354706,0.0009083141339942813
0.011963960714638233,0.00595573615282774,-0.01277890894562006,0.006683762650936842,-0.00015276888734661043,0.0008993175579234958
0.012056488543748856,0.006120165344327688,-0.01281695906072855,0.006567325908690691,-0.00014932293561287224,0.0007937719346955419
0.011296828277409077,0.006730761379003525,-0.012565622106194496,0.006816159933805466,-0.00014587653276976198,0.0007787286303937435
0.012046338059008121,0.006355741061270237,-0.013165461830794811,0.008039727807044983,-0.00014257594011723995,0.0007229881593957543
0.012133579701185226,0.006216342095285654,-0.013269944116473198,0.007936004549264908,-0.0001541913952678442,0.0006163085345178843
0.011969620361924171,0.006808133330196142,-0.01321130245923996,0.007171620149165392,-0.00015256222104653716,0.0007126787677407265
0.011762966401875019,0.0068198759108781815,-0.01295919343829155,0.007642846088856459,-0.000149416271597147,0.0009357902454212308
0.012525866739451885,0.00621456652879715,-0.012980320490896702,0.007977422326803207,-0.00014638016000390053,0.0012200602795928717
0.012235552072525024,0.006306319963186979,-0.012566328048706055,0.007611888460814953,-0.0001437855389667675,0.0011942159617319703
0.012446382082998753,0.00662293191999197,-0.013628886081278324,0.007873816415667534,-0.00018016414833255112,0.0010868425015360117
0.012378538027405739,0.006538761779665947,-0.013095980510115623,0.007804643828421831,-0.00017587558249942958,0.001046484219841659
0.012985470704734325,0.0064505161717534065,-0.013422555290162563,0.007136165630072355,-0.00016943295486271381,0.0009916338603943586
0.012729261070489883,0.006682883016765118,-0.013322238810360432,0.006733762100338936,-0.00016329663048963994,0.0008699957397766411
0.012799063697457314,0.006663001608103514,-0.013554533012211323,0.006782257929444313,-0.00017302209744229913,0.0008582958253100514
0.013186088763177395,0.006379029713571072,-0.013623957522213459,0.00749247008934617,-0.0001816465228330344,0.0007680568960495293
0.01252010464668274,0.0063934121280908585,-0.01359180174767971,0.00786049384623766,-0.0001766479545040056,0.0006853112136013806
0.012558797374367714,0.006616086233407259,-0.013398018665611744,0.007477861829102039,-0.00017111147462856025,0.0006826003664173186
0.01243879459798336,0.006632477510720491,-0.012774631381034851,0.007227519992738962,-0.00017941957048606128,0.0006416078540496528
0.013024971820414066,0.006464989390224218,-0.013243707828223705,0.0076354872435331345,-0.00018681614892557263,0.0005902620032429695
0.012955783866345882,0.0068382141180336475,-0.0114869624376297,0.008078765124082565,-0.00018224326777271926,0.0005455848877318203
0.012845193035900593,0.006306407507508993,-0.014241740107536316,0.00792371854186058,-0.00017717199807520956,0.0005071316845715046
0.013168837875127792,0.006472256034612656,-0.013383897952735424,0.00792251992970705,-0.00019529440032783896,0.00047374272253364325
0.013038357719779015,0.006402017083019018,-0.01334389578551054,0.008287119679152966,-0.00019159552175551653,0.00044448356493376195
0.013188579119741917,0.006455291993916035,-0.012791828252375126,0.008647679351270199,-0.00018672419537324458,0.00041862568468786776
0.012878873385488987,0.00676151504740119,-0.01402040384709835,0.007915527559816837,-0.00022989172430243343,0.00039561468292959034
0.013703678734600544,0.0063337404280900955,-0.013556757010519505,0.008112117648124695,-0.00026185595197603106,0.0003750026226043701
0.013161001726984978,0.005975156556814909,-0.013948220759630203,0.008374192751944065,-0.0002502578718122095,0.0003564309736248106
0.013161001726984978,0.005975156556814909,-0.013948220759630203,0.008374192751944065,-0.0002502578718122095,0.0003564309736248106
0.013285827822983265,0.006301338784396648,-0.013936885632574558,0.0079724732786417,-0.00026039680233225226,0.0003396151296328753
0.013062569312751293,0.007155084982514381,-0.013523922301828861,0.008159532211720943,-0.0002688673557713628,0.0003243133833166212
0.01378302089869976,0.006329392082989216,-0.013602301478385925,0.008948979899287224,-0.0002574487298261374,0.0003103318449575454
0.013592319563031197,0.0058915577828884125,-0.013966810889542103,0.008559482172131538,-0.0002458174421917647,0.00029750593239441514
0.013727025128901005,0.0060201967135071754,-0.013721882365643978,0.008251849561929703,-0.00026218927814625204,0.00027479350683279335
0.013456027954816818,0.0064142439514398575,-0.014009714126586914,0.008314147591590881,-0.00025228384765796363,0.00026468958822079003
0.013489266857504845,0.0061376034282147884,-0.013709858991205692,0.008112994953989983,-0.0002426064311293885,0.00025530214770697057
0.013591701164841652,0.005926876794546843,-0.013780989684164524,0.007712485734373331,-0.00024995586136355996,0.00024655935703776777
0.013827662914991379,0.005948199890553951,-0.01384121272712946,0.008102940395474434,-0.000256324972724542,0.00023839430650696158
0.01413059514015913,0.006433485541492701,-0.013993391767144203,0.007750890217721462,-0.00024847686290740967,0.00023075345961842686
0.013945787213742733,0.00637044059112668,-0.01307781133800745,0.0074352240189909935,-0.00024024977756198496,0.00022358697606250644
0.013467629440128803,0.006350871175527573,-0.014213421382009983,0.007461967878043652,-0.0002792544546537101,0.00021685243700630963
0.01397790014743805,0.00571769243106246,-0.01362696848809719,0.008004376664757729,-0.00027761791716329753,0.0002105115563608706
0.013640875928103924,0.005779862869530916,-0.013849184848368168,0.007847791537642479,-0.0002624414919409901,0.00020453108299989253
0.014323721639811993,0.006539625581353903,-0.01353810727596283,0.0075607942417263985,-0.00027221659547649324,0.00019888125825673342
0.013833647593855858,0.006241775583475828,-0.014310403726994991,0.007529779803007841,-0.00028043505153618753,0.00019353524839971215
0.014380887150764465,0.005836167372763157,-0.013215970247983932,0.007688008248806,-0.0002679774188436568,0.0001768971123965457
0.013733585365116596,0.005541031248867512,-0.013919645920395851,0.00798540934920311,-0.00025539565831422806,0.00016148602298926562
0.014400019310414791,0.0057419780641794205,-0.013389835134148598,0.00786483846604824,-0.0002438650990370661,0.00015675692702643573
0.014007681980729103,0.006503380369395018,-0.013646003790199757,0.00798958819359541,-0.0002333259180886671,0.00015290555893443525
0.014597415924072266,0.006054568570107222,-0.01342948991805315,0.007786387111991644,-0.00025596708292141557,0.0001492796145612374
0.01416079606860876,0.005909325089305639,-0.01426456868648529,0.008043802343308926,-0.00025023246416822076,5.860012606717646e-05
0.014444964937865734,0.005649189464747906,-0.013881192542612553,0.0077454159036278725,-0.00024095055414363742,2.8707474484690465e-05
0.014063961803913116,0.005737655330449343,-0.01395762525498867,0.008136196061968803,-0.00023209193022921681,2.2019623429514468e-05
0.014438018202781677,0.006056816317141056,-0.013553068973124027,0.008363420143723488,-0.00024750412558205426,2.800192987706396e-06
0.014438018202781677,0.006056816317141056,-0.013553068973124027,0.008363420143723488,-0.00024750412558205426,2.800192987706396e-06
0.014534782618284225,0.006036661099642515,-0.01391114667057991,0.008361522108316422,-0.000238812091993168,1.193766152596254e-08
0.014218788594007492,0.006062520667910576,-0.013437572866678238,0.00822692271322012,-0.0002311757707502693,7.794440648467571e-10
0.014379813335835934,0.005866416729986668,-0.014249736443161964,0.008473837748169899,-0.00024835424846969545,5.0892127317903046e-11
0.014379813335835934,0.005866416729986668,-0.014249736443161964,0.008473837748169899,-0.00024835424846969545,5.0892127317903046e-11
0.013969501480460167,0.006402121856808662,-0.014080405235290527,0.008307727985084057,-0.0002433787303743884,3.322892091692231e-12
0.014449547044932842,0.006399304606020451,-0.014131730422377586,0.008434969000518322,-0.00023141321435105056,2.1696109264637137e-13
0.014335035346448421,0.0059456974267959595,-0.01357561256736517,0.00867233145982027,-0.00022012533736415207,-0.0008884727139957249
0.014445330016314983,0.006207435391843319,-0.014013003557920456,0.008695133961737156,-0.00020985947048757225,-0.001051578321494162
0.014943939633667469,0.006225337274372578,-0.013990001752972603,0.008947376161813736,-0.00023016317572910339,-0.0008990993374027312
0.014200229197740555,0.006408077664673328,-0.013681738637387753,0.009112684056162834,-0.00022090479615144432,-0.0007871154812164605
0.014794738963246346,0.005638564936816692,-0.014059502631425858,0.008596778847277164,-0.00024520003353245556,-0.0006995935109443963
0.014467954635620117,0.005694626364856958,-0.013523656874895096,0.008609811775386333,-0.0002380824735155329,-0.0007129795267246664
0.014886879362165928,0.006420034449547529,-0.01396864838898182,0.008717038668692112,-0.00022954741143621504,-0.0006649753195233643
0.014377893880009651,0.006335018668323755,-0.013626734726130962,0.00824185274541378,-0.0002214852866018191,-0.0007259947014972568
0.015000992454588413,0.006394036114215851,-0.014110052026808262,0.008547374978661537,-0.00024047728220466524,-0.0011807273840531707
0.014436469413340092,0.0064028846099972725,-0.013702507130801678,0.008959119208157063,-0.00023623162996955216,-0.0015920429723337293
0.014951284974813461,0.00584931205958128,-0.014418949373066425,0.008657208643853664,-0.00026940234238281846,-0.0015222607180476189
0.014734539203345776,0.006436928641051054,-0.013868986628949642,0.008108616806566715,-0.0002906311710830778,-0.0012978672748431563
0.01506899856030941,0.0068209487944841385,-0.014027334749698639,0.008310766890645027,-0.00031595551990903914,-0.0010907542891800404
0.014679467305541039,0.006244857329875231,-0.013487858697772026,0.008456356823444366,-0.0003106229705736041,-0.0010104711400344968
0.015024177730083466,0.006128107197582722,-0.014420724473893642,0.008661546744406223,-0.00029451726004481316,-0.0010088257258757949
0.014837902039289474,0.005651414860039949,-0.013905279338359833,0.008618800900876522,-0.0003196319448761642,-0.0010992991738021374
0.015267778187990189,0.006088993512094021,-0.01408184040337801,0.008727743290364742,-0.0003094497660640627,-0.0014047337463125587
0.014555931091308594,0.006410190835595131,-0.013718990609049797,0.008526407182216644,-0.0002953028306365013,-0.0023761733900755644
0.01507827453315258,0.006058033090084791,-0.014356634579598904,0.008455670438706875,-0.0002820991212502122,-0.002282509347423911
0.015194255858659744,0.006114904303103685,-0.014156194403767586,0.008922284469008446,-0.0002700081095099449,-0.0023369090631604195
0.015006299130618572,0.0061261896044015884,-0.013792157173156738,0.008855988271534443,-0.00028624673723243177,-0.002020699204877019
0.015006299130618572,0.0061261896044015884,-0.013792157173156738,0.008855988271534443,-0.00028624673723243177,-0.002020699204877019
0.015884578227996826,0.006018014624714851,-0.013711072504520416,0.008554188534617424,-0.00028358414419926703,-0.0017539652762934566
0.015141370706260204,0.006665784399956465,-0.014058909378945827,0.008768453262746334,-0.0002733778383117169,-0.0015714741311967373
0.015177134424448013,0.006213505752384663,-0.014361175708472729,0.008952380158007145,-0.00026341236662119627,-0.0016665994189679623
0.015258423052728176,0.005887877661734819,-0.014418640173971653,0.008394922129809856,-0.0002541157591622323,-0.0018067829078063369
0.015032283961772919,0.006141607649624348,-0.014413502998650074,0.008723804727196693,-0.000245452334638685,-0.002444782992824912
0.013590503484010696,0.006092277355492115,-0.014019378460943699,0.009382687509059906,-0.00023735927243251354,-0.002368121175095439
0.015510770492255688,0.006533140782266855,-0.01439576130360365,0.008745991624891758,-0.00022978344350121915,-0.002442459110170603
0.015807634219527245,0.006573069375008345,-0.014259912073612213,0.008631996810436249,-0.00022267609892878681,-0.002234382089227438
0.014998093247413635,0.005942181684076786,-0.014131046831607819,0.008870691061019897,-0.00022284022998064756,-0.0024469520431011915
0.01532887015491724,0.0064384895376861095,-0.01452762819826603,0.009604398161172867,-0.0002128917840309441,-0.0024846557062119246
0.015433103777468204,0.0067101032473146915,-0.014629487879574299,0.009546858258545399,-0.00020330930419731885,-0.0025045552756637335
0.015857025980949402,0.006224163807928562,-0.014867541380226612,0.009345256723463535,-0.0002307708200532943,-0.002505258657038212
0.015387092716991901,0.006221019197255373,-0.015243534930050373,0.009215188212692738,-0.00022357825946528465,-0.0025998451747000217
0.015919994562864304,0.0059167505241930485,-0.014644063077867031,0.009313513524830341,-0.0002148365747416392,-0.0029597333632409573
0.016031241044402122,0.006363158579915762,-0.01502359751611948,0.009697815403342247,-0.00023648241767659783,-0.003007973078638315
0.015869902446866035,0.0064924610778689384,-0.01511684712022543,0.009242212399840355,-0.00023187827900983393,-0.003395869629457593
0.015865731984376907,0.006332592573016882,-0.015402423217892647,0.009241076186299324,-0.00022390441154129803,-0.003539116121828556
0.014962293207645416,0.006025394424796104,-0.014956620521843433,0.008969118818640709,-0.00021623617794830352,-0.0035124991554766893
0.015524492599070072,0.006222121883183718,-0.01532072201371193,0.008742650970816612,-0.00022370246006175876,-0.0031892815604805946
0.015359892509877682,0.006586823612451553,-0.014995448291301727,0.008776196278631687,-0.0002302575740031898,-0.0029157563112676144
0.016027171164751053,0.006318858824670315,-0.015629250556230545,0.00888803880661726,-0.0002239897585241124,-0.0027633002027869225
0.01608438231050968,0.006107320077717304,-0.014529621228575706,0.009404856711626053,-0.0002172881067963317,-0.0028539092745631933
0.016253527253866196,0.005681819282472134,-0.015115530230104923,0.009031821973621845,-0.0002109255437972024,-0.0031216798815876245
0.015936248004436493,0.005864729173481464,-0.014534485526382923,0.009664834477007389,-0.00025959601043723524,-0.003718089312314987
0.01598435826599598,0.006500394083559513,-0.015587542206048965,0.009053896181285381,-0.0002624734479468316,-0.0039263456128537655
0.016091134399175644,0.006019144784659147,-0.015220826491713524,0.008612288162112236,-0.0002491185732651502,-0.003622773801907897
0.01583675481379032,0.005839960183948278,-0.015568223781883717,0.009222622029483318,-0.0002361193037359044,-0.0035564664285629988
0.016285216435790062,0.005954670254141092,-0.015046332031488419,0.010025162249803543,-0.00026319694006815553,-0.003669695695862174
0.016183584928512573,0.005923010408878326,-0.015361820347607136,0.009198317304253578,-0.00025603827089071274,-0.0038237618282437325
0.01703943870961666,0.0063497512601315975,-0.015196810476481915,0.00943474005907774,-0.0002447767765261233,-0.0037452157121151686
0.01703943870961666,0.0063497512601315975,-0.015196810476481915,0.00943474005907774,-0.0002447767765261233,-0.0037452157121151686
0.016810661181807518,0.006056917831301689,-0.015610521659255028,0.009560873731970787,-0.00023418258933816105,-0.004086611792445183
0.016715174540877342,0.005724514834582806,-0.015413707122206688,0.009021807461977005,-0.00022444722708314657,-0.004104930907487869
0.016683977097272873,0.00621923478320241,-0.015345936641097069,0.008970445021986961,-0.00024896152899600565,-0.004198035225272179
0.01666908897459507,0.005725942552089691,-0.015555809251964092,0.00922780204564333,-0.0002415954804746434,-0.004002109635621309
0.017092816531658173,0.006112509407103062,-0.015569200739264488,0.009335367940366268,-0.0002245200303150341,-0.004179877694696188
0.017025176435709,0.005795563571155071,-0.014952938072383404,0.00967296864837408,-0.00024365828721784055,-0.003928038291633129
0.01735379360616207,0.005614914000034332,-0.015605983324348927,0.009067874401807785,-0.00023925308778416365,-0.004333916120231152
0.017004799097776413,0.005575952585786581,-0.015189643949270248,0.008735097013413906,-0.00023179130221251398,-0.004204669501632452
0.017419487237930298,0.0062176259234547615,-0.015430653467774391,0.009524933993816376,-0.00022457657905761153,-0.004044331610202789
0.016971776261925697,0.005860935430973768,-0.014889907091856003,0.009905573911964893,-0.00024708901764824986,-0.0049306475557386875
0.01745271496474743,0.005770527292042971,-0.015618756413459778,0.009338333271443844,-0.00024365048739127815,-0.00491728913038969
0.017251133918762207,0.006102072075009346,-0.014716602861881256,0.009606853127479553,-0.0002317490434506908,-0.004635985940694809
0.0174575038254261,0.005644586868584156,-0.015633599832654,0.009642609395086765,-0.00026149582117795944,-0.004130108747631311
0.017826668918132782,0.006005228031426668,-0.01562122069299221,0.009368621744215488,-0.00025197237846441567,-0.004265923518687487
0.017232321202754974,0.005928306840360165,-0.015433037653565407,0.009570020250976086,-0.0002705618680920452,-0.0045594400726258755
0.017699487507343292,0.005948992446064949,-0.014911385253071785,0.0095590278506279,-0.00026837707264348865,-0.004763099364936352
0.017731523141264915,0.005642344243824482,-0.015407762490212917,0.00947490893304348,-0.00028524038498289883,-0.004794962704181671
0.017752163112163544,0.0059485118836164474,-0.01570512354373932,0.010515102185308933,-0.00028266600565984845,-0.004788404330611229
0.018442906439304352,0.006285894196480513,-0.015253178775310516,0.009649628773331642,-0.0002725300146266818,-0.004726699087768793
0.017779162153601646,0.00617079995572567,-0.015448284335434437,0.009392967447638512,-0.00040752222412265837,-0.004817511886358261
0.01782151497900486,0.005939452443271875,-0.015472414903342724,0.00995580479502678,-0.0003930801758542657,-0.004787159617990255
0.01829332485795021,0.005772051867097616,-0.016048291698098183,0.01011158712208271,-0.0004301774315536022,-0.00472361221909523
0.018296552821993828,0.0058105215430259705,-0.015242846682667732,0.00932979118078947,-0.0004351360257714987,-0.00513836182653904
0.018524620682001114,0.00600198470056057,-0.015669245272874832,0.010485950857400894,-0.0004351329989731312,-0.005295405164361
0.018353266641497612,0.00510015245527029,-0.014884545467793941,0.010429847054183483,-0.00046319831744767725,-0.005068785976618528
0.01801292784512043,0.0043069105595350266,-0.015521415509283543,0.009683115407824516,-0.00044012596481479704,-0.005127766169607639
0.01801292784512043,0.0043069105595350266,-0.015521415509283543,0.009683115407824516,-0.00044012596481479704,-0.005127766169607639
0.018822601065039635,0.004266961477696896,-0.015533770434558392,0.00998101569712162,-0.0005675909924320877,-0.005061248783022165
0.01843833737075329,0.004917738027870655,-0.015584353357553482,0.010464823804795742,-0.0006032362580299377,-0.0051996600814163685
0.01820255070924759,0.005245324224233627,-0.015312793664634228,0.009745919145643711,-0.0005985593306832016,-0.0054683261550962925
0.018819326534867287,0.004733283072710037,-0.015497878193855286,0.010093849152326584,-0.0006244020187295973,-0.00546999741345644
0.018802320584654808,0.004990670830011368,-0.015583680011332035,0.010537903755903244,-0.0006107044755481184,-0.005321862641721964
0.017880015075206757,0.004946529399603605,-0.015446892008185387,0.010342285968363285,-0.0007068374543450773,-0.005425558891147375
0.019014710560441017,0.004769233986735344,-0.015439193695783615,0.01026830542832613,-0.0007419776520691812,-0.0051763481460511684
0.01904227025806904,0.004961103666573763,-0.015708204358816147,0.009268660098314285,-0.0007083777454681695,-0.005896721966564655
0.019452186301350594,0.004997697658836842,-0.01500756200402975,0.00999125000089407,-0.0007064390229061246,-0.005672995466738939
0.01931162364780903,0.004774460569024086,-0.015462620183825493,0.010261346586048603,-0.0006621704087592661,-0.0062204161658883095
0.019136883318424225,0.0047476086765527725,-0.01523128803819418,0.009604387916624546,-0.000686109357047826,-0.006151961628347635
0.018649419769644737,0.00478747021406889,-0.015762321650981903,0.010281938128173351,-0.0007124769035726786,-0.005920712370425463
0.018400976434350014,0.00497047184035182,-0.015221692621707916,0.010001755319535732,-0.0006426147883757949,-0.005345802288502455
0.019336698576807976,0.004793000407516956,-0.01565772294998169,0.010677134618163109,-0.0006639027269557118,-0.005704061593860388
0.019974349066615105,0.004655736964195967,-0.015578106045722961,0.010216385126113892,-0.0006862073205411434,-0.005915496498346329
0.019496511667966843,0.004756091628223658,-0.01607488840818405,0.010802989825606346,-0.0007062325603328645,-0.006067854352295399
0.019179174676537514,0.004926714114844799,-0.016292013227939606,0.01132164616137743,-0.0007738677668385208,-0.0064474474638700485
0.019907472655177116,0.004635090474039316,-0.015568873845040798,0.01056494377553463,-0.0007931363652460277,-0.0059876833111047745
0.019885700196027756,0.004899069666862488,-0.0161219984292984,0.010393314994871616,-0.0007797243306413293,-0.006173723842948675
0.019774241372942924,0.004849010147154331,-0.015660585835576057,0.011076965369284153,-0.0007509025745093822,-0.0065782093442976475
0.019683800637722015,0.004862703382968903,-0.01581449992954731,0.010865600779652596,-0.0008638759609311819,-0.006624904461205006
0.01967509463429451,0.004840115085244179,-0.015380840748548508,0.010270618833601475,-0.0007388103404082358,-0.006325897760689259
0.01971563696861267,0.0050538587383925915,-0.016108497977256775,0.010733744129538536,-0.0007439865148626268,-0.006450804881751537
0.01979745924472809,0.005017711315304041,-0.01627461239695549,0.01030569989234209,-0.0006666776607744396,-0.006743317935615778
0.019742276519536972,0.004826607648283243,-0.01585315726697445,0.01068754680454731,-0.00059414969291538,-0.006344608962535858
0.019891541451215744,0.0052674938924610615,-0.016127629205584526,0.010874563828110695,-0.000535228755325079,-0.00613144738599658
0.019891541451215744,0.0052674938924610615,-0.016127629205584526,0.010874563828110695,-0.000535228755325079,-0.00613144738599658
0.02049945667386055,0.005037674214690924,-0.016340285539627075,0.01055930182337761,-0.0005260876496322453,-0.006399536971002817
0.02029680460691452,0.00513791898265481,-0.016409965232014656,0.01026918739080429,-0.0005182883469387889,-0.006707867607474327
0.020004862919449806,0.00522055895999074,-0.015611507929861546,0.010598164051771164,-0.00048101760330609977,-0.006551325786858797
0.020116811618208885,0.005071927793323994,-0.016139676794409752,0.010326843708753586,-0.0004470149870030582,-0.006767564453184605
0.020594226196408272,0.005164541769772768,-0.015882687643170357,0.010703086853027344,-0.00041738920845091343,-0.006665309891104698
0.020651571452617645,0.005283035803586245,-0.01698809117078781,0.010712073184549809,-0.00043261339305900037,-0.006884000264108181
0.02003791555762291,0.005164701025933027,-0.016586851328611374,0.010571333579719067,-0.0004202173149678856,-0.00665691215544939
0.020549559965729713,0.004970671143382788,-0.01627628318965435,0.010621299967169762,-0.0003770463226828724,-0.007404045667499304
0.020131228491663933,0.0047960057854652405,-0.01633220538496971,0.010522131808102131,-0.00035828136606141925,-0.007474175654351711
0.020444858819246292,0.0051282597705721855,-0.01722521148622036,0.010882065631449223,-0.0003412930527701974,-0.007609697990119457
0.020712878555059433,0.005050268489867449,-0.016240952536463737,0.010522213764488697,-0.00027113681426271796,-0.007607000879943371
0.020490573719143867,0.005288450047373772,-0.016232235357165337,0.010982525534927845,-0.0002396020427113399,-0.0074844625778496265
0.02053152024745941,0.005664002150297165,-0.016159692779183388,0.011160899884998798,-0.0002264223003294319,-0.007423476316034794
0.020422928035259247,0.0050355419516563416,-0.016917124390602112,0.010662357322871685,-0.00021550251403823495,-0.007984614931046963
0.020543808117508888,0.0046922313049435616,-0.016623029485344887,0.010724584572017193,-0.00020564720034599304,-0.007803361397236586
0.02079995535314083,0.005199667066335678,-0.015715841203927994,0.010742999613285065,-0.00023073580814525485,-0.00709104398265481
0.020646976307034492,0.0053068045526742935,-0.01627659797668457,0.011120615527033806,-0.00022576269111596048,-0.007175331003963947
0.02046138420701027,0.005914110224694014,-0.01622450165450573,0.01141793467104435,-0.00021699476928915828,-0.007474189158529043
0.0216989628970623,0.005692963022738695,-0.01678885705769062,0.011104842647910118,-0.00020862901874352247,-0.007572637405246496
0.0209787767380476,0.005570928566157818,-0.016265373677015305,0.01124867144972086,-0.00020086868607904762,-0.008015048690140247
0.021336646750569344,0.005114099010825157,-0.01631907932460308,0.011415941640734673,-0.00022165679547470063,-0.007872594520449638
0.021242938935756683,0.0054784901440143585,-0.01650627702474594,0.011807789094746113,-0.0002178378199459985,-0.007752779871225357
0.0211228858679533,0.005271951202303171,-0.01623934507369995,0.012212253175675869,-0.00021079968428239226,-0.007725680246949196
0.021173670887947083,0.005809177178889513,-0.01678587682545185,0.01162623893469572,-0.00020398988272063434,-0.007937357760965824
0.021335119381546974,0.005335088819265366,-0.016224250197410583,0.012138786725699902,-0.00022208571317605674,-0.008230780251324177
0.021669140085577965,0.00517421355471015,-0.01662045530974865,0.011722423136234283,-0.0002187080681324005,-0.009013273753225803
0.022573770955204964,0.00532608712092042,-0.016314389184117317,0.011865166015923023,-0.00021247344557195902,-0.008306148461997509
0.021571660414338112,0.005201634019613266,-0.016377193853259087,0.012152641080319881,-0.00023083035193849355,-0.00802910327911377
0.022367756813764572,0.005394608248025179,-0.017154712229967117,0.012087401933968067,-0.0002419451775494963,-0.008321133442223072
0.02176945097744465,0.005620832554996014,-0.016492020338773727,0.011706233955919743,-0.00023105807485990226,-0.008717913180589676
0.02176945097744465,0.005620832554996014,-0.016492020338773727,0.011706233955919743,-0.00023105807485990226,-0.008717913180589676
0.02147701382637024,0.0054259514436125755,-0.01673911325633526,0.011526190675795078,-0.00025232165353372693,-0.00851492676883936
0.022266879677772522,0.005240034312009811,-0.016666339710354805,0.012328237295150757,-0.00024030586064327508,-0.008684742264449596
0.022220691666007042,0.005626013968139887,-0.016702057793736458,0.011762436479330063,-0.00025844422634691,-0.008430731482803822
0.0221408624202013,0.006296967156231403,-0.016665779054164886,0.011984655633568764,-0.00025683335843496025,-0.008138241246342659
0.022760232910513878,0.005274811759591103,-0.016128631308674812,0.012439079582691193,-0.0002717207826208323,-0.008664265275001526
0.022764282301068306,0.0054431795142591,-0.016830241307616234,0.012231685221195221,-0.0002623199252411723,-0.00841727014631033
0.022764282301068306,0.0054431795142591,-0.016830241307616234,0.012231685221195221,-0.0002623199252411723,-0.00841727014631033
0.02324330061674118,0.005513450130820274,-0.016601547598838806,0.011788323521614075,-0.0003923682670574635,-0.008073152974247932
0.022233659401535988,0.005863355007022619,-0.01665552146732807,0.011636178009212017,-0.0004060018400195986,-0.00774051109328866
0.022504683583974838,0.005930200684815645,-0.01695738174021244,0.011223061010241508,-0.00040859979344531894,-0.008175660856068134
0.02264372445642948,0.005238115321844816,-0.016640709713101387,0.011726098135113716,-0.00038187499740161,-0.007891996763646603
0.02328398823738098,0.00504921842366457,-0.01688845269382,0.011463206261396408,-0.000412078108638525,-0.008230121806263924
0.023257041350007057,0.005532957147806883,-0.01616581529378891,0.011180785484611988,-0.0003901628660969436,-0.0083321463316679
0.02305564284324646,0.0056517175398766994,-0.016674106940627098,0.011607091873884201,-0.00040631741285324097,-0.008380998857319355
0.023129522800445557,0.005875387229025364,-0.016548436135053635,0.01164254080504179,-0.00039608022780157626,-0.008836600929498672
0.023312300443649292,0.005945323500782251,-0.017045384272933006,0.012487383559346199,-0.0004910424468107522,-0.008479006588459015
0.023228300735354424,0.00532156229019165,-0.016683470457792282,0.012808172032237053,-0.0004588692681863904,-0.008716773241758347
0.023100312799215317,0.005060646217316389,-0.01629508100450039,0.012661897577345371,-0.0004174301284365356,-0.008756584487855434
0.023101912811398506,0.005661611445248127,-0.016983384266495705,0.01262501161545515,-0.0004529873258434236,-0.008751547895371914
0.02149505354464054,0.006486496888101101,-0.016886169090867043,0.012051468715071678,-0.0004221816489007324,-0.008923687972128391
0.024095546454191208,0.006024956703186035,-0.01753547415137291,0.012429841794073582,-0.000423514487920329,-0.008809019811451435
0.024095546454191208,0.006024956703186035,-0.01753547415137291,0.012429841794073582,-0.000423514487920329,-0.008809019811451435
0.02419324219226837,0.005690826568752527,-0.017364155501127243,0.012175710871815681,-0.00042401396785862744,-0.0088169751688838
0.023826653137803078,0.005228010006248951,-0.017010219395160675,0.012183645740151405,-0.00039904675213620067,-0.008848669938743114
0.02369772270321846,0.005928687751293182,-0.017156681045889854,0.012610426172614098,-0.00042528536869212985,-0.008928983472287655
0.023581432178616524,0.006011503282934427,-0.0160103440284729,0.012124921195209026,-0.00040463925688527524,-0.009209931828081608
0.023579496890306473,0.0062281470745801926,-0.017287343740463257,0.011909626424312592,-0.00041800655890256166,-0.009525476954877377
0.023749124258756638,0.005554822273552418,-0.0173262320458889,0.011541587300598621,-0.0003882282180711627,-0.009351210668683052
0.02404787205159664,0.005813806317746639,-0.017665132880210876,0.012118631973862648,-0.00042423009290359914,-0.0092160664498806
0.02428498864173889,0.005520605947822332,-0.016345970332622528,0.011977428570389748,-0.0004277795960661024,-0.009972209110856056
0.023729877546429634,0.005403315648436546,-0.01763322949409485,0.012390727177262306,-0.00044660529238171875,-0.009857779368758202
0.024233747273683548,0.005170522257685661,-0.0179206021130085,0.011989430524408817,-0.0004332415119279176,-0.010009256191551685
0.024260682985186577,0.004648291040211916,-0.017476089298725128,0.012489481829106808,-0.0005666223587468266,-0.010787812992930412
0.024213338270783424,0.004585509188473225,-0.01748034544289112,0.012541430070996284,-0.0006151107372716069,-0.010142719373106956
0.02442612126469612,0.004518917296081781,-0.01724729686975479,0.012926120311021805,-0.0005645596538670361,-0.009924274869263172
0.02461216039955616,0.004915845580399036,-0.018243636935949326,0.012506364844739437,-0.0005910524050705135,-0.00961059145629406
0.024836603552103043,0.005336619447916746,-0.01762440800666809,0.012734913267195225,-0.0005827558925375342,-0.009708196856081486
0.024581918492913246,0.004908833187073469,-0.016827097162604332,0.01272056344896555,-0.0005710488767363131,-0.010698169469833374
0.02483091689646244,0.0049068620428442955,-0.017536355182528496,0.012845426797866821,-0.000594130833633244,-0.010353385470807552
0.024867994710803032,0.00484450301155448,-0.01757235638797283,0.01340013649314642,-0.0006341789849102497,-0.010006291791796684
0.02528429590165615,0.004888985306024551,-0.01780526526272297,0.013364112935960293,-0.0006153153371997178,-0.010658388957381248
0.025509199127554893,0.005271739326417446,-0.017838042229413986,0.013460555113852024,-0.0006351107731461525,-0.010601493529975414
0.025096671655774117,0.005547450389713049,-0.017185814678668976,0.012619187124073505,-0.0006483785691671073,-0.010342199355363846
0.025070253759622574,0.004988922271877527,-0.01759421080350876,0.013205492869019508,-0.0006128406384959817,-0.010370379313826561
0.025564424693584442,0.004786714445799589,-0.017328066751360893,0.012857547029852867,-0.0006763566052541137,-0.010724558494985104
0.025943726301193237,0.005186118185520172,-0.01768147386610508,0.013078425079584122,-0.0006820711423642933,-0.011131355538964272
0.02637382596731186,0.0049888091161847115,-0.01776905544102192,0.012981138192117214,-0.0006545528303831816,-0.011301574297249317
0.02637382596731186,0.0049888091161847115,-0.01776905544102192,0.012981138192117214,-0.0006545528303831816,-0.011301574297249317
0.02325201965868473,0.005268177017569542,-0.01774708367884159,0.013057798147201538,-0.0006114012794569135,-0.01136449072510004
0.02325201965868473,0.005268177017569542,-0.01774708367884159,0.013057798147201538,-0.0006114012794569135,-0.01136449072510004
0.026533668860793114,0.004497033078223467,-0.017706746235489845,0.012899252586066723,-0.0005621520685963333,-0.011246398091316223
0.026863740757107735,0.0044444864615798,-0.017763333395123482,0.01305296178907156,-0.0005163794266991317,-0.011154016479849815
0.02633167803287506,0.004980383440852165,-0.018070783466100693,0.012718947604298592,-0.0005406145355664194,-0.011518428102135658
0.02584470808506012,0.005093616433441639,-0.01765451952815056,0.013069814071059227,-0.0005066836019977927,-0.01137823611497879
0.027753261849284172,0.004924139007925987,-0.017825322225689888,0.013569063507020473,-0.00044437608448788524,-0.01134679839015007
0.026851823553442955,0.004843694623559713,-0.01737133041024208,0.013227754272520542,-0.00039771871524862945,-0.011568673886358738
0.025713451206684113,0.004864836577326059,-0.017805583775043488,0.013510078191757202,-0.0003637159534264356,-0.011373238638043404
0.02585446462035179,0.004751278553158045,-0.017428120598196983,0.013545628637075424,-0.00033638227614574134,-0.01110361609607935
0.027023065835237503,0.004669439513236284,-0.017573220655322075,0.013437166810035706,-0.0003129650722257793,-0.011599152348935604
0.027007853612303734,0.00502307852730155,-0.017771905288100243,0.013486103154718876,-0.0003431738296058029,-0.01168864592909813
0.026968080550432205,0.004735065158456564,-0.017305761575698853,0.01351681537926197,-0.0003291556495241821,-0.011715469881892204
0.027127360925078392,0.004661700688302517,-0.01800267957150936,0.013656010851264,-0.00031066202791407704,-0.01143672876060009
0.02715175971388817,0.004875434096902609,-0.01767611876130104,0.013669419102370739,-0.0003361550625413656,-0.0115043381229043
0.026998037472367287,0.004847053904086351,-0.0175339225679636,0.013906214386224747,-0.0003246293345000595,-0.01168425939977169
0.027345430105924606,0.004486702848225832,-0.01780744269490242,0.013671805150806904,-0.00030907770269550383,-0.011801498010754585
0.02739053964614868,0.004425623454153538,-0.017007457092404366,0.013949106447398663,-0.00033385283313691616,-0.011723685078322887
0.02738221548497677,0.0046233427710831165,-0.017851006239652634,0.01331852376461029,-0.00032150023616850376,-0.011959685012698174
0.02735777199268341,0.00527337146922946,-0.017984768375754356,0.013778261840343475,-0.0003410006465855986,-0.011455812491476536
0.027547260746359825,0.0046575418673455715,-0.017371395602822304,0.013457590714097023,-0.00032804091461002827,-0.011245368979871273
0.027741920202970505,0.004439374431967735,-0.01785471849143505,0.014038650318980217,-0.00033624732168391347,-0.011632909998297691
0.027877090498805046,0.004597559571266174,-0.017822589725255966,0.013274426572024822,-0.000342298619216308,-0.011796373873949051
0.027402427047491074,0.004694811068475246,-0.018080051988363266,0.014041224494576454,-0.00032357446616515517,-0.012201493605971336
0.02784494124352932,0.004855345468968153,-0.018080074340105057,0.01399313099682331,-0.0003494159900583327,-0.011493140831589699
0.027480049058794975,0.004404058679938316,-0.017465360462665558,0.01420711912214756,-0.00037228898145258427,-0.01127453614026308
0.0267966166138649,0.004365764558315277,-0.018014157190918922,0.013261934742331505,-0.00036494582309387624,-0.011299173347651958
0.025843776762485504,0.004535812418907881,-0.018106825649738312,0.013536262325942516,-0.00043878823635168374,-0.011471717618405819
0.0281649399548769,0.00465302262455225,-0.017775895074009895,0.013658870942890644,-0.0004773868713527918,-0.011553478427231312
0.028455477207899094,0.004426312167197466,-0.018070068210363388,0.014026885852217674,-0.0005118647241033614,-0.011528924107551575
0.028455477207899094,0.004426312167197466,-0.018070068210363388,0.014026885852217674,-0.0005118647241033614,-0.011528924107551575
0.028665734454989433,0.004552702885121107,-0.01771795004606247,0.013901743106544018,-0.000535539467819035,-0.011543327942490578
0.027751266956329346,0.004445528611540794,-0.017927931621670723,0.014184672385454178,-0.000510828394908458,-0.012074661441147327
0.026996927335858345,0.004857547115534544,-0.018769513815641403,0.014320842921733856,-0.0005320371128618717,-0.012305188924074173
0.02727458067238331,0.0048033082857728004,-0.018063336610794067,0.014232130721211433,-0.0005038825911469758,-0.011991724371910095
0.028509536758065224,0.004338210914283991,-0.01808125339448452,0.014081815257668495,-0.0006115701398812234,-0.011553811840713024
0.028159847483038902,0.004541196394711733,-0.018514230847358704,0.014375140890479088,-0.0005802855594083667,-0.012175330892205238
0.0289846733212471,0.004660292994230986,-0.019545549526810646,0.01450247224420309,-0.0005718565662391484,-0.01204531267285347
0.028758587315678596,0.004809039179235697,-0.0190593209117651,0.01436859741806984,-0.0005597842973656952,-0.011987029574811459
0.02822769805788994,0.004791823215782642,-0.018244944512844086,0.014356925152242184,-0.0005521156708709896,-0.011646910570561886
0.028004342690110207,0.004749399609863758,-0.01844755746424198,0.014332061633467674,-0.000543122470844537,-0.012121451087296009
0.028232663869857788,0.004588146694004536,-0.01833300106227398,0.014097815379500389,-0.0005069964681752026,-0.01217690110206604
0.028766514733433723,0.004577679093927145,-0.01863648183643818,0.013871440663933754,-0.0005046079750172794,-0.012211747467517853
0.028623323887586594,0.0046524121426045895,-0.019214406609535217,0.013747207820415497,-0.00045922864228487015,-0.012055478058755398
0.02864684723317623,0.004674597177654505,-0.018840301781892776,0.014081232249736786,-0.0004780804447364062,-0.012181154452264309
0.02909451723098755,0.005213677417486906,-0.018681300804018974,0.014661616645753384,-0.000456508802017197,-0.012786428444087505
0.028863826766610146,0.00492894696071744,-0.0192266758531332,0.01493269857019186,-0.0004561220412142575,-0.012292077764868736
0.028798189014196396,0.004435512237250805,-0.018685949966311455,0.015057063661515713,-0.00045438262168318033,-0.01201694831252098
0.02904069609940052,0.0044011445716023445,-0.018973365426063538,0.01498930063098669,-0.00047045445535331964,-0.01224453467875719
0.029073474928736687,0.004742336925119162,-0.01916782185435295,0.014991949312388897,-0.00045624590711668134,-0.012489424087107182
0.029353465884923935,0.004788555670529604,-0.018637143075466156,0.01460509467869997,-0.0005594128742814064,-0.012629848904907703
0.029415905475616455,0.004754462279379368,-0.01932303048670292,0.01436156127601862,-0.000553435180336237,-0.012339609675109386
0.029428040608763695,0.004573359154164791,-0.018756955862045288,0.01416750904172659,-0.0005831444286741316,-0.012278061360120773
0.029908383265137672,0.004564357455819845,-0.018393460661172867,0.014382820576429367,-0.0006100737955421209,-0.012479581870138645
0.028638821095228195,0.004604442976415157,-0.018037643283605576,0.01507359929382801,-0.0009563016355969012,-0.01282238494604826
0.028638821095228195,0.004604442976415157,-0.018037643283605576,0.01507359929382801,-0.0009563016355969012,-0.01282238494604826
0.029847756028175354,0.0048231398686766624,-0.01904645934700966,0.015449493192136288,-0.0009896026458591223,-0.013004425913095474
0.029830843210220337,0.004719608463346958,-0.0192846842110157,0.014985039830207825,-0.0009794543730095029,-0.01253969594836235
0.02986758016049862,0.004700296092778444,-0.01917099766433239,0.015154662542045116,-0.0009210081771016121,-0.012565001845359802
0.02990705706179142,0.005332085769623518,-0.01930052600800991,0.01513574831187725,-0.0009620622731745243,-0.01262746099382639
0.03001345321536064,0.005002101883292198,-0.018917491659522057,0.016431419178843498,-0.0009536768193356693,-0.01264963485300541
0.030872086063027382,0.005059114191681147,-0.01859802007675171,0.015719827264547348,-0.0009158041211776435,-0.013174989260733128
0.030749129131436348,0.0048069762997329235,-0.018546465784311295,0.015046171844005585,-0.0008360928040929139,-0.013351128436625004
0.030595198273658752,0.005013095214962959,-0.019284017384052277,0.015482342801988125,-0.0007529401918873191,-0.012737918645143509
0.0307938102632761,0.005524043925106525,-0.019166018813848495,0.014980926178395748,-0.0006568398093804717,-0.013720996677875519
0.031089192256331444,0.005141918081790209,-0.01903342455625534,0.015369410626590252,-0.0005737896426580846,-0.013258182443678379
0.031237171962857246,0.005111930426210165,-0.019545936957001686,0.015267884358763695,-0.000508821860421449,-0.01302247866988182
0.03108776919543743,0.005115630570799112,-0.019162775948643684,0.015260212123394012,-0.0005356870242394507,-0.013384346850216389
0.030727239325642586,0.004984153900295496,-0.018608510494232178,0.01571529731154442,-0.0004969984292984009,-0.012762125581502914
0.030956121161580086,0.0053140209056437016,-0.019246982410550117,0.015798470005393028,-0.0005211996613070369,-0.012735390104353428
0.03104931116104126,0.005204501561820507,-0.01911632902920246,0.01592675969004631,-0.0004896182217635214,-0.01300442311912775
0.0317448191344738,0.005216001067310572,-0.019198672845959663,0.015200653113424778,-0.0005152442608959973,-0.013406122103333473
0.03221597522497177,0.005306084640324116,-0.019662266597151756,0.01513445284217596,-0.000487380544655025,-0.013770478777587414
0.03142286464571953,0.004941768478602171,-0.01923859864473343,0.01475695800036192,-0.00045783663517795503,-0.013554425910115242
0.030814005061984062,0.004917475860565901,-0.018488258123397827,0.015679817646741867,-0.0004884994705207646,-0.013493952341377735
0.031969182193279266,0.005271578673273325,-0.018958814442157745,0.015334006398916245,-0.0004938556230627,-0.013205692172050476
0.031668439507484436,0.0051811509765684605,-0.018654244020581245,0.015729889273643494,-0.0004896290483884513,-0.013691090047359467
0.03174125403165817,0.00479493010789156,-0.018793929368257523,0.015374681912362576,-0.0005043074488639832,-0.01364482194185257
0.03248961269855499,0.005030437372624874,-0.0195196233689785,0.01575857400894165,-0.0004853548598475754,-0.013886489905416965
0.031462252140045166,0.004909514915198088,-0.019551314413547516,0.015747863799333572,-0.0006195076857693493,-0.014211022295057774
0.031207198277115822,0.00493160355836153,-0.01887870393693447,0.015898628160357475,-0.0006723189726471901,-0.014204741455614567
0.031261853873729706,0.005299134645611048,-0.019018307328224182,0.015981363132596016,-0.000692178844474256,-0.013939243741333485
0.03209241107106209,0.005091935861855745,-0.019409120082855225,0.01589123345911503,-0.0006346857408061624,-0.01370304636657238
0.032658547163009644,0.004952933639287949,-0.019344927743077278,0.01600070111453533,-0.0006538088200613856,-0.013705749064683914
0.0310810673981905,0.004804764874279499,-0.019376307725906372,0.015530003234744072,-0.0006844329764135182,-0.01380626019090414
0.0310810673981905,0.004804764874279499,-0.019376307725906372,0.015530003234744072,-0.0006844329764135182,-0.01380626019090414
0.03301981836557388,0.005068675614893436,-0.019448118284344673,0.01602037437260151,-0.0007601008401252329,-0.01380326971411705
0.03286416456103325,0.005518844351172447,-0.01939576119184494,0.0157184936106205,-0.000752200314309448,-0.013603059574961662
0.031561072915792465,0.0053132642060518265,-0.020054403692483902,0.015974078327417374,-0.0007932359003461897,-0.01367566641420126
0.03222662955522537,0.00512710539624095,-0.019507847726345062,0.015899084508419037,-0.0007422902854159474,-0.013968070968985558
0.032755885273218155,0.005053662229329348,-0.019384024664759636,0.015947997570037842,-0.0009437913540750742,-0.014321204274892807
0.03246169164776802,0.005182753782719374,-0.01939898543059826,0.015549121424555779,-0.0008820875664241612,-0.014414810575544834
0.03315464407205582,0.005366094410419464,-0.019099589437246323,0.015395748429000378,-0.0008582452428527176,-0.014162294566631317
0.03278876841068268,0.005245607811957598,-0.019431035965681076,0.015044012106955051,-0.0007890164270065725,-0.01427219994366169
0.032492537051439285,0.005359979346394539,-0.019900845363736153,0.015533597208559513,-0.0007572327740490437,-0.014044946990907192
0.03241821005940437,0.005034705623984337,-0.01922793686389923,0.015967905521392822,-0.0007199918036349118,-0.014266381971538067
0.033624839037656784,0.004917146638035774,-0.01990576833486557,0.016458405181765556,-0.0006843637092970312,-0.014293290674686432
0.03423965722322464,0.005070757120847702,-0.02061697095632553,0.015820862725377083,-0.0006847520126029849,-0.014543302357196808
0.0329708531498909,0.004319235682487488,-0.020201390609145164,0.01626763865351677,-0.0006382807623594999,-0.014314197935163975
0.032444845885038376,0.004405896179378033,-0.01935187727212906,0.01626593992114067,-0.0006578981992788613,-0.01451192982494831
0.03382307291030884,0.004359949845820665,-0.020267467945814133,0.01640925370156765,-0.0006400926504284143,-0.014555482193827629
0.033049099147319794,0.0042822170071303844,-0.019527995958924294,0.016273338347673416,-0.0006751313921995461,-0.01436389796435833
0.03321821242570877,0.004448398482054472,-0.019713500514626503,0.015924349427223206,-0.0006753440829925239,-0.014261564239859581
0.03395192697644234,0.004659815225750208,-0.020052917301654816,0.01600262150168419,-0.0006971008260734379,-0.014483841136097908
0.03455798700451851,0.004782038275152445,-0.020406946539878845,0.015971869230270386,-0.0006777818198315799,-0.014455705881118774
0.0329824760556221,0.0043421173468232155,-0.019902795553207397,0.016717080026865005,-0.0009214401361532509,-0.014652214013040066
0.03287675604224205,0.0045489235781133175,-0.019867943599820137,0.017465978860855103,-0.0009317934163846076,-0.014753510244190693
0.034096308052539825,0.004969764966517687,-0.020002136006951332,0.017320329323410988,-0.0008689233800396323,-0.014736443758010864
0.03408807888627052,0.004432573914527893,-0.019860221073031425,0.016775477677583694,-0.0008612871752120554,-0.014469827525317669
0.033633582293987274,0.004466770216822624,-0.02038196101784706,0.01593751274049282,-0.0007807535585016012,-0.01473295595496893
0.03450142964720726,0.004233470186591148,-0.02051989547908306,0.015947850421071053,-0.0007595801143907011,-0.014688685536384583
0.034183379262685776,0.004380752332508564,-0.019940631464123726,0.015469525009393692,-0.0007229733746498823,-0.015079679898917675
0.03428712114691734,0.004540393128991127,-0.020354842767119408,0.0167889054864645,-0.0006869183271192014,-0.014811228029429913
0.03428712114691734,0.004540393128991127,-0.020354842767119408,0.0167889054864645,-0.0006869183271192014,-0.014811228029429913
0.034004826098680496,0.004742144141346216,-0.020132632926106453,0.016815556213259697,-0.0006125562940724194,-0.014851905405521393
0.03397165983915329,0.004709892440587282,-0.01971331425011158,0.017222074791789055,-0.0005944098229520023,-0.014817770570516586
0.034599363803863525,0.003972616977989674,-0.02084251493215561,0.016673391684889793,-0.0005329958512447774,-0.014694759622216225
0.034599363803863525,0.003972616977989674,-0.02084251493215561,0.016673391684889793,-0.0005329958512447774,-0.014694759622216225
0.03507520258426666,0.004041970241814852,-0.02035558596253395,0.017173001542687416,-0.0005255573778413236,-0.014544698409736156
0.03476981446146965,0.004457930102944374,-0.020389726385474205,0.017639655619859695,-0.00048574598622508347,-0.015628069639205933
0.03537262976169586,0.0045837522484362125,-0.020561685785651207,0.017725607380270958,-0.0004297523701097816,-0.0157790370285511
0.03449147194623947,0.00458924937993288,-0.02000131644308567,0.017169686034321785,-0.0003867565537802875,-0.01564153842628002
0.0346243754029274,0.004213678650557995,-0.020479608327150345,0.01755746826529503,-0.00040796867688186467,-0.015820808708667755
0.03579113632440567,0.003972293809056282,-0.020912397652864456,0.016858866438269615,-0.00042631616815924644,-0.015842443332076073
0.03580295667052269,0.004124144092202187,-0.02057665027678013,0.017036084085702896,-0.00042768404819071293,-0.016035407781600952
0.03567033261060715,0.004162870347499847,-0.019823092967271805,0.017069466412067413,-0.00045204465277493,-0.0162269938737154
0.03539703041315079,0.004391559399664402,-0.01985260471701622,0.01710456982254982,-0.0004318367864470929,-0.016007501631975174
0.03564804419875145,0.004569034092128277,-0.020281074568629265,0.017804523929953575,-0.0005814027972519398,-0.0159576665610075
0.03575359284877777,0.004588809795677662,-0.019741101190447807,0.016965480521321297,-0.0006312139448709786,-0.015783153474330902
0.036243245005607605,0.004236098378896713,-0.020437508821487427,0.016813034191727638,-0.0006608366966247559,-0.015937574207782745
0.03589232638478279,0.004044117871671915,-0.020606650039553642,0.016836129128932953,-0.0006090626702643931,-0.016076575964689255
0.03563038632273674,0.00395727576687932,-0.01988164894282818,0.016618937253952026,-0.0006298003136180341,-0.015998218208551407
0.03553374856710434,0.004228852689266205,-0.020055048167705536,0.01713794469833374,-0.0005849037552252412,-0.015844158828258514
0.036014240235090256,0.0046430411748588085,-0.02050487883388996,0.01679769903421402,-0.0006646204274147749,-0.016254369169473648
0.03702983632683754,0.004689430817961693,-0.020094899460673332,0.016819339245557785,-0.0006741878460161388,-0.01615046337246895
0.036424100399017334,0.00432015722617507,-0.019747095182538033,0.016682777553796768,-0.00062308378983289,-0.015925085172057152
0.03506899252533913,0.003961993847042322,-0.020583100616931915,0.016880007460713387,-0.0006404138403013349,-0.01588546112179756
0.03581646829843521,0.004292175639420748,-0.02070005051791668,0.017264816910028458,-0.0005912494380027056,-0.01595919206738472
0.036132533103227615,0.004244816489517689,-0.01988348178565502,0.016965482383966446,-0.0006129232933744788,-0.01586657203733921
0.03674104064702988,0.004360462538897991,-0.02042108029127121,0.01733936183154583,-0.0005695822765119374,-0.0163791012018919
0.03776639699935913,0.004507827572524548,-0.020819121971726418,0.016889682039618492,-0.0005719129112549126,-0.016896666958928108
0.03721402585506439,0.004677475895732641,-0.02129433862864971,0.017128953710198402,-0.0005996690597385168,-0.017282821238040924
0.03721402585506439,0.004677475895732641,-0.02129433862864971,0.017128953710198402,-0.0005996690597385168,-0.017282821238040924
0.035441700369119644,0.004245292861014605,-0.020635364577174187,0.017337702214717865,-0.0006297504878602922,-0.01682199165225029
0.03643384203314781,0.004372340627014637,-0.02077387645840645,0.01683921553194523,-0.0006547798402607441,-0.01625901646912098
0.037798602133989334,0.004168582148849964,-0.0209279153496027,0.01717022806406021,-0.0008417375502176583,-0.016193171963095665
0.03697677701711655,0.004111366346478462,-0.020726630464196205,0.017703503370285034,-0.0008955674711614847,-0.016612272709608078
0.037235189229249954,0.0044826241210103035,-0.021550849080085754,0.017514290288090706,-0.000895306991878897,-0.017014645040035248
0.03694669157266617,0.004675748758018017,-0.021221185103058815,0.01725335791707039,-0.0009157582535408437,-0.01672167144715786
0.03735608235001564,0.00438510999083519,-0.020106155425310135,0.01850278116762638,-0.000922732288017869,-0.01718783751130104
0.03676370531320572,0.00447615422308445,-0.02089773491024971,0.01804986596107483,-0.0008521971176378429,-0.016966652125120163
0.037388674914836884,0.004242732189595699,-0.021490078419446945,0.017390279099345207,-0.0008541494607925415,-0.016648003831505775
0.037314120680093765,0.004036547616124153,-0.020982123911380768,0.0178244449198246,-0.0008592925732955337,-0.016734737902879715
0.037083812057971954,0.0041998401284217834,-0.020643174648284912,0.018003640696406364,-0.0008472329354844987,-0.017217539250850677
0.03808540478348732,0.004719904158264399,-0.021123841404914856,0.0183403342962265,-0.0008644936024211347,-0.017428545281291008
0.03816442936658859,0.004704880993813276,-0.020621009171009064,0.017703551799058914,-0.0008787726983428001,-0.017100874334573746
0.03624441847205162,0.004288636147975922,-0.020238865166902542,0.016961771994829178,-0.000888365670107305,-0.01685316674411297
0.036408647894859314,0.004297588020563126,-0.0205769594758749,0.01745305396616459,-0.0010785614140331745,-0.0167209692299366
0.037458498030900955,0.004276668187230825,-0.021644771099090576,0.017462346702814102,-0.0010588055010885,-0.016658978536725044
0.037105776369571686,0.0040467409417033195,-0.021341895684599876,0.01798534207046032,-0.001035143039189279,-0.01678502932190895
0.03838536888360977,0.004095252603292465,-0.02075904980301857,0.018064245581626892,-0.0009596336167305708,-0.01682160794734955
0.037981756031513214,0.003982134163379669,-0.021169403567910194,0.018306758254766464,-0.0008982318104244769,-0.017233267426490784
0.036416903138160706,0.0044988710433244705,-0.021744675934314728,0.01867160014808178,-0.000768040947150439,-0.017990821972489357
0.037265051156282425,0.0047344327904284,-0.02091124653816223,0.01865004003047943,-0.0007784116314724088,-0.017745299264788628
0.038155850023031235,0.004364057909697294,-0.020476635545492172,0.018492555245757103,-0.000770531827583909,-0.017633598297834396
0.03833216428756714,0.004008233081549406,-0.021300507709383965,0.019088556990027428,-0.0007095530163496733,-0.017637137323617935
0.03798695281147957,0.004335832316428423,-0.021736305207014084,0.018798910081386566,-0.0006391595816239715,-0.01778990402817726
0.038176409900188446,0.004247157834470272,-0.020942896604537964,0.0187302827835083,-0.0006572587881237268,-0.017804082483053207
0.03818415850400925,0.004337667021900415,-0.02104232832789421,0.01899360492825508,-0.0006036256672814488,-0.018235091120004654
0.03818415850400925,0.004337667021900415,-0.02104232832789421,0.01899360492825508,-0.0006036256672814488,-0.018235091120004654
0.03822191059589386,0.004675245378166437,-0.021481212228536606,0.019466834142804146,-0.000612489937338978,-0.018516089767217636
0.038244277238845825,0.004726961255073547,-0.021349890157580376,0.019200729206204414,-0.0005715815932489932,-0.01826620288193226
0.03834151104092598,0.004378906916826963,-0.021100493147969246,0.019320689141750336,-0.0005983887240290642,-0.017674202099442482
0.03823668509721756,0.004045539535582066,-0.02123626135289669,0.018853357061743736,-0.0006192273576743901,-0.018031153827905655
0.03901756927371025,0.004272016696631908,-0.021940698847174644,0.01898413896560669,-0.0007948657730594277,-0.01844811998307705
0.03876029700040817,0.0042340620420873165,-0.021979166194796562,0.019066106528043747,-0.0008139713318087161,-0.018179137259721756
0.03915472701191902,0.004172644577920437,-0.0218745656311512,0.01955314911901951,-0.0007979256333783269,-0.01828426867723465
0.03920268639922142,0.0043956078588962555,-0.02201744168996811,0.019803915172815323,-0.0007690056809224188,-0.01863018423318863
0.03889700025320053,0.00447713490575552,-0.021985644474625587,0.019362784922122955,-0.0010023009963333607,-0.019120745360851288
0.039624232798814774,0.004341392312198877,-0.02156059630215168,0.018990593031048775,-0.0009994892170652747,-0.018531078472733498
0.039394889026880264,0.004093786235898733,-0.02182326465845108,0.019603541120886803,-0.0009863299783319235,-0.018478166311979294
0.03956642374396324,0.004397232551127672,-0.022377699613571167,0.019207173958420753,-0.0009975078282877803,-0.018796509131789207
0.03973731771111488,0.004388711415231228,-0.02242102287709713,0.018457874655723572,-0.0010363342007622123,-0.018625305965542793
0.03952832892537117,0.004387429915368557,-0.021841734647750854,0.018837515264749527,-0.001017326139844954,-0.018538039177656174
0.039728838950395584,0.004375114105641842,-0.02186981774866581,0.018221260979771614,-0.0010006908560171723,-0.018672717735171318
0.03977334499359131,0.004553540144115686,-0.02221684344112873,0.018279917538166046,-0.000910106988158077,-0.018668223172426224
0.04010985046625137,0.004696539603173733,-0.022055596113204956,0.01870899088680744,-0.0009596989839337766,-0.018753983080387115
0.040399421006441116,0.0043610879220068455,-0.022410359233617783,0.018606195226311684,-0.0008833874599076807,-0.018654240295290947
0.03987531363964081,0.004255553707480431,-0.022451821714639664,0.020532527938485146,-0.000941698788665235,-0.018563702702522278
0.0414588563144207,0.003987225703895092,-0.022891651839017868,0.018985597416758537,-0.0008895910577848554,-0.018747603520751
0.04146546497941017,0.0044458662159740925,-0.022817449644207954,0.018552523106336594,-0.0010059226769953966,-0.018630946055054665
0.039267029613256454,0.004629503935575485,-0.022395320236682892,0.01895657181739807,-0.0010341485030949116,-0.019046975299715996
0.040241971611976624,0.0043576243333518505,-0.021488307043910027,0.01903690956532955,-0.001017602626234293,-0.01979970373213291
0.041053082793951035,0.004465450532734394,-0.022224780172109604,0.018596718087792397,-0.0010952232405543327,-0.019651087000966072
0.041159261018037796,0.00414035189896822,-0.023023033514618874,0.019055843353271484,-0.0010982350213453174,-0.019425898790359497
0.042015038430690765,0.003878403455018997,-0.022837495431303978,0.019430259242653847,-0.0010461251949891448,-0.018847016617655754
0.042015038430690765,0.003878403455018997,-0.022837495431303978,0.019430259242653847,-0.0010461251949891448,-0.018847016617655754
0.04061484709382057,0.003798198653385043,-0.02235240302979946,0.019521545618772507,-0.000990289612673223,-0.018350454047322273
0.039933208376169205,0.004119779448956251,-0.02300848998129368,0.01951894350349903,-0.0009697036584839225,-0.018910983577370644
0.04183829575777054,0.004044392146170139,-0.023319127038121223,0.019565442577004433,-0.000994281261228025,-0.019838357344269753
0.04145379737019539,0.00427896436303854,-0.02234366163611412,0.019209468737244606,-0.0009817085228860378,-0.019880112260580063
0.04134010523557663,0.004062959924340248,-0.022656379267573357,0.019226061180233955,-0.0009544290951453149,-0.019175348803400993
0.041296400129795074,0.003931231796741486,-0.02307763509452343,0.019380703568458557,-0.0008688649977557361,-0.019327517598867416
0.04143211990594864,0.003888447070494294,-0.02255326882004738,0.01892325095832348,-0.0009642368531785905,-0.019716860726475716
0.041616685688495636,0.00467351358383894,-0.023489130660891533,0.019609197974205017,-0.000986112398095429,-0.01981298066675663
0.041443925350904465,0.004510336089879274,-0.023433828726410866,0.01965215615928173,-0.0010218815878033638,-0.018931010738015175
0.043285369873046875,0.00405581621453166,-0.023270659148693085,0.019968384876847267,-0.0010988692520186305,-0.019042564556002617
0.04254798963665962,0.004127751104533672,-0.022605568170547485,0.020344240590929985,-0.0010504209203645587,-0.019701499491930008
0.040559571236371994,0.004608312156051397,-0.022746270522475243,0.019880183041095734,-0.0010272054933011532,-0.019908875226974487
0.04244298115372658,0.004195230547338724,-0.023387636989355087,0.019658423960208893,-0.0009380878764204681,-0.02082100510597229
0.042389169335365295,0.004429251421242952,-0.023476213216781616,0.020164504647254944,-0.0009556920849718153,-0.01976444385945797
0.04347719997167587,0.0046148295514285564,-0.023487480357289314,0.020318757742643356,-0.0008786474354565144,-0.020068537443876266
0.04332851991057396,0.004431431647390127,-0.022988127544522285,0.01964588090777397,-0.0009372514905408025,-0.020267754793167114
0.041327353566884995,0.004301179200410843,-0.022970430552959442,0.020102541893720627,-0.0008833241881802678,-0.02046598307788372
0.042348697781562805,0.004092054907232523,-0.023439306765794754,0.020259663462638855,-0.0008871221798472106,-0.020262250676751137
0.04287730157375336,0.004419107921421528,-0.023543348535895348,0.019434696063399315,-0.0009692237363196909,-0.020196234807372093
0.04265810176730156,0.00419433880597353,-0.02382270246744156,0.019677553325891495,-0.000964709441177547,-0.020385222509503365
0.042604293674230576,0.004431392997503281,-0.02342699095606804,0.0198828112334013,-0.0009027583873830736,-0.020509544759988785
0.042746856808662415,0.004468305967748165,-0.023539356887340546,0.01984572224318981,-0.0009366821032017469,-0.02044464834034443
0.04273087531328201,0.004331330768764019,-0.023674506694078445,0.0197970699518919,-0.0009441732545383275,-0.020612802356481552
