davideferrari95/blind_handover_controller/data/Test 144 - [2024-02-07 -- 17-26-52]/joint_states_data.csv
shoulder_pan_joint,shoulder_lift_joint,elbow_joint,wrist_1_joint,wrist_2_joint,wrist_3_joint
0.0003226216067560017,-0.004688634537160397,-0.005167578812688589,0.008661922998726368,0.0,0.0015339665114879608
0.0003226216067560017,-0.004688634537160397,-0.005167578812688589,0.008661922998726368,0.0,0.0015339665114879608
0.00033614164567552507,-0.0042346385307610035,-0.005471125245094299,0.009191790595650673,0.0,0.0015638993354514241
0.00035936382482759655,-0.0033276632893830538,-0.004841741174459457,0.009010270237922668,0.0,0.0016496736789122224
0.00034786033211275935,-0.002640688791871071,-0.004832018632441759,0.008427998051047325,0.0,0.0016324736643582582
0.0005127018666826189,-0.0026845720130950212,-0.005294197704643011,0.008434914983808994,0.0,0.0016731882933527231
0.0005513294599950314,-0.0033583277836441994,-0.005278391297906637,0.008819786831736565,0.0,0.0017847452545538545
0.0005581279983744025,-0.0038545725401490927,-0.005845494568347931,0.008863715454936028,0.0,0.0022079069167375565
0.0005369220161810517,-0.0037237724754959345,-0.005442430265247822,0.009012216702103615,0.0,0.002114253817126155
0.0005369220161810517,-0.0037237724754959345,-0.005442430265247822,0.009012216702103615,0.0,0.002114253817126155
0.0005242416518740356,-0.0035231036599725485,-0.004974369890987873,0.009637303650379181,0.0,0.0019396698335185647
0.0005908026942051947,-0.0033426969312131405,-0.005362057592719793,0.009017735719680786,0.0,0.0017519743414595723
0.0005666305078193545,-0.0035750807728618383,-0.005701825022697449,0.009175069630146027,0.0,0.0015742018586024642
0.0006030708900652826,-0.0037432778626680374,-0.005482542794197798,0.009233024902641773,0.0,0.00152794667519629
0.0006030708900652826,-0.0037432778626680374,-0.005482542794197798,0.009233024902641773,0.0,0.00152794667519629
0.0006026350893080235,-0.0033122943714261055,-0.005379898007959127,0.00955225434154272,0.0,0.0016098745400086045
0.0005566665204241872,-0.003307968145236373,-0.005152245983481407,0.009280495345592499,0.0,0.0017515189247205853
0.0005566665204241872,-0.003307968145236373,-0.005152245983481407,0.009280495345592499,0.0,0.0017515189247205853
0.0006102193146944046,-0.0032406095415353775,-0.004986350424587727,0.009901209734380245,0.0,0.001675034174695611
0.0006117083830758929,-0.003430152079090476,-0.005726092495024204,0.009761149063706398,0.0,0.001497531309723854
0.0005794603493995965,-0.0037085094954818487,-0.005248435772955418,0.009612384252250195,0.0,0.0014253902481868863
0.0006072575924918056,-0.003373092273250222,-0.0054219807498157024,0.009506593458354473,0.0,0.0014313902938738465
0.0005568916094489396,-0.0031312210485339165,-0.005157303065061569,0.009045043028891087,0.0,0.001439412240870297
0.0005837178905494511,-0.0030688135884702206,-0.0049865636974573135,0.008716246113181114,0.0,0.0018900461727753282
0.0006533129489980638,-0.003193435724824667,-0.005827393848448992,0.009160199202597141,0.0,0.0019633646588772535
0.0006963688647374511,-0.003164970548823476,-0.005502710118889809,0.009397691115736961,0.0,0.0020445063710212708
0.0007199335377663374,-0.0034898826852440834,-0.005287901032716036,0.008916833437979221,0.0,0.0019391549285501242
0.0007384968921542168,-0.0037724191788583994,-0.0053830016404390335,0.009435596875846386,0.0,0.0019318443955853581
0.000970437831711024,-0.003381825052201748,-0.005643370095640421,0.00920618325471878,0.0,0.0017358576878905296
0.0009768670424818993,-0.0036030933260917664,-0.005705026909708977,0.008732807822525501,0.0,0.0016158807557076216
0.0008423909894190729,-0.0033402089029550552,-0.0057224188931286335,0.008716297335922718,0.0,0.0016503122169524431
0.0008449442102573812,-0.0033960086293518543,-0.005180134437978268,0.009371912106871605,0.0,0.0019897010643035173
0.0007490181014873087,-0.003420164342969656,-0.005102117080241442,0.00900280475616455,0.0,0.0018664279486984015
0.0007636318914592266,-0.0034581574145704508,-0.005427768919616938,0.00872049666941166,0.0,0.0018458693521097302
0.0006957169971428812,-0.003466458525508642,-0.006082567386329174,0.009201807901263237,0.0,0.0018504639156162739
0.0008384290849789977,-0.0038054417818784714,-0.005811390466988087,0.008494516834616661,0.0,0.001884142984636128
0.001340842223726213,-0.0039344108663499355,-0.00534302182495594,0.009101135656237602,0.0,0.001737098442390561
0.0013010147958993912,-0.004001665860414505,-0.005134950391948223,0.008993708528578281,0.0,0.0016035637818276882
0.0010919206542894244,-0.0035252661909908056,-0.005639489274471998,0.008601777255535126,0.0,0.0015085793565958738
0.0009791834745556116,-0.003582256380468607,-0.006010051351040602,0.009088996797800064,0.0,0.0015404224395751953
0.0009791834745556116,-0.003582256380468607,-0.006010051351040602,0.009088996797800064,0.0,0.0015404224395751953
0.0009637560578994453,-0.0037620419170707464,-0.005305331666022539,0.008969590067863464,0.0,0.0017183152958750725
0.0009539424791000783,-0.003804699517786503,-0.005189268384128809,0.008594075217843056,0.0,0.001809583161957562
0.0011266614310443401,-0.0038789971731603146,-0.005456279497593641,0.009410029277205467,0.0,0.0020808938425034285
0.0011624094331637025,-0.0038717661518603563,-0.00616319477558136,0.009044905193150043,0.0,0.0018787076696753502
0.0011624094331637025,-0.0038717661518603563,-0.00616319477558136,0.009044905193150043,0.0,0.0018787076696753502
0.0012614068109542131,-0.003568127052858472,-0.0057825674302875996,0.00867395382374525,0.0,0.0018032121006399393
0.0013780216686427593,-0.0034799252171069384,-0.005092803388834,0.008963237516582012,0.0,0.0017305656801909208
0.0014408997958526015,-0.0036324376706033945,-0.004396825097501278,0.009200911968946457,0.0,0.0017870255978778005
0.0013784588081762195,-0.003694859566166997,-0.004878283012658358,0.008628735318779945,0.0,0.0018243774538859725
0.0012796317460015416,-0.003723499132320285,-0.0056109982542693615,0.008630458265542984,0.0,0.0017202077433466911
0.001339151174761355,-0.003663667943328619,-0.005336334928870201,0.008545264601707458,0.0,0.0018088921206071973
0.0013151284074410796,-0.003652209648862481,-0.004960838705301285,0.0087564866989851,0.0,0.0017789750127121806
0.0014941320987418294,-0.003693576902151108,-0.005148682743310928,0.009330934844911098,0.0,0.001633830601349473
0.0013832655968144536,-0.0037369797937572002,-0.004966667387634516,0.009493942372500896,0.0,0.0014810269931331277
0.0013397124130278826,-0.0036996842827647924,-0.0045106010511517525,0.009662933647632599,0.0,0.0013761852169409394
0.0013792415848001838,-0.0036808690056204796,-0.005051097832620144,0.00901968777179718,0.0,0.0012241562362760305
0.001406403025612235,-0.0036162615288048983,-0.005072945263236761,0.009565559215843678,0.0,0.0012253057211637497
0.0013547318521887064,-0.003669952042400837,-0.0052520581521093845,0.009495261125266552,0.0,0.001200823811814189
0.0013023631181567907,-0.003710512537509203,-0.004937570076435804,0.009340931661427021,0.0,0.001370878191664815
0.0013827371876686811,-0.004101479426026344,-0.004655571188777685,0.008962265215814114,0.0,0.001390014193020761
0.0015173731371760368,-0.004217906389385462,-0.00474161934107542,0.008774526417255402,0.0,0.0013653779169544578
0.0014656457351520658,-0.004110988695174456,-0.004755261819809675,0.008698691613972187,0.0,0.0014699664898216724
0.0014656457351520658,-0.004110988695174456,-0.004755261819809675,0.008698691613972187,0.0,0.0014699664898216724
0.0015096488641574979,-0.0032809211406856775,-0.005083276424556971,0.009061572141945362,0.0,0.001441123429685831
0.001391993253491819,-0.0033583762124180794,-0.005096272565424442,0.008892425335943699,0.0,0.0013674357905983925
0.001391993253491819,-0.0033583762124180794,-0.005096272565424442,0.008892425335943699,0.0,0.0013674357905983925
0.0013164401752874255,-0.0035491350572556257,-0.0050248815678060055,0.009406553581357002,0.0,0.0014374471502378583
0.0013537020422518253,-0.0036611147224903107,-0.004896450322121382,0.008739982731640339,0.0,0.0015145280631259084
0.0013142440002411604,-0.003557362128049135,-0.005191038828343153,0.008707301691174507,0.0,0.0017050416208803654
0.001409590826369822,-0.0033530958462506533,-0.005454945843666792,0.009180119261145592,0.0,0.0017455205088481307
0.0013595131458714604,-0.003430874552577734,-0.004780571907758713,0.0085334787145257,0.0,0.0018369097961112857
0.0016009480459615588,-0.003242823760956526,-0.005158179439604282,0.008413764648139477,0.0,0.0017164472956210375
0.0016568619757890701,-0.0035528670996427536,-0.004941551946103573,0.00921308621764183,0.0,0.0015893438830971718
0.0019355621188879013,-0.0037708706222474575,-0.0047266194596886635,0.008837253786623478,0.0,0.0015389544423669577
0.001912377425469458,-0.003967474214732647,-0.004746093414723873,0.008433663286268711,0.0,0.0015249305870383978
0.001852072891779244,-0.0034952436108142138,-0.004745955113321543,0.008747542276978493,0.0,0.0014797679614275694
0.001836672774516046,-0.00359304528683424,-0.004710182547569275,0.008912132121622562,0.0,0.0014921603724360466
0.001853200956247747,-0.0037244900595396757,-0.004945938475430012,0.008774438872933388,0.0,0.0014266427606344223
0.0018534045666456223,-0.004205447621643543,-0.0048857321962714195,0.00845087505877018,0.0,0.0014460025122389197
0.0020133680664002895,-0.004226472694426775,-0.004524059593677521,0.008933053351938725,0.0,0.0014101910637691617
0.00205012084916234,-0.003932926803827286,-0.004593207035213709,0.008948428556323051,0.0,0.0013726992765441537
0.0020737324375659227,-0.0037114708684384823,-0.005129811353981495,0.008947531692683697,0.0,0.001507055596448481
0.002003687433898449,-0.0038791263941675425,-0.004968356806784868,0.00929167214781046,0.0,0.0015468673082068563
0.0018875073874369264,-0.0034837250132113695,-0.004990044049918652,0.009519546292722225,0.0,0.0016077739419415593
0.0018732179887592793,-0.0035665887407958508,-0.004841707646846771,0.00929893460124731,0.0,0.0015758178196847439
0.0021079780999571085,-0.0036280963104218245,-0.004883440211415291,0.009013384580612183,0.0,0.0014830389991402626
0.0019381290767341852,-0.0037223794497549534,-0.004738328512758017,0.00960039533674717,0.0,0.001477978890761733
0.0020406676921993494,-0.0037877110298722982,-0.005185266025364399,0.008312994614243507,0.0,0.001452030846849084
0.002216218039393425,-0.003408248070627451,-0.004664964973926544,0.008865457959473133,0.0,0.0014730957336723804
0.0022487968672066927,-0.0032675585243850946,-0.004589109681546688,0.00840504840016365,0.0,0.0014366430696099997
0.0022041508927941322,-0.0034647255670279264,-0.004904907662421465,0.008127396926283836,0.0,0.001478279591538012
0.0022041508927941322,-0.0034647255670279264,-0.004904907662421465,0.008127396926283836,0.0,0.001478279591538012
0.0023944026324898005,-0.0037026109639555216,-0.0049437484703958035,0.008820822462439537,0.0,0.001420896383933723
0.0021294602192938328,-0.0036881377454847097,-0.004917305428534746,0.008884839713573456,0.0,0.0013545990223065019
0.0021521004382520914,-0.003567487234249711,-0.005095251835882664,0.008930373005568981,0.0,0.0013996303314343095
0.0021180433686822653,-0.003401406342163682,-0.004886134993284941,0.008628644980490208,0.0,0.0013285366585478187
0.0018204422667622566,-0.0035079042427241802,-0.00480332225561142,0.009111997671425343,0.0,0.0013945134123787284
0.0013641738332808018,-0.0037006468046456575,-0.005151704885065556,0.00866932887583971,0.0,0.0013858403544873
0.0009720133384689689,-0.003777447622269392,-0.004985359497368336,0.008368592709302902,0.0,0.0013928429689258337
0.000755465414840728,-0.003856400493532419,-0.0051597487181425095,0.00891847349703312,0.0,0.0013903820654377341
0.0006461145239882171,-0.003912196960300207,-0.005452197976410389,0.009121510200202465,0.0,0.0013260140549391508
0.0006729747401550412,-0.00389692815952003,-0.005120493471622467,0.008703191764652729,0.0,0.0013278202386572957
0.0006902231252752244,-0.003847650485113263,-0.005150305572897196,0.009002049453556538,0.0,0.0012606852687895298
0.0006319059175439179,-0.003789537353441119,-0.005048866383731365,0.0087227588519454,0.0,0.0012326951837167144
0.000574412930291146,-0.0037121272180229425,-0.005830931011587381,0.008503292687237263,0.0,0.00130779470782727
0.0005264016799628735,-0.0034693453926593065,-0.005608079489320517,0.008544468320906162,0.0,0.0015958556905388832
0.00048579680151306093,-0.003416311927139759,-0.005889024585485458,0.008856484666466713,0.0,0.0016237314557656646
0.00045101079740561545,-0.0036851533222943544,-0.005361676216125488,0.008722901344299316,0.0,0.0017882150132209063
0.00048013401101343334,-0.0038475205656141043,-0.0049484181217849255,0.008442548103630543,0.0,0.0016963270027190447
0.00045086018508300185,-0.003892216132953763,-0.005197714548557997,0.00868152268230915,0.0,0.0015879925340414047
0.00042429796303622425,-0.0035209166817367077,-0.005562697537243366,0.00881204754114151,0.0,0.0015269685536623001
0.00040295618236996233,-0.003464029636234045,-0.00550919258967042,0.008751274086534977,0.0,0.0015299518126994371
0.00026315724244341254,-0.0036029911134392023,-0.005049052182585001,0.008836433291435242,0.0,0.0014836087357252836
0.00028087093960493803,-0.0036505910102277994,-0.005472627002745867,0.008957150392234325,0.0,0.0016445452347397804
0.00030989458900876343,-0.003625510958954692,-0.005130666308104992,0.00906396098434925,0.0,0.0015904071042314172
0.00030989458900876343,-0.003625510958954692,-0.005130666308104992,0.00906396098434925,0.0,0.0015904071042314172
0.00033439573599025607,-0.0036174305714666843,-0.005876278039067984,0.009165527299046516,0.0,0.0016037877649068832
0.0003265288833063096,-0.003650856437161565,-0.005510583519935608,0.008905827067792416,0.0,0.0014350272249430418
0.0006355733494274318,-0.003640247043222189,-0.0053559704683721066,0.008699605241417885,0.0,0.0014396212063729763
0.0006716224597766995,-0.0031323495786637068,-0.005063110031187534,0.009261222556233406,0.0,0.0013852984411641955
0.0006635108147747815,-0.0029814904555678368,-0.0053120809607207775,0.009243981912732124,0.0,0.0013152154861018062
0.0006282688700594008,-0.0029507149010896683,-0.00571849150583148,0.008236611261963844,0.0,0.0013565461849793792
0.000649862049613148,-0.0030485480092465878,-0.005997252184897661,0.008734478615224361,0.0,0.00132128712721169
0.000598910148255527,-0.0029001205693930387,-0.005271038971841335,0.009156756103038788,0.0,0.001269388129003346
0.0006019072607159615,-0.0030433745123445988,-0.005345968995243311,0.00926184095442295,0.0,0.0013212960911914706
0.0005540875717997551,-0.0033274705056101084,-0.005526403430849314,0.00907202623784542,0.0,0.0012934659607708454
0.0005881034303456545,-0.002906197914853692,-0.005327432416379452,0.009319057688117027,0.0,0.0014225342310965061
0.0005916081718169153,-0.0027280503418296576,-0.005972992163151503,0.009041485376656055,0.0,0.0013869713293388486
0.0005662683979608119,-0.0027734471950680017,-0.00555127440020442,0.008214588277041912,0.0,0.0013231888879090548
0.000585195841267705,-0.0030707039404660463,-0.005249204114079475,0.008708372712135315,0.0,0.0013660142431035638
0.0005487473681569099,-0.003340573515743017,-0.005264065694063902,0.009039458818733692,0.0,0.0013339129509404302
0.0006201522191986442,-0.0034562163054943085,-0.00563832325860858,0.008741109631955624,0.0,0.0012811025371775031
0.0006578870816156268,-0.00318142119795084,-0.0053808419033885,0.00905836932361126,0.0,0.0013160401722416282
0.0007479309570044279,-0.0028538417536765337,-0.005502413958311081,0.009579041041433811,0.0,0.0013185931602492929
0.0009996936423704028,-0.0028492684941738844,-0.0056123267859220505,0.008712014183402061,0.0,0.001286294194869697
0.0012353014899417758,-0.002973848022520542,-0.00521173607558012,0.008445046842098236,0.0,0.0015153938438743353
0.0012353014899417758,-0.002973848022520542,-0.00521173607558012,0.008445046842098236,0.0,0.0015153938438743353
0.0010654488578438759,-0.0029087774455547333,-0.00516938092187047,0.008353323675692081,0.0,0.0015947880456224084
0.0010654488578438759,-0.0029087774455547333,-0.00516938092187047,0.008353323675692081,0.0,0.0015947880456224084
0.0009928332874551415,-0.003172662341967225,-0.005195220932364464,0.008665105327963829,0.0,0.0014780963538214564
0.0009765448630787432,-0.003145019058138132,-0.005405642092227936,0.008428642526268959,0.0,0.001517710741609335
0.0008982028812170029,-0.0030788613948971033,-0.0051135290414094925,0.008560691960155964,0.0,0.0016471175476908684
0.0008982028812170029,-0.0030788613948971033,-0.0051135290414094925,0.008560691960155964,0.0,0.0016471175476908684
0.0010351646924391389,-0.0030177049338817596,-0.005434780847281218,0.009338627569377422,0.0,0.0015555046265944839
0.0010280831484124064,-0.002858651103451848,-0.005686684511601925,0.008755494840443134,0.0,0.0014510892797261477
0.0014820108190178871,-0.0031422872561961412,-0.005545976106077433,0.00835598073899746,0.0,0.0014510791515931487
0.0013875182485207915,-0.0030940575525164604,-0.005399873945862055,0.009130180813372135,0.0,0.001369666075333953
0.0013039734913036227,-0.0028774773236364126,-0.005484891589730978,0.008681448176503181,0.0,0.0014319553738459945
0.0013363409088924527,-0.0029770347755402327,-0.005163687281310558,0.00830069836229086,0.0,0.0015392607310786843
0.0012944190530106425,-0.0029700822196900845,-0.005309872329235077,0.008495495654642582,0.0,0.0015062391757965088
0.0012394553050398827,-0.002916788449510932,-0.005369281396269798,0.008636933751404285,0.0,0.001637547742575407
0.0013738673878833652,-0.003303133649751544,-0.004911924712359905,0.008627966046333313,0.0,0.0016802686732262373
0.0013258320977911353,-0.003168535651639104,-0.004927193280309439,0.00846078060567379,0.0,0.0016620841342955828
0.001288540312089026,-0.0031933612190186977,-0.005234161391854286,0.008581064641475677,0.0,0.0015737051144242287
0.0015819068066775799,-0.003180395346134901,-0.005089258309453726,0.008387390524148941,0.0,0.001498355413787067
0.0014933230122551322,-0.0031224731355905533,-0.005395569372922182,0.008225877769291401,0.0,0.0015526246279478073
0.0016348219942301512,-0.003395482199266553,-0.005088259465992451,0.008823185227811337,0.0,0.0015793148195371032
0.0015343985287472606,-0.0032356875017285347,-0.004867908079177141,0.009017684496939182,0.0,0.001731944503262639
0.001607429701834917,-0.0030565138440579176,-0.005058021750301123,0.009015954099595547,0.0,0.001590777188539505
0.0017197428969666362,-0.002992651890963316,-0.004917698446661234,0.008324136026203632,0.0,0.0014996835961937904
0.0016191524919122458,-0.0031631176825612783,-0.004786290694028139,0.00878662895411253,0.0,0.0014649054501205683
0.0016191524919122458,-0.0031631176825612783,-0.004786290694028139,0.00878662895411253,0.0,0.0014649054501205683
0.0018297837814316154,-0.0031608478166162968,-0.005148796364665031,0.008846412412822247,0.0,0.0015038213459774852
0.0016300026327371597,-0.0032957070507109165,-0.005029553081840277,0.008694968186318874,0.0,0.0016713422955945134
0.0016687479801476002,-0.0029421395156532526,-0.00533696822822094,0.008663337677717209,0.0,0.001766245812177658
0.0018686347175389528,-0.0030359216034412384,-0.005067780613899231,0.00822459813207388,0.0,0.0018143269699066877
0.0018777083605527878,-0.003132664365693927,-0.005484143737703562,0.007986892946064472,0.0,0.0019205475691705942
0.0019480708288028836,-0.0033270029816776514,-0.0053205182775855064,0.008155266754329205,0.0,0.0017809965647757053
0.0019274447113275528,-0.003143380396068096,-0.004956627730280161,0.00865491945296526,0.0,0.0017453565960749984
0.0019927488174289465,-0.0028339270502328873,-0.005165312439203262,0.008289164863526821,0.0,0.001726874033920467
0.0019570530857890844,-0.0029780245386064053,-0.005060323514044285,0.008585544303059578,0.0,0.0016758318524807692
0.002023524371907115,-0.0029994426295161247,-0.00526688527315855,0.008762268349528313,0.0,0.0018251963192597032
0.0019696997478604317,-0.0031810759101063013,-0.005416044499725103,0.00808802805840969,0.0,0.0017584970919415355
0.0019948601257056,-0.003316350979730487,-0.005275731440633535,0.008412004448473454,0.0,0.001931451610289514
0.001948807155713439,-0.002953222254291177,-0.005251931492239237,0.00861458107829094,0.0,0.001852417946793139
0.0019603315740823746,-0.0030527610797435045,-0.005023528356105089,0.008498023264110088,0.0,0.0019408396910876036
0.002005154499784112,-0.003024050500243902,-0.004932313691824675,0.008155375719070435,0.0,0.0018203889485448599
0.0024729983415454626,-0.002978938166052103,-0.0052163079380989075,0.008708185516297817,0.0,0.001765458844602108
0.0024227965623140335,-0.0027605171781033278,-0.005372608546167612,0.008596807718276978,0.0,0.001739020342938602
0.0023300715256482363,-0.0028452908154577017,-0.005476410500705242,0.008337162435054779,0.0,0.0017872655298560858
0.002388694789260626,-0.002926442539319396,-0.005055350251495838,0.008750480599701405,0.0,0.0017309596296399832
0.0021423054859042168,-0.0030093404930084944,-0.005234038457274437,0.008733436465263367,0.0,0.0018288979772478342
0.002140612807124853,-0.002858104184269905,-0.005480668507516384,0.008459196425974369,0.0,0.0018595285946503282
0.0023653709795325994,-0.0031504682265222073,-0.0052164895460009575,0.008373841643333435,0.0,0.0020254284609109163
0.0022883268538862467,-0.0033279703930020332,-0.005467525217682123,0.00856353621929884,0.0,0.001993803307414055
0.0024523024912923574,-0.0032006436958909035,-0.00508060771971941,0.007863958366215229,0.0,0.0019692550413310528
0.0024523024912923574,-0.0032006436958909035,-0.00508060771971941,0.007863958366215229,0.0,0.0019692550413310528
0.0023495734203606844,-0.003101666457951069,-0.00512647395953536,0.00783667154610157,0.0,0.0019380758749321103
0.002454309491440654,-0.003257048549130559,-0.005377128720283508,0.008177271112799644,0.0,0.0019456655718386173
0.002310943091288209,-0.0030418315436691046,-0.005412852391600609,0.008208084851503372,0.0,0.0021288376301527023
0.002676477422937751,-0.003183850320056081,-0.005625856574624777,0.007556975353509188,0.0,0.002149872714653611
0.0029297047294676304,-0.0033230583649128675,-0.005648094229400158,0.008173005655407906,0.0,0.0020505418069660664
0.0029696968849748373,-0.003170963376760483,-0.005123070441186428,0.008236958645284176,0.0,0.001874482142738998
0.00269961915910244,-0.002973441034555435,-0.005278836935758591,0.008570202626287937,0.0,0.001611117972061038
0.0025822108145803213,-0.0032072565518319607,-0.0054651168175041676,0.008168397471308708,0.0,0.001493387040682137
0.0025797837879508734,-0.0033090501092374325,-0.005369849503040314,0.008739846758544445,0.0,0.0015313460025936365
0.0025136047042906284,-0.00342969736084342,-0.0058098891749978065,0.0084381690248847,0.0,0.0017732169944792986
0.0028464386705309153,-0.0032170384656637907,-0.005156331695616245,0.008186052553355694,0.0,0.0022008162923157215
0.003018611343577504,-0.003028850769624114,-0.004941597580909729,0.008138160221278667,0.0,0.0022774573881179094
0.002900790423154831,-0.002820196794345975,-0.005407653748989105,0.008502029813826084,0.0,0.0023348575923591852
0.0027412185445427895,-0.0029530867468565702,-0.005677836947143078,0.008355173282325268,0.0,0.0021089911460876465
0.002705017803236842,-0.0030152311082929373,-0.005922223441302776,0.008290097117424011,0.0,0.001996436156332493
0.003084786469116807,-0.0032324381172657013,-0.006040804088115692,0.008107393980026245,0.0,0.0018043873133137822
0.003213322488591075,-0.0031304031144827604,-0.005360576324164867,0.00851605273783207,0.0,0.0019509384874254465
0.0030640428885817528,-0.002971458015963435,-0.005468726623803377,0.009065361693501472,0.0,0.001849620370194316
0.002783352741971612,-0.0030137719586491585,-0.005758208688348532,0.008978979662060738,0.0,0.002070261863991618
0.0028917042072862387,-0.0032088018488138914,-0.005777306854724884,0.008638395927846432,0.0,0.002081712009385228
0.0029800015036016703,-0.0031756111420691013,-0.005742149893194437,0.008625207468867302,0.0,0.0022262597922235727
0.0032470091246068478,-0.002866920782253146,-0.005254392046481371,0.009035422466695309,0.0,0.0022186117712408304
0.00288567622192204,-0.0029919217340648174,-0.005437841638922691,0.008695130236446857,0.0,0.0021607668604701757
0.00288567622192204,-0.0029919217340648174,-0.005437841638922691,0.008695130236446857,0.0,0.0021607668604701757
0.003049324033781886,-0.002916117897257209,-0.00611811364069581,0.008546016179025173,0.0,0.00208907388150692
0.003050265833735466,-0.0029633594676852226,-0.006462728604674339,0.008601176552474499,0.0,0.0021707192063331604
0.003050265833735466,-0.0029633594676852226,-0.006462728604674339,0.008601176552474499,0.0,0.0021707192063331604
0.003051738254725933,-0.0029812094289809465,-0.0053134821355342865,0.008968513458967209,0.0,0.0024225476663559675
0.003051738254725933,-0.0029812094289809465,-0.0053134821355342865,0.008968513458967209,0.0,0.0024225476663559675
0.0030428036116063595,-0.0033040798734873533,-0.005469515919685364,0.009304860606789589,0.0,0.0026467018760740757
0.0033937888219952583,-0.0031800339929759502,-0.006081853993237019,0.008238453418016434,0.0,0.002662510611116886
0.0035151897463947535,-0.002962979255244136,-0.0059540108777582645,0.008456464856863022,0.0,0.0027054259553551674
0.003085904521867633,-0.0031862217001616955,-0.005766204092651606,0.008623036555945873,0.0,0.0024224333465099335
0.002772051841020584,-0.002964495215564966,-0.006014101207256317,0.00851715262979269,0.0,0.0023496185895055532
0.002969621680676937,-0.0031425144989043474,-0.005987484939396381,0.008179661817848682,0.0,0.0024828792084008455
0.0035044983960688114,-0.003325435798615217,-0.0061918459832668304,0.008310442790389061,0.0,0.0025482717901468277
0.003745873924344778,-0.003136612940579653,-0.006518149748444557,0.007920559495687485,0.0,0.0025803742464631796
0.0037648919969797134,-0.0035745929926633835,-0.006058008875697851,0.008253831416368484,0.0,0.0027622003108263016
0.0033413476776331663,-0.0037989781703799963,-0.005882449448108673,0.007893532514572144,0.0,0.0025860676541924477
0.003559861332178116,-0.0038507168646901846,-0.006184672005474567,0.008251920342445374,0.0,0.002454007975757122
0.0038312289398163557,-0.003355824388563633,-0.006121154874563217,0.008444452658295631,0.0,0.002449559746310115
0.003359441412612796,-0.0029752785339951515,-0.0063279252499341965,0.008150468580424786,0.0,0.0024756016209721565
0.003316867398098111,-0.0031199308577924967,-0.006524439435452223,0.008431576192378998,0.0,0.0025214452762156725
0.003465169807896018,-0.0033453914802521467,-0.005812448915094137,0.008991892449557781,1.489594865233812e-06,0.0028005153872072697
0.003450646298006177,-0.0032300727907568216,-0.006408519111573696,0.008354422636330128,9.725989258413392e-08,0.0028083312790840864
0.0036233181599527597,-0.0029549263417720795,-0.006189560983330011,0.007969955913722515,6.350375780783679e-09,0.0028444661293178797
0.0030725174583494663,-0.0033008067402988672,-0.006015497725456953,0.00901057943701744,4.1463416033948874e-10,0.002760250587016344
0.002774936379864812,-0.0036572562530636787,-0.0064797732047736645,0.00817855540663004,2.7072647942882888e-11,0.0028927605599164963
0.002394888550043106,-0.003789377398788929,-0.006071033887565136,0.00804810132831335,1.7676503706945401e-12,0.0028771760407835245
0.0025161721277981997,-0.0032628432381898165,-0.006099817808717489,0.009129713289439678,1.1541493401181352e-13,0.0025804340839385986
0.0025161721277981997,-0.0032628432381898165,-0.006099817808717489,0.009129713289439678,1.1541493401181352e-13,0.0025804340839385986
0.002714053727686405,-0.0030649639666080475,-0.006519721355289221,0.009168334305286407,7.535770916783022e-15,0.002588502364233136
0.0028631961904466152,-0.003375106258317828,-0.006475420668721199,0.008628134615719318,4.920319628789257e-16,0.002734690671786666
0.003099713008850813,-0.003298236522823572,-0.006064830347895622,0.008847391232848167,3.21261729792325e-17,0.003199848113581538
0.002784846117720008,-0.0032588939648121595,-0.006433098576962948,0.00851241871714592,2.0976094718601986e-18,0.003250025911256671
0.002664783503860235,-0.0029392605647444725,-0.006334791891276836,0.008276457898318768,8.942438768189809e-21,0.0030104464385658503
0.0027805813588202,-0.0031073852442204952,-0.005690210964530706,0.0086293276399374,5.838773301308279e-22,0.002744116121903062
0.0028145709075033665,-0.0035011214204132557,-0.005425814539194107,0.008896364830434322,3.8123022220238925e-23,0.0026976573280990124
0.002709766384214163,-0.003718671156093478,-0.00590709550306201,0.008068953640758991,2.489160853496934e-24,0.0026634996756911278
0.0029025820549577475,-0.003017523093149066,-0.0063055637292563915,0.008110334165394306,1.625244393746251e-25,0.003090709215030074
0.002906218869611621,-0.002766416873782873,-0.006224200129508972,0.008572005666792393,1.0611683711695164e-26,0.003358165267854929
0.0028614336624741554,-0.0026847412809729576,-0.005923713557422161,0.008506919257342815,6.928670678924105e-28,0.003234547795727849
0.0027392206247895956,-0.002795784967020154,-0.00561036029830575,0.00858975201845169,4.523926985489873e-29,0.0028788521885871887
0.0028601274825632572,-0.0029813845176249743,-0.005723136477172375,0.008610973134636879,2.9538012007349533e-30,0.002784127602353692
0.003263663500547409,-0.002838163636624813,-0.006204331759363413,0.008667933754622936,1.9286210036045733e-31,0.0029570243787020445
0.0032102023251354694,-0.0028624676633626223,-0.006031062453985214,0.008599339053034782,1.259251702864634e-32,0.0032686113845556974
0.00303921801969409,-0.002828791970387101,-0.005956579931080341,0.00818837620317936,8.222013603925722e-34,0.0034216211643069983
0.0029384526424109936,-0.0027865679003298283,-0.005596178118139505,0.00889701396226883,5.368386846906272e-35,0.0032081562094390392
0.0030204036738723516,-0.0024712011218070984,-0.006025774870067835,0.008418252691626549,3.505172912569326e-36,0.003451684722676873
0.0032586061861366034,-0.0021205919329077005,-0.006413506809622049,0.008299245499074459,2.2886275568658063e-37,0.003323368262499571
0.0033650279510766268,-0.0019663965795189142,-0.005979256238788366,0.008428521454334259,1.494310350543609e-38,0.003474231343716383
0.003222040832042694,-0.0017873916076496243,-0.006133364047855139,0.008584590628743172,6.370442948667051e-41,0.003326589474454522
0.003222040832042694,-0.0017873916076496243,-0.006133364047855139,0.008584590628743172,6.370442948667051e-41,0.003326589474454522
0.00305742584168911,-0.002015562728047371,-0.00638304790481925,0.008482196368277073,4.159053842116057e-42,0.0034914135467261076
0.0033616535365581512,-0.002058872953057289,-0.006670590490102768,0.008622726425528526,2.718519020790145e-43,0.00362464995123446
0.0030575122218579054,-0.0023893176112324,-0.006224492564797401,0.00862277951091528,1.8216880036222622e-44,0.0035986003931611776
0.0030575122218579054,-0.0023893176112324,-0.006224492564797401,0.00862277951091528,1.8216880036222622e-44,0.0035986003931611776
0.003355941502377391,-0.002101982943713665,-0.005899067036807537,0.008843770250678062,0.0,0.0034146227408200502
0.003633021144196391,-0.0018545803613960743,-0.006093162577599287,0.008441885933279991,0.0,0.0037152592558413744
0.003633021144196391,-0.0018545803613960743,-0.006093162577599287,0.008441885933279991,0.0,0.0037152592558413744
0.0037709162570536137,-0.001712171477265656,-0.005698717664927244,0.008321350440382957,0.0,0.0036516673862934113
0.0034936312586069107,-0.0018671487923711538,-0.0056029800325632095,0.00847519002854824,0.0,0.003461359068751335
0.003695159452036023,-0.001874915324151516,-0.005587184801697731,0.008367551490664482,0.0,0.0036069443449378014
0.003942088223993778,-0.002359258709475398,-0.005820275750011206,0.008256683126091957,0.0,0.0037467917427420616
0.0039427331648766994,-0.0021672267466783524,-0.006677761673927307,0.008745946921408176,0.0,0.003747614100575447
0.0038070024456828833,-0.0023346699308604,-0.0060899690724909306,0.008599803782999516,0.0,0.0036738160997629166
0.0038834968581795692,-0.0020765962544828653,-0.005696120671927929,0.007916069589555264,0.0,0.0036765325348824263
0.004013510886579752,-0.0021778016816824675,-0.005994592793285847,0.00857335515320301,0.0,0.0037022531032562256
0.0039983633905649185,-0.002135797869414091,-0.005440925247967243,0.008523323573172092,0.0,0.004149464424699545
0.003819181816652417,-0.002055006567388773,-0.006100451573729515,0.008220251649618149,0.0,0.004628588445484638
0.003778167301788926,-0.002148438012227416,-0.006590487435460091,0.007635291200131178,0.0,0.004210039507597685
0.0038207084871828556,-0.0020987442694604397,-0.006165685132145882,0.00783135462552309,0.0,0.0035465755499899387
0.0037985709495842457,-0.002285053487867117,-0.005894897505640984,0.00859108380973339,0.0,0.0036112689413130283
0.0037277829833328724,-0.002176248701289296,-0.005661130417138338,0.008179609663784504,0.0,0.004020607564598322
0.004029971081763506,-0.00230008945800364,-0.00631998386234045,0.008169438689947128,0.0,0.004289338365197182
0.00417941203340888,-0.002248763805255294,-0.006618195213377476,0.007991115562617779,0.0,0.004067652393132448
0.004039827734231949,-0.0022053897846490145,-0.006208600476384163,0.007909356616437435,0.0,0.004147832281887531
0.004085533786565065,-0.0023459778167307377,-0.006153541151434183,0.007539619226008654,0.0,0.0040486338548362255
0.004062767140567303,-0.002334109041839838,-0.005666985176503658,0.007931564934551716,0.0,0.004365428350865841
0.003892870619893074,-0.002490125596523285,-0.005192992277443409,0.00848344061523676,0.0,0.004510111175477505
0.004227736499160528,-0.0024094143882393837,-0.006740700453519821,0.00795851182192564,0.0,0.004341810010373592
0.004227736499160528,-0.0024094143882393837,-0.006740700453519821,0.00795851182192564,0.0,0.004341810010373592
0.004132931120693684,-0.002321448177099228,-0.00692798662930727,0.007984837517142296,0.0,0.004472614731639624
0.004091364331543446,-0.0023644035682082176,-0.005830551031976938,0.008189355954527855,0.0,0.004355117678642273
0.004810992628335953,-0.002280759857967496,-0.006313844583928585,0.008809706196188927,0.0,0.005002910736948252
0.004339869134128094,-0.0022146825212985277,-0.006244154181331396,0.008041583001613617,0.0,0.004784019198268652
0.004349145572632551,-0.0021799092646688223,-0.005907672457396984,0.008267327211797237,0.0,0.004356092773377895
0.0044993143528699875,-0.0020780533086508512,-0.005745457019656897,0.008778541348874569,0.0,0.004184979014098644
0.004231479950249195,-0.0020045065321028233,-0.006326455157250166,0.008481733500957489,0.0,0.0044316137209534645
0.004524851217865944,-0.001953767379745841,-0.006836710963398218,0.008527408353984356,0.0,0.004547094460576773
0.004740503150969744,-0.0019167497521266341,-0.006500003393739462,0.008457379415631294,0.0,0.004787564743310213
0.004766767844557762,-0.00216868263669312,-0.005602736491709948,0.008854128420352936,0.0,0.00488339364528656
0.005098921712487936,-0.0021999566815793514,-0.0058496687561273575,0.008427565917372704,0.0,0.0050630224868655205
0.0044914125464856625,-0.0024036653339862823,-0.005978086031973362,0.008472333662211895,0.0,0.0049813054502010345
0.004511727020144463,-0.0024259716738015413,-0.00666440837085247,0.008338555693626404,0.0,0.004819491878151894
0.004421763587743044,-0.0022803684696555138,-0.00658844318240881,0.008278616704046726,0.0,0.004706280305981636
0.004911759402602911,-0.002058529993519187,-0.005269763991236687,0.009370972402393818,0.0,0.004379358608275652
0.00480553787201643,-0.0021076526027172804,-0.00579003756865859,0.00829603523015976,0.0,0.004427472595125437
0.00480553787201643,-0.0021076526027172804,-0.00579003756865859,0.00829603523015976,0.0,0.004427472595125437
0.004676984157413244,-0.0020599544513970613,-0.006417496595531702,0.008450062945485115,0.0,0.00422986876219511
0.004524192772805691,-0.0022588970605283976,-0.006673742085695267,0.00854936521500349,0.0,0.004079857375472784
0.004625741858035326,-0.002191886305809021,-0.006401055958122015,0.008426856249570847,0.0,0.003984547685831785
0.004625741858035326,-0.002191886305809021,-0.006401055958122015,0.008426856249570847,0.0,0.003984547685831785
0.004827943164855242,-0.002068424364551902,-0.0063209980726242065,0.008736178278923035,0.0,0.004180482123047113
0.005120506510138512,-0.0019971984438598156,-0.00651649571955204,0.008647410199046135,0.0,0.004638881888240576
0.005120506510138512,-0.0019971984438598156,-0.00651649571955204,0.008647410199046135,0.0,0.004638881888240576
0.0048430184833705425,-0.0019068437395617366,-0.006402209401130676,0.008524763397872448,0.0,0.00467277318239212
0.004591666162014008,-0.0019486958626657724,-0.006659697741270065,0.00907206628471613,0.0,0.0041927858255803585
0.004712820518761873,-0.0024056576658040285,-0.006660833023488522,0.008665655739605427,0.0,0.0041651651263237
0.004872114397585392,-0.0024449541233479977,-0.0061761620454490185,0.007837762124836445,0.0,0.0045664357021451
0.005360446870326996,-0.0024359733797609806,-0.005971116479486227,0.008687309920787811,0.0,0.004875535611063242
0.005522087216377258,-0.002441812539473176,-0.006666216999292374,0.008136489428579807,0.0,0.004873037803918123
0.0047050174325704575,-0.002282088389620185,-0.007580743171274662,0.007862141355872154,0.0,0.004551360849291086
0.0045412625186145306,-0.0022900018375366926,-0.006997368764132261,0.007723401300609112,0.0,0.00431331479921937
0.004999651573598385,-0.0022350505460053682,-0.006106456276029348,0.00824371911585331,0.0,0.004280544817447662
0.0051643094047904015,-0.0023358177859336138,-0.006192189175635576,0.008564725518226624,0.0,0.004467674531042576
0.005153737962245941,-0.002465497935190797,-0.006698648910969496,0.008469056338071823,0.0,0.0046426886692643166
0.004920692183077335,-0.0023917502257972956,-0.006515209097415209,0.008420322090387344,0.0,0.004739226307719946
0.00469581875950098,-0.002491861814633012,-0.006521313451230526,0.008918938226997852,0.0,0.004729268606752157
0.004498399794101715,-0.002213736530393362,-0.0066972956992685795,0.008297068998217583,0.0,0.004433947149664164
0.004302424378693104,-0.002323988825082779,-0.006196015980094671,0.00851517729461193,0.0,0.004062426742166281
0.00485581997781992,-0.0025612465105950832,-0.006232685875147581,0.009102900512516499,0.0,0.003919614478945732
0.0048918453976511955,-0.0029232113156467676,-0.006455095484852791,0.008388549089431763,0.0,0.0038521974347531796
0.005284585058689117,-0.0028070949483662844,-0.006444745697081089,0.007987065240740776,0.0,0.004114251583814621
0.00549354450777173,-0.002840247470885515,-0.006159831304103136,0.00817897729575634,0.0,0.00423036515712738
0.004844339564442635,-0.0024527357891201973,-0.0065668486058712006,0.00837593525648117,0.0,0.0044428142718970776
0.005646354053169489,-0.0023219564463943243,-0.007226932793855667,0.00838736817240715,0.0,0.0044279806315898895
0.005384822841733694,-0.0022997171618044376,-0.006480834446847439,0.008776170201599598,0.0,0.00431798817589879
0.005371209233999252,-0.00233005965128541,-0.006102340761572123,0.009162855334579945,0.0,0.0044060819782316685
0.005371209233999252,-0.00233005965128541,-0.006102340761572123,0.009162855334579945,0.0,0.0044060819782316685
0.0051855663768947124,-0.0027041262947022915,-0.006808322388678789,0.008475536480545998,0.0,0.004457179456949234
0.005223216954618692,-0.00237026484683156,-0.007342987693846226,0.008921743370592594,0.0,0.004642086569219828
0.005223216954618692,-0.00237026484683156,-0.007342987693846226,0.008921743370592594,0.0,0.004642086569219828
0.005611438769847155,-0.002086271531879902,-0.006226398516446352,0.008669337257742882,0.0,0.0043729026801884174
0.005214781034737825,-0.002231332240626216,-0.006182488985359669,0.008885160088539124,0.0,0.00471103610470891
0.005864937789738178,-0.00263385777361691,-0.006863811984658241,0.008983383886516094,0.0,0.004515164997428656
0.005390835460275412,-0.0028090141713619232,-0.0073456051759421825,0.008640632033348083,0.0,0.0045342822559177876
0.005471669603139162,-0.002634902484714985,-0.006995223928242922,0.008360549807548523,0.0,0.004290924873203039
0.005810259375721216,-0.0025929133407771587,-0.0074256365187466145,0.009259437210857868,0.0,0.004429588560014963
0.0053274789825081825,-0.002219423884525895,-0.0068187047727406025,0.008773034438490868,-7.408313103951514e-05,0.005074094980955124
0.005687939468771219,-0.002279706997796893,-0.006892034318298101,0.009019101038575172,-0.00011326317326165736,0.004598410800099373
0.005753892939537764,-0.00230988347902894,-0.006373279727995396,0.009311842732131481,-0.000113096677523572,0.004573096055537462
0.005731754470616579,-0.002265532501041889,-0.0065133897587656975,0.008983902633190155,-0.00011049456225009635,0.004522738978266716
0.006166965235024691,-0.0024048129562288523,-0.007331240922212601,0.008452688343822956,-0.00010785752965603024,0.004714488983154297
0.0054555851966142654,-0.0024672241415828466,-0.006935835350304842,0.008777671493589878,-0.00012499169679358602,0.004826919175684452
0.0054265279322862625,-0.002343354979529977,-0.006418475415557623,0.008830870501697063,-0.00012341720866970718,0.005157350096851587
0.0057779643684625626,-0.002398640615865588,-0.006466560065746307,0.00858860183507204,-0.00012074114056304097,0.004998063202947378
0.006515887565910816,-0.0023663451429456472,-0.0067527201026678085,0.008184767328202724,-0.000118106028821785,0.005127101205289364
0.006800588220357895,-0.0025163169484585524,-0.006618122570216656,0.008570347912609577,-0.00011557825928321108,0.004958199802786112
0.006202664226293564,-0.00272280047647655,-0.007171025965362787,0.008340704254806042,-0.00011315644951537251,0.00496307946741581
0.006270267069339752,-0.002388589084148407,-0.006981581915169954,0.008286502212285995,-0.00011083378922194242,0.005459866486489773
0.0061843800358474255,-0.002288601826876402,-0.00641091400757432,0.008909675292670727,-0.00012203299411339685,0.0054693459533154964
0.0071371132507920265,-0.002067486522719264,-0.006601828150451183,0.009430714882910252,-0.00012390220945235342,0.0051245312206447124
0.006957530975341797,-0.002195570385083556,-0.007352178450673819,0.008790096268057823,-0.00012178595352452248,0.0052441805601119995
0.006126131862401962,-0.0023071300238370895,-0.0069254678674042225,0.008710923604667187,-0.0001194941287394613,0.005471694748848677
0.006124324630945921,-0.002291562967002392,-0.006849481258541346,0.008661957457661629,-0.00011727095989044756,0.005184935871511698
0.006124324630945921,-0.002291562967002392,-0.006849481258541346,0.008661957457661629,-0.00011727095989044756,0.005184935871511698
0.006340621039271355,-0.0024174596183001995,-0.007032508961856365,0.008677654899656773,-0.00012893664825242013,0.005237671546638012
0.006631042808294296,-0.002074600663036108,-0.006637518759816885,0.008503096178174019,-0.00012473520473577082,0.00494565861299634
0.006631042808294296,-0.002074600663036108,-0.006637518759816885,0.008503096178174019,-0.00012473520473577082,0.00494565861299634
0.006453244481235743,-0.0021238781046122313,-0.00713720079511404,0.008110018447041512,-0.00012055916886311024,0.0055709476582705975
0.006453244481235743,-0.0021238781046122313,-0.00713720079511404,0.008110018447041512,-0.00012055916886311024,0.0055709476582705975
0.006465253420174122,-0.002088493900373578,-0.0073374537751078606,0.008345415815711021,-0.00015554930723737925,0.005848702974617481
0.006445302627980709,-0.0024187786038964987,-0.006588139105588198,0.008435439318418503,-0.00018433883087709546,0.005570806562900543
0.006617014762014151,-0.002185223391279578,-0.006734885741025209,0.008258010260760784,-0.00017929130990523845,0.0057621002197265625
0.006470188032835722,-0.002100022742524743,-0.0067844935692846775,0.00902345310896635,-0.00017256540013477206,0.005329838953912258
0.0069095720537006855,-0.0019354106625542045,-0.007696803193539381,0.00890222005546093,-0.00016620043606963009,0.005210913252085447
0.00687911082059145,-0.001918633235618472,-0.006965349428355694,0.0081280916929245,-0.00016028041136451066,0.0055560157634317875
0.007132740691304207,-0.00219336012378335,-0.006839951500296593,0.00794883631169796,-0.00015476782573387027,0.0060788895934820175
0.0067215124145150185,-0.0021797565277665854,-0.006745717953890562,0.008636100217700005,-0.00014962097338866442,0.00606814119964838
0.0067238821648061275,-0.002378485631197691,-0.007283910643309355,0.00866510346531868,-0.0001590082247275859,0.005938876420259476
0.006962583400309086,-0.0021379906684160233,-0.006908412557095289,0.008349483832716942,-0.00016738515114411712,0.005245890934020281
0.0070518609136343,-0.0021315058693289757,-0.007247763220220804,0.008954068645834923,-0.00016319600399583578,0.005231876391917467
0.00690735038369894,-0.0020656040869653225,-0.007717318832874298,0.008278044871985912,-0.0001584636338520795,0.005261175334453583
0.0067334542982280254,-0.002049610950052738,-0.007738464046269655,0.008111149072647095,-0.00015394914953503758,0.005779076833277941
0.007421428803354502,-0.002299913903698325,-0.007311783265322447,0.008123339153826237,-0.00014968177129048854,0.005935572553426027
0.0076457904651761055,-0.0022706177551299334,-0.006703608203679323,0.009008163586258888,-0.00014564456068910658,0.006264639552682638
0.006983487866818905,-0.002761797746643424,-0.007261922582983971,0.00815975945442915,-0.00014181916776578873,0.006321430671960115
0.006723332684487104,-0.0027205306105315685,-0.007856740616261959,0.00791045743972063,-0.00013818967272527516,0.005578586366027594
0.006975963711738586,-0.002499016234651208,-0.008192482404410839,0.008308355696499348,-0.00013474140723701566,0.00531298341229558
0.0077664912678301334,-0.002346471417695284,-0.00703730434179306,0.008372797630727291,-0.0001519045908935368,0.005413350649178028
0.007649459410458803,-0.0021106465719640255,-0.007544341497123241,0.008335242979228497,-0.0001496303011663258,0.005455798469483852
0.006934645120054483,-0.0021140894386917353,-0.007091039326041937,0.008519403636455536,-0.00014624367759097368,0.005893607623875141
0.006934645120054483,-0.0021140894386917353,-0.007091039326041937,0.008519403636455536,-0.00014624367759097368,0.005893607623875141
0.007553000468760729,-0.0024340341333299875,-0.0070800697430968285,0.007932297885417938,-0.00013672752538695931,0.005580046214163303
0.007062225136905909,-0.0020872203167527914,-0.006991280242800713,0.008311397396028042,-0.00013382328324951231,0.005660337395966053
0.007062225136905909,-0.0020872203167527914,-0.006991280242800713,0.008311397396028042,-0.00013382328324951231,0.005660337395966053
0.007193387020379305,-0.0015698412898927927,-0.007201036438345909,0.009090160019695759,-0.00014730323164258152,0.005923868622630835
0.007672491483390331,-0.001157888094894588,-0.006614654324948788,0.008862441405653954,-0.00014654759434051812,0.005971362814307213
0.008155635558068752,-0.0010804892517626286,-0.006830792408436537,0.008919655345380306,-0.0001437676983186975,0.006281943526118994
0.007838718593120575,-0.0010619667591527104,-0.007165166549384594,0.008693115785717964,-0.0001409625547239557,0.0063240681774914265
0.007855533622205257,-0.0010589731391519308,-0.007961425930261612,0.008325695991516113,-0.000138256378704682,0.006370845250785351
0.007693879771977663,-0.0011554477969184518,-0.007354706060141325,0.008250026032328606,-0.00013565170229412615,0.00646751094609499
0.007533447351306677,-0.001701254048384726,-0.006879762280732393,0.008875163272023201,-0.0001331430539721623,0.006591704674065113
0.00802176259458065,-0.0019467242527753115,-0.007358314469456673,0.008527659811079502,-0.00013072567526251078,0.006769496016204357
0.008023200556635857,-0.0017196332337334752,-0.0076908511109650135,0.00812403205782175,-0.00012839438568335027,0.0067596351727843285
0.007661804556846619,-0.0014173651579767466,-0.007187697570770979,0.008459714241325855,-0.0001261448924196884,0.0065509481355547905
0.007511429488658905,-0.0012255910551175475,-0.007128728553652763,0.00891227275133133,-0.00012410798808559775,0.006414130330085754
0.008015449158847332,-0.0011614796239882708,-0.007544516120105982,0.009088111110031605,-0.0001247127802344039,0.0067429612390697
0.008313450962305069,-0.0011190547375008464,-0.007566078100353479,0.008848645724356174,-0.00012160673213656992,0.006528278347104788
0.008266057819128036,-0.0010280138812959194,-0.007470260839909315,0.009278619661927223,-0.00011842363892355934,0.0069970376789569855
0.008253633044660091,-0.0009917521383613348,-0.007509975228458643,0.008792516775429249,-0.0001153880002675578,0.006811818107962608
0.008020482026040554,-0.0009771408513188362,-0.008084896951913834,0.00864922720938921,-0.0001125031485571526,0.006932309363037348
0.008158490993082523,-0.0009765123249962926,-0.00869903713464737,0.009161915630102158,-0.00010975898476317525,0.006565341725945473
0.00841916911303997,-0.0010864668292924762,-0.0078708715736866,0.008459389209747314,-0.00010714542440837249,0.0065966518595814705
0.008807090111076832,-0.001172006013803184,-0.007431081496179104,0.008466290310025215,-0.00010465350351296365,0.006043420173227787
0.00836280919611454,-0.001033869804814458,-0.007829592563211918,0.009044374339282513,-0.00010227485472569242,0.006212457548826933
0.009502566419541836,-0.0010135710472241044,-0.008551809936761856,0.008734739385545254,-0.00010000212932936847,0.006732291541993618
0.007941881194710732,-0.0009468737989664078,-0.008531968109309673,0.008376522921025753,-0.00011608752538450062,0.006669632159173489
0.008678396232426167,-0.0010206460719928145,-0.008496040478348732,0.008669104427099228,-0.00011249620729358867,0.00637134350836277
0.008618423715233803,-0.0010980647057294846,-0.007873927243053913,0.00865202397108078,-0.0001102055175579153,0.006533523090183735
0.008618423715233803,-0.0010980647057294846,-0.007873927243053913,0.00865202397108078,-0.0001102055175579153,0.006533523090183735
0.008166370913386345,-0.0011302706552669406,-0.007772111799567938,0.00820356234908104,-0.00010800158634083346,0.006540506146848202
0.008997541852295399,-0.0011965695302933455,-0.0083957239985466,0.008401790633797646,-0.00010588396253297105,0.007043647114187479
0.008213776163756847,-0.0010839488822966814,-0.00845625251531601,0.008413657546043396,-0.00010384766937932,0.0065767415799200535
0.00810286682099104,-0.0011788677657023072,-0.008272971026599407,0.008681472390890121,-0.00011773940786952153,0.006516679190099239
0.008169195614755154,-0.001128324307501316,-0.00759347528219223,0.008877274580299854,-0.00011659448500722647,0.0067796590737998486
0.008767659775912762,-0.0011249314993619919,-0.008322165347635746,0.009351934306323528,-0.0001145422356785275,0.006654077675193548
0.009021827951073647,-0.001095734303817153,-0.008716365322470665,0.008650355041027069,-0.00011250107490923256,0.008031942881643772
0.008491517044603825,-0.0010531392181292176,-0.008378714323043823,0.00833625253289938,-0.0001105275732697919,0.0071414378471672535
0.008837579749524593,-0.0009934271220117807,-0.007778750732541084,0.009406298398971558,-0.00010862197814276442,0.006830137688666582
0.009308348409831524,-0.0009797516977414489,-0.008220099844038486,0.008977361023426056,-0.00010678085527615622,0.006821747869253159
0.008915591053664684,-0.0009037372656166553,-0.00811324454843998,0.00872907042503357,-0.00011238698061788455,0.007234231103211641
0.009349722415208817,-0.0009798110695555806,-0.008707749657332897,0.008827904239296913,-0.00011753687431337312,0.007283919956535101
0.008966133929789066,-0.0009798380779102445,-0.008489206433296204,0.008809353224933147,-0.0001160978790721856,0.007347848266363144
0.008804824203252792,-0.0009691536542959511,-0.008573717437684536,0.00868691224604845,-0.00011428476864239201,0.007104053162038326
0.009158934466540813,-0.001122016692534089,-0.008206558413803577,0.008797788061201572,-0.00011250100942561403,0.0072935656644403934
0.009477440267801285,-0.0010875520529225469,-0.008188207633793354,0.009417607448995113,-0.00011077029193984345,0.007323002442717552
0.009067188017070293,-0.001051544095389545,-0.007946189492940903,0.008497879840433598,-0.00010909208504017442,0.00737475510686636
0.00995697919279337,-0.0009059022995643318,-0.008152374066412449,0.00835935678333044,-0.00013226507871877402,0.0075677502900362015
0.009252830408513546,-0.0009033859823830426,-0.008180947974324226,0.00916699692606926,-0.00013632539776153862,0.007491729222238064
0.00949710514396429,-0.000783901778049767,-0.009052612818777561,0.008595479652285576,-0.00013282819418236613,0.007000202778726816
0.008904272690415382,-0.0007847783854231238,-0.008149598725140095,0.00858091376721859,-0.00012905332550872117,0.007376663852483034
0.009487763047218323,-0.0008088232134468853,-0.007615447044372559,0.009117700159549713,-0.00012545724166557193,0.007366069592535496
0.009530198760330677,-0.0008193628746084869,-0.007623597048223019,0.009413795545697212,-0.00012205431994516402,0.007364294491708279
0.00933081191033125,-0.001006239908747375,-0.00879675056785345,0.008969835937023163,-0.0001188311362056993,0.007222489453852177
0.009353796020150185,-0.0010738130658864975,-0.008023541420698166,0.0089470986276865,-0.00013247178867459297,0.007071883417665958
0.009353796020150185,-0.0010738130658864975,-0.008023541420698166,0.0089470986276865,-0.00013247178867459297,0.007071883417665958
0.009401414543390274,-0.0011013890616595745,-0.007860410027205944,0.008772734552621841,-0.0001319353759754449,0.007260046433657408
0.009597035124897957,-0.0011060327524319291,-0.007907141931355,0.008587791584432125,-0.00012896071712020785,0.007404615171253681
0.009386170655488968,-0.0010837314184755087,-0.008565634489059448,0.009064894169569016,-0.0001259638520423323,0.007633526343852282
0.00888280663639307,-0.0010804191697388887,-0.008517976850271225,0.008759289979934692,-0.00014223794278223068,0.007561173755675554
0.00936824455857277,-0.0012714165495708585,-0.008583400398492813,0.008639201521873474,-0.00014031857426743954,0.007542632985860109
0.009598112665116787,-0.0012168234679847956,-0.007876052521169186,0.009217610582709312,-0.00013734122330788523,0.00766428979113698
0.009258243255317211,-0.0011653255205601454,-0.007763522677123547,0.009642106480896473,-0.00013441601186059415,0.0077127134427428246
0.00980707723647356,-0.0011015047784894705,-0.00765868928283453,0.008795083500444889,-0.00013160846719983965,0.00788772664964199
0.009778810665011406,-0.0011796626495197415,-0.00852564163506031,0.00864734873175621,-0.00012891527148894966,0.007797604892402887
0.00947623047977686,-0.0011352492729201913,-0.008606958203017712,0.00871660839766264,-0.00012633006554096937,0.007914659567177296
0.009851825423538685,-0.0011541234562173486,-0.007809838280081749,0.008805010467767715,-0.00013921954086981714,0.00829215906560421
0.009823363274335861,-0.001156676560640335,-0.008038552477955818,0.009119299240410328,-0.0001386588264722377,0.00797219667583704
0.00948107149451971,-0.0012192169670015574,-0.008155625313520432,0.009357036091387272,-0.0001361747708870098,0.008040153421461582
0.009770608507096767,-0.001242155209183693,-0.007601614110171795,0.008881845511496067,-0.00013365602353587747,0.008160287514328957
0.00997396744787693,-0.0012214990565553308,-0.008043840527534485,0.008362150751054287,-0.0001312206732109189,0.007833193056285381
0.009465523064136505,-0.001175738638266921,-0.00846040528267622,0.008767489343881607,-0.00012887192133348435,0.0078565189614892
0.009681417606770992,-0.001304719946347177,-0.008409634232521057,0.00892302580177784,-0.0001508332643425092,0.008112650364637375
0.00978800654411316,-0.0012908013304695487,-0.0075818998739123344,0.00905087124556303,-0.00016823735495563596,0.008426585234701633
0.009581527672708035,-0.001215708558447659,-0.007389847654849291,0.009042968042194843,-0.00016362544556614012,0.008320235647261143
0.009712704457342625,-0.0011884840205311775,-0.00856212992221117,0.009278938174247742,-0.0001579788513481617,0.007978484034538269
0.009985515847802162,-0.0012767311418429017,-0.008422886952757835,0.008674722164869308,-0.00015262639499269426,0.007623683195561171
0.010154190473258495,-0.0013376821298152208,-0.007880344986915588,0.008974181488156319,-0.00016947367112152278,0.007759408093988895
0.01002450380474329,-0.0013591893948614597,-0.007756432052701712,0.009338656440377235,-0.00017101575213018805,0.007942011579871178
0.009955652058124542,-0.001331175328232348,-0.007946450263261795,0.008576886728405952,-0.00016620320093352348,0.008238783106207848
0.009490887634456158,-0.001366380020044744,-0.00769320223480463,0.009280653670430183,-0.00016126853006426245,0.008320888504385948
0.009490887634456158,-0.001366380020044744,-0.00769320223480463,0.009280653670430183,-0.00016126853006426245,0.008320888504385948
0.009640652686357498,-0.0013123000971972942,-0.007568060886114836,0.009709452278912067,-0.00015659365453757346,0.00802313257008791
0.009802563115954399,-0.0013161121169105172,-0.00841223169118166,0.008436361327767372,-0.00017102103447541595,0.008420532569289207
0.009934332221746445,-0.0013033041032031178,-0.007664381992071867,0.009167847223579884,-0.00016796201816760004,0.008655637502670288
0.010063163004815578,-0.0012773004127666354,-0.007466234732419252,0.008971726521849632,-0.00016369552758987993,0.008219529874622822
0.009658208116889,-0.0013216829393059015,-0.008714763447642326,0.008793291635811329,-0.00018082269525621086,0.00834414642304182
0.010145477950572968,-0.001308508450165391,-0.00843856856226921,0.009017938748002052,-0.0001777461002347991,0.008980072103440762
0.009856157004833221,-0.0012838775292038918,-0.007817392237484455,0.009236905723810196,-0.0001735518017085269,0.008600641041994095
0.009549320675432682,-0.0012103201588615775,-0.007661045994609594,0.009106939658522606,-0.0002137034316547215,0.008525521494448185
0.010428527370095253,-0.001174753881059587,-0.007874559611082077,0.00883792620152235,-0.0002442945260554552,0.009031729772686958
0.010160200297832489,-0.001278614392504096,-0.007724967319518328,0.009574539959430695,-0.00023433126625604928,0.008970879018306732
0.009748594835400581,-0.001207066816277802,-0.007372033316642046,0.008976534940302372,-0.00022290142078418285,0.008513102307915688
0.01088755764067173,-0.0011688686208799481,-0.007945474237203598,0.00854034349322319,-0.00021238975750748068,0.008708003908395767
0.010279727168381214,-0.0011302537750452757,-0.008443239144980907,0.009116722270846367,-0.00023277422587852925,0.008604632690548897
0.010029991157352924,-0.0012050479417666793,-0.008349928073585033,0.009045089595019817,-0.00023218774003908038,0.00901880580931902
0.010282871313393116,-0.001155589590780437,-0.0078070624731481075,0.009004766121506691,-0.0002232048864243552,0.008695828728377819
0.009929121471941471,-0.0011433801846578717,-0.007828110828995705,0.00943559966981411,-0.00021438208932522684,0.008759847842156887
0.01069676037877798,-0.0011420940281823277,-0.008086576126515865,0.00931304506957531,-0.0002230241079814732,0.009372513741254807
0.011258991435170174,-0.0012427539331838489,-0.007767138071358204,0.008679481223225594,-0.00023056910140439868,0.009246224537491798
0.011029072105884552,-0.001352512277662754,-0.007651313673704863,0.009119300171732903,-0.0002234182320535183,0.00893478374928236
0.01029366347938776,-0.0014196339761838317,-0.00863291509449482,0.009418347850441933,-0.00021583099442068487,0.009136851876974106
0.010172040201723576,-0.0013619927922263741,-0.0084776496514678,0.009621435776352882,-0.000234547711443156,0.008918959647417068
0.01019580103456974,-0.001277454080991447,-0.007897911593317986,0.009231255389750004,-0.00023059203522279859,0.008677658624947071
0.010014595463871956,-0.0012049901997670531,-0.0075861806981265545,0.009439174085855484,-0.00022395901032723486,0.008977952413260937
0.010844703763723373,-0.0011353964218869805,-0.008367219939827919,0.008741740137338638,-0.0002765225654002279,0.008834567852318287
0.010844703763723373,-0.0011353964218869805,-0.008367219939827919,0.008741740137338638,-0.0002765225654002279,0.008834567852318287
0.010001267306506634,-0.0011100064730271697,-0.008734865114092827,0.008220065385103226,-0.00026460029766894877,0.008827418088912964
0.010467424988746643,-0.001008670893497765,-0.008457902818918228,0.009041150100529194,-0.000250169076025486,0.009101620875298977
0.009925390593707561,-0.001071749720722437,-0.00809007789939642,0.009025686420500278,-0.00026996235828846693,0.009539855644106865
0.010461993515491486,-0.0011934551876038313,-0.008060590364038944,0.008442492224276066,-0.00025728376931510866,0.009445181116461754
0.010135561227798462,-0.0012244192184880376,-0.007747461088001728,0.008782426826655865,-0.00027582127950154245,0.010029016062617302
0.010390454903244972,-0.0011700495379045606,-0.008682593703269958,0.008895921520888805,-0.0002733590954449028,0.009322715923190117
0.01026899740099907,-0.0011275269789621234,-0.00847007054835558,0.008377736434340477,-0.00026258500292897224,0.009215532802045345
0.010214201174676418,-0.0010283254086971283,-0.008283472619950771,0.008856171742081642,-0.0002787407429423183,0.00966012105345726
0.010204791091382504,-0.0009943312034010887,-0.00900587160140276,0.009127708151936531,-0.0002764331002254039,0.009324375540018082
0.009999088943004608,-0.0009792889468371868,-0.00830079335719347,0.009499206207692623,-0.0002667389635462314,0.009148980490863323
0.010370196774601936,-0.0009684813558124006,-0.00821445882320404,0.00981944426894188,-0.00025724369334056973,0.00951369944959879
0.010057836771011353,-0.0010038851760327816,-0.00783052109181881,0.009432710707187653,-0.00024837092496454716,0.010079622268676758
0.010305703617632389,-0.0009986985241994262,-0.009016366675496101,0.009111648425459862,-0.00024008813488762826,0.009237796068191528
0.010241331532597542,-0.0009832910727709532,-0.008062281645834446,0.009389379061758518,-0.00027661953936330974,0.00962872989475727
0.0099214818328619,-0.0009621030767448246,-0.008195136673748493,0.00939088873565197,-0.00026696393615566194,0.010081775486469269
0.010577220469713211,-0.0009532399708405137,-0.009834188967943192,0.00923050008714199,-0.00025242590345442295,0.009320192039012909
0.010151952505111694,-0.0009346567676402628,-0.009207000955939293,0.010026813484728336,-0.0002390401641605422,0.009729611687362194
0.010322460904717445,-0.0008389579597860575,-0.008833341300487518,0.00943020824342966,-0.00022698097745887935,0.009656830690801144
0.010126680135726929,-0.0008458422962576151,-0.008828714489936829,0.00933679286390543,-0.00025633000768721104,0.009392608888447285
0.010818980634212494,-0.0008491928456351161,-0.009255992248654366,0.009662889875471592,-0.0002472178894095123,0.00982855074107647
0.011746957898139954,-0.0008242985932156444,-0.008952715434134007,0.009393743239343166,-0.00023655725817661732,0.00965138990432024
0.0096407076343894,-0.0007265136227943003,-0.00932503305375576,0.00898206327110529,-0.0002618360740598291,0.009573397226631641
0.009817011654376984,-0.0006258371286094189,-0.009606215171515942,0.009089063853025436,-0.0002535913954488933,0.010178443044424057
0.010893777012825012,-0.0005493687349371612,-0.009644352830946445,0.00937325693666935,-0.00024392134218942374,0.00999414548277855
0.010866853408515453,-0.0004895607125945389,-0.008928428404033184,0.009194388054311275,-0.00023483697441406548,0.009712575934827328
0.010866853408515453,-0.0004895607125945389,-0.008928428404033184,0.009194388054311275,-0.00023483697441406548,0.009712575934827328
0.011340232565999031,-0.00040204034303314984,-0.009754447266459465,0.0091374721378088,-0.0002185425255447626,0.010046156123280525
0.010479525662958622,-0.0003690553130581975,-0.009179463610053062,0.009147947654128075,-0.0002112148649757728,0.01002574060112238
0.010656834580004215,-0.0003410733479540795,-0.009954046458005905,0.009342901408672333,-0.00023158702242653817,0.009996693581342697
0.010673324577510357,-0.00035455040051601827,-0.009250758215785027,0.009629283100366592,-0.00021931812807451934,0.009739473462104797
0.010673324577510357,-0.00035455040051601827,-0.009250758215785027,0.009629283100366592,-0.00021931812807451934,0.009739473462104797
0.011065368540585041,-0.0003334396460559219,-0.009780853055417538,0.00926513597369194,-0.0002128415508195758,0.010445750318467617
0.010778922587633133,-0.00036423924029804766,-0.009737725369632244,0.009847995825111866,-0.0002067306195385754,0.009978662244975567
0.010361985303461552,-0.000346228334819898,-0.009500216692686081,0.009656245820224285,-0.0002009601885220036,0.009930465370416641
0.01081309374421835,-0.00032821533386595547,-0.010100855492055416,0.009261800907552242,-0.000195502900169231,0.010562303476035595
0.010548936203122139,-0.0003512331168167293,-0.010255216620862484,0.009470107965171337,-0.00019058128236792982,0.01053545530885458
0.010693350806832314,-0.00033963314490392804,-0.008175283670425415,0.009362741373479366,-0.00019031409465242177,0.010255353525280952
0.010996457189321518,-0.00032439662027172744,-0.010574588552117348,0.009322547353804111,-0.0001830794644774869,0.010675685480237007
0.010490255430340767,-0.00031041106558404863,-0.009903955273330212,0.009458286687731743,-0.00017595323151908815,0.010912413708865643
0.011050267145037651,-0.0002975807583425194,-0.00927823968231678,0.009543334133923054,-0.00016933272127062082,0.01058279164135456
0.011179107241332531,-0.00028576908516697586,-0.009801286272704601,0.009505100548267365,-0.0001631913910387084,0.010297590866684914
0.010574333369731903,-0.00021540207671932876,-0.010124421678483486,0.009859035722911358,-0.00015747973520774394,0.009942952543497086
0.011053716763854027,-0.00020332136773504317,-0.009823688305914402,0.009842079132795334,-0.0001670708297751844,0.010256842710077763
0.010942144319415092,-0.00019450117542874068,-0.01026597898453474,0.009045474231243134,-0.00017559956177137792,0.01052760612219572
0.011068291030824184,-0.00018644193187355995,-0.009873288683593273,0.00960757490247488,-0.00017095269868150353,0.010813271626830101
0.011477778665721416,-0.00017902420950122178,-0.009551048278808594,0.009617730043828487,-0.00016576395137235522,0.010579807683825493
0.010823248885571957,-0.00020612879598047584,-0.010081402026116848,0.009192632511258125,-0.00016083037189673632,0.010407772846519947
0.011148625053465366,-0.00019898859318345785,-0.009569314308464527,0.009149424731731415,-0.0001787715737009421,0.010235286317765713
0.011663446202874184,-0.00019192215404473245,-0.009579570963978767,0.009247190319001675,-0.00017686224600765854,0.01064528338611126
0.011435416527092457,-0.00018533504044171423,-0.01029947679489851,0.009025433100759983,-0.00017223005124833435,0.010575369000434875
0.011426952667534351,-0.00017918506637215614,-0.010010981000959873,0.009390169754624367,-0.00018540788732934743,0.010143923573195934
0.011233537457883358,-0.00019241600239183754,-0.009839209727942944,0.010035444051027298,-0.00018623928190208972,0.010728861205279827
0.011233537457883358,-0.00019241600239183754,-0.009839209727942944,0.010035444051027298,-0.00018623928190208972,0.010728861205279827
0.01232083234935999,-0.00019590562442317605,-0.00989041943103075,0.009572837501764297,-0.0001819015305954963,0.011113688349723816
0.013701018877327442,-0.00018455290410201997,-0.00982832070440054,0.010275078006088734,-0.00023755671281833202,0.010108626447618008
0.013701018877327442,-0.00018455290410201997,-0.00982832070440054,0.010275078006088734,-0.00023755671281833202,0.010108626447618008
0.012756255455315113,-0.00017433859466109425,-0.009536589495837688,0.009026440791785717,-0.0002159461728297174,0.010302156209945679
0.01317975390702486,-0.00019290382624603808,-0.009802864864468575,0.009313075803220272,-0.0002444522106088698,0.010570624843239784
0.013112107291817665,-0.0001887819671537727,-0.010020498186349869,0.009562564082443714,-0.00023625887115485966,0.010906774550676346
0.01340408343821764,-0.00018397097301203758,-0.009670395404100418,0.009545492939651012,-0.0002616906422190368,0.011196056380867958
0.013009924441576004,-0.0001793872652342543,-0.00974875595420599,0.009303242899477482,-0.000253465463174507,0.011118036694824696
0.01318188663572073,-0.00017502660921309143,-0.010528011247515678,0.009114164859056473,-0.0002695608709473163,0.010883177630603313
0.013418576680123806,-0.00017087285232264549,-0.009789319708943367,0.009172758087515831,-0.00026767048984766006,0.010873683728277683
0.01373580377548933,-0.00016691167547833174,-0.009770897217094898,0.009574837051331997,-0.00025858759181573987,0.010758130811154842
0.013440591283142567,-0.00016312995285261422,-0.010257660411298275,0.009172176010906696,-0.00037642449024133384,0.010895559564232826
0.013331354595720768,-0.00015951581008266658,-0.009820226579904556,0.008698742836713791,-0.0003644873795565218,0.010798117145895958
0.013370570726692677,-0.00015605828957632184,-0.009411796927452087,0.009433169849216938,-0.0004011845448985696,0.010853520594537258
0.013602525927126408,-0.00015274761244654655,-0.009928910993039608,0.01059979759156704,-0.0003773212374653667,0.010522276163101196
0.013515414670109749,-0.00014957434905227274,-0.009784909896552563,0.009655095636844635,-0.00039620211464352906,0.010548846796154976
0.013433135114610195,-0.00015595236618537456,-0.010184582322835922,0.009869863279163837,-0.0003854743845295161,0.012040525674819946
0.013616571202874184,-0.0001511570590082556,-0.009932778775691986,0.009213995188474655,-0.0003640734648797661,0.0110551742836833
0.013275880366563797,-0.00014625012408941984,-0.00914139673113823,0.009069803170859814,-0.00038048610440455377,0.011025716550648212
0.01368920411914587,-0.00014164665481075644,-0.009548313915729523,0.01017637550830841,-0.0003721777757164091,0.011483415961265564
0.013129822909832,-0.0001373239647364244,-0.010248100385069847,0.009333299472928047,-0.00043450974044390023,0.011648455634713173
0.013620373792946339,-0.00013325728650670499,-0.009951732121407986,0.009501677006483078,-0.0004210346087347716,0.011354835703969002
0.01337998453527689,-0.00012942474859301,-0.009329461492598057,0.009806852787733078,-0.0004584399866871536,0.011350853368639946
0.014118930324912071,-0.00012580634211190045,-0.00993081834167242,0.009679962880909443,-0.00042697094613686204,0.011181463487446308
0.013435100205242634,-0.000122384779388085,-0.01016389299184084,0.009145857766270638,-0.0004529292637016624,0.011148235760629177
0.013768044300377369,-0.00011914444621652365,-0.009827244095504284,0.009337779134511948,-0.00042980440775863826,0.011152156628668308
0.013300239108502865,-0.00011607119085965678,-0.009611504152417183,0.009855967946350574,-0.0004451745480764657,0.011086654849350452
0.013373516499996185,-0.00011315256415400654,-0.009465410374104977,0.009175552986562252,-0.0004317279381211847,0.011686648242175579
0.013530788011848927,-0.0001103771646739915,-0.009619311429560184,0.009341292083263397,-0.000408113090088591,0.011855920776724815
0.013530788011848927,-0.0001103771646739915,-0.009619311429560184,0.009341292083263397,-0.000408113090088591,0.011855920776724815
0.013543739914894104,-0.00010773460235213861,-0.010130494832992554,0.009601031430065632,-0.0003862671146634966,0.011840472929179668
0.013675269670784473,-0.00010521568765398115,-0.01017698086798191,0.009187001734972,-0.0004127694701310247,0.011403300799429417
0.013913776725530624,-0.00010051526624010876,-0.010079656727612019,0.009543251246213913,-0.0004249067569617182,0.011464852839708328
0.013465173542499542,-9.831917122937739e-05,-0.01010083593428135,0.009573501534759998,-0.0004018518957309425,0.01148375403136015
0.013521862216293812,-9.621696517569944e-05,-0.009760268963873386,0.009792429395020008,-0.0004284454043954611,0.011518610641360283
0.012987096793949604,-9.420279820915312e-05,-0.009946263395249844,0.009950813837349415,-0.000408075749874115,0.011747223325073719
0.013540931046009064,-9.22711769817397e-05,-0.009906862862408161,0.00973309576511383,-0.00043109117541462183,0.011520150117576122
0.013379281386733055,-9.041725570568815e-05,-0.010228496044874191,0.010666347108781338,-0.00041383420466445386,0.011445708572864532
0.013983597978949547,-8.863631956046447e-05,-0.010384675115346909,0.010437642224133015,-0.0005213441327214241,0.011531030759215355
0.013915562070906162,-8.692420669831336e-05,-0.009786930866539478,0.009686033241450787,-0.00056480459170416,0.011501379311084747
0.013423211872577667,-8.527694444637746e-05,-0.010134592652320862,0.009820565581321716,-0.0005971568170934916,0.011748429387807846
0.013863898813724518,-8.36910039652139e-05,-0.01059809885919094,0.010010053403675556,-0.0006184052908793092,0.01190148014575243
0.01435118168592453,-8.216290007112548e-05,-0.009883657097816467,0.00972610805183649,-0.0005831321468576789,0.012310060672461987
0.013540874235332012,-8.068972965702415e-05,-0.010185806080698967,0.010496624745428562,-0.00075233617099002,0.01222272403538227
0.013927771709859371,-7.926832040539011e-05,-0.010368832387030125,0.00990248005837202,-0.0006595705635845661,0.01245233602821827
0.013996535912156105,-7.78961693868041e-05,-0.009861345402896404,0.008741837926208973,-0.0006826872704550624,0.01243345346301794
0.014007599093019962,-7.657075911993161e-05,-0.010601931251585484,0.0094467643648386,-0.0006122013437561691,0.012573158368468285
0.013983544893562794,-7.528968126280233e-05,-0.010034583508968353,0.010372723452746868,-0.0006171956192702055,0.012644104659557343
0.014722918160259724,-7.405075302813202e-05,-0.009951768442988396,0.00981779582798481,-0.0005808783462271094,0.012336828745901585
0.014502274803817272,-7.285194442374632e-05,-0.010557325556874275,0.009865544736385345,-0.0006037666462361813,0.012588896788656712
0.014289080165326595,-7.169127638917416e-05,-0.010173840448260307,0.009672941640019417,-0.0005611596861854196,0.012288461439311504
0.014248663559556007,-7.056709728203714e-05,-0.010312781669199467,0.009369206614792347,-0.0005027677398175001,0.012274317443370819
0.014553663320839405,-6.947759538888931e-05,-0.01030928548425436,0.0097264489158988,-0.0005302727222442627,0.012320835143327713
0.014357256703078747,-6.842120637884364e-05,-0.01024295948445797,0.01034226268529892,-0.0004924513050355017,0.01242015976458788
0.0158980805426836,-6.739651144016534e-05,-0.009957383386790752,0.009825732558965683,-0.000521850713994354,0.012602347880601883
0.01433810405433178,-6.543644121848047e-05,-0.009925060905516148,0.010222178883850574,-0.0005137644475325942,0.01263976190239191
0.01433810405433178,-6.543644121848047e-05,-0.009925060905516148,0.010222178883850574,-0.0005137644475325942,0.01263976190239191
0.014825211837887764,-6.358719838317484e-05,-0.01019549835473299,0.009980527684092522,-0.0004537898930720985,0.012487821280956268
0.014678738079965115,-6.270121957641095e-05,-0.009434769861400127,0.00987439788877964,-0.0004808473458979279,0.012235809117555618
0.014909801073372364,-6.183956429595128e-05,-0.010804376564919949,0.009738907217979431,-0.00043887889478355646,0.01239081658422947
0.014909801073372364,-6.183956429595128e-05,-0.010804376564919949,0.009738907217979431,-0.00043887889478355646,0.01239081658422947
0.014765708707273006,-6.100130485720001e-05,-0.010297267697751522,0.010616259649395943,-0.0004001354973297566,0.012170706875622272
0.015094581991434097,-4.831205296795815e-05,-0.009873257018625736,0.009669572114944458,-0.0003674487234093249,0.01213825587183237
0.014615777879953384,-4.7515113692497835e-05,-0.010896941646933556,0.009257151745259762,-0.0003396875108592212,0.01292368769645691
0.01486328523606062,-4.689403431257233e-05,-0.010550696402788162,0.00954800471663475,-0.00037456146674230695,0.012276924215257168
0.015037902630865574,-4.629104660125449e-05,-0.00998548325151205,0.009645762853324413,-0.00035383840440772474,0.01308824960142374
0.014923518523573875,-4.570337841869332e-05,-0.01094602607190609,0.009636837989091873,-0.00033230209373869,0.01294273417443037
0.01474169921129942,-4.513041494647041e-05,-0.010503695346415043,0.010528668761253357,-0.0003130460681859404,0.01298197079449892
0.014991899952292442,-4.457169052329846e-05,-0.01078411377966404,0.010103047825396061,-0.00029588595498353243,0.012974262237548828
0.014710946939885616,-4.402659760671668e-05,-0.011364875361323357,0.009690596722066402,-0.0002805106050800532,0.012790023349225521
0.015044232830405235,-4.3494692363310605e-05,-0.011371038854122162,0.010592552833259106,-0.00026665435871109366,0.013154114596545696
0.014582157135009766,-4.297546183806844e-05,-0.010673568584024906,0.010726858861744404,-0.0002541029825806618,0.012920410372316837
0.015497047454118729,-3.547548476490192e-05,-0.010823729448020458,0.00959225557744503,-0.0002426809078315273,0.013268600217998028
0.015084977261722088,-3.1528637919109315e-05,-0.010556992143392563,0.010301231406629086,-0.0002683070197235793,0.013367105275392532
0.01565750129520893,-3.111787009402178e-05,-0.011318025179207325,0.009958786889910698,-0.00025960104539990425,0.013293460011482239
0.014994961209595203,-3.0762712412979454e-05,-0.01055967714637518,0.009578255005180836,-0.0002494727377779782,0.012856338173151016
0.015195251442492008,-3.04161603708053e-05,-0.01026685070246458,0.010379686951637268,-0.0002399782242719084,0.013115276582539082
0.015173087827861309,-3.00773299386492e-05,-0.01151069812476635,0.009997719898819923,-0.0002311719727003947,0.013095026835799217
0.015392431989312172,-2.9745982828899287e-05,-0.010643509216606617,0.009812187403440475,-0.00022298833937384188,0.012736443430185318
0.015424990095198154,-3.990803065789805e-07,-0.010223964229226112,0.010818347334861755,-0.00021536422718781978,0.012587044388055801
0.015424990095198154,-3.990803065789805e-07,-0.010223964229226112,0.010818347334861755,-0.00021536422718781978,0.012587044388055801
0.015197970904409885,-9.637320238717328e-13,-0.010995923541486263,0.010179555043578148,-0.00022322680160868913,0.013498975895345211
0.015394944697618484,-1.2929694512590299e-14,-0.010866553522646427,0.00994193833321333,-0.00021652033319696784,0.013604939915239811
0.015139932744204998,-1.7346835066096085e-16,-0.010172750800848007,0.00989783089607954,-0.00021019928681198508,0.013090750202536583
0.015412774868309498,-2.3272995367878513e-18,-0.011140694841742516,0.010385156609117985,-0.00017669115914031863,0.013423185795545578
0.01549830287694931,-3.1223689979615705e-20,-0.011051245033740997,0.01003280933946371,-0.00016181661339942366,0.013663902878761292
0.01579391583800316,-4.1890568892121647e-22,-0.010667945258319378,0.009832432493567467,-0.00015566166257485747,0.013945628888905048
0.015318742953240871,-5.620154716699787e-24,-0.01101070735603571,0.010497000999748707,-0.00015042084851302207,0.013791993260383606
0.015318742953240871,-5.620154716699787e-24,-0.01101070735603571,0.010497000999748707,-0.00015042084851302207,0.013791993260383606
0.015710603445768356,-7.540155015529606e-26,-0.010892028920352459,0.00997956469655037,-0.00014555266534443945,0.013690892606973648
0.015334051102399826,-1.0116079922060119e-27,-0.01152205839753151,0.010233490727841854,-0.00014099173131398857,0.013752229511737823
0.01603890024125576,9.822301763051655e-06,-0.011648000217974186,0.01060434989631176,-0.00016043549112509936,0.013646489009261131
0.015208154916763306,2.3303753550862893e-05,-0.011084229685366154,0.010089857503771782,-0.0001589763560332358,0.01365950983017683
0.015376029536128044,2.3186152247944847e-05,-0.01178883109241724,0.010657448321580887,-0.00015463696036022156,0.013535471633076668
0.01573212817311287,2.2893711502547376e-05,-0.011216937564313412,0.010617097839713097,-0.00015034519310574979,0.013549861498177052
0.016115481033921242,2.2606231141253375e-05,-0.01143783051520586,0.010125061497092247,-0.00014627307245973498,0.013348225504159927
0.01634657196700573,2.2325855752569623e-05,-0.01145312562584877,0.010162441991269588,-0.00016455924196634442,0.013718955218791962
0.0158945694565773,2.205234886787366e-05,-0.010863532312214375,0.01039016991853714,-0.00016177781799342483,0.013543238863348961
0.0161064974963665,2.178543945774436e-05,-0.011950735934078693,0.009467470459640026,-0.00015781917318236083,0.013725370168685913
0.01586105115711689,2.1524934709304944e-05,-0.011194124817848206,0.010396754369139671,-0.00015396812523249537,0.013719187118113041
0.016402028501033783,2.1270574507070705e-05,-0.011940324679017067,0.010152190923690796,-0.00015029542555566877,0.014196001924574375
0.016155503690242767,2.1022173314122483e-05,-0.011473429389297962,0.010456335730850697,-0.00016636174404993653,0.014130618423223495
0.01711837388575077,2.07794855668908e-05,-0.01089832466095686,0.010468469001352787,-0.00016385204799007624,0.014623010531067848
0.01659080572426319,2.0542353013297543e-05,-0.011647146195173264,0.01043629739433527,-0.00016028743993956596,0.013278057798743248
0.01605621725320816,2.0310568288550712e-05,-0.011256499215960503,0.010098094120621681,-0.00019316747784614563,0.013670661486685276
0.01691560447216034,2.6698584406403825e-05,-0.011410188861191273,0.0101297777146101,-0.00021839101100340486,0.013339677825570107
0.016793392598628998,3.991011112702836e-07,-0.011432320810854435,0.010042416863143444,-0.0002011772885452956,0.01384052075445652
0.016793392598628998,3.991011112702836e-07,-0.011432320810854435,0.010042416863143444,-0.0002011772885452956,0.01384052075445652
0.016588756814599037,7.183680733602316e-11,-0.011169184930622578,0.010115474462509155,-0.00018467156041879207,0.013894859701395035
0.017038729041814804,9.637825476929707e-13,-0.011113559827208519,0.010179927572607994,-0.00020814624440390617,0.013935252092778683
0.016541508957743645,1.2930372138948102e-14,-0.011949768289923668,0.009849975816905499,-0.00020448651048354805,0.014120975509285927
0.016842680051922798,1.7347742979536424e-16,-0.01197693683207035,0.009429791942238808,-0.00019728967163246125,0.01416449062526226
0.016592808067798615,2.3274211323378966e-18,-0.011789586395025253,0.010218546725809574,-0.00019035261357203126,0.013905540108680725
0.016861526295542717,3.1225324953795204e-20,-0.011375462636351585,0.010148471221327782,-0.0002065501903416589,0.014124487526714802
0.016861526295542717,3.1225324953795204e-20,-0.011375462636351585,0.010148471221327782,-0.0002065501903416589,0.014124487526714802
0.016809970140457153,4.189275750781709e-22,-0.011420478112995625,0.009746073745191097,-0.00020693174155894667,0.014171958900988102
0.016342325136065483,5.6204481729565296e-24,-0.012079703621566296,0.010283444076776505,-0.00020080365356989205,0.014096679165959358
0.016879988834261894,7.540548829684635e-26,-0.01178625039756298,0.01071355864405632,-0.00021875793754588813,0.014621253125369549
0.016696495935320854,1.0116609552794826e-27,-0.011583290062844753,0.010439570993185043,-0.00021553043916355819,0.014638234861195087
0.017095107585191727,1.3572723458436153e-29,-0.011256142519414425,0.010163748636841774,-0.00020947589655406773,0.014662985689938068
0.017012130469083786,1.8209540670791426e-31,-0.01123766414821148,0.010490313172340393,-0.00020396240870468318,0.014208895154297352
0.017167428508400917,2.4430423989414376e-33,-0.011922121047973633,0.01024091150611639,-0.0002581770531833172,0.014426148496568203
0.017155366018414497,3.277653340697158e-35,-0.011429576203227043,0.010677067562937737,-0.0002482451091054827,0.014250630512833595
0.016756581142544746,4.397389823836982e-37,-0.012096025049686432,0.010500859469175339,-0.00027939333813264966,0.014194597490131855
0.017330965027213097,5.899659913995557e-39,-0.01137679535895586,0.01012431737035513,-0.00026838286430574954,0.014349257573485374
0.017016571015119553,7.915094245892297e-41,-0.011402002535760403,0.01066496316343546,-0.000255852093687281,0.014424270950257778
0.017416026443243027,0.00012382290151435882,-0.01189587265253067,0.010318255983293056,-0.000264184083789587,0.014720374718308449
0.017538679763674736,0.00012431922368705273,-0.011287325993180275,0.010054090991616249,-0.00027130512171424925,0.014812947250902653
0.017183629795908928,0.0001210281698149629,-0.011507735587656498,0.01053291279822588,-0.0002888542949222028,0.014722127467393875
0.01757056638598442,0.00011785909009631723,-0.012108220718801022,0.010014140047132969,-0.00028614536859095097,0.014828967861831188
0.017072070389986038,0.00011485097638797015,-0.011907448060810566,0.010541552677750587,-0.00029263683245517313,0.014876049011945724
0.01745327189564705,0.0001317638234468177,-0.01219736598432064,0.010909702628850937,-0.00039302671211771667,0.015003192238509655
0.017768463119864464,0.00013109254359733313,-0.011370525695383549,0.010285407304763794,-0.0004332222742959857,0.01484228391200304
0.01704157516360283,0.00014204924809746444,-0.011990290135145187,0.011608433909714222,-0.0004180374089628458,0.014880489557981491
0.01770988665521145,0.00014579886919818819,-0.011927510611712933,0.011503576301038265,-0.00042057340033352375,0.014862608164548874
0.017774391919374466,0.0001425933587597683,-0.012136208824813366,0.011285798624157906,-0.0004213285865262151,0.014698518440127373
0.017658911645412445,0.00015590415569022298,-0.0114586828276515,0.010592925362288952,-0.0003732885525096208,0.015647580847144127
0.01775013841688633,0.0001526032283436507,-0.01229271199554205,0.010589764453470707,-0.00039596212445758283,0.014525939710438251
0.01786980964243412,0.00030370993772521615,-0.01226087287068367,0.010581638664007187,-0.00038096553180366755,0.014124086126685143
0.017827564850449562,0.00030305757536552846,-0.012307758443057537,0.010123823769390583,-0.00040837781853042543,0.015008443966507912
0.01748175360262394,0.0002841822861228138,-0.01205283310264349,0.010202830657362938,-0.0004157956864219159,0.015111804939806461
0.01748175360262394,0.0002841822861228138,-0.01205283310264349,0.010202830657362938,-0.0004157956864219159,0.015111804939806461
0.017896996811032295,0.0003185561508871615,-0.012255528010427952,0.010612603276968002,-0.00038331569521687925,0.015270504169166088
0.017775094136595726,0.00030274546588771045,-0.012447414919734001,0.01081802323460579,-0.0003533810668159276,0.014910339377820492
0.0179890189319849,0.0002866979921236634,-0.012210740707814693,0.010763600468635559,-0.00038421942736022174,0.01513828057795763
0.018080055713653564,0.00031575700268149376,-0.012313993647694588,0.010746404528617859,-0.0003658884670585394,0.015303335152566433
0.01786136068403721,0.00030234578298404813,-0.011810548603534698,0.010591503232717514,-0.00037094493745826185,0.015487183816730976
0.018650328740477562,0.00028852143441326916,-0.01215763296931982,0.01049751415848732,-0.0003745107969734818,0.015449363738298416
0.01865842007100582,0.0003147453535348177,-0.01232814509421587,0.010282168164849281,-0.00037979622720740736,0.015475516207516193
0.01802827976644039,0.00030206190422177315,-0.012042378075420856,0.010429240763187408,-0.00038255969411693513,0.015525830909609795
0.01830236241221428,0.00038691668305546045,-0.012412944808602333,0.011264225468039513,-0.00040252343751490116,0.015392763540148735
0.01836402155458927,0.0004071903822477907,-0.011733545921742916,0.011034485884010792,-0.0004033307486679405,0.01565067656338215
0.01856403797864914,0.00039989876677282155,-0.012176557444036007,0.01113096158951521,-0.00040839763823896646,0.015535562299191952
0.019758908078074455,0.00037260688259266317,-0.01234522182494402,0.011713691055774689,-0.0004103168612346053,0.015591529197990894
0.019052915275096893,0.0003485553024802357,-0.01215074397623539,0.011001446284353733,-0.0003833341470453888,0.015566219575703144
0.018496794626116753,0.0003812081413343549,-0.012461978942155838,0.011191531084477901,-0.0004096070188097656,0.015250987373292446
0.0186967384070158,0.00036013664794154465,-0.011812868528068066,0.010820606723427773,-0.0003912100801244378,0.014882110990583897
0.01826009340584278,0.00037254131166264415,-0.012559458613395691,0.011601686477661133,-0.00041432923171669245,0.015497804619371891
0.018758749589323997,0.00036913648364134133,-0.012390587478876114,0.011650094762444496,-0.00039769767317920923,0.015697333961725235
0.01932920329272747,0.00035172177013009787,-0.01217345055192709,0.01051914133131504,-0.000377260526875034,0.015913760289549828
0.019398929551243782,0.00041567752487026155,-0.012034609913825989,0.011524205096065998,-0.0003597624599933624,0.01571635715663433
0.018586982041597366,0.00044881936628371477,-0.012402630411088467,0.011163820512592793,-0.00039814619231037796,0.015741348266601562
0.019124845042824745,0.00045593769755214453,-0.011705117300152779,0.010354352183640003,-0.00040808392805047333,0.0164473969489336
0.01963493414223194,0.0004795289714820683,-0.012408600188791752,0.010833551175892353,-0.0003814038063865155,0.01604810729622841
0.01952769234776497,0.0004559022781904787,-0.012077460065484047,0.011503607034683228,-0.00041160258115269244,0.016538169234991074
0.01952769234776497,0.0004559022781904787,-0.012077460065484047,0.011503607034683228,-0.00041160258115269244,0.016538169234991074
0.02066335640847683,0.0006414549425244331,-0.011862608604133129,0.011377462185919285,-0.00038974088965915143,0.016268569976091385
0.01895073801279068,0.0006786130252294242,-0.012049236334860325,0.011565860360860825,-0.0004160763055551797,0.015822965651750565
0.018929624930024147,0.0006954813143238425,-0.01163451001048088,0.011418113484978676,-0.0005202218890190125,0.016144143417477608
0.019358547404408455,0.0006362453568726778,-0.012095711193978786,0.011502204462885857,-0.0005037138471379876,0.015189969912171364
0.01941866986453533,0.0006570666446350515,-0.011663469485938549,0.011306395754218102,-0.000539923261385411,0.01539977453649044
0.020169947296380997,0.0007089818827807903,-0.012464788742363453,0.011698235757648945,-0.0004959839279763401,0.01576223038136959
0.019772449508309364,0.0007429575780406594,-0.012476250529289246,0.011273914948105812,-0.0005101137212477624,0.01581144891679287
0.0198347270488739,0.0006887323106639087,-0.01216491125524044,0.01140599325299263,-0.0004878221661783755,0.016384342685341835
0.020128287374973297,0.0007115971529856324,-0.01237337663769722,0.011611361056566238,-0.00045378750655800104,0.01661735400557518
0.01985183171927929,0.0007281762082129717,-0.011949684470891953,0.011285949498414993,-0.00042334775207564235,0.016642171889543533
0.019782163202762604,0.0008305583614856005,-0.01280309446156025,0.011441483162343502,-0.00042424543062224984,0.016295060515403748
0.020590243861079216,0.0008590174256823957,-0.012643218971788883,0.011051557958126068,-0.0004245831514708698,0.016593290492892265
0.02012781985104084,0.0008648756192997098,-0.013220231980085373,0.01110275462269783,-0.0004024992522317916,0.016486994922161102
0.01952863298356533,0.0008721878402866423,-0.01290735974907875,0.010821348056197166,-0.00038236353429965675,0.016645293682813644
0.020177682861685753,0.0010012900456786156,-0.012508935295045376,0.010756629519164562,-0.00036076654214411974,0.01667626015841961
0.02014874666929245,0.0009910125518217683,-0.012893163599073887,0.011341266334056854,-0.00033452193019911647,0.01637226529419422
0.0199819914996624,0.0009768101153895259,-0.01250866986811161,0.010905993171036243,-0.0003113962011411786,0.016329076141119003
0.020069221034646034,0.0009629431297071278,-0.012774869799613953,0.010793597437441349,-0.0002912340860348195,0.016023488715291023
0.02055175043642521,0.0009273182949982584,-0.0122797517105937,0.011203626170754433,-0.0002735226007644087,0.01637464016675949
0.02030888944864273,0.0010331711964681745,-0.01319725252687931,0.010615095496177673,-0.00025784250465221703,0.01615532487630844
0.020426316186785698,0.0012348827440291643,-0.012954728677868843,0.01098053902387619,-0.0002767513506114483,0.01685730554163456
0.020318664610385895,0.0013768894132226706,-0.013020794838666916,0.010961204767227173,-0.000263957743300125,0.01686709187924862
0.020318664610385895,0.0013768894132226706,-0.013020794838666916,0.010961204767227173,-0.000263957743300125,0.01686709187924862
0.020236944779753685,0.001644647098146379,-0.012715846300125122,0.011437743902206421,-0.0002721929340623319,0.017164895310997963
0.02057052217423916,0.0018163573695346713,-0.01290383655577898,0.011538508348166943,-0.00027917110128328204,0.016827575862407684
0.02035914734005928,0.0016298063565045595,-0.012597005814313889,0.011869935318827629,-0.00026851543225347996,0.016654834151268005
0.02016189508140087,0.0013798027066513896,-0.013175416737794876,0.011357295326888561,-0.0002576146216597408,0.01631251722574234
0.020279377698898315,0.001408546231687069,-0.012597018852829933,0.011053762398660183,-0.0002474976354278624,0.016243698075413704
0.02061188407242298,0.001388023723848164,-0.013191895559430122,0.011201475746929646,-0.0002547989133745432,0.016690712422132492
0.020632321015000343,0.0016463331412523985,-0.013159722089767456,0.011172940954566002,-0.0002611128147691488,0.016512155532836914
0.020363761112093925,0.0019511067075654864,-0.013470589183270931,0.01122108194977045,-0.00025295474915765226,0.016659554094076157
0.020562641322612762,0.0020655596163123846,-0.013129893690347672,0.011244556866586208,-0.00024443274014629424,0.018124626949429512
0.020443718880414963,0.00197774451225996,-0.01294646505266428,0.010885206051170826,-0.000236410167417489,0.016795946285128593
0.020410001277923584,0.0019040992483496666,-0.01357174664735794,0.010724695399403572,-0.00022694343351759017,0.01641768217086792
0.02044243924319744,0.0017393596936017275,-0.012757640331983566,0.010471256449818611,-0.00021586098591797054,0.016675133258104324
0.020775912329554558,0.0016527329571545124,-0.013176224194467068,0.010418145917356014,-0.0002059664693661034,0.017307935282588005
0.02076597884297371,0.0016874412540346384,-0.01249966211616993,0.01102675311267376,-0.00023364867956843227,0.01718708872795105
0.020853549242019653,0.0020784258376806974,-0.013352221809327602,0.011301286518573761,-0.00022625047131441534,0.017138417810201645
0.021251928061246872,0.0021834177896380424,-0.01307861041277647,0.01139956433326006,-0.00021730107255280018,0.017091302201151848
0.0208811666816473,0.002386285224929452,-0.01338255126029253,0.012095071375370026,-0.00023464817786589265,0.017359169200062752
0.02038618177175522,0.0025831658858805895,-0.012745257467031479,0.011706103570759296,-0.00023405003594234586,0.017342738807201385
0.020905332639813423,0.002537831896916032,-0.013334942050278187,0.011779739521443844,-0.0002492872590664774,0.0170375257730484
0.020905332639813423,0.002537831896916032,-0.013334942050278187,0.011779739521443844,-0.0002492872590664774,0.0170375257730484
0.020835790783166885,0.0026529310271143913,-0.01334796566516161,0.01114258635789156,-0.0004022745124530047,0.017036572098731995
0.020883139222860336,0.002734895097091794,-0.0131729356944561,0.011039573699235916,-0.00044830076512880623,0.0172636266797781
0.020343029871582985,0.002489373553544283,-0.01308126375079155,0.011237241327762604,-0.00043177895713597536,0.017465487122535706
0.020851707085967064,0.0026161670684814453,-0.013589584268629551,0.011457296088337898,-0.00046309290337376297,0.017606740817427635
0.020935606211423874,0.0025731802452355623,-0.013332092203199863,0.011593707837164402,-0.00046445385669358075,0.017479145899415016
0.02053830400109291,0.002655491465702653,-0.013187403790652752,0.011641169898211956,-0.0006479384610429406,0.017421472817659378
0.020866315811872482,0.003070749342441559,-0.013982970267534256,0.011330612935125828,-0.0005947132012806833,0.017727188766002655
0.020388292148709297,0.003092760220170021,-0.012998559512197971,0.01153781171888113,-0.0006038795690983534,0.017884239554405212
0.020483341068029404,0.0028474179562181234,-0.013723907992243767,0.01174587570130825,-0.000564334390219301,0.018198439851403236
0.020483341068029404,0.0028474179562181234,-0.013723907992243767,0.01174587570130825,-0.000564334390219301,0.018198439851403236
0.020708726719021797,0.003001102712005377,-0.01317918673157692,0.011268247850239277,-0.0005915265646763146,0.017926987260580063
0.021120969206094742,0.002996761817485094,-0.013866189867258072,0.011779926717281342,-0.0005455303471535444,0.017662888392806053
0.02025912143290043,0.0029846702236682177,-0.013309232890605927,0.011612425558269024,-0.0005642434698529541,0.017365312203764915
0.02163200080394745,0.0029208085034042597,-0.013468527235090733,0.011851145885884762,-0.0005310525302775204,0.01722305826842785
0.02099527232348919,0.002934275195002556,-0.013240477070212364,0.011874954216182232,-0.0004950689617544413,0.017520280554890633
0.02061452716588974,0.0028483481146395206,-0.013400683179497719,0.011726167984306812,-0.00046527429367415607,0.01796727068722248
0.020687919110059738,0.002763169351965189,-0.013996805064380169,0.011816850863397121,-0.00042359583312645555,0.018501225858926773
0.021247463300824165,0.003099645022302866,-0.013257470913231373,0.011695035733282566,-0.0003872473316732794,0.017817027866840363
0.021142685785889626,0.002947377972304821,-0.013569510541856289,0.011914989911019802,-0.00042279440094716847,0.017574209719896317
0.021029049530625343,0.003193143755197525,-0.01303289644420147,0.011948434635996819,-0.0003960882022511214,0.017877057194709778
0.021156400442123413,0.00330610410310328,-0.013794977217912674,0.011551063507795334,-0.0003692673344630748,0.018038151785731316
0.02155899442732334,0.0031357051339000463,-0.013201018795371056,0.011836837977170944,-0.0003992226847913116,0.01802065409719944
0.021440504118800163,0.003063988871872425,-0.013789930380880833,0.01189317088574171,-0.0004050652787555009,0.018684089183807373
0.021223070099949837,0.0029109714087098837,-0.012912307865917683,0.01219423208385706,-0.0004066952969878912,0.019029805436730385
0.02119433507323265,0.0029767765663564205,-0.013667690567672253,0.011434066109359264,-0.0003883127646986395,0.018402181565761566
0.021189233288168907,0.0031900559552013874,-0.013393344357609749,0.011447257362306118,-0.0004224807780701667,0.01779230684041977
0.021350884810090065,0.003105700248852372,-0.013674809597432613,0.011919342912733555,-0.0004630070470739156,0.017883986234664917
0.020904161036014557,0.00351546099409461,-0.013528389856219292,0.011624940671026707,-0.0004658769757952541,0.018370352685451508
0.021346814930438995,0.00331474537961185,-0.01361282542347908,0.01173510029911995,-0.00046364241279661655,0.019038483500480652
0.021223243325948715,0.0030481573194265366,-0.01351289451122284,0.011894353665411472,-0.00043380132410675287,0.01910347491502762
0.021080641075968742,0.0034316200762987137,-0.01376285683363676,0.011605076491832733,-0.0004353568365331739,0.01891615428030491
0.021080641075968742,0.0034316200762987137,-0.01376285683363676,0.011605076491832733,-0.0004353568365331739,0.01891615428030491
0.02134697325527668,0.0034939106553792953,-0.013311231508851051,0.011393710039556026,-0.0005221518222242594,0.01854400895535946
0.021649450063705444,0.0035939342342317104,-0.013760637491941452,0.01146842259913683,-0.0005018850788474083,0.019366219639778137
0.02180146612226963,0.003339343471452594,-0.013387063518166542,0.011551604606211185,-0.0005318146431818604,0.019300144165754318
0.021499577909708023,0.0031466062646359205,-0.014219805598258972,0.011522538959980011,-0.0004938897909596562,0.018782302737236023
0.021777596324682236,0.003411971963942051,-0.013809433206915855,0.012173914350569248,-0.00045311273424886167,0.018544090911746025
0.021832820028066635,0.003716730047017336,-0.014436987228691578,0.012652979232370853,-0.00047816734877415,0.01802123710513115
0.02171446569263935,0.0034148474223911762,-0.013441862538456917,0.011905863881111145,-0.00045203263289295137,0.01815285161137581
0.021761620417237282,0.0032962607219815254,-0.01443785335868597,0.011460347101092339,-0.00042225158540531993,0.01889103278517723
0.021808931604027748,0.0033538569696247578,-0.013900223188102245,0.01143297366797924,-0.00039574847323819995,0.01957959495484829
0.021610137075185776,0.0035049414727836847,-0.013609220273792744,0.011643832549452782,-0.00040218784124590456,0.019583849236369133
0.021610137075185776,0.0035049414727836847,-0.013609220273792744,0.011643832549452782,-0.00040218784124590456,0.019583849236369133
0.021898072212934494,0.003650669939815998,-0.01455001626163721,0.01179802417755127,-0.0003942282637581229,0.018466154113411903
0.02254444919526577,0.0033420459367334843,-0.013930144719779491,0.01220628060400486,-0.0003993597056251019,0.018074344843626022
0.022533098235726357,0.003518227953463793,-0.014764132909476757,0.01178340520709753,-0.00040186505066230893,0.01898936554789543
0.0228451918810606,0.0037220867816358805,-0.01427740603685379,0.012067181058228016,-0.00043013153481297195,0.019816329702734947
0.022342616692185402,0.00352002982981503,-0.01440473087131977,0.011987567879259586,-0.00043816238758154213,0.01974036730825901
0.021459100767970085,0.0034105079248547554,-0.013594085350632668,0.012398242950439453,-0.0004381657054182142,0.01926448382437229
0.022398142144083977,0.0036842881236225367,-0.01463384460657835,0.01224550325423479,-0.0005283142672851682,0.01921301707625389
