davideferrari95/blind_handover_controller/data/Test 83 - [2024-02-07 -- 16-06-49]/joint_states_data.csv
shoulder_pan_joint,shoulder_lift_joint,elbow_joint,wrist_1_joint,wrist_2_joint,wrist_3_joint
0.005022280849516392,0.00046649161959066987,-0.00558294914662838,0.004898100160062313,-7.71278250684751e-14,0.005128310061991215
0.005022280849516392,0.00046649161959066987,-0.00558294914662838,0.004898100160062313,-7.71278250684751e-14,0.005128310061991215
0.004900389350950718,6.258580015128246e-06,-0.006039908621460199,0.005141509231179953,-5.035895474497093e-15,0.005186173133552074
0.005776477511972189,8.396683881528588e-08,-0.005496997851878405,0.005327796563506126,-3.2880799925897274e-16,0.005039876792579889
0.005408015567809343,1.1265224308942834e-09,-0.005349579267203808,0.005826842505484819,-2.1468812708685016e-17,0.004648998379707336
0.0045217424631118774,-0.00064419413683936,-0.005193546414375305,0.005663258023560047,-1.4017602217646385e-18,0.004496825858950615
0.004496845882385969,-3.44648833561223e-05,-0.005801704712212086,0.005464110057801008,-9.152492399018414e-20,0.00457145506516099
0.004945061635226011,-4.623903748779412e-07,-0.005639685317873955,0.004991763271391392,-5.9759235223303e-21,0.004379058722406626
0.0050768181681632996,-6.203557667561199e-09,-0.005534539930522442,0.004868000280112028,-3.901851187629685e-22,0.004283427726477385
0.0051181684248149395,-8.32286392582482e-11,-0.005211926531046629,0.005445756483823061,-2.5476299221714216e-23,0.004799449350684881
0.004772592335939407,-1.1166184079799968e-12,-0.0053653232753276825,0.00534486398100853,-1.663420306526387e-24,0.004798530135303736
0.004772592335939407,-1.1166184079799968e-12,-0.0053653232753276825,0.00534486398100853,-1.663420306526387e-24,0.004798530135303736
0.004701791796833277,-1.4980860180298892e-14,-0.005895351059734821,0.004996242001652718,-1.0860945731040724e-25,0.0043396553955972195
0.004607843700796366,-2.009873526213996e-16,-0.005898383446037769,0.00482402928173542,-7.091421966653531e-27,0.004409258719533682
0.004374498035758734,-2.6965018838286977e-18,-0.005402384791523218,0.00527881970629096,-4.630192216472005e-28,0.004232983570545912
0.004841270390897989,-3.617701550864516e-20,-0.005503071937710047,0.0054971990175545216,-3.023184594925007e-29,0.004152660258114338
0.004980181809514761,-4.853608461899725e-22,-0.005334109533578157,0.0058473702520132065,-1.9739235919798966e-30,0.0042259665206074715
0.004908233415335417,-6.511735566972343e-24,-0.005150470416992903,0.006039437837898731,-1.2888310492500393e-31,0.004914268851280212
0.00498312059789896,-8.736324527638857e-26,-0.005928071215748787,0.005469212308526039,-8.415146591081854e-33,0.004623055458068848
0.004466588608920574,-9.701476665213704e-05,-0.006182712968438864,0.00527200847864151,-5.494489725306286e-34,0.004546223673969507
0.00453321123495698,-1.158179384219693e-05,-0.005505687091499567,0.005363430827856064,-3.587509174593475e-35,0.004126426298171282
0.004586413037031889,-1.553845550006372e-07,-0.00491715781390667,0.00546587398275733,-2.3423870159927144e-36,0.00420905277132988
0.005152446683496237,-2.084681982594816e-09,-0.005287237465381622,0.0059877256862819195,-1.529411447750512e-37,0.004123378545045853
0.005111530888825655,-2.796867078214138e-11,-0.005440753418952227,0.005664513912051916,-9.985963945037727e-39,0.004346341826021671
0.00508112320676446,-5.034261971458313e-15,-0.005680347792804241,0.0047704968601465225,-4.435524169821292e-05,0.0048020826652646065
0.004541213624179363,-6.754105063785332e-17,-0.005199061706662178,0.005445912480354309,-5.800202416139655e-05,0.004571489989757538
0.004426854196935892,-9.061493742843573e-19,-0.005009518004953861,0.005502326879650354,-5.818043428007513e-05,0.0042448462918400764
0.00431184284389019,-1.2157151010874275e-20,-0.004954093135893345,0.005462941713631153,-5.749770571128465e-05,0.00434322003275156
0.004509761929512024,-1.6310369431669495e-22,-0.005846116226166487,0.005243588704615831,-5.6776170822558925e-05,0.004476145375519991
0.004558346699923277,-2.1882445363892687e-24,-0.0058548119850456715,0.0046478258445858955,-5.6069035053951666e-05,0.0043825414031744
0.004580928012728691,-2.9358090292821713e-26,-0.005618276074528694,0.004548755474388599,-5.5379077821271494e-05,0.004520678427070379
0.004562606569379568,-3.9387624219488417e-28,-0.005213870666921139,0.0055510420352220535,-5.4705815273337066e-05,0.004564801696687937
0.004478532820940018,-5.284352663556584e-30,-0.005230293609201908,0.005754627753049135,-5.4048741731094196e-05,0.00470752315595746
0.00427251448854804,-7.089632712471749e-32,-0.005163983441889286,0.005939695052802563,-5.340732604963705e-05,0.004808920901268721
0.0048689329996705055,-9.511647537857892e-34,-0.00608800956979394,0.005163484252989292,-5.278089884086512e-05,0.004570576827973127
0.005126089323312044,-1.2761088899340944e-35,-0.005475885700434446,0.004853264894336462,-5.2169038099236786e-05,0.0043745883740484715
0.004695369396358728,-1.7120629674077289e-37,-0.00535641610622406,0.005119794514030218,-5.1571158110164106e-05,0.0045836553908884525
0.004913137760013342,-2.2969509894842028e-39,-0.005618753377348185,0.005075925495475531,-5.098684050608426e-05,0.005070752464234829
0.0043298969976603985,-3.081595452896705e-41,-0.005552201997488737,0.005424804519861937,-5.04155941598583e-05,0.004996767267584801
0.004466857761144638,-4.13383046975821e-43,-0.00567214097827673,0.005306829232722521,-4.985705527360551e-05,0.004765658173710108
0.004466857761144638,-4.13383046975821e-43,-0.00567214097827673,0.005306829232722521,-4.985705527360551e-05,0.004765658173710108
0.004752256441861391,-5.605193857299268e-45,-0.005153357516974211,0.005657925270497799,-6.422155365726212e-06,0.004538232460618019
0.004856032785028219,-0.0,-0.005734817590564489,0.005394576583057642,-4.1932085537155217e-07,0.004629412665963173
0.0052347551099956036,0.0,-0.00560026615858078,0.005791492760181427,-2.7378654010590253e-08,0.0045732236467301846
0.005014787893742323,0.0,-0.005889261141419411,0.005468443967401981,-1.7876303770592017e-09,0.004438257310539484
0.004516566172242165,0.0,-0.0053767976351082325,0.005436055827885866,-1.1671948130231868e-10,0.004444760736078024
0.004482851829379797,0.0,-0.005431452766060829,0.005788562819361687,-7.6209481433831e-12,0.004201664589345455
0.004546714946627617,0.0,-0.005469551309943199,0.005444658454507589,-4.975934486499412e-13,0.004351491574198008
0.005111631937325001,0.0,-0.0061343032866716385,0.005189509596675634,-3.248930055652251e-14,0.004549247212707996
0.00497455894947052,0.0,-0.005583417136222124,0.0053324829787015915,-2.121319053982563e-15,0.004241212736815214
0.004894930403679609,0.0,-0.005334174260497093,0.005582350306212902,-1.385069598839212e-16,0.0044021918438375
0.004910956136882305,0.0,-0.005434131715446711,0.005823287647217512,-9.043515179024886e-18,0.004465699661523104
0.004576108884066343,0.0,-0.005623124074190855,0.005538568831980228,-3.855392222999055e-20,0.00397527264431119
0.00471515255048871,0.0,-0.006120589096099138,0.005667294375598431,-2.517295588725694e-21,0.004175245296210051
0.005230624694377184,0.0,-0.00566271273419261,0.005383877549320459,-1.6436144152220485e-22,0.004116564989089966
0.005003416445106268,0.0,-0.005948609206825495,0.0059997644275426865,-1.0731627467025004e-23,0.0039771185256540775
0.004914427176117897,0.0,-0.005556972231715918,0.005741196218878031,-7.006985500106102e-25,0.004204947967082262
0.004709488246589899,0.0,-0.005654496606439352,0.005791101139038801,-4.5750613740338517e-26,0.0045512644574046135
0.004694419912993908,0.0,-0.005386968608945608,0.005778163205832243,-2.9871880253735618e-27,0.004495914094150066
0.0045006428845226765,0.0,-0.005180405918508768,0.005904178600758314,-1.9504204306719285e-28,0.004436985123902559
0.0049249217845499516,0.0,-0.00668790889903903,0.00598829286172986,-1.2734853654661563e-29,0.004293123260140419
0.004819874651730061,0.0,-0.006549102254211903,0.005773859564214945,-8.314949568507594e-31,0.004393707495182753
0.004824052099138498,0.0,-0.0053368061780929565,0.005664778873324394,-5.429067679046768e-32,0.0040971264243125916
0.005054562818259001,0.0,-0.005141198635101318,0.005582474172115326,-3.544793213690843e-33,0.004349078983068466
0.00493737543001771,0.0,-0.0055463360622525215,0.006139494478702545,-2.3144967193024952e-34,0.004176921211183071
0.004834669176489115,0.0,-0.005798532627522945,0.005818702280521393,-1.51120087243634e-35,0.004402406048029661
0.004870545119047165,0.0,-0.00617285305634141,0.005342212039977312,-9.867062200885486e-37,0.004211030900478363
0.005165094044059515,0.0,-0.005613686051219702,0.005132008343935013,-6.442486505314918e-38,0.003937150817364454
0.004996815696358681,0.0,-0.005641932133585215,0.005668516270816326,-4.206483591238059e-39,0.004080873914062977
0.004996815696358681,0.0,-0.005641932133585215,0.005668516270816326,-4.206483591238059e-39,0.004080873914062977
0.0048668566159904,0.0,-0.00602321419864893,0.005916168913245201,-2.7465309770919982e-40,0.004117184318602085
0.004980889149010181,0.0,-0.005457049701362848,0.006303135305643082,-1.7932416447964684e-41,0.004332312382757664
0.004936168435961008,0.0,-0.006078374106436968,0.005705447401851416,-1.171485516175547e-42,0.004613752476871014
0.004913222976028919,0.0,-0.005674473941326141,0.005813648924231529,-7.707141553786494e-44,0.0041733430698513985
0.005099697969853878,0.0,-0.006361161358654499,0.005580524448305368,-5.605193857299268e-45,0.0038157212547957897
0.005035402253270149,0.0,-0.00582470279186964,0.005648988299071789,-0.0,0.0036534226965159178
0.0050758556462824345,0.0,-0.005809022579342127,0.006208887789398432,-0.0,0.0036793944891542196
0.005342789925634861,0.0,-0.005849992856383324,0.006251173559576273,-0.0,0.004135061986744404
0.00516222370788455,0.0,-0.0059112864546477795,0.006223237607628107,-0.0,0.004180649295449257
0.005343649536371231,0.0,-0.005899875424802303,0.005558936856687069,-0.0,0.00404663709923625
0.0050389706157147884,0.0,-0.005767383147031069,0.005822526291012764,-0.0,0.004025743808597326
0.005147631745785475,0.0,-0.006366117391735315,0.00600503059104085,-0.0,0.003847976215183735
0.004949170630425215,0.0,-0.005779597908258438,0.00567622622475028,-0.0,0.003575901035219431
0.005228427238762379,0.0,-0.005605642218142748,0.005641481839120388,-0.0,0.0035671666264533997
0.004973549861460924,0.0,-0.005652339663356543,0.005986787844449282,-0.0,0.003996880259364843
0.0048335036262869835,0.0,-0.006306493654847145,0.005922485142946243,-0.0,0.004061130806803703
0.005078770685940981,0.0,-0.006633846089243889,0.0062421453185379505,-0.0,0.003853956703096628
0.005251764785498381,0.00010686709720175713,-0.005923062097281218,0.005940759554505348,-0.0,0.0036203195340931416
0.004947358276695013,0.00010693432705011219,-0.005557921249419451,0.006007560528814793,-0.0,0.003540778998285532
0.005412030965089798,0.00010448620741954073,-0.0052077919244766235,0.006195235997438431,-0.0,0.0036823635455220938
0.00531336385756731,0.0001021158677758649,-0.006593956146389246,0.006914913654327393,-0.0,0.0037253929767757654
0.005228518042713404,9.985009819502011e-05,-0.007037668954581022,0.006467382423579693,-0.0,0.0036099387798458338
0.005368010140955448,9.768261952558532e-05,-0.006287560798227787,0.006312125828117132,-0.0,0.0034677686635404825
0.00510253245010972,9.560716716805473e-05,-0.006113332696259022,0.006008331198245287,-0.0,0.003445802256464958
0.0053838444873690605,9.361831325804815e-05,-0.005649480503052473,0.006083704996854067,-0.0,0.003619184484705329
0.005197427235543728,0.00010980111255776137,-0.005951638333499432,0.0064592729322612286,-0.0,0.0037806653417646885
0.005063196178525686,0.00010785085760289803,-0.006216276902705431,0.00603535957634449,-0.0,0.004063351545482874
0.005599047988653183,0.00010574243788141757,-0.006079116836190224,0.005812861956655979,-0.0,0.0040845624171197414
0.005189190618693829,0.00010371169628342614,-0.00610831705853343,0.005983287002891302,-0.0,0.0038414301816374063
0.005510029383003712,0.00010175737406825647,-0.00612618587911129,0.006227720063179731,-4.1509050788590685e-05,0.0035290296655148268
0.005510029383003712,0.00010175737406825647,-0.00612618587911129,0.006227720063179731,-4.1509050788590685e-05,0.0035290296655148268
0.005346177611500025,9.987533849198371e-05,-0.00647972384467721,0.006446575280278921,-5.792088632006198e-05,0.0033182536717504263
0.006436082534492016,9.806174057302997e-05,-0.006178509443998337,0.006311084143817425,-5.82771681365557e-05,0.003156015882268548
0.005121844355016947,9.63127677096054e-05,-0.006440495606511831,0.006083338987082243,-5.760342173743993e-05,0.004005227237939835
0.0046764882281422615,9.462500020163134e-05,-0.0059796408750116825,0.006150420289486647,-5.688002420356497e-05,0.0043180896900594234
0.0052345129661262035,0.00010828323138412088,-0.006021753419190645,0.006489389110356569,-5.617037822958082e-05,0.004229293204843998
0.005674553569406271,0.00010665529407560825,-0.0067797815427184105,0.006217215210199356,-5.547795808524825e-05,0.003851550631225109
0.005328386556357145,0.00010488250700291246,-0.006151000503450632,0.005916491616517305,-5.480228355736472e-05,0.0034467072691768408
0.005701637361198664,0.00010150291927857324,-0.006050511728972197,0.006416143383830786,-5.3499272326007485e-05,0.0037597559858113527
0.005790831055492163,9.989346290240064e-05,-0.007040092255920172,0.006623625755310059,-5.28707132616546e-05,0.0038436036556959152
0.005284373182803392,9.833444346440956e-05,-0.0069895051419734955,0.006484126206487417,-5.225674613029696e-05,0.0038467675913125277
0.005733547266572714,9.682326344773173e-05,-0.006322736386209726,0.006359820254147053,-5.165694165043533e-05,0.003458454506471753
0.005621345713734627,9.535776189295575e-05,-0.006435425952076912,0.006204705219715834,-5.1070648623863235e-05,0.003145074239000678
0.005953874904662371,9.393595973961055e-05,-0.005912655498832464,0.006554892752319574,-5.049759056419134e-05,0.003320567077025771
0.005659183487296104,0.00010525106335990131,-0.006406886037439108,0.006781378760933876,-4.9937156290980056e-05,0.003350034123286605
0.005553110036998987,0.00010423977073514834,-0.006906107533723116,0.006176088936626911,-1.2689767572737765e-05,0.0038730348460376263
0.005408845376223326,0.00010275892418576404,-0.006755709182471037,0.005890791770070791,-8.285512649308657e-07,0.00358211575075984
0.005980893969535828,0.0001013130895444192,-0.006604666821658611,0.006073154974728823,-5.409847503301535e-08,0.003288199892267585
0.005649913568049669,9.990731632569805e-05,-0.006237235385924578,0.006955412216484547,-3.532243830761672e-09,0.00296263350173831
0.0055843982845544815,0.00013317278353497386,-0.006581815890967846,0.006649184972047806,-2.3063027876357722e-10,0.0028965927194803953
0.005435445345938206,0.00013371148088481277,-0.006689674686640501,0.0061162556521594524,-1.5058508259779835e-11,0.0032524827402085066
0.005435445345938206,0.00013371148088481277,-0.006689674686640501,0.0061162556521594524,-1.5058508259779835e-11,0.0032524827402085066
0.00566176837310195,0.00012991168478038162,-0.006780107039958239,0.0058141364715993404,-9.832130769271696e-13,0.0036213404964655638
0.005631385836750269,0.00012626894749701023,-0.006369436625391245,0.005866858176887035,-6.419678292646572e-14,0.0037792439106851816
0.005820177495479584,0.00012282110401429236,-0.006677226163446903,0.006465545389801264,-4.191591243882372e-15,0.0038195871748030186
0.006022470537573099,0.00011955774971283972,-0.007023032288998365,0.006627815775573254,-2.7368095099951513e-16,0.0033649413380771875
0.005543392617255449,0.00011646491475403309,-0.00645427405834198,0.006329112686216831,-1.786941237377687e-17,0.0033312132582068443
0.005757897160947323,0.0001353196712443605,-0.005956991109997034,0.0060685365460813046,-1.166744871450946e-18,0.003322347765788436
0.0058295512571930885,0.00013286786270327866,-0.006387865636497736,0.005837370175868273,-7.61801097042146e-20,0.0031548715196549892
0.006103192921727896,0.0001296886766795069,-0.007231533993035555,0.005972851533442736,-4.974016757350001e-21,0.0034906675573438406
0.005810883827507496,0.00012664719542954117,-0.006878201384097338,0.00591633515432477,-3.2476774903579776e-22,0.003770161420106888
0.0057560959830880165,0.00012374500511214137,-0.006229868158698082,0.005727211944758892,-2.1205010272673238e-23,0.0038126776926219463
0.005933152511715889,0.0001209728725370951,-0.006063437554985285,0.006174663081765175,-1.3845357898178001e-24,0.0033690370619297028
0.005930732935667038,0.00013777226558886468,-0.006318362429738045,0.006342578679323196,-9.040029813173125e-26,0.0030062953010201454
0.006223186384886503,0.00013507927360478789,-0.0073675536550581455,0.00607054540887475,-5.902493026688803e-27,0.0029594413936138153
0.005915449932217598,0.00013224731083028018,-0.00657311687245965,0.006168606225401163,-3.853906189340383e-28,0.0029412980657070875
0.005960838403552771,0.00014432438183575869,-0.0063496665097773075,0.0057934052310884,-1.64298074290137e-30,0.003233622293919325
0.005891159176826477,0.00014217605348676443,-0.00629949988797307,0.005890887696295977,-1.0727490915943146e-31,0.003062633564695716
0.0062530445866286755,0.00013943218800704926,-0.0062869940884411335,0.006394136231392622,-7.004284475762359e-33,0.0029515083879232407
0.006320984102785587,0.00013701868010684848,-0.00656422134488821,0.006639821920543909,-4.573297046895092e-34,0.0028560946229845285
0.005945155397057533,0.00020715221762657166,-0.0066698212176561356,0.0062736026011407375,-2.986036323323743e-35,0.002971386769786477
0.005721093621104956,0.0001990174496313557,-0.006258942186832428,0.005431951954960823,-1.9496684802651706e-36,0.002872057491913438
0.005745472852140665,0.00019060198974329978,-0.006584209855645895,0.005785332061350346,-1.272994119580834e-37,0.002920830389484763
0.006255153566598892,0.00018285626720171422,-0.006693740841001272,0.006226241122931242,-8.311741585308686e-39,0.003079489339143038
0.006154811009764671,0.0002094316150760278,-0.005834725219756365,0.006554759573191404,-5.426976718606438e-40,0.003270018845796585
0.006121048238128424,0.00020291534019634128,-0.005967157427221537,0.006562299095094204,-3.543463426738165e-41,0.0033753281459212303
0.006103076506406069,0.00019558430358301848,-0.00639628991484642,0.0059885079972445965,-2.313543764600273e-42,0.003324733814224601
0.006316888611763716,0.0001887482067104429,-0.00710891280323267,0.006441474426537752,-1.5134023414708024e-43,0.0030014372896403074
0.006191846914589405,0.00021153916895855218,-0.006589298602193594,0.00684526888653636,-9.80908925027372e-45,0.002837317530065775
0.006436676252633333,0.00020580098498612642,-0.006105442065745592,0.00702051492407918,-0.0,0.0027489354833960533
0.006458808667957783,0.00019930608686991036,-0.0060616363771259785,0.006842293310910463,-0.0,0.0025247950106859207
0.006458808667957783,0.00019930608686991036,-0.0060616363771259785,0.006842293310910463,-0.0,0.0025247950106859207
0.006260884925723076,0.00021418096730485559,-0.006837894208729267,0.0065756989642977715,-0.0,0.00281137996353209
0.006490771658718586,0.00020803394727408886,-0.0063616870902478695,0.006325609050691128,-0.0,0.003112044185400009
0.006490771658718586,0.00020803394727408886,-0.0063616870902478695,0.006325609050691128,-0.0,0.003112044185400009
0.00613803043961525,0.00020219219732098281,-0.006453776732087135,0.006251937244087458,-0.0,0.0031124697998166084
0.006201260723173618,0.0002513633808121085,-0.006194313522428274,0.006108188536018133,-0.0,0.00297999894246459
0.00629504444077611,0.0002642475883476436,-0.006553185638040304,0.006377031095325947,-0.0,0.002956465585157275
0.00622235331684351,0.0002499403490219265,-0.006351806223392487,0.006844538263976574,-0.0,0.002659006044268608
0.006375382654368877,0.0002785168180707842,-0.006149365101009607,0.006221589632332325,-0.0,0.0024837784003466368
0.006884892471134663,0.0002698698081076145,-0.006233551073819399,0.006002842914313078,-0.0,0.0023748334497213364
0.006258904933929443,0.0002570913056842983,-0.006699854973703623,0.00640479288995266,-0.0,0.0025748303160071373
0.006700950674712658,0.00023473861801903695,-0.006285888142883778,0.006705458741635084,-0.0,0.002881548600271344
0.006396029144525528,0.0002580169530119747,-0.0059807137586176395,0.00638175942003727,-0.0,0.0028084309305995703
0.006410835776478052,0.0002518963592592627,-0.006207061931490898,0.006456858012825251,-0.0,0.0026040631346404552
0.006501934956759214,0.00024226617824751884,-0.007200190331786871,0.006992594338953495,-0.0,0.0024784591514617205
0.006681252270936966,0.00023329563555307686,-0.006807759404182434,0.006814793683588505,-0.0,0.0025222247932106256
0.006914922967553139,0.00025580005603842437,-0.006170427892357111,0.006382398307323456,-0.0,0.0025481616612523794
0.006938977632671595,0.00024822010891512036,-0.006368421018123627,0.006392928771674633,-0.0,0.0025190257001668215
0.006457619834691286,0.00023996402160264552,-0.006192333996295929,0.006592683494091034,-0.0,0.002765865297988057
0.006463531404733658,0.00023222474555950612,-0.006505496334284544,0.006851745303720236,-0.0,0.0026134748477488756
0.006965729407966137,0.00027214144938625395,-0.006630394142121077,0.006482131313532591,-0.0,0.0024292967282235622
0.007249054498970509,0.0002626364876050502,-0.006463432218879461,0.005998003762215376,-0.0,0.0024304669350385666
0.006939673330634832,0.0002482316631358117,-0.006394556257873774,0.006076607387512922,-0.0,0.0021992591209709644
0.006547835655510426,0.0002816400374285877,-0.00677710585296154,0.006478073541074991,-0.0,0.0021051126532256603
0.0067177098244428635,0.00026826959219761193,-0.006533937994390726,0.0067819650284945965,-0.0,0.002152863657101989
0.006720122881233692,0.00029643482412211597,-0.006110393907874823,0.007023356854915619,-0.0,0.0021188368555158377
0.0070165107026696205,0.00028467809897847474,-0.006412754766643047,0.006660229992121458,-0.0,0.0022136270999908447
0.006479230243712664,0.00027239107294008136,-0.00662512332201004,0.006371815223246813,-0.0,0.00244833598844707
0.006363697350025177,0.0002978801785502583,-0.006883210968226194,0.00707399845123291,-0.0,0.0026303494814783335
0.006867827847599983,0.0002865188871510327,-0.006823859643191099,0.0068603199906647205,-0.0,0.0023682883474975824
0.007077706977725029,0.00041376001900061965,-0.006385957822203636,0.006881945300847292,-0.0,0.0022017217706888914
0.007077706977725029,0.00041376001900061965,-0.006385957822203636,0.006881945300847292,-0.0,0.0022017217706888914
0.006831353064626455,0.0003955179126933217,-0.0060729957185685635,0.0066985092125833035,-0.0,0.0020051959436386824
0.006927794311195612,0.00043347873724997044,-0.006646561902016401,0.0068252249620854855,-0.0,0.0019490218255668879
0.0071790642105042934,0.0004038390179630369,-0.007052033208310604,0.007179278414696455,-0.0,0.002017698483541608
0.007185210473835468,0.000375767849618569,-0.006850525736808777,0.006815432105213404,-0.0,0.0020908291917294264
0.007268047425895929,0.00040902808541432023,-0.006177268922328949,0.0069915736094117165,-0.0,0.0020818673074245453
0.006847787648439407,0.0003848184715025127,-0.0060420106165111065,0.006692636292427778,-0.0,0.0020215781405568123
0.00720231095328927,0.0004083021485712379,-0.006997852120548487,0.006487148813903332,-0.0,0.001843952457420528
0.007491785101592541,0.00039183537592180073,-0.006950564216822386,0.006982957944273949,-0.0,0.0016772591043263674
0.00684464443475008,0.0004871636629104614,-0.006213329266756773,0.007167130243033171,-0.0,0.0014107304159551859
0.007349998690187931,0.0004717655247077346,-0.006584792863577604,0.007248499430716038,-0.0,0.001473422977142036
0.007353647146373987,0.0005035154754295945,-0.006988220848143101,0.006826034747064114,-0.0,0.0018023004522547126
0.007272718008607626,0.0005125527968630195,-0.006178225390613079,0.0067753540351986885,-0.0,0.0018882259028032422
0.006848044693470001,0.000498502398841083,-0.006077622063457966,0.006618558894842863,-0.0,0.0020453697070479393
0.00716136721894145,0.0007005175575613976,-0.0064796824008226395,0.007064323406666517,-0.0,0.002009087475016713
0.007417654152959585,0.0007259296835400164,-0.00716306921094656,0.007433844730257988,-0.0,0.0016608332516625524
0.007659807801246643,0.0006439665448851883,-0.006784419063478708,0.0068619027733802795,-2.0444269466679543e-05,0.0014733760617673397
0.006870859768241644,0.0006698300712741911,-0.005995516199618578,0.006502432283014059,-1.3348645779842627e-06,0.0014395533362403512
0.007198839448392391,0.0006065820925869048,-0.006198184099048376,0.006534779444336891,-8.715711885542987e-08,0.0013084284728392959
0.00733943423256278,0.0006290092715062201,-0.006797386799007654,0.006633032578974962,-5.690737214791852e-09,0.0013904781080782413
0.007201600819826126,0.0005812313756905496,-0.006869520992040634,0.006434086710214615,-3.715644736335122e-10,0.0013658785028383136
0.007053617388010025,0.0005667599616572261,-0.006453834939748049,0.0062062363140285015,-2.426050332848817e-11,0.0017324432265013456
0.007416078355163336,0.0005963599542155862,-0.006379400379955769,0.006570623256266117,-1.5840373717573852e-12,0.0016670250333845615
0.007130270358175039,0.000546991650480777,-0.0061201490461826324,0.006905187852680683,-1.0342631427944643e-13,0.001479731290601194
0.007198024075478315,0.0005783744272775948,-0.006626281421631575,0.006885910872370005,-6.75299939462159e-15,0.001347841927781701
0.007198024075478315,0.0005783744272775948,-0.006626281421631575,0.006885910872370005,-6.75299939462159e-15,0.001347841927781701
0.007307299878448248,0.0006033638492226601,-0.0072323353961110115,0.006654937751591206,-4.40922603646532e-16,0.001256603398360312
0.008084142580628395,0.0007675563683733344,-0.006581443361938,0.006574840750545263,-2.878909477762207e-17,0.0012060758890584111
0.007843083702027798,0.0008098125108517706,-0.006223972421139479,0.006876687053591013,-1.879722240297912e-18,0.001103246700949967
0.007543681655079126,0.0008219331502914429,-0.006037414539605379,0.007472123019397259,-1.2273243224906678e-19,0.0011037285439670086
0.007295041810721159,0.0008309741970151663,-0.0066720605827867985,0.007118631154298782,-8.013550483209705e-21,0.0011064540594816208
0.007583893835544586,0.0009046943741850555,-0.006759814918041229,0.0066858152858912945,-5.2322758327932325e-22,0.0015336672076955438
0.008267218247056007,0.0008170292130671442,-0.005775295663625002,0.006361884064972401,-3.416302567300721e-23,0.001491912524215877
0.007806381210684776,0.000828464631922543,-0.006820619106292725,0.006759646348655224,-2.2306016338342057e-24,0.0014499137178063393
0.0076232170686125755,0.0007198004168458283,-0.008257966488599777,0.007108818739652634,-1.4564235994268463e-25,0.0013516959734261036
0.008278748020529747,0.0007393314153887331,-0.007945111021399498,0.007294291164726019,-9.509404671044351e-27,0.0012363988207653165
0.00823935680091381,0.0007535518961958587,-0.0072823320515453815,0.00736922537907958,-6.208962214286261e-28,0.0010675457306206226
0.00742806401103735,0.0007349859806708992,-0.00786656979471445,0.007984231226146221,-2.646978179181627e-30,0.0008435343625023961
0.008030988276004791,0.0008283329079858959,-0.007751377299427986,0.007404328789561987,-0.00018143274064641446,0.0008373343152925372
0.008958869613707066,0.0010994027834385633,-0.0073745641857385635,0.00705059664323926,-0.00019455561414361,0.0009028381900861859
0.008076535537838936,0.0012008917983621359,-0.007092304527759552,0.007034844718873501,-0.00018780554819386452,0.001117943786084652
0.007719658315181732,0.0011475032661110163,-0.008154929615557194,0.0074217538349330425,-0.00018036634719464928,0.0012952599208801985
0.008377348072826862,0.0009758717496879399,-0.00814029574394226,0.006999138742685318,-0.00017342033970635384,0.0012612800346687436
0.008677298203110695,0.0009603351354598999,-0.007535929791629314,0.006425764877349138,-0.00016698450781404972,0.0012625163653865457
0.00834957230836153,0.0008512818021699786,-0.008075474761426449,0.006531832739710808,-0.00018483200983610004,0.0011387389386072755
0.008236565627157688,0.0007217013044282794,-0.00800890102982521,0.00702890008687973,-0.00018598855240270495,0.0010112649761140347
0.00822496972978115,0.0007281170110218227,-0.00776832178235054,0.007307269144803286,-0.00018027030455414206,0.0008560449932701886
0.00843569915741682,0.0007487102993763983,-0.007494988385587931,0.007315631024539471,-0.00017447750724386424,0.0008527111494913697
0.008637305349111557,0.0007727993652224541,-0.008092534728348255,0.007493314798921347,-0.00016901812341529876,0.000809274148195982
0.008705908432602882,0.0009714671759866178,-0.00907166302204132,0.007867807522416115,-0.00016388787480536848,0.000769411853980273
0.00865662656724453,0.0009921605233103037,-0.008068559691309929,0.007656355854123831,-0.00015906004409771413,0.0006318562082014978
0.008483318611979485,0.0009740861132740974,-0.007678605616092682,0.007273360155522823,-0.0001545085833640769,0.0006308038718998432
0.008680330589413643,0.0009640083299018443,-0.008116575889289379,0.0075391968712210655,-0.00015021041326690465,0.000657350872643292
0.009409249760210514,0.0009296309435740113,-0.008585361763834953,0.007673506624996662,-0.000146144739119336,0.0006694066105410457
0.008630569092929363,0.0009426957112737,-0.00838121585547924,0.007386249955743551,-0.0001422935165464878,0.0008007382857613266
0.008630569092929363,0.0009426957112737,-0.00838121585547924,0.007386249955743551,-0.0001422935165464878,0.0008007382857613266
0.009076048620045185,0.0009475487750023603,-0.00793879572302103,0.007176282815635204,-0.00013864011270925403,0.0008186662453226745
0.008937088772654533,0.0009447546908631921,-0.0083761066198349,0.007445787079632282,-0.00013516965555027127,0.0008311749552376568
0.008973109535872936,0.0011713674757629633,-0.008320078253746033,0.008013575337827206,-0.00013186869909986854,0.0007280483259819448
0.008999866433441639,0.0011300904443487525,-0.008016593754291534,0.008097836747765541,-0.00013926885731052607,0.000641909777186811
0.00912752840667963,0.00112650275696069,-0.008967780508100986,0.007708713412284851,-0.0001459697523387149,0.0005736260209232569
0.00889833364635706,0.001115627121180296,-0.00863061286509037,0.007671568542718887,-0.0001432982535334304,0.0005986389005556703
0.008821363560855389,0.001125035691075027,-0.008326963521540165,0.0076171583496034145,-0.00014015271153766662,0.0005514235817827284
0.009103902615606785,0.0011917263036593795,-0.008291027508676052,0.007390033919364214,-0.00013710526400245726,0.0005423997063189745
0.009338008239865303,0.0013096819166094065,-0.008687169291079044,0.007658832706511021,-0.00013418510206975043,0.0005341341602616012
0.008993497118353844,0.0010444049257785082,-0.008568036369979382,0.008074010722339153,-0.0001313865213887766,0.0004991769674234092
0.009485402144491673,0.0005727772368118167,-0.0086002666503191,0.008457866497337818,-0.00012612577120307833,0.0004384816566016525
0.00978480838239193,0.0004924110835418105,-0.008567790500819683,0.008017349056899548,-0.00012365028669591993,0.00041330160456709564
0.009815444238483906,0.0004401721234899014,-0.008746733888983727,0.008236409164965153,-0.00012126992078265175,0.0003388574696145952
0.009756341576576233,0.00023562618298456073,-0.008593418635427952,0.008316805586218834,-0.00011897976946784183,0.00030076748225837946
0.009933865629136562,0.00024307995045091957,-0.008591979742050171,0.00824767630547285,-0.00011677440488711,0.00028096447931602597
0.009858439676463604,0.0003086986835114658,-0.00821823999285698,0.008264376781880856,-0.00011464921408332884,0.0002643842890392989
0.009620419703423977,0.0002874332421924919,-0.00848322082310915,0.007923506200313568,-0.00011260008614044636,0.00024970193044282496
0.010284896939992905,0.0002599077415652573,-0.008701985701918602,0.007567120250314474,-0.00011062286648666486,0.00023657061683479697
0.010165858082473278,0.00023707965738140047,-0.008617192506790161,0.007511966396123171,-0.00010871401900658384,0.00022475126024801284
0.00998523086309433,0.0002179367293138057,-0.008336867205798626,0.007673485670238733,-0.0001068698475137353,0.00023496305220760405
0.009842677973210812,0.00026606550090946257,-0.00811926368623972,0.007873451337218285,-0.0001050871578627266,0.00024377145746257156
0.011244530789554119,0.00025014663697220385,-0.008381843566894531,0.007501478772610426,-0.00010336309060221538,0.00023445556871592999
0.010046341456472874,0.00023392372531816363,-0.008628221228718758,0.0072907740250229836,-0.00010169450251851231,0.00022477676975540817
0.00974915362894535,0.00021964844199828804,-0.008495069108903408,0.007943895645439625,-0.0001000790944090113,0.00021579866006504744
0.010544764809310436,0.0003656543849501759,-0.008905998431146145,0.008375030010938644,-9.851412323769182e-05,0.00020750433031935245
0.01016395352780819,0.0003441241569817066,-0.008566508069634438,0.008197857066988945,-9.699731890577823e-05,0.00019982500816695392
0.01016395352780819,0.0003441241569817066,-0.008566508069634438,0.008197857066988945,-9.699731890577823e-05,0.00019982500816695392
0.011320516467094421,0.0003573850844986737,-0.0084960563108325,0.0076616317965090275,-9.409979975316674e-05,0.00018605314835440367
0.011320516467094421,0.0003573850844986737,-0.0084960563108325,0.0076616317965090275,-9.409979975316674e-05,0.00018605314835440367
0.010343309491872787,0.0003359410329721868,-0.00893757026642561,0.00787440687417984,-9.271495946450159e-05,0.0001798558369046077
0.010178353637456894,0.00031627254793420434,-0.008506033569574356,0.007506487425416708,-9.137025335803628e-05,0.00017405799007974565
0.010610859841108322,0.0003478588187135756,-0.007880052551627159,0.007565409876406193,-9.006413165479898e-05,0.00016862235497683287
0.010484296828508377,0.00033028025063686073,-0.008439797908067703,0.008232442662119865,-9.50446046772413e-05,0.00016351553495042026
0.010445475578308105,0.00034321530256420374,-0.00864174123853445,0.007960370741784573,-9.964909986592829e-05,0.0001587099104654044
0.010710343718528748,0.00034144052187912166,-0.008442560210824013,0.007418197114020586,-9.8670061561279e-05,0.00014156426186673343
0.010267519392073154,0.0003261675301473588,-0.008508545346558094,0.00800041202455759,-9.736110951052979e-05,0.00012576903100125492
0.010761745274066925,0.00037834609975107014,-0.00864442065358162,0.008401035331189632,-9.606367530068383e-05,0.00012159666221123189
0.010897657833993435,0.00039768454735167325,-0.008224854245781898,0.008021173067390919,-9.479907021159306e-05,0.00011834793258458376
0.010957342572510242,0.0003912134561687708,-0.007640188094228506,0.007975234650075436,-9.356704686069861e-05,0.00011531173367984593
0.011104931123554707,0.00042337822378613055,-0.008142095990478992,0.008421526290476322,-9.236675396095961e-05,0.00011243050539633259
0.010426321066915989,0.00042868044693022966,-0.008509025909006596,0.008041929453611374,-9.005620086099952e-05,0.0001070796133717522
0.010720941238105297,0.0006307383300736547,-0.008432305417954922,0.008163689635694027,-8.89438233571127e-05,9.430854697711766e-05
0.01027587614953518,0.0006543187773786485,-0.008487869054079056,0.008227854035794735,-8.785846148384735e-05,8.246632933150977e-05
0.010491203516721725,0.0006155900773592293,-0.008216822519898415,0.008099145255982876,-8.679922757437453e-05,8.000108937267214e-05
0.010459499433636665,0.000553003279492259,-0.008153147995471954,0.00814100168645382,-8.576551772421226e-05,7.822143379598856e-05
0.010274884290993214,0.0005839825025759637,-0.008993977680802345,0.008290387690067291,-8.475570211885497e-05,5.9928715927526355e-05
0.01075520645827055,0.0005853244801983237,-0.008205503225326538,0.008392952382564545,-8.376960613531992e-05,5.6384775234619156e-05
0.01063796877861023,0.0005636466667056084,-0.008389913477003574,0.008403993211686611,-8.280621113954112e-05,-2.3503005650127307e-05
0.011088935658335686,0.0005873125046491623,-0.007921936921775341,0.008406750857830048,-8.186478225979954e-05,-4.774838453158736e-05
0.010423972271382809,0.0005962877185083926,-0.008737495169043541,0.008552170358598232,-8.094447548501194e-05,-6.595886225113645e-05
0.010634108446538448,0.0005664208438247442,-0.00845871027559042,0.008444922044873238,-6.741161632817239e-05,-7.001747871981934e-05
0.010634108446538448,0.0005664208438247442,-0.00845871027559042,0.008444922044873238,-6.741161632817239e-05,-7.001747871981934e-05
0.010891787707805634,0.0006213613087311387,-0.009009108878672123,0.008544097654521465,-6.369200127664953e-05,-0.00010852801642613485
0.010607541538774967,0.0005788980633951724,-0.008642158471047878,0.008679517544806004,-6.279579974943772e-05,-0.00039522306178696454
0.010849807411432266,0.0007739366847090423,-0.008335893973708153,0.008821148425340652,-6.193134322529659e-05,-0.0007039132760837674
0.011019162833690643,0.00082000921247527,-0.008237955160439014,0.00871889665722847,-6.109038804424927e-05,-0.0007435962907038629
0.010694335214793682,0.0008382202940993011,-0.008734609931707382,0.009098559617996216,-6.0272162954788655e-05,-0.0007247455650940537
0.011034419760107994,0.001299945986829698,-0.00851333886384964,0.008696210570633411,-5.9475652960827574e-05,-0.0006973104318603873
0.011049924418330193,0.0012515755370259285,-0.008314301259815693,0.008326414041221142,-5.8699730288935825e-05,-0.000638249097391963
0.011049924418330193,0.0012515755370259285,-0.008314301259815693,0.008326414041221142,-5.8699730288935825e-05,-0.000638249097391963
0.010653865523636341,0.0011932210763916373,-0.008678958751261234,0.00889125932008028,-5.7943925639847293e-05,-0.0007011788547970355
0.011029822751879692,0.0011232949327677488,-0.008385995402932167,0.008640184067189693,-5.720740955439396e-05,-0.0007312893867492676
0.011117003858089447,0.0011020281817764044,-0.008000241592526436,0.008203140459954739,-5.648915976053104e-05,-0.0008394847973249853
0.011323967948555946,0.0010675195371732116,-0.008967477828264236,0.008135880343616009,-5.5789034377085045e-05,-0.0012385145528241992
0.011244654655456543,0.0010428816312924027,-0.008877812884747982,0.008728651329874992,-6.053867400623858e-05,-0.001353382715024054
0.012055906467139721,0.0011794973397627473,-0.008266419172286987,0.008136682212352753,-6.496197602245957e-05,-0.0012833100045099854
0.012933200225234032,0.0011870670132339,-0.008270087651908398,0.00813677441328764,-6.452236993936822e-05,-0.0012508825166150928
0.012306070886552334,0.0011621626326814294,-0.008877302519977093,0.008899621665477753,-6.378225953085348e-05,-0.0013350871158763766
0.012656941078603268,0.0013535190373659134,-0.00880527961999178,0.008520410396158695,-7.002775964792818e-05,-0.0016006446676328778
0.012632490135729313,0.001298248884268105,-0.008373387157917023,0.008600739762187004,-7.169348100433126e-05,-0.0018723432440310717
0.012697051279246807,0.0013202595291659236,-0.009399223141372204,0.008770223706960678,-7.104584074113518e-05,-0.002078516408801079
0.012203855440020561,0.00125258753541857,-0.008739744313061237,0.008864512667059898,-7.026398088783026e-05,-0.001977209933102131
0.012999746948480606,0.0011938052484765649,-0.008635423146188259,0.00831893365830183,-3.5223612940171733e-05,-0.001893896609544754
0.012366458773612976,0.0012606813106685877,-0.009369858540594578,0.008596524596214294,-2.299850166309625e-06,-0.0017184624448418617
0.01259707659482956,0.0012356393272057176,-0.009014724753797054,0.00874412152916193,-1.50163785406221e-07,-0.0014146225294098258
0.012578947469592094,0.0011925370199605823,-0.00865672342479229,0.008809545077383518,-9.804623779530175e-09,-0.001443364191800356
0.01298456359654665,0.0013292179210111499,-0.008846734650433064,0.008601079694926739,-6.401718599668982e-10,-0.001411939738318324
0.012766099534928799,0.0012918891152366996,-0.008893308229744434,0.008795165456831455,-0.0001302192104049027,-0.0016616428038105369
0.013187063857913017,0.0012374912621453404,-0.008851483464241028,0.008756415918469429,-0.00015528046060353518,-0.0018445379100739956
0.013133684173226357,0.0013776452979072928,-0.00904528796672821,0.008832857012748718,-0.00015196744061540812,-0.002313939854502678
0.012727580033242702,0.0013288693735376,-0.008519632741808891,0.008578463457524776,-0.00014712486881762743,-0.0033057897817343473
0.012735136784613132,0.0014820352662354708,-0.008931556716561317,0.008375009521842003,-0.00014247442595660686,-0.0035487294662743807
0.01235395111143589,0.001584816724061966,-0.0093521224334836,0.00825729500502348,-0.00013810201198793948,-0.0032206247560679913
0.012832220643758774,0.0015322351828217506,-0.009236919693648815,0.008822915144264698,-0.00014713946438860148,-0.002551768673583865
0.012832220643758774,0.0015322351828217506,-0.009236919693648815,0.008822915144264698,-0.00014713946438860148,-0.002551768673583865
0.012840666808187962,0.0016871702391654253,-0.008571061305701733,0.008841599337756634,-0.00015524683112744242,-0.0022179491352289915
0.013207382522523403,0.0016648570308461785,-0.00866012554615736,0.008818369358778,-0.00015169188554864377,-0.0021730768494307995
0.013301774859428406,0.0014687307411804795,-0.009334943257272243,0.009302457794547081,-0.0001475982862757519,-0.0021995767019689083
0.013355066999793053,0.0015005371533334255,-0.009233786724507809,0.01002287957817316,-0.00016141767264343798,-0.0030048065818846226
0.013184167444705963,0.0014238720759749413,-0.008804206736385822,0.009326035156846046,-0.00016287084145005792,-0.0036104486789554358
0.012721927836537361,0.0015864836750552058,-0.00934630911797285,0.009495686739683151,-0.00015912452363409102,-0.0035483967512845993
0.013563389889895916,0.0015882047591730952,-0.009110968559980392,0.009866196662187576,-0.00015522741887252778,-0.0030965146142989397
0.012943141162395477,0.0015356517396867275,-0.00889840442687273,0.009543648920953274,-0.00015149606042541564,-0.0026172345969825983
0.01317815575748682,0.0015182862989604473,-0.009413407184183598,0.009207472205162048,-0.00016449196846224368,-0.003382410854101181
0.013376438990235329,0.0015331616159528494,-0.008765612728893757,0.009418191388249397,-0.00016144254186656326,-0.003773352364078164
0.013059815391898155,0.0014585572062060237,-0.009077897295355797,0.00920904241502285,-0.00015794251521583647,-0.004152880981564522
0.013585098087787628,0.0013908905675634742,-0.009606389328837395,0.009437824599444866,-0.00021235577878542244,-0.00408055167645216
0.01332909520715475,0.0015548281371593475,-0.009733294136822224,0.00937807746231556,-0.00022076097957324237,-0.0035884217359125614
0.013556458987295628,0.0014872008468955755,-0.009587140753865242,0.009419686160981655,-0.00021160938194952905,-0.0034032068215310574
0.012989754788577557,0.001712959841825068,-0.009178712032735348,0.009511279873549938,-0.00020218042482156307,-0.003354226006194949
0.013582958839833736,0.001685906434431672,-0.008949843235313892,0.00921646598726511,-0.0001934900355990976,-0.003406584495678544
0.013754291459918022,0.0015332794282585382,-0.009439520537853241,0.00920941587537527,-0.00021766891586594284,-0.0036755020264536142
0.01345597393810749,0.0016269020270556211,-0.010580702684819698,0.009125860407948494,-0.0002134764363290742,-0.0040862224996089935
0.013868145644664764,0.0017759647453203797,-0.009144818410277367,0.00905970111489296,-0.00020563395810313523,-0.004580909851938486
0.01383625902235508,0.002078743651509285,-0.009043135680258274,0.008814346976578236,-0.00019810789672192186,-0.00437152199447155
0.014098141342401505,0.002178363036364317,-0.01027718000113964,0.009902909398078918,-0.00020670256344601512,-0.004451986402273178
0.014094565995037556,0.002093763556331396,-0.009579652920365334,0.009223680943250656,-0.00021426487364806235,-0.004149268381297588
0.014420278370380402,0.0017574866069480777,-0.00934550166130066,0.009359912946820259,-0.00020813975424971431,-0.003914936445653439
0.014241899363696575,0.001761812949553132,-0.010489067994058132,0.009753219783306122,-0.00020154259982518852,-0.004127263091504574
0.014503899961709976,0.001624820870347321,-0.010780422016978264,0.009548770263791084,-0.00022131772129796445,-0.004311778582632542
0.014413313008844852,0.001765711815096438,-0.010400368832051754,0.009504886344075203,-0.00021636388555634767,-0.004306774120777845
0.014876790344715118,0.0016620083479210734,-0.010745848529040813,0.010286234319210052,-0.0002101590798702091,-0.004744907841086388
0.014546756632626057,0.001962862443178892,-0.010524185374379158,0.009954378008842468,-0.00020420503278728575,-0.004765966907143593
0.014546756632626057,0.001962862443178892,-0.010524185374379158,0.009954378008842468,-0.00020420503278728575,-0.004765966907143593
0.014808817766606808,0.0018256043549627066,-0.01085670292377472,0.010019042529165745,-0.00019857338338624686,-0.004455252550542355
0.014562387019395828,0.0020140556152909994,-0.010617867112159729,0.010812590830028057,-0.00019324349705129862,-0.004503938835114241
0.014908242970705032,0.0018173041753470898,-0.010097182355821133,0.009655611589550972,-0.00018867733888328075,-0.004502669908106327
0.014620148576796055,0.001750442199409008,-0.01088826172053814,0.009346811100840569,-0.00021828924946021289,-0.004735121503472328
0.014736231416463852,0.0017120800912380219,-0.010687136091291904,0.009742874652147293,-0.00021060653671156615,-0.0048881168477237225
0.014718773774802685,0.0015579916071146727,-0.011086557991802692,0.009694965556263924,-0.00023109196627046913,-0.004878380335867405
0.015129998326301575,0.0020455247722566128,-0.011027553118765354,0.00951570924371481,-0.0002217348519479856,-0.004881459288299084
0.015094558708369732,0.002078976947814226,-0.011250474490225315,0.009603522717952728,-0.00023927463917061687,-0.0049356091767549515
0.015605923719704151,0.002469524508342147,-0.011599753983318806,0.00944034568965435,-0.0002384945983067155,-0.005216347053647041
0.015333695337176323,0.0021210648119449615,-0.010799054987728596,0.009655528701841831,-0.00023031588352750987,-0.005488512571901083
0.015135097317397594,0.001881023054011166,-0.011209712363779545,0.00975087285041809,-0.00022222584811970592,-0.005370268598198891
0.015105084516108036,0.0017949716420844197,-0.01102202944457531,0.009413368999958038,-0.00024125530035234988,-0.005173843819648027
0.0151527626439929,0.0015487956115975976,-0.011038032360374928,0.009655272588133812,-0.0002369715366512537,-0.005032331217080355
0.014897612854838371,0.0015967513900250196,-0.011730034835636616,0.010292685590684414,-0.000229651530389674,-0.005671424325555563
0.015547932125627995,0.0019520223140716553,-0.01069823931902647,0.009344515390694141,-0.0003134039870928973,-0.0054308283142745495
0.015392475761473179,0.002011633710935712,-0.011424687691032887,0.00968842301517725,-0.0003206619876436889,-0.005116359330713749
0.015603206120431423,0.0021056917030364275,-0.010989855974912643,0.010508055798709393,-0.00033041046117432415,-0.005109215155243874
0.014945202507078648,0.002041927305981517,-0.01034463755786419,0.009459259919822216,-0.0003368074831087142,-0.005410544574260712
0.015408427454531193,0.001973344013094902,-0.011806712485849857,0.009571242146193981,-0.0003186902613379061,-0.005971116479486227
0.015345790423452854,0.0017523011192679405,-0.011870303191244602,0.010445790365338326,-0.000344443426001817,-0.005778321996331215
0.01575341634452343,0.001709890435449779,-0.011573126539587975,0.010087012313306332,-0.0003322208649478853,-0.005750247742980719
0.015371388755738735,0.001776437391526997,-0.011101105250418186,0.01040000282227993,-0.00031594440224580467,-0.005516610108315945
0.015630945563316345,0.001871989225037396,-0.010875475592911243,0.010466234758496284,-0.0003008763596881181,-0.005700696725398302
0.01570555567741394,0.0021314374171197414,-0.011779439635574818,0.010138468816876411,-0.0003174555895384401,-0.005849867593497038
0.015787262469530106,0.002635355107486248,-0.011494063772261143,0.01073356345295906,-0.00031317249522544444,-0.005820444785058498
0.015905529260635376,0.0023626608308404684,-0.011079646646976471,0.01032870914787054,-0.00030071305809542537,-0.005536123178899288
0.015571538358926773,0.002362404949963093,-0.011566457338631153,0.009539282880723476,-0.0003403213631827384,-0.005772087723016739
0.015571538358926773,0.002362404949963093,-0.011566457338631153,0.009539282880723476,-0.0003403213631827384,-0.005772087723016739
0.01607251912355423,0.0020774195436388254,-0.011084291152656078,0.01015839260071516,-0.00033258923212997615,-0.006112915463745594
0.015762953087687492,0.0017234296537935734,-0.011879184283316135,0.009963855147361755,-0.0003564649960026145,-0.005864423234015703
0.016525844112038612,0.0015204244991764426,-0.011089365929365158,0.009504047222435474,-0.00034781088470481336,-0.006267326883971691
0.016173219308257103,0.0013977448688820004,-0.010933903977274895,0.009583861567080021,-0.00032763698254711926,-0.005770370364189148
0.016338646411895752,0.0011307458626106381,-0.011395648121833801,0.009580964222550392,-0.00035348659730516374,-0.005747376475483179
0.017140598967671394,0.0011703739874064922,-0.011195848695933819,0.009942316450178623,-0.0003404734598007053,-0.005764140747487545
0.016204457730054855,0.0011808680137619376,-0.011425312608480453,0.010471150279045105,-0.00032339061726816,-0.0059661041013896465
0.016134070232510567,0.001660422421991825,-0.011243227869272232,0.010065220296382904,-0.0003337279486004263,-0.006223753094673157
0.016606086865067482,0.0017202076269313693,-0.011525874026119709,0.010223420336842537,-0.00032018611091189086,-0.006006390787661076
0.016300518065690994,0.0015225415118038654,-0.010903936810791492,0.009869434870779514,-0.00030663245706819,-0.005922006908804178
0.016609827056527138,0.0012789838947355747,-0.011937892064452171,0.01004853192716837,-0.00032506551360711455,-0.005767973139882088
0.01687029004096985,0.0012130363611504436,-0.011413131840527058,0.010197535157203674,-0.0003316857328172773,-0.006341307424008846
0.016633978113532066,0.0009502230095677078,-0.011174432933330536,0.009842151775956154,-0.00031077308813109994,-0.006290982477366924
0.016966653987765312,0.001037653535604477,-0.011667759157717228,0.009863984771072865,-0.00033361060195602477,-0.006123511120676994
0.016973918303847313,0.0010599486995488405,-0.011280057020485401,0.01004297100007534,-0.0003267834254074842,-0.006297687534242868
0.017657741904258728,0.0013951484579592943,-0.010906962677836418,0.009775936603546143,-0.00030895540839992464,-0.006535964552313089
0.01786051318049431,0.0014910531463101506,-0.01151551865041256,0.009644904173910618,-0.0003344396245665848,-0.006686629727482796
0.01762543059885502,0.0018978319130837917,-0.010955379344522953,0.01052632462233305,-0.00032305761124007404,-0.0066991266794502735
0.017724869772791862,0.0018331249011680484,-0.011452899314463139,0.009918027557432652,-0.00030765452538616955,-0.006708888802677393
0.01963905803859234,0.0018898650305345654,-0.009993527084589005,0.00993207935243845,-0.0003242933889850974,-0.006420799996703863
0.017092972993850708,0.0017041281098499894,-0.011834603734314442,0.01008871290832758,-0.0003196234174538404,-0.006176679395139217
0.016960078850388527,0.0015939384466037154,-0.011960024945437908,0.009815385565161705,-0.0003066445351578295,-0.006399012636393309
0.01761615090072155,0.0015172770945355296,-0.011075709015130997,0.010479860007762909,-0.0003512093098834157,-0.006698406767100096
0.018172044306993484,0.0015607711393386126,-0.011123675853013992,0.010786911472678185,-0.00034370081266388297,-0.0066744862124323845
0.018311256542801857,0.0016307036858052015,-0.011033578775823116,0.009785911999642849,-0.00032047557760961354,-0.007138945162296295
0.018311256542801857,0.0016307036858052015,-0.011033578775823116,0.009785911999642849,-0.00032047557760961354,-0.007138945162296295
0.018275996670126915,0.001686842180788517,-0.01099324505776167,0.010682722553610802,-0.00029923496185801923,-0.006712447386234999
0.01832970604300499,0.0019362724851816893,-0.01238328404724598,0.010393314994871616,-0.00030786983552388847,-0.006780129857361317
0.018247412517666817,0.0020274792332202196,-0.011642142198979855,0.01085624098777771,-0.00029922003159299493,-0.00713795842602849
0.018247412517666817,0.0020274792332202196,-0.011642142198979855,0.01085624098777771,-0.00029922003159299493,-0.00713795842602849
0.01843825727701187,0.001800371566787362,-0.011883505620062351,0.011039967648684978,-0.0002836068160831928,-0.007381881587207317
0.017908601090312004,0.0017416272312402725,-0.011459285393357277,0.011110450141131878,-0.0003083405608776957,-0.007131062913686037
0.018510397523641586,0.0017318585887551308,-0.011895915493369102,0.010260158218443394,-0.00029902803362347186,-0.007232682313770056
0.018330616876482964,0.0016173964831978083,-0.011350060813128948,0.01123686321079731,-0.00028580837533809245,-0.007373807020485401
0.01865428313612938,0.0017113080248236656,-0.012186932377517223,0.01117723062634468,-0.00029693421674892306,-0.008028384298086166
0.018331188708543777,0.0020298894960433245,-0.011891086585819721,0.01079984474927187,-0.00028735739761032164,-0.007433606777340174
0.018400004133582115,0.001911600586026907,-0.011788899078965187,0.010787333361804485,-0.0002933690557256341,-0.006947411224246025
0.018537752330303192,0.002123758429661393,-0.0115467868745327,0.01076941005885601,-0.0002907386515289545,-0.007069265935570002
0.018571585416793823,0.0019527104450389743,-0.012320178560912609,0.010915588587522507,-0.00027409172616899014,-0.007822188548743725
0.01886894181370735,0.0019454529974609613,-0.01197285857051611,0.01089871022850275,-0.0003031230007763952,-0.007805625908076763
0.01908404566347599,0.001768631860613823,-0.011362711898982525,0.010899125598371029,-0.00029280188027769327,-0.008021116256713867
0.018874945119023323,0.0017247901996597648,-0.011951847933232784,0.01130003109574318,-0.00027811640757136047,-0.00833746325224638
0.01873493753373623,0.0017451377352699637,-0.011917583644390106,0.011301794089376926,-0.00026451487792655826,-0.008196821436285973
0.018851976841688156,0.001868388382717967,-0.012281788513064384,0.010549651458859444,-0.00028856322751380503,-0.007795139215886593
0.018770162016153336,0.0018709719879552722,-0.011835134588181973,0.010877875611186028,-0.00030031707137823105,-0.008059659972786903
0.018901703879237175,0.0021965145133435726,-0.011553974822163582,0.011530568823218346,-0.0003061268071178347,-0.00871532503515482
0.018811408430337906,0.001918711932376027,-0.012014977633953094,0.011440364643931389,-0.00029480535886250436,-0.008060802705585957
0.018565548583865166,0.0018162744818255305,-0.011770053766667843,0.011341355741024017,-0.00033835062640719116,-0.008197364397346973
0.018935183063149452,0.0017528679454699159,-0.0122333113104105,0.010916082188487053,-0.0003640561772044748,-0.00832965038716793
0.01920100674033165,0.0019080971833318472,-0.011824331246316433,0.011359982192516327,-0.000373000861145556,-0.008262695744633675
0.01920100674033165,0.0019080971833318472,-0.011824331246316433,0.011359982192516327,-0.000373000861145556,-0.008262695744633675
0.019094152376055717,0.002229692880064249,-0.011875939555466175,0.011121554300189018,-0.0003545113140717149,-0.008323478512465954
0.019209668040275574,0.0025306553579866886,-0.01172111090272665,0.01177014410495758,-0.00038073613541200757,-0.008231195621192455
0.019209668040275574,0.0025306553579866886,-0.01172111090272665,0.01177014410495758,-0.00038073613541200757,-0.008231195621192455
0.01904313638806343,0.002396606607362628,-0.01243092492222786,0.011195032857358456,-0.00036521838046610355,-0.008151479065418243
0.019538532942533493,0.0023092073388397694,-0.011680557392537594,0.011740092188119888,-0.00034560690983198583,-0.00785692036151886
0.019237611442804337,0.0021622481290251017,-0.012450799345970154,0.011268861591815948,-0.00036816808278672397,-0.008281874470412731
0.018899455666542053,0.0022253417409956455,-0.012811788357794285,0.011111240833997726,-0.0003555330040398985,-0.008235716260969639
0.01905406266450882,0.0020191213116049767,-0.012722116895020008,0.011656444519758224,-0.00033914571395143867,-0.008327921852469444
0.019635897129774094,0.002191231120377779,-0.012902582064270973,0.011209595017135143,-0.000384196056984365,-0.00784638524055481
0.019639048725366592,0.0023983565624803305,-0.012570536695420742,0.011479085311293602,-0.00037324015283957124,-0.008197793737053871
0.01974717155098915,0.0022201193496584892,-0.012246223166584969,0.01148091722279787,-0.00038433526060543954,-0.0078046792186796665
0.0192605871707201,0.0021097157150506973,-0.013147866353392601,0.011518662795424461,-0.0003597552713472396,-0.007994397543370724
0.01916167512536049,0.0022381916642189026,-0.013009984977543354,0.011252214200794697,-0.0003646868572104722,-0.00804296974092722
0.01924770697951317,0.0020509425085037947,-0.013627316802740097,0.011570390313863754,-0.0003685290284920484,-0.00783590879291296
0.019086580723524094,0.002266664057970047,-0.013311990536749363,0.011700525879859924,-0.0003497149737086147,-0.007991999387741089
0.019558586180210114,0.0023733775597065687,-0.013196123763918877,0.011634106747806072,-0.00037239669472910464,-0.008323564194142818
0.01927330158650875,0.002319434192031622,-0.013217083178460598,0.012179728597402573,-0.0003594197623897344,-0.00833556242287159
0.018722767010331154,0.002502333140000701,-0.013090359978377819,0.011692754924297333,-0.0004110231820959598,-0.008273760788142681
0.01978108286857605,0.0026074431370943785,-0.013655147515237331,0.011902084574103355,-0.0003979802131652832,-0.008376311510801315
0.02012329362332821,0.0023969789035618305,-0.013262786902487278,0.011862148530781269,-0.0004303478344809264,-0.008572046644985676
0.019647084176540375,0.002166129183024168,-0.013578910380601883,0.01174530852586031,-0.00040664244443178177,-0.008334736339747906
0.01958814635872841,0.0021325601264834404,-0.013087381608784199,0.012191317975521088,-0.0004250823403708637,-0.008225277066230774
0.020041918382048607,0.0023282982874661684,-0.013944970443844795,0.011843990534543991,-0.000411774410167709,-0.008281320333480835
0.019460206851363182,0.002265661722049117,-0.013382197357714176,0.011898261494934559,-0.00043524461216293275,-0.008474907837808132
0.019460206851363182,0.002265661722049117,-0.013382197357714176,0.011898261494934559,-0.00043524461216293275,-0.008474907837808132
0.020047081634402275,0.002605125540867448,-0.013519089668989182,0.012446129694581032,-0.000522287969943136,-0.008286603726446629
0.020197367295622826,0.0024445720482617617,-0.013852827250957489,0.012384846806526184,-0.0005590295186266303,-0.008022872731089592
0.019442396238446236,0.0025142247322946787,-0.013709991239011288,0.01253599114716053,-0.000517225475050509,-0.008658387698233128
0.019442396238446236,0.0025142247322946787,-0.013709991239011288,0.01253599114716053,-0.000517225475050509,-0.008658387698233128
0.02075190097093582,0.002429092535749078,-0.014811675995588303,0.012663259170949459,-0.00047267673653550446,-0.008366920053958893
0.02033514529466629,0.002307786839082837,-0.01393286231905222,0.012086051516234875,-0.000501938397064805,-0.007453207392245531
0.01994609273970127,0.002671757945790887,-0.0142135014757514,0.012007348239421844,-0.0005014525959268212,-0.007279485929757357
0.019792310893535614,0.0028978807386010885,-0.013787910342216492,0.011858154088258743,-0.0004968406865373254,-0.007463988848030567
0.019932711496949196,0.002608589129522443,-0.014238604344427586,0.011675534769892693,-0.00046769005712121725,-0.007600749842822552
0.02024807780981064,0.002624878194183111,-0.013897020369768143,0.011966904625296593,-0.0004982078098692,-0.007603739388287067
0.020504441112279892,0.002383267506957054,-0.013863523490726948,0.011638681404292583,-0.0004533781611826271,-0.0075088669545948505
0.020516730844974518,0.002325031440705061,-0.014410670846700668,0.011898478493094444,-0.00045029036118648946,-0.009045587852597237
0.020396238192915916,0.002523994306102395,-0.013926277868449688,0.012258494272828102,-0.0004177925002295524,-0.007940798997879028
0.020754499360919,0.0024305968545377254,-0.014907301403582096,0.012523689307272434,-0.00041928718565031886,-0.007776882499456406
0.02110648900270462,0.0025467907544225454,-0.013735029846429825,0.011934828013181686,-0.00042005395516753197,-0.00783317256718874
0.02093985676765442,0.002539493842050433,-0.01380227506160736,0.012276814319193363,-0.00039555045077577233,-0.007608672138303518
0.021141981706023216,0.002341078594326973,-0.014045520685613155,0.011656764894723892,-0.0004217814130242914,-0.008115291595458984
0.021267760545015335,0.002519883681088686,-0.014445208013057709,0.01193187851458788,-0.0004025779489893466,-0.008471055887639523
0.021220089867711067,0.00280986656434834,-0.014692757278680801,0.012539377436041832,-0.0004127224674448371,-0.00860697589814663
0.021006673574447632,0.002757848473265767,-0.013628346845507622,0.01213582418859005,-0.00038085412234067917,-0.008514320477843285
0.021028492599725723,0.002830794546753168,-0.014315512031316757,0.012654762715101242,-0.00035130075411871076,-0.00874662958085537
0.021528897807002068,0.0028220079839229584,-0.014450855553150177,0.012260387651622295,-0.0003258549841120839,-0.008464380167424679
0.021849872544407845,0.0027689479757100344,-0.014386986382305622,0.012322616763412952,-0.00033335824264213443,-0.00837490800768137
0.02151390351355076,0.002616769867017865,-0.013903508894145489,0.011855223216116428,-0.00033949397038668394,-0.008342924527823925
0.021702924743294716,0.0028722540009766817,-0.014093133620917797,0.011616487056016922,-0.00032107409788295627,-0.008382201194763184
0.021950330585241318,0.0029331971891224384,-0.013902178965508938,0.01158206257969141,-0.00030315734329633415,-0.008618814870715141
0.02169274166226387,0.002551960526034236,-0.014131167903542519,0.011304276064038277,-0.0002870446187444031,-0.008320803754031658
0.021918056532740593,0.002619496313855052,-0.014471172355115414,0.011728926561772823,-0.0002725532394833863,-0.008615739643573761
0.022137297317385674,0.0027327220886945724,-0.014810755848884583,0.012036052532494068,-0.000299728533718735,-0.008857214823365211
0.0221183393150568,0.00293587613850832,-0.014112478122115135,0.012422488071024418,-0.00028862140607088804,-0.008700184524059296
0.02216147817671299,0.002901823725551367,-0.014502213336527348,0.012932720594108105,-0.00027613964630290866,-0.008901411667466164
0.02216147817671299,0.002901823725551367,-0.014502213336527348,0.012932720594108105,-0.00027613964630290866,-0.008901411667466164
0.021723369136452675,0.002876865677535534,-0.014596602879464626,0.013414536602795124,-0.0002888981543947011,-0.008666609413921833
0.021723369136452675,0.002876865677535534,-0.014596602879464626,0.013414536602795124,-0.0002888981543947011,-0.008666609413921833
0.02214175835251808,0.0024152782279998064,-0.014425303786993027,0.013102717697620392,-0.0002795790496747941,-0.009005436673760414
0.022316208109259605,0.002429419429972768,-0.014514467678964138,0.0134300971403718,-0.0002669746754691005,-0.009331402368843555
0.02258869633078575,0.0026026812847703695,-0.014156541787087917,0.012522145174443722,-0.00025226277648471296,-0.009250530041754246
0.02259516902267933,0.002843888709321618,-0.014426400884985924,0.01271689310669899,-0.0002741187927313149,-0.008952004835009575
0.022811394184827805,0.0026655090041458607,-0.014302907511591911,0.012833517044782639,-0.0002713875437621027,-0.009462111629545689
0.022214755415916443,0.0026047485880553722,-0.014380084350705147,0.013517585583031178,-0.0002964879968203604,-0.009045597165822983
0.02256469428539276,0.0023864025715738535,-0.014606377109885216,0.013134396634995937,-0.0003125387302134186,-0.008735445328056812
0.02288861759006977,0.002431662753224373,-0.014194231480360031,0.013477953150868416,-0.0003018500574398786,-0.009010122157633305
0.022334499284625053,0.002406056271865964,-0.01410592906177044,0.013150167651474476,-0.00044585144496522844,-0.009137596003711224
0.02289646491408348,0.002439295407384634,-0.013821592554450035,0.013339710421860218,-0.0004518407513387501,-0.008843401446938515
0.02338803932070732,0.0020782530773431063,-0.014256773516535759,0.012876883149147034,-0.00045354943722486496,-0.008768662810325623
0.023419512435793877,0.0017276984872296453,-0.013884945772588253,0.012964814901351929,-0.0004519587382674217,-0.008650555275380611
0.023181147873401642,0.0017220964655280113,-0.014150240458548069,0.012842915020883083,-0.00041923383832909167,-0.009375292807817459
0.023161154240369797,0.0016451801639050245,-0.013536962680518627,0.013282962143421173,-0.0004451572021935135,-0.009344236925244331
0.02286868914961815,0.0017662240425124764,-0.014303736388683319,0.012707510963082314,-0.0004229087207932025,-0.00920336227864027
0.022985536605119705,0.002513281302526593,-0.013623060658574104,0.012746877036988735,-0.0004494971362873912,-0.009227411821484566
0.023541362956166267,0.0027506286278367043,-0.014078030362725258,0.013049555011093616,-0.0005005674320273101,-0.00936648715287447
0.023560693487524986,0.002319407183676958,-0.013804342597723007,0.012999601662158966,-0.0005559846176765859,-0.009428977966308594
0.02370789647102356,0.0022076969034969807,-0.014668472111225128,0.012796100229024887,-0.0005786785040982068,-0.009612315334379673
0.023904666304588318,0.0019883005879819393,-0.013960245996713638,0.012278547510504723,-0.0006061127642169595,-0.009645733051002026
0.023673729971051216,0.002122478559613228,-0.014506861567497253,0.01297681126743555,-0.000983543461188674,-0.00942076463252306
0.02369052544236183,0.0025596143677830696,-0.013766737654805183,0.01301781740039587,-0.0011099084513261914,-0.009095183573663235
0.02369052544236183,0.0025596143677830696,-0.013766737654805183,0.01301781740039587,-0.0011099084513261914,-0.009095183573663235
0.023713966831564903,0.0027195399161428213,-0.014532221481204033,0.013615580275654793,-0.0009845232125371695,-0.009043924510478973
0.02392146922647953,0.0027594477869570255,-0.014479960314929485,0.012754128314554691,-0.0009666821570135653,-0.009353524073958397
0.023820584639906883,0.002463717944920063,-0.014915197156369686,0.012789575383067131,-0.000858744082506746,-0.009091338142752647
0.024266090244054794,0.0022909764666110277,-0.013971036300063133,0.012902878224849701,-0.0007675368105992675,-0.009115426801145077
0.024400120601058006,0.0023491408210247755,-0.014927706681191921,0.013268311507999897,-0.0006931843236088753,-0.009181237779557705
0.024093613028526306,0.0025423411279916763,-0.014509272761642933,0.013398876413702965,-0.0006041411543264985,-0.008883722126483917
0.023984316736459732,0.002537865424528718,-0.015565496869385242,0.013182069174945354,-0.0006241709925234318,-0.009164197370409966
0.023967312648892403,0.002792564919218421,-0.014926610514521599,0.013542678207159042,-0.000570520234759897,-0.009128646925091743
0.024534597992897034,0.0025562201626598835,-0.014586273580789566,0.013468116521835327,-0.0005965752643533051,-0.009472348727285862
0.024958251044154167,0.0023713582195341587,-0.014701701700687408,0.01387616153806448,-0.0005497410311363637,-0.009528465569019318
0.024422038346529007,0.002415810013189912,-0.015428892336785793,0.013383036479353905,-0.0005408847937360406,-0.00920461118221283
0.024496454745531082,0.0026339865289628506,-0.015561399981379509,0.013493064790964127,-0.0005327483522705734,-0.009265847504138947
0.024406462907791138,0.00272884382866323,-0.015774516388773918,0.012920615263283253,-0.0004979746881872416,-0.009192314930260181
0.024595946073532104,0.002752435626462102,-0.015053142793476582,0.01370229572057724,-0.00042795302579179406,-0.009353271685540676
0.024742450565099716,0.0026792872231453657,-0.015559840016067028,0.013558647595345974,-0.00046358202234841883,-0.00988506805151701
0.024742450565099716,0.0026792872231453657,-0.015559840016067028,0.013558647595345974,-0.00046358202234841883,-0.00988506805151701
0.02505476213991642,0.002616491634398699,-0.015437829308211803,0.01310656312853098,-0.0005139484419487417,-0.009619689546525478
0.02444831281900406,0.002750320825725794,-0.015064854174852371,0.013653585687279701,-0.0007444260409101844,-0.009144105948507786
0.024723926559090614,0.0025805034674704075,-0.015512748621404171,0.013747897930443287,-0.000834055885206908,-0.009484882466495037
0.025160931050777435,0.002569223288446665,-0.015039509162306786,0.013496274128556252,-0.000831316807307303,-0.009725354611873627
0.02508968859910965,0.0023413458839058876,-0.01387025322765112,0.01340652909129858,-0.0007596761570312083,-0.009655830450356007
0.024973435327410698,0.0024390355683863163,-0.015440533868968487,0.014240256510674953,-0.0007629344472661614,-0.010063612833619118
0.02482442744076252,0.0026156515814363956,-0.0157513115555048,0.013618766330182552,-0.0007000910700298846,-0.009976986795663834
0.024756837636232376,0.00278147729113698,-0.015158237889409065,0.01379074901342392,-0.0007037141476757824,-0.010011853650212288
0.02616664208471775,0.002603293629363179,-0.01552495826035738,0.013370880857110023,-0.0007099205395206809,-0.010219975374639034
0.025787262246012688,0.002585114212706685,-0.015112373977899551,0.013857298530638218,-0.0006522646872326732,-0.010048463009297848
0.02500414103269577,0.002622622065246105,-0.015159852802753448,0.013068202883005142,-0.0005835189367644489,-0.009703416377305984
0.025488687679171562,0.0024822386913001537,-0.015604164451360703,0.013166883029043674,-0.0005908385501243174,-0.009635110385715961
0.025488687679171562,0.0024822386913001537,-0.015604164451360703,0.013166883029043674,-0.0005908385501243174,-0.009635110385715961
0.025404416024684906,0.002884396119043231,-0.015268698334693909,0.01303273718804121,-0.0005582264275290072,-0.009732785634696484
0.025647107511758804,0.003062281757593155,-0.015560368075966835,0.013427715748548508,-0.0005139454733580351,-0.009527853690087795
0.02557474933564663,0.003022449789568782,-0.015286391600966454,0.013210870325565338,-0.00047522716340608895,-0.009514951147139072
0.024918144568800926,0.0028867691289633512,-0.015683962032198906,0.012922771275043488,-0.0004418768221512437,-0.009559727273881435
0.026120515540242195,0.0028090032283216715,-0.015638023614883423,0.013665548525750637,-0.00043899164302274585,-0.01006476953625679
0.026120515540242195,0.0028090032283216715,-0.015638023614883423,0.013665548525750637,-0.00043899164302274585,-0.01006476953625679
0.026198802515864372,0.002788699697703123,-0.01527791004627943,0.013782893307507038,-0.000416922994190827,-0.010151860304176807
0.02616695873439312,0.0032852536533027887,-0.01612190715968609,0.014056244865059853,-0.00039620159077458084,-0.009747501462697983
0.0259515680372715,0.0030367039144039154,-0.015379375778138638,0.014229214750230312,-0.00033328746212646365,-0.009792224504053593
0.02559848502278328,0.0031122942455112934,-0.015845825895667076,0.013712584041059017,-0.0003082364273723215,-0.010015694424510002
0.02592870220541954,0.0033635979052633047,-0.015237060375511646,0.014220538549125195,-0.00031636777566745877,-0.010382996872067451
0.026071328669786453,0.003253369126468897,-0.015604422427713871,0.01379658468067646,-0.00032320606987923384,-0.009878568351268768
0.02643551491200924,0.0033777456264942884,-0.015695367008447647,0.013261188752949238,-0.00029017211636528373,-0.009890208020806313
0.02614089474081993,0.0031668238807469606,-0.015851883217692375,0.013684572651982307,-0.0003151085111312568,-0.010773198679089546
0.02630007639527321,0.0032127215526998043,-0.01520772185176611,0.01334292907267809,-0.000305278692394495,-0.01046272087842226
0.026297148317098618,0.003232330782338977,-0.016060249879956245,0.014062506146728992,-0.000291504809865728,-0.010394771583378315
0.0259934701025486,0.003062332049012184,-0.015535230748355389,0.014059128239750862,-0.00030803578556515276,-0.010436284355819225
0.026100991293787956,0.002903328975662589,-0.016326788812875748,0.014781770296394825,-0.0003042701573576778,-0.010438114404678345
0.026225345209240913,0.0029288253281265497,-0.015559609979391098,0.014415573328733444,-0.0002925120061263442,-0.010855048894882202
0.026086796075105667,0.003062142990529537,-0.016263961791992188,0.014906340278685093,-0.0003293335030321032,-0.010524396784603596
0.026494771242141724,0.003283736063167453,-0.0165040735155344,0.014482141472399235,-0.0003535057185217738,-0.010082581080496311
0.02658526785671711,0.003341734642162919,-0.016215112060308456,0.01538726408034563,-0.0003597608010750264,-0.010099831037223339
0.027032382786273956,0.0031368827912956476,-0.016491031274199486,0.014970224350690842,-0.0003917145077139139,-0.010511304251849651
0.026843613013625145,0.0030774392653256655,-0.015963828191161156,0.015014936216175556,-0.00039802800165489316,-0.010581997223198414
0.02677329257130623,0.0035307002253830433,-0.015978116542100906,0.014444503001868725,-0.00040003162575885653,-0.010146130807697773
0.027186531573534012,0.003215779084712267,-0.015663497149944305,0.01486083585768938,-0.00038046567351557314,-0.010465040802955627
0.0269389096647501,0.0032565067522227764,-0.01627306640148163,0.014193408191204071,-0.0005687384982593358,-0.010918864980340004
0.02726122736930847,0.0032951696775853634,-0.016065530478954315,0.014239566400647163,-0.0006242893286980689,-0.010208625346422195
0.02726122736930847,0.0032951696775853634,-0.016065530478954315,0.014239566400647163,-0.0006242893286980689,-0.010208625346422195
0.02693917043507099,0.0031980685889720917,-0.016221467405557632,0.013879355043172836,-0.0006422977312467992,-0.009969707578420639
0.027074620127677917,0.0034613809548318386,-0.016237499192357063,0.014091297052800655,-0.0006663569947704673,-0.010498588904738426
0.02704201079905033,0.003240366466343403,-0.01614789292216301,0.01396318431943655,-0.0006290603196248412,-0.010713324882090092
0.0267487745732069,0.0030680771451443434,-0.016817187890410423,0.014529750682413578,-0.0007637010421603918,-0.010526343248784542
0.027481360360980034,0.003156495513394475,-0.01594369299709797,0.014208881184458733,-0.0006787800812162459,-0.010713206604123116
0.027630601078271866,0.0033742887899279594,-0.01676768623292446,0.014717703685164452,-0.0006772849010303617,-0.010959289968013763
0.02746647223830223,0.0034102818462997675,-0.016283495351672173,0.014835822395980358,-0.0006250573787838221,-0.010916401632130146
0.02764996513724327,0.003511874470859766,-0.016402071341872215,0.015007803216576576,-0.0006421831785701215,-0.01088759209960699
0.026431681588292122,0.0032904769759625196,-0.016947884112596512,0.01485271006822586,-0.0006547868251800537,-0.01073012501001358
0.02687792293727398,0.0034790323115885258,-0.016597697511315346,0.015164349228143692,-0.0006236815243028104,-0.010304738767445087
0.0277493167668581,0.0034247590228915215,-0.017136987298727036,0.014616111293435097,-0.0006447426276281476,-0.010764900594949722
0.027072947472333908,0.003434788202866912,-0.016155196353793144,0.014676542952656746,-0.0006735231727361679,-0.011028214357793331
0.029193472117185593,0.0038279530126601458,-0.016681447625160217,0.014299520291388035,-0.0006761863478459418,-0.010657764039933681
0.027858255431056023,0.0034763317089527845,-0.01726425811648369,0.014380114153027534,-0.0009692013263702393,-0.010439664125442505
0.027983462437987328,0.0034291415940970182,-0.01746801659464836,0.014804278500378132,-0.000902883184608072,-0.010892634280025959
0.027092548087239265,0.003492324147373438,-0.0165652334690094,0.014668594114482403,-0.0008727552485652268,-0.010982098057866096
0.02700081281363964,0.0035626476164907217,-0.017166465520858765,0.014885404147207737,-0.0007917703478597105,-0.010322753340005875
0.02784394659101963,0.003615781432017684,-0.01725558005273342,0.014885257929563522,-0.0007049186388030648,-0.01022083219140768
0.028174318373203278,0.0035947593860328197,-0.017489463090896606,0.014710595831274986,-0.0007179745589382946,-0.010761447250843048
0.028067665174603462,0.0034223697148263454,-0.017215700820088387,0.014603894203901291,-0.0006578046595677733,-0.01042214035987854
0.027868123725056648,0.0030632279813289642,-0.016923433169722557,0.014686827547848225,-0.0005827863933518529,-0.01072194054722786
0.028104932978749275,0.0028521616477519274,-0.017483236268162727,0.0147941205650568,-0.0005141934962011874,-0.011572717688977718
0.028293969109654427,0.003282120916992426,-0.01780557632446289,0.01519765518605709,-0.0005468097515404224,-0.01147336047142744
0.028469853103160858,0.0037575962487608194,-0.01784859597682953,0.01523471437394619,-0.0005419038934633136,-0.011390585452318192
0.02823309786617756,0.0033226762898266315,-0.018178990110754967,0.01493243221193552,-0.0005329275736585259,-0.011342640966176987
0.02820630557835102,0.0032721636816859245,-0.017420347779989243,0.014814561232924461,-0.0005277284071780741,-0.011172560974955559
0.027887169271707535,0.003340506926178932,-0.01756531186401844,0.01473056897521019,-0.0005208606598898768,-0.011365344747900963
0.027887169271707535,0.003340506926178932,-0.01756531186401844,0.01473056897521019,-0.0005208606598898768,-0.011365344747900963
0.02805127203464508,0.0031814705580472946,-0.017124932259321213,0.014692695811390877,-0.0004876171879004687,-0.011102136224508286
0.027841469272971153,0.0034083626233041286,-0.01769150421023369,0.014160347171127796,-0.0005310658598318696,-0.011241370812058449
0.02820652537047863,0.0032205237075686455,-0.01834743842482567,0.014477694407105446,-0.0005328310071490705,-0.011416085995733738
0.027716035023331642,0.003465827787294984,-0.017837118357419968,0.014292331412434578,-0.0005239109741523862,-0.011269021779298782
0.027900870889425278,0.0032477490603923798,-0.017408113926649094,0.014924481511116028,-0.0004800993774551898,-0.011708627454936504
0.02882402017712593,0.0032741986215114594,-0.01578439772129059,0.015056765638291836,-0.0004410338297020644,-0.011355782859027386
0.028489138931035995,0.003235904034227133,-0.018490342423319817,0.01509332936257124,-0.0004576215869747102,-0.011498376727104187
0.027932429686188698,0.003406488336622715,-0.019363388419151306,0.014698285609483719,-0.000441077136201784,-0.011080186814069748
0.027925260365009308,0.0036651294212788343,-0.018585626035928726,0.014828717336058617,-0.0004680570273194462,-0.01138338167220354
0.02917858213186264,0.0031019295565783978,-0.018478067591786385,0.01510817464441061,-0.00046125715016387403,-0.011517895385622978
0.028653036803007126,0.0028571360744535923,-0.01746932789683342,0.014533694833517075,-0.00045992626110091805,-0.012041035108268261
0.029020342975854874,0.003138626227155328,-0.017864778637886047,0.014679755084216595,-0.0004576309002004564,-0.011484743095934391
0.027574868872761726,0.0034976908937096596,-0.01884382590651512,0.014346393756568432,-0.00042407767614349723,-0.011201632209122181
0.02821153774857521,0.0034616345074027777,-0.018355242908000946,0.015015528537333012,-0.00045425930875353515,-0.011557376012206078
0.029247872531414032,0.003510609734803438,-0.01857389509677887,0.015487371012568474,-0.0004274117818567902,-0.01179430726915598
0.028992820531129837,0.0032913207542151213,-0.018534570932388306,0.01639452762901783,-0.0004004875081591308,-0.01190637331455946
0.0288449227809906,0.0034709207247942686,-0.018009012565016747,0.016012035310268402,-0.00041617799433879554,-0.011606627143919468
0.029714813455939293,0.0037430135998874903,-0.018746268004179,0.015927879139780998,-0.0004051418509334326,-0.011692019179463387
0.029431961476802826,0.0033753234893083572,-0.018590634688735008,0.015241256915032864,-0.0003843209124170244,-0.011827575974166393
0.028996910899877548,0.003071868559345603,-0.01825656369328499,0.014536425471305847,-0.0003648898855317384,-0.011616602540016174
0.028736386448144913,0.0031586093828082085,-0.018753908574581146,0.014763323590159416,-0.00036126829218119383,-0.0118885962292552
0.029502706602215767,0.0034194132313132286,-0.018126923590898514,0.01559883076697588,-0.0003371046914253384,-0.011544158682227135
0.0301151555031538,0.003451127326115966,-0.01839338429272175,0.01667923666536808,-0.00034424138721078634,-0.011612449772655964
0.02959461510181427,0.0035644450690597296,-0.018635131418704987,0.016540996730327606,-0.00034987617982551455,-0.012543917633593082
0.029827745631337166,0.003707775380462408,-0.018345056101679802,0.01604391261935234,-0.0003708508738782257,-0.01085710059851408
0.029831206426024437,0.0037986915558576584,-0.018839644268155098,0.014487920328974724,-0.0003623106749728322,-0.011495938524603844
0.02995133586227894,0.003804561449214816,-0.018431244418025017,0.015803677961230278,-0.00038906960980966687,-0.011948533356189728
0.02995133586227894,0.003804561449214816,-0.018431244418025017,0.015803677961230278,-0.00038906960980966687,-0.011948533356189728
0.030153118073940277,0.0037717949599027634,-0.01753019168972969,0.01555145625025034,-0.00037323893047869205,-0.011933770962059498
0.029645705595612526,0.0033804401755332947,-0.018183043226599693,0.016268670558929443,-0.0005061707342974842,-0.012165763415396214
0.0310073085129261,0.0036238350439816713,-0.01864738203585148,0.015132436528801918,-0.0005334174493327737,-0.011743091978132725
0.030710792168974876,0.003903342643752694,-0.018716858699917793,0.014729662798345089,-0.0005051782936789095,-0.012034350074827671
0.030778149142861366,0.003514012787491083,-0.018724041059613228,0.014735021628439426,-0.0005297809257172048,-0.012082458473742008
0.03045300766825676,0.0035358124878257513,-0.018164053559303284,0.015139350667595863,-0.0005315356538631022,-0.012437992729246616
0.03087596595287323,0.003648146288469434,-0.01818745769560337,0.015198549255728722,-0.0005247822846285999,-0.012236705049872398
0.03077796846628189,0.0037210581358522177,-0.01913125440478325,0.015323926694691181,-0.0005648217047564685,-0.011902452446520329
0.031183892861008644,0.003681765403598547,-0.019203368574380875,0.015415087342262268,-0.0005665815551765263,-0.012389077804982662
0.030698755756020546,0.0032467423006892204,-0.019539635628461838,0.015657085925340652,-0.0006754939677193761,-0.012164940126240253
0.031199537217617035,0.0033784909173846245,-0.01883605495095253,0.015193549916148186,-0.0006619975320063531,-0.012046503834426403
0.03082934021949768,0.0035488251596689224,-0.01893548108637333,0.015425429679453373,-0.0009521282045170665,-0.011472862213850021
0.031120937317609787,0.0034409912768751383,-0.019369347020983696,0.014902714639902115,-0.0009601627243682742,-0.011652760207653046
0.03158532455563545,0.00349513441324234,-0.018963119015097618,0.01491422951221466,-0.0008918234379962087,-0.011513005010783672
0.032074589282274246,0.0037250586319714785,-0.01895257830619812,0.014663276262581348,-0.000888753798790276,-0.011813330464065075
0.031860724091529846,0.003587789833545685,-0.019715245813131332,0.015111814253032207,-0.0007972549647092819,-0.011737452819943428
0.0319322869181633,0.003513482166454196,-0.019326379522681236,0.015418210998177528,-0.0007516132318414748,-0.011311077512800694
0.03207593038678169,0.0032913198228925467,-0.01909729093313217,0.016077326610684395,-0.0006581965135410428,-0.011373113840818405
0.03174026310443878,0.0033598465379327536,-0.019891837611794472,0.015451079234480858,-0.0006585769006051123,-0.011171338148415089
0.032215263694524765,0.003630744991824031,-0.019887782633304596,0.015714317560195923,-0.0006096705328673124,-0.011733708903193474
0.03245185688138008,0.0034104660153388977,-0.019975120201706886,0.01602441631257534,-0.0006161527708172798,-0.012373414821922779
0.033827416598796844,0.0033746419940143824,-0.019702123478055,0.015777168795466423,-0.0005800622748211026,-0.01195122953504324
0.03254444897174835,0.0035027957055717707,-0.019445260986685753,0.015776747837662697,-0.0005691335536539555,-0.012599630281329155
0.03189627453684807,0.003705973271280527,-0.019423900172114372,0.015287240967154503,-0.0005584936006926,-0.01218415331095457
0.03356211259961128,0.003701342735439539,-0.02019006945192814,0.015543320216238499,-0.0005325374659150839,-0.01226712204515934
0.03289809450507164,0.003588003572076559,-0.020039275288581848,0.015201578848063946,-0.0005689237732440233,-0.012200179509818554
0.03324614092707634,0.0035034571774303913,-0.019772116094827652,0.01595580391585827,-0.0006424759631045163,-0.012050305493175983
0.03324614092707634,0.0035034571774303913,-0.019772116094827652,0.01595580391585827,-0.0006424759631045163,-0.012050305493175983
0.03387844190001488,0.0035594843793660402,-0.020188646391034126,0.01568606123328209,-0.0006357392994686961,-0.012212568894028664
0.034116122871637344,0.0036332111340016127,-0.020250657573342323,0.016057217493653297,-0.001092017162591219,-0.01213980931788683
0.032787710428237915,0.0036340290680527687,-0.020056122913956642,0.0159301720559597,-0.001106108888052404,-0.012205553241074085
0.033156514167785645,0.0037318787071853876,-0.02019769884645939,0.01589662954211235,-0.0010255397064611316,-0.01249083410948515
0.0340208075940609,0.0038422676734626293,-0.020580608397722244,0.015677964314818382,-0.0009488105424679816,-0.012315008789300919
0.033795639872550964,0.003788780653849244,-0.0200188085436821,0.01545554120093584,-0.0008452929905615747,-0.012125423178076744
0.03412921354174614,0.0035458814818412066,-0.020259710028767586,0.01589958183467388,-0.000647291075438261,-0.012117575854063034
0.0339859314262867,0.0034314249642193317,-0.020159127190709114,0.016383927315473557,-0.0006705964333377779,-0.011822877451777458
0.03365742415189743,0.0035705529153347015,-0.01998881623148918,0.01610214076936245,-0.0006025113980285823,-0.011893796734511852
0.033578164875507355,0.0039035005029290915,-0.020555613562464714,0.016737952828407288,-0.0006261898670345545,-0.011844714172184467
0.03368828818202019,0.003967911936342716,-0.020358413457870483,0.016845908015966415,-0.0005745285307057202,-0.011943941004574299
0.03375086560845375,0.003815966658294201,-0.019702283665537834,0.016848120838403702,-0.0005267963861115277,-0.012424015440046787
0.03407778963446617,0.0036479143891483545,-0.02002258040010929,0.01672758162021637,-0.000537120271474123,-0.012500420212745667
0.03403555229306221,0.003438894171267748,-0.02051159366965294,0.01623246632516384,-0.0005145476898178458,-0.012611913494765759
0.034285515546798706,0.0035028073471039534,-0.020088715478777885,0.016350023448467255,-0.00046896751155145466,-0.01261184923350811
0.033718351274728775,0.00372350518591702,-0.02004980854690075,0.016098910942673683,-0.0004168561426922679,-0.01282211672514677
0.03189516440033913,0.0038528882432729006,-0.02076100744307041,0.016530698165297508,-0.0004517034685704857,-0.013652971014380455
0.034206949174404144,0.003943849820643663,-0.020646264776587486,0.01629013754427433,-0.00042104205931536853,-0.012622184120118618
0.035736359655857086,0.00395432161167264,-0.019801432266831398,0.016497517004609108,-0.0004470893181860447,-0.012586286291480064
0.035071808844804764,0.0040230159647762775,-0.0201569814234972,0.016880003735423088,-0.00042463093996047974,-0.012335154227912426
0.03296739235520363,0.004003983922302723,-0.020700762048363686,0.016703341156244278,-0.0004512101586442441,-0.012747335247695446
0.03336894139647484,0.003932787571102381,-0.020365271717309952,0.016948001459240913,-0.0005229532835073769,-0.012401805259287357
0.03336894139647484,0.003932787571102381,-0.020365271717309952,0.016948001459240913,-0.0005229532835073769,-0.012401805259287357
0.0350024588406086,0.0039022364653646946,-0.02004469558596611,0.01672806218266487,-0.0005491507472470403,-0.012544873170554638
0.03465742990374565,0.003982158377766609,-0.020074576139450073,0.01717367209494114,-0.0005863975966349244,-0.012886172160506248
0.03556298092007637,0.004001630935817957,-0.020035188645124435,0.017222793772816658,-0.0005346626276150346,-0.013268174603581429
0.03523849695920944,0.004021339118480682,-0.02019152231514454,0.017040736973285675,-0.000562135421205312,-0.013096063397824764
0.034675441682338715,0.003491810755804181,-0.020517943426966667,0.01724574714899063,-0.0005847620777785778,-0.01282518170773983
0.03427429124712944,0.00405254028737545,-0.02090950310230255,0.017475338652729988,-0.0006297832587733865,-0.013215149752795696
0.0350395105779171,0.0041597462259233,-0.020267536863684654,0.018247254192829132,-0.0006822237046435475,-0.013149525970220566
0.035244498401880264,0.003914966713637114,-0.02010888233780861,0.01863616332411766,-0.0006572602433152497,-0.013199337758123875
0.035309139639139175,0.003705817274749279,-0.020436352118849754,0.01811116747558117,-0.0006736986106261611,-0.013228964060544968
0.03527470678091049,0.0036460922565311193,-0.02031927928328514,0.017670173197984695,-0.000661769590806216,-0.013275821693241596
0.03503211960196495,0.003932376392185688,-0.0203597042709589,0.016866696998476982,-0.0006928588263690472,-0.013594672083854675
0.03552376851439476,0.0038940436206758022,-0.021106695756316185,0.017360538244247437,-0.0006333200144581497,-0.013293256983160973
0.03552050516009331,0.0037738780956715345,-0.020619932562112808,0.017390936613082886,-0.0006105496431700885,-0.013268310576677322
0.035421717911958694,0.0037184786051511765,-0.020472634583711624,0.01727144606411457,-0.0005912486230954528,-0.012968318536877632
0.035941023379564285,0.003540661884471774,-0.020986195653676987,0.01695023477077484,-0.0005356591427698731,-0.013295819982886314
0.036093730479478836,0.003854800947010517,-0.021442724391818047,0.017201237380504608,-0.0005574319511651993,-0.01366477645933628
0.03562793508172035,0.0039259763434529305,-0.020738210529088974,0.0173907782882452,-0.0005568803171627223,-0.013735400512814522
0.036127861589193344,0.003762970445677638,-0.02078409679234028,0.01707524061203003,-0.0005479109822772443,-0.013472163118422031
0.036267541348934174,0.0036087564658373594,-0.020931323990225792,0.017510248348116875,-0.0005133182276040316,-0.01346936821937561
0.035510946065187454,0.0036336856428533792,-0.021393129602074623,0.01679638959467411,-0.0004843815113417804,-0.013903100974857807
0.036091048270463943,0.003846864914521575,-0.02089359238743782,0.016672750934958458,-0.0005202600150369108,-0.014130085706710815
0.03659573942422867,0.003913136664777994,-0.02173895388841629,0.01632818579673767,-0.000592327443882823,-0.014086012728512287
0.03652839735150337,0.003838548669591546,-0.02196623384952545,0.01630149781703949,-0.0005882460391148925,-0.013996209017932415
0.03682251647114754,0.004242816008627415,-0.021386288106441498,0.017337942495942116,-0.0009792341152206063,-0.014097452163696289
0.03636447340250015,0.004037352744489908,-0.02092359960079193,0.017678190022706985,-0.0009154628496617079,-0.013753770850598812
0.036953650414943695,0.003875819267705083,-0.021291155368089676,0.018985852599143982,-0.0009096342255361378,-0.014020565897226334
0.036953650414943695,0.003875819267705083,-0.021291155368089676,0.018985852599143982,-0.0009096342255361378,-0.014020565897226334
0.03710715472698212,0.0034490711987018585,-0.021861260756850243,0.01766478829085827,-0.0008567602490074933,-0.013972926884889603
0.036927759647369385,0.0034231245517730713,-0.021332919597625732,0.017236005514860153,-0.000809504825156182,-0.014222357422113419
0.036816373467445374,0.004231587518006563,-0.020994598045945168,0.01751556806266308,-0.0007540366495959461,-0.013912594877183437
0.03738389536738396,0.004134469665586948,-0.021968265995383263,0.017266836017370224,-0.0007643729913979769,-0.014141050167381763
0.03812549635767937,0.004295040853321552,-0.0219708401709795,0.017658628523349762,-0.0007660241681151092,-0.013844199478626251
0.037724848836660385,0.004242418333888054,-0.022007077932357788,0.017626935616135597,-0.0007548804278485477,-0.014164138585329056
0.035894785076379776,0.004084348678588867,-0.021820049732923508,0.01709192991256714,-0.0007288858760148287,-0.014411930926144123
0.03758207708597183,0.003996851854026318,-0.021756840869784355,0.01755402982234955,-0.0008674510172568262,-0.015572702512145042
0.03758532926440239,0.0035078860819339752,-0.021358687430620193,0.017412632703781128,-0.0009139450849033892,-0.014381647109985352
0.03851255029439926,0.004174186382442713,-0.02128366380929947,0.017285706475377083,-0.0009149507968686521,-0.013655959628522396
0.03861742466688156,0.004116593394428492,-0.021916348487138748,0.01712406799197197,-0.0008370007271878421,-0.013870040886104107
0.0375351756811142,0.004397828131914139,-0.022252235561609268,0.01678890362381935,-0.0008920161053538322,-0.01482529379427433
0.038490209728479385,0.004119585733860731,-0.02175242267549038,0.017926707863807678,-0.0007817246369086206,-0.015046211890876293
0.03764640912413597,0.004024262074381113,-0.021169906482100487,0.01827682927250862,-0.0007845174986869097,-0.014793293550610542
0.038761675357818604,0.0037680601235479116,-0.021955957636237144,0.01856137625873089,-0.0007095481269061565,-0.015090711414813995
0.038933731615543365,0.0036940108984708786,-0.022574983537197113,0.0181843601167202,-0.000638419296592474,-0.015301325358450413
0.03817135840654373,0.004347885958850384,-0.022063778713345528,0.01833825372159481,-0.0006509741069748998,-0.015394940041005611
0.038887251168489456,0.004538052249699831,-0.021839052438735962,0.018184306100010872,-0.0006091936957091093,-0.015201108530163765
0.03911833092570305,0.00430919649079442,-0.022233573719859123,0.01775568351149559,-0.0005228889058344066,-0.01521595474332571
0.03828608617186546,0.004329303745180368,-0.022528916597366333,0.018288670107722282,-0.0005541151622310281,-0.015022528357803822
0.03900197148323059,0.004246773198246956,-0.02247823029756546,0.01760772615671158,-0.0005804683896712959,-0.015324676409363747
0.039234209805727005,0.004085245542228222,-0.022110912948846817,0.017474109306931496,-0.0005782625521533191,-0.0152273653075099
0.03892863169312477,0.003935920540243387,-0.022083891555666924,0.01801155135035515,-0.0005673241103067994,-0.015294896438717842
0.03882773220539093,0.003971084486693144,-0.022470684722065926,0.018154771998524666,-0.0007269670022651553,-0.015205939300358295
0.040316276252269745,0.004141612444072962,-0.022376591339707375,0.018429838120937347,-0.0007744059548713267,-0.014979548752307892
0.039454806596040726,0.004229358397424221,-0.022419985383749008,0.018511366099119186,-0.0007917913608253002,-0.015044835396111012
0.03839772939682007,0.004461497534066439,-0.022259829565882683,0.018381619825959206,-0.0008040459943003953,-0.015336135402321815
0.039610493928194046,0.004559856373816729,-0.022455468773841858,0.018464427441358566,-0.0009262912790291011,-0.015754900872707367
0.03933566436171532,0.004353894852101803,-0.022856391966342926,0.01797264628112316,-0.0009442967711947858,-0.01606680639088154
0.040548622608184814,0.004066551569849253,-0.022675931453704834,0.018015174195170403,-0.0009389381157234311,-0.01616976596415043
0.04055514559149742,0.004460339434444904,-0.023019151762127876,0.01860959827899933,-0.0009257536148652434,-0.015738071873784065
0.03912407159805298,0.004323052708059549,-0.0233008973300457,0.018122127279639244,-0.0008327296818606555,-0.01586945913732052
0.03908904641866684,0.004282573238015175,-0.023315463215112686,0.018246974796056747,-0.0007812107796780765,-0.01570943556725979
0.04076026752591133,0.004655104596167803,-0.02339540608227253,0.018991196528077126,-0.0007455142913386226,-0.01516771037131548
0.04076026752591133,0.004655104596167803,-0.02339540608227253,0.018991196528077126,-0.0007455142913386226,-0.01516771037131548
0.040347713977098465,0.004794703796505928,-0.023490561172366142,0.018910938873887062,-0.0007624073186889291,-0.015386123210191727
0.040102653205394745,0.00485584232956171,-0.023188628256320953,0.018963906913995743,-0.0007782724569551647,-0.015490787103772163
0.03997846320271492,0.004471622407436371,-0.022679811343550682,0.018699517473578453,-0.0009422030998393893,-0.01570701412856579
0.04029398038983345,0.004563352558761835,-0.02333211340010166,0.01819278672337532,-0.0010762793244794011,-0.01648269221186638
0.04033561423420906,0.004974208772182465,-0.02356146089732647,0.018161486834287643,-0.0011121844872832298,-0.016479769721627235
0.04056181386113167,0.004832896403968334,-0.023973768576979637,0.0183184165507555,-0.0012959716841578484,-0.015980271622538567
0.04093698039650917,0.004525103140622377,-0.023653408512473106,0.019362175837159157,-0.0011701610637828708,-0.01539312582463026
0.040987156331539154,0.004925166256725788,-0.024106360971927643,0.019310174509882927,-0.0010035830782726407,-0.01610259711742401
0.040738794952631,0.004916009958833456,-0.02380911260843277,0.018428413197398186,-0.0009808671893551946,-0.01616794988512993
0.0414666123688221,0.004895947873592377,-0.02412690781056881,0.018720347434282303,-0.0008804064709693193,-0.015976540744304657
0.03977902606129646,0.004452034831047058,-0.024515166878700256,0.018742719665169716,-0.0006932112155482173,-0.015717003494501114
0.041539717465639114,0.004580535925924778,-0.024872632697224617,0.019073011353611946,-0.0006997185410000384,-0.015684306621551514
0.04225530847907066,0.004757707938551903,-0.024694310501217842,0.01907094195485115,-0.0006313453777693212,-0.016053004190325737
0.04154221713542938,0.004760145675390959,-0.024087850004434586,0.01812385395169258,-0.0006534117856062949,-0.016526607796549797
0.041306670755147934,0.004698643460869789,-0.024282293394207954,0.018161458894610405,-0.0006596424500457942,-0.016695179045200348
0.04197804257273674,0.004975848365575075,-0.024618450552225113,0.018186407163739204,-0.0006788796163164079,-0.016777072101831436
0.04192009195685387,0.00489063560962677,-0.024857182055711746,0.01788685843348503,-0.0007374466513283551,-0.016586948186159134
0.04177485406398773,0.004664261359721422,-0.024978239089250565,0.01825985312461853,-0.0007315577822737396,-0.016626331955194473
0.04153379425406456,0.004738657735288143,-0.02505364827811718,0.018862146884202957,-0.0007004461949691176,-0.016700491309165955
0.041244931519031525,0.00514579052105546,-0.02491585724055767,0.01858210377395153,-0.0007171890465542674,-0.016965270042419434
0.041949376463890076,0.004997216165065765,-0.02471553161740303,0.01889314316213131,-0.0006623371155001223,-0.01660860702395439
0.04327729716897011,0.005444454029202461,-0.02492106705904007,0.019102565944194794,-0.0007378506124950945,-0.016547642648220062
0.04327729716897011,0.005444454029202461,-0.02492106705904007,0.019102565944194794,-0.0007378506124950945,-0.016547642648220062
0.041956353932619095,0.00512711051851511,-0.02537720277905464,0.018701139837503433,-0.0007545831613242626,-0.016535809263586998
0.0409417524933815,0.004376999102532864,-0.025392083451151848,0.01897897757589817,-0.0007577232900075614,-0.01629972644150257
0.04186384379863739,0.004395046271383762,-0.024975096806883812,0.01900118589401245,-0.0007726412732154131,-0.016167134046554565
0.04190767928957939,0.005163715220987797,-0.025559604167938232,0.018626665696501732,-0.0008043274283409119,-0.016121014952659607
0.043729547411203384,0.005108733661472797,-0.025458183139562607,0.019121898338198662,-0.0008281102636829019,-0.016704915091395378
0.04273592308163643,0.004958878271281719,-0.02521507814526558,0.019649313762784004,-0.0008392065647058189,-0.016603605821728706
0.04063112288713455,0.005099613685160875,-0.02517302893102169,0.019421638920903206,-0.0007926151156425476,-0.016761288046836853
0.04235982522368431,0.00508065614849329,-0.02497435361146927,0.019649066030979156,-0.0008010248420760036,-0.016835449263453484
0.04264984652400017,0.0047770170494914055,-0.02530043199658394,0.019868897274136543,-0.0008324610535055399,-0.01684492453932762
0.04252716898918152,0.0054826894775033,-0.025308391079306602,0.01923537813127041,-0.0008429578156210482,-0.01681441441178322
0.04223643243312836,0.00545548228546977,-0.025723896920681,0.019974302500486374,-0.0008551368955522776,-0.017461270093917847
0.042576488107442856,0.005603517405688763,-0.025813503190875053,0.019886691123247147,-0.0009312948095612228,-0.017264824360609055
0.042488422244787216,0.004994593095034361,-0.025603745132684708,0.01974908448755741,-0.0010479760821908712,-0.017308082431554794
0.042497992515563965,0.00528681417927146,-0.025093739852309227,0.019614392891526222,-0.0010862979106605053,-0.01678451895713806
0.04234293848276138,0.00523273553699255,-0.024936527013778687,0.019339511170983315,-0.0012440599966794252,-0.016860008239746094
0.04258258268237114,0.005079407710582018,-0.02528119832277298,0.019486991688609123,-0.0012521384051069617,-0.017511598765850067
0.04367870092391968,0.005706062540411949,-0.025500595569610596,0.019969306886196136,-0.001270791981369257,-0.01748778112232685
0.04155305027961731,0.005381641909480095,-0.02564210072159767,0.01961401291191578,-0.0011620804434642196,-0.017762785777449608
0.042192745953798294,0.0046196021139621735,-0.02562067285180092,0.019501453265547752,-0.0011158994166180491,-0.01817876659333706
0.04225841537117958,0.004530841019004583,-0.025745244696736336,0.019836300984025,-0.0009979110909625888,-0.017599888145923615
