davideferrari95/blind_handover_controller/data/Test 126 - [2024-02-07 -- 16-36-16]/joint_states_data.csv
shoulder_pan_joint,shoulder_lift_joint,elbow_joint,wrist_1_joint,wrist_2_joint,wrist_3_joint
0.006081031169742346,0.008853558450937271,-0.01206738781183958,0.003111143596470356,-0.0,0.00621196161955595
0.006081031169742346,0.008853558450937271,-0.01206738781183958,0.003111143596470356,-0.0,0.00621196161955595
0.006081031169742346,0.008853558450937271,-0.01206738781183958,0.003111143596470356,-0.0,0.00621196161955595
0.006217549555003643,0.008808336220681667,-0.011715165339410305,0.0030884104780852795,-0.0,0.006203831639140844
0.005652569234371185,0.008321047760546207,-0.011807389557361603,0.002550789387896657,-0.0,0.006067183800041676
0.005600977689027786,0.008792960084974766,-0.011464024893939495,0.002562113106250763,-0.0,0.006430342793464661
0.005792752839624882,0.00852414034307003,-0.011914189904928207,0.002920878119766712,-0.0,0.006461607292294502
0.006196214351803064,0.008443335071206093,-0.010881180875003338,0.0031484246719628572,-0.0,0.0064283194951713085
0.006034360267221928,0.008604501374065876,-0.012122279033064842,0.003452046075835824,-0.0,0.006141309626400471
0.0060676815919578075,0.008408626541495323,-0.011815253645181656,0.0032399508636444807,-0.0,0.0055536809377372265
0.005549020599573851,0.008453833870589733,-0.011296192184090614,0.003070652484893799,-0.0,0.005969572812318802
0.006000581197440624,0.009633870795369148,-0.011650574393570423,0.003036706242710352,-0.0,0.006397719029337168
0.006355597171932459,0.008763213641941547,-0.011478702537715435,0.0031443184707313776,-0.0,0.006817142013460398
0.005933660548180342,0.008925830945372581,-0.01175223384052515,0.0034985169768333435,-0.0,0.006562967784702778
0.005743519868701696,0.008671234361827374,-0.012233205139636993,0.003294627880677581,-0.0,0.006411573849618435
0.005309221800416708,0.00922485999763012,-0.011448758654296398,0.003067202400416136,-0.0,0.006398251745849848
0.005733163561671972,0.0092333247885108,-0.011870531365275383,0.0029128643218427896,-0.0,0.006790732964873314
0.006770515814423561,0.008429421111941338,-0.011568527668714523,0.0031506021041423082,-0.0,0.006617446895688772
0.00580753805115819,0.008810109458863735,-0.012037364766001701,0.0032402377109974623,-0.0,0.0063047753646969795
0.005861769896000624,0.008822325617074966,-0.01178315281867981,0.0034992548171430826,-0.0,0.0058069690130651
0.005866230931133032,0.008609442040324211,-0.011313424445688725,0.0037575713358819485,-0.0,0.006309485528618097
0.0056207687593996525,0.009708650410175323,-0.011644079349935055,0.00382410129532218,-0.0,0.006583045236766338
0.005851168651133776,0.008615906350314617,-0.011337283998727798,0.0033868285827338696,-0.0,0.006548729259520769
0.0060218521393835545,0.00850005354732275,-0.01170847937464714,0.0030873222276568413,-0.0,0.006157067604362965
0.006008923519402742,0.00898823980242014,-0.012176353484392166,0.0028390400111675262,-0.0,0.006097495090216398
0.006008923519402742,0.00898823980242014,-0.012176353484392166,0.0028390400111675262,-0.0,0.006097495090216398
0.005795354954898357,0.00915585272014141,-0.011382978409528732,0.003093363717198372,-0.0,0.005577347241342068
0.0063961464911699295,0.00845377054065466,-0.011466769501566887,0.0035783250350505114,-0.0,0.006023252382874489
0.006243176758289337,0.008265138603746891,-0.01073465682566166,0.0035170535556972027,-0.0,0.006104425061494112
0.00628736661747098,0.007962907664477825,-0.011137272231280804,0.0035312562249600887,-0.0,0.006131238304078579
0.005743672139942646,0.007517038378864527,-0.01065852027386427,0.0034954382572323084,-0.0,0.00600292207673192
0.006091208662837744,0.007808455266058445,-0.011185580864548683,0.0032717548310756683,-0.0,0.006004298571497202
0.005862595979124308,0.008331488817930222,-0.010945649817585945,0.002795602660626173,-0.0,0.0057292962446808815
0.0062728626653552055,0.00783353392034769,-0.011075579561293125,0.0027338475920259953,-0.0,0.005959717556834221
0.0059368787333369255,0.007656339555978775,-0.011606979183852673,0.003422326408326626,-0.0,0.005658833310008049
0.005916491150856018,0.008295245468616486,-0.010826422832906246,0.0037887501530349255,-0.0,0.006691747345030308
0.006201614160090685,0.008567971177399158,-0.011416453868150711,0.003749546129256487,-0.0,0.006160701625049114
0.005943847820162773,0.008570712059736252,-0.012044169940054417,0.0034998077899217606,-0.0,0.005504911299794912
0.006279382389038801,0.007849016226828098,-0.010665676556527615,0.003427638206630945,-0.0,0.00595645047724247
0.0060397605411708355,0.008239748887717724,-0.010750471614301205,0.0032332385890185833,-0.0,0.005999675020575523
0.005729576572775841,0.007720352616161108,-0.011140325106680393,0.0035452465526759624,-0.0,0.006457416340708733
0.006120188627392054,0.007514054421335459,-0.01207214780151844,0.003335429821163416,-0.0,0.006442063953727484
0.005965695716440678,0.007473642937839031,-0.011526478454470634,0.0031570515129715204,-0.0,0.006127828266471624
0.0062593636102974415,0.007717795670032501,-0.010537470690906048,0.0031097130849957466,-0.0,0.0061749001033604145
0.006056584417819977,0.007790524046868086,-0.011195381172001362,0.0032305384520441294,-0.0,0.005947456695139408
0.005882852245122194,0.007390586659312248,-0.011297527700662613,0.0035369342658668756,-0.0,0.006301654037088156
0.006436966359615326,0.00713863642886281,-0.01137823611497879,0.003310776548460126,-0.0,0.006400258745998144
0.006225140765309334,0.00815101619809866,-0.011632311157882214,0.00277776294387877,-0.0,0.0065335361286997795
0.006159984041005373,0.007915941067039967,-0.010977474972605705,0.0027323642279952765,-0.0,0.0062698619440197945
0.00648170430213213,0.007615684065967798,-0.01151156798005104,0.002961846301332116,-0.0,0.006295179482549429
0.006516880355775356,0.007740728557109833,-0.011153751984238625,0.0035114865750074387,-0.0,0.006838853005319834
0.006235846783965826,0.007752065546810627,-0.011286226101219654,0.0037564130034297705,-0.0,0.006351054180413485
0.006353437900543213,0.007601811550557613,-0.011234335601329803,0.0033545063342899084,-0.0,0.006071620620787144
0.00634573120623827,0.006922686938196421,-0.01096164621412754,0.002782505238428712,-0.0,0.006326415576040745
0.0060751773416996,0.008125382475554943,-0.011009634472429752,0.0027684711385518312,-0.0,0.006077060475945473
0.0060751773416996,0.008125382475554943,-0.011009634472429752,0.0027684711385518312,-0.0,0.006077060475945473
0.0061892615631222725,0.008593158796429634,-0.011288178153336048,0.0030820865649729967,-0.0,0.006115874275565147
0.0062888553366065025,0.0073102498427033424,-0.010863476432859898,0.003337978618219495,-0.0,0.006573433987796307
0.006345258094370365,0.007165458984673023,-0.012160291895270348,0.0034182106610387564,-0.0,0.006658249069005251
0.006115718279033899,0.008083658292889595,-0.011454133316874504,0.0035805897787213326,-0.0,0.0064436765387654305
0.006210589315742254,0.007753985933959484,-0.01132728811353445,0.0034124020021408796,-0.0,0.006580188870429993
0.00649294164031744,0.007253183983266354,-0.010947862640023232,0.0032319887541234493,-0.0,0.00645714346319437
0.006499378476291895,0.00784335471689701,-0.011561430059373379,0.0031611877493560314,-0.0,0.006181832402944565
0.0063276756554841995,0.008498311042785645,-0.011234133504331112,0.003173298668116331,-0.0,0.0062566217966377735
0.006361090112477541,0.0078086634166538715,-0.010750267654657364,0.003201280254870653,-0.0,0.006486933212727308
0.006221974268555641,0.007547032553702593,-0.01129990629851818,0.0038257574196904898,-0.0,0.006359442137181759
0.0064704762771725655,0.008322790265083313,-0.010451656766235828,0.003627111902460456,-0.0,0.006270750425755978
0.006545583717525005,0.007884644903242588,-0.010620951652526855,0.0036023270804435015,-0.0,0.006291168741881847
0.006138566881418228,0.00787894893437624,-0.010974579490721226,0.0032495919149369,-0.0,0.005787136498838663
0.006228173151612282,0.00783679261803627,-0.010921361856162548,0.0030167268123477697,-0.0,0.006512175779789686
0.006620940752327442,0.008480813354253769,-0.01113106682896614,0.0030410620383918285,-0.0,0.006650951690971851
0.0065181078389286995,0.008423683233559132,-0.01042393408715725,0.003186882706359029,-0.0,0.006209188140928745
0.006174158304929733,0.007747724652290344,-0.010483378544449806,0.0035801739431917667,-0.0,0.006081425119191408
0.006037294398993254,0.008065837435424328,-0.011251461692154408,0.0037406207993626595,-0.0,0.006353380624204874
0.006194331683218479,0.00819440744817257,-0.01049258466809988,0.00380341662093997,-0.0,0.006513102911412716
0.0064862435683608055,0.008744294755160809,-0.010824272409081459,0.003359354566782713,-0.0,0.006362515036016703
0.006460388656705618,0.008042975328862667,-0.010942855849862099,0.0030614561401307583,-0.0,0.006087316200137138
0.0066540478728711605,0.00832507386803627,-0.010556835681200027,0.0032670306973159313,-0.0,0.005862574093043804
0.006192553322762251,0.008801907300949097,-0.011203797534108162,0.0031114048324525356,-0.0,0.006066115107387304
0.006386944558471441,0.00868078414350748,-0.01065655704587698,0.003200441598892212,-0.0,0.0066030086018145084
0.007080020383000374,0.008099494501948357,-0.010598075576126575,0.0032613419461995363,-0.0,0.006349261850118637
0.006956376601010561,0.008473163470625877,-0.011071501299738884,0.0035369042307138443,-0.0,0.00622906256467104
0.006210590712726116,0.008367890492081642,-0.010712483897805214,0.003730052849277854,-0.0,0.006418720353394747
0.006311074364930391,0.008268739096820354,-0.011087100021541119,0.00372018339112401,-0.0,0.0063374037854373455
0.007146901451051235,0.008453242480754852,-0.010936835780739784,0.0037321459967643023,-0.0,0.006709216628223658
0.00699262460693717,0.008297067135572433,-0.010678283870220184,0.0035463052336126566,-0.0,0.006836696993559599
0.006069188006222248,0.008745194412767887,-0.011381702497601509,0.0034498937893658876,-0.0,0.006712546572089195
0.006379907019436359,0.00821328442543745,-0.011034882627427578,0.003359653754159808,-0.0,0.006154424976557493
0.006379907019436359,0.00821328442543745,-0.011034882627427578,0.003359653754159808,-0.0,0.006154424976557493
0.006800198461860418,0.008570445701479912,-0.010746222920715809,0.003333429107442498,-0.0,0.006445665843784809
0.0064719910733401775,0.00844994094222784,-0.01073721144348383,0.00353553076274693,-0.0,0.006294639781117439
0.006819245405495167,0.008701402693986893,-0.011092211119830608,0.003509190399199724,-0.0,0.006262156181037426
0.006256365682929754,0.008752265013754368,-0.011031204834580421,0.003534412244334817,-0.0,0.006542511284351349
0.006575403269380331,0.008570414036512375,-0.01111385878175497,0.003473404562100768,-0.0,0.006701676640659571
0.006700866390019655,0.008583109825849533,-0.01146062184125185,0.0032801683992147446,-0.0,0.006299268454313278
0.006833195686340332,0.008971533738076687,-0.010877449065446854,0.003480933140963316,-0.0,0.006237595342099667
0.0065298243425786495,0.008609745651483536,-0.010876452550292015,0.0033887980971485376,-0.0,0.006251947488635778
0.006369329988956451,0.008049788884818554,-0.011940217576920986,0.0034291944466531277,-0.0,0.00628811726346612
0.006869068834930658,0.008687508292496204,-0.011383583769202232,0.0036452007479965687,-0.0,0.006265770643949509
0.006721422076225281,0.007840096019208431,-0.01153920404613018,0.0033652782440185547,-0.0,0.006594257894903421
0.006688718684017658,0.0081517668440938,-0.010986067354679108,0.0031797713600099087,-0.0,0.006632148753851652
0.006996599026024342,0.007847609929740429,-0.010837930254638195,0.003172131720930338,-0.0,0.006390735507011414
0.007077954243868589,0.008256458677351475,-0.011285354383289814,0.00340268830768764,-2.1228636342129903e-06,0.006344898138195276
0.007476381957530975,0.007767562288790941,-0.011227848939597607,0.003567738691344857,-1.3860781677976775e-07,0.006627555005252361
0.006692306604236364,0.007779017556458712,-0.011565027758479118,0.003451925702393055,-9.050100224783364e-09,0.00656994478777051
0.00634875800460577,0.007984109222888947,-0.011388000100851059,0.003497917437925935,-5.909068789833327e-10,0.006347920745611191
0.0067449831403791904,0.007768544834107161,-0.011833671480417252,0.0036815546918660402,-3.858199523754102e-11,0.0063620759174227715
0.007458984386175871,0.00723846023902297,-0.011646139435470104,0.003757958998903632,-2.5191285689396548e-12,0.00667762104421854
0.006806983612477779,0.007267361972481012,-0.010991958901286125,0.003792303614318371,-1.6448107253378558e-13,0.006699800956994295
0.006476272828876972,0.00815217848867178,-0.011665137484669685,0.0038207964971661568,-1.0739437564613076e-14,0.006395566742867231
0.006606587674468756,0.008303687907755375,-0.011555476114153862,0.003408159129321575,-7.01208549148388e-16,0.006444806698709726
0.006814141292124987,0.007910669781267643,-0.011180276982486248,0.003117759246379137,-4.57839075830507e-17,0.006826662924140692
0.00711060268804431,0.007686159573495388,-0.011692104861140251,0.002874396275728941,-2.9893622845709533e-18,0.006345788482576609
0.006564246490597725,0.008055265992879868,-0.011155280284583569,0.003307357197627425,-1.274411966601161e-20,0.006374781485646963
0.006564246490597725,0.008055265992879868,-0.011155280284583569,0.003307357197627425,-1.274411966601161e-20,0.006374781485646963
0.0074850283563137054,0.007582369260489941,-0.011097334325313568,0.003483386943116784,-8.320999239144369e-22,0.006530840415507555
0.006887261290103197,0.007529419381171465,-0.010919964872300625,0.0036715783644467592,-5.433017582889185e-23,0.0074868579395115376
0.006745500024408102,0.00844651274383068,-0.011710360646247864,0.003779503284022212,-3.547372201133645e-24,0.007170900236815214
0.006701202597469091,0.007781825494021177,-0.011207356117665768,0.0038203720469027758,-2.316180420276202e-25,0.005747804418206215
0.006913088262081146,0.008104792796075344,-0.011623973026871681,0.0034099386539310217,-1.5123002813471225e-26,0.0055387564934790134
0.007180487737059593,0.008019150234758854,-0.011513132601976395,0.0035879097413271666,-9.874239935978442e-28,0.006316683255136013
0.007572236005216837,0.007808213122189045,-0.011135104112327099,0.003826088272035122,-6.447172665017119e-29,0.0069372383877635
0.007030277047306299,0.007902993820607662,-0.011295166797935963,0.0034313166979700327,-4.2095430714246e-30,0.006835085339844227
0.007518230006098747,0.007964249700307846,-0.011200329288840294,0.003530346555635333,-2.7485307818412556e-31,0.007212707307189703
0.0070531610399484634,0.008606715127825737,-0.011299093253910542,0.003366530640050769,-1.7945943115585633e-32,0.006730508524924517
0.006843123119324446,0.008613195270299911,-0.011704993434250355,0.0034212658647447824,-1.171741952449272e-33,0.006721098907291889
0.0066460357047617435,0.008005557581782341,-0.011089337058365345,0.0035699529107660055,-7.650637827620293e-35,0.006781970150768757
0.006939963437616825,0.007578427437692881,-0.010697692632675171,0.0036421949043869972,-4.9953200670325585e-36,0.006924496963620186
0.007341718766838312,0.008314395323395729,-0.010881081223487854,0.0036605973728001118,-3.2615871959647564e-37,0.0073589845560491085
0.00707264943048358,0.008006833493709564,-0.011031446978449821,0.004093751311302185,-2.1295831238917146e-38,0.007289484143257141
0.007300178986042738,0.008199935778975487,-0.012490775436162949,0.0036447944585233927,-1.3904664271955862e-39,0.007128389552235603
0.007357118185609579,0.007933157496154308,-0.010550142265856266,0.003492160001769662,-9.078732490667625e-41,0.006477878894656897
0.0074789938516914845,0.008304613642394543,-0.010617556981742382,0.0035900650545954704,-5.927492504093976e-42,0.006558016408234835
0.007853874936699867,0.007694378960877657,-0.01093673799186945,0.004185405094176531,-3.867583761536495e-43,0.006872348487377167
0.007570131216198206,0.007676259148865938,-0.010319272056221962,0.004217864479869604,-2.5223372357846707e-44,0.007382565177977085
0.007125683128833771,0.007829616777598858,-0.01107206754386425,0.003983891103416681,-1.401298464324817e-45,0.007029188331216574
0.007508344482630491,0.008728152140974998,-0.01073559932410717,0.0038346669171005487,-0.0,0.006771767511963844
0.007243661675602198,0.007871839217841625,-0.01047490630298853,0.003883102210238576,-0.0,0.006778317969292402
0.007105151191353798,0.008128170855343342,-0.011182315647602081,0.003978941589593887,-0.0,0.007162860594689846
0.0071753100492060184,0.008506926707923412,-0.01100193988531828,0.003978365566581488,-0.0,0.006813834421336651
0.0071753100492060184,0.008506926707923412,-0.01100193988531828,0.003978365566581488,-0.0,0.006813834421336651
0.008081008680164814,0.007631584070622921,-0.011448738165199757,0.003520623780786991,-0.0,0.006629495415836573
0.0070779393427073956,0.0078003075905144215,-0.010888597927987576,0.0035738118458539248,-0.0,0.0070917075499892235
0.007017245516180992,0.008583134040236473,-0.011415932327508926,0.0036207768134772778,-6.12198346061632e-05,0.007402070797979832
0.007887644693255424,0.00853892881423235,-0.011043040081858635,0.003628153121098876,-0.00010244687291560695,0.007478190585970879
0.00761258602142334,0.008018516935408115,-0.010614611208438873,0.003615446388721466,-0.00010288710473105311,0.007470123935490847
0.006959701422601938,0.007955036126077175,-0.011156569235026836,0.0034706436563283205,-0.00010076496982946992,0.006847822573035955
0.007068191654980183,0.0085049569606781,-0.010757723823189735,0.003578728996217251,-9.856967517407611e-05,0.006988231558352709
0.007954530417919159,0.008302392438054085,-0.010935758240520954,0.0037596754264086485,-9.645750105846673e-05,0.006859949324280024
0.007584403734654188,0.00781526230275631,-0.011636093258857727,0.003915186505764723,-9.443334420211613e-05,0.007028427440673113
0.0072649093344807625,0.007958856411278248,-0.011301982216536999,0.003918316215276718,-9.249235881725326e-05,0.007038875482976437
0.0073312693275511265,0.007604303304105997,-0.011529860086739063,0.0039002445992082357,-9.062959725270048e-05,0.007158786989748478
0.00761989364400506,0.00802022684365511,-0.010460404679179192,0.003954027779400349,-8.884017734089866e-05,0.006962105631828308
0.008103415369987488,0.007824438624083996,-0.010594667866826057,0.003950606100261211,-8.712025010026991e-05,0.006710922345519066
0.007756787817925215,0.007825356908142567,-0.01118131447583437,0.0038750621024519205,-8.546560275135562e-05,0.007142530754208565
0.007534409407526255,0.007853641174733639,-0.0107963802292943,0.0038055102340877056,-8.387266279896721e-05,0.007529953960329294
0.008163581602275372,0.007888113148510456,-0.010246222838759422,0.003919865004718304,-9.664889512350783e-05,0.007178861182183027
0.007866555824875832,0.007695440202951431,-0.010645179077982903,0.0038916603662073612,-9.688943100627512e-05,0.00664600171148777
0.0076877954415977,0.00826479122042656,-0.010141395963728428,0.003703164402395487,-9.530831448500976e-05,0.006586770992726088
0.007755031809210777,0.007637303788214922,-0.010739647783339024,0.003572114510461688,-9.36635333346203e-05,0.007154643535614014
0.008007402531802654,0.008158905431628227,-0.010802056640386581,0.0036385843995958567,-9.206733375322074e-05,0.007042677607387304
0.007638157811015844,0.007986332289874554,-0.010172181762754917,0.003700499888509512,-9.052389941643924e-05,0.007428035140037537
0.007278932258486748,0.008029092103242874,-0.010746374726295471,0.0037731491029262543,-8.903137495508417e-05,0.007673267740756273
0.007278932258486748,0.008029092103242874,-0.010746374726295471,0.0037731491029262543,-8.903137495508417e-05,0.007673267740756273
0.007971277460455894,0.007644045632332563,-0.010686586610972881,0.003759583691135049,-8.758730109548196e-05,0.007882100529968739
0.007865249179303646,0.007450710516422987,-0.009959816932678223,0.003946028184145689,-8.618938591098413e-05,0.00705039082095027
0.008189457468688488,0.007875454612076283,-0.010811557061970234,0.0040131742134690285,-8.483522105962038e-05,0.007117768283933401
0.007710451725870371,0.007589815650135279,-0.010196615010499954,0.003927839919924736,-8.352308941539377e-05,0.007407303433865309
0.008257884532213211,0.007196038030087948,-0.010595457628369331,0.003784729400649667,-8.225098281400278e-05,0.008021026849746704
0.007723376154899597,0.008118923753499985,-0.010278137400746346,0.0037419211585074663,-9.289559238823131e-05,0.007737956941127777
0.007826300337910652,0.007643044460564852,-0.01068899966776371,0.0043092588894069195,-9.175137529382482e-05,0.00704828230664134
0.008479945361614227,0.007510026916861534,-0.010802053846418858,0.004121817648410797,-9.044776379596442e-05,0.00749319139868021
0.008499912917613983,0.007623797748237848,-0.00999506190419197,0.004387426655739546,-8.916844672057778e-05,0.007565522100776434
0.007798275910317898,0.007966921664774418,-0.010799117386341095,0.00421189283952117,-8.792402513790876e-05,0.007941496558487415
0.008139284327626228,0.007650819141417742,-0.01089131273329258,0.004133511334657669,-8.67139533511363e-05,0.00793179776519537
0.008292251266539097,0.007523674983531237,-0.009979596361517906,0.004176758229732513,-8.553658699383959e-05,0.007758322171866894
0.00804358534514904,0.006996550131589174,-0.010818332433700562,0.0040944600477814674,-8.439078374067321e-05,0.007479961030185223
0.008160661906003952,0.007154779974371195,-0.010797607712447643,0.004080258309841156,-8.32753794384189e-05,0.007422078400850296
0.008484774269163609,0.00721402931958437,-0.011298475787043571,0.004122687969356775,-8.218889706768095e-05,0.007430027239024639
0.008821857161819935,0.006995812989771366,-0.011406367644667625,0.004067387897521257,-8.11305726529099e-05,0.007991996593773365
0.008519784547388554,0.006929885130375624,-0.011202869936823845,0.004184506833553314,-9.07849898794666e-05,0.007691341917961836
0.008223782293498516,0.00687767006456852,-0.010462687350809574,0.004338297061622143,-9.034306276589632e-05,0.007786845322698355
0.00857310090214014,0.00704560661688447,-0.01096535287797451,0.004381441976875067,-8.926857117330655e-05,0.0075377109460532665
0.008770275861024857,0.007043726276606321,-0.010718905366957188,0.004022881388664246,-8.817827620077878e-05,0.0075546251609921455
0.008130558766424656,0.006878248415887356,-0.011908762156963348,0.0038691810332238674,-8.711164991836995e-05,0.007276508957147598
0.00866127759218216,0.007504675537347794,-0.011214257217943668,0.0038768548984080553,-8.60703075886704e-05,0.0073806955479085445
0.009228239767253399,0.007041421253234148,-0.011215312406420708,0.0043698810040950775,-8.505361620336771e-05,0.007552410010248423
0.008182642050087452,0.006700577680021524,-0.011567189358174801,0.0046066585928201675,-8.406058623222634e-05,0.008366581983864307
0.008606061339378357,0.006632121279835701,-0.01043927762657404,0.004268500953912735,-8.309055556310341e-05,0.007759639527648687
0.008539687842130661,0.006923237815499306,-0.011064128950238228,0.0041471305303275585,-8.214257832150906e-05,0.007301604375243187
0.008412285707890987,0.006946210749447346,-0.01188752707093954,0.00391685776412487,-8.121601422317326e-05,0.007436163257807493
0.008511405438184738,0.0066698105074465275,-0.011508871801197529,0.003864915343001485,-9.175858576782048e-05,0.007679746486246586
0.009308184497058392,0.006532810628414154,-0.011642920784652233,0.003949631936848164,-9.154531289823353e-05,0.008022320456802845
0.008332950994372368,0.006548690143972635,-0.011126944795250893,0.004292281344532967,-8.982604049379006e-05,0.008182235062122345
0.008445104584097862,0.006886797957122326,-0.010966066271066666,0.004574418067932129,-8.807489939499646e-05,0.007927605882287025
0.008445104584097862,0.006886797957122326,-0.010966066271066666,0.004574418067932129,-8.807489939499646e-05,0.007927605882287025
0.008661419153213501,0.006665210705250502,-0.011040101759135723,0.004428051877766848,-8.638454164611176e-05,0.00832462403923273
0.008574440144002438,0.006607114803045988,-0.011426479555666447,0.00419993232935667,-8.319074549945071e-05,0.008042119443416595
0.009077026508748531,0.006591268815100193,-0.011227774433791637,0.0041692620143294334,-8.168062049662694e-05,0.008277702145278454
0.008703851141035557,0.006996845826506615,-0.011039655655622482,0.0043064323253929615,-8.022454858291894e-05,0.007960934191942215
0.008446939289569855,0.007123372983187437,-0.011823160573840141,0.004174197092652321,-7.881929923314601e-05,0.007641415577381849
0.008186266757547855,0.006497170776128769,-0.01066118199378252,0.00438957754522562,-7.746245682938024e-05,0.007531031500548124
0.008712705224752426,0.0064169359393417835,-0.010400941595435143,0.0046745287254452705,-7.615166396135464e-05,0.007654053159058094
0.009208214469254017,0.006895486265420914,-0.011231722310185432,0.004890542011708021,-7.488439587177709e-05,0.007847807370126247
0.008395451121032238,0.0069231376983225346,-0.011844196356832981,0.005040203686803579,-7.247238681884483e-05,0.0076232110150158405
0.008395451121032238,0.0069231376983225346,-0.011844196356832981,0.005040203686803579,-7.247238681884483e-05,0.0076232110150158405
0.009103474207222462,0.00672937510535121,-0.010812445543706417,0.004781430587172508,-7.132365135475993e-05,0.008234904147684574
0.00863923504948616,0.007061798591166735,-0.011030414141714573,0.0047067273408174515,-7.021088822511956e-05,0.008050555363297462
0.008265461772680283,0.0071111987344920635,-0.011352526023983955,0.004908645525574684,-6.913230754435062e-05,0.008134454488754272
0.009471319615840912,0.006677130702883005,-0.011053931899368763,0.004993902053683996,-6.80862576700747e-05,0.008414984680712223
0.009160740301012993,0.007189991418272257,-0.010737685486674309,0.004819019697606564,-6.707142892992124e-05,0.008674580603837967
0.008749053813517094,0.006638661492615938,-0.011368567124009132,0.004697026219218969,-6.60864170640707e-05,0.008489956147968769
0.008917820639908314,0.007007475011050701,-0.010729106143116951,0.004708168562501669,-6.512996333185583e-05,0.007967323064804077
0.009289078414440155,0.00668764766305685,-0.011308119632303715,0.004871990531682968,-6.420077261282131e-05,0.008456426672637463
0.008539353497326374,0.006855637766420841,-0.011402051895856857,0.00484694866463542,-6.329778261715546e-05,0.0084413792937994
0.008919789455831051,0.006799742113798857,-0.010486115701496601,0.004725305829197168,-6.241977825993672e-05,0.007898124866187572
0.009328187443315983,0.007238331250846386,-0.011423780582845211,0.005036093294620514,-6.156577728688717e-05,0.008052749559283257
0.008769135922193527,0.0066951182670891285,-0.011032477021217346,0.0046875751577317715,-6.073486292734742e-05,0.00775511609390378
0.008812164887785912,0.006415616720914841,-0.010881771333515644,0.004573924001306295,-5.99260711169336e-05,0.007830836810171604
0.008981631137430668,0.00666822399944067,-0.010995469056069851,0.004423268139362335,-5.9138521464774385e-05,0.007759388070553541
0.00918608158826828,0.007221425883471966,-0.010335243307054043,0.004409806337207556,-5.8371420891489834e-05,0.007979598827660084
0.00918608158826828,0.007221425883471966,-0.010335243307054043,0.004409806337207556,-5.8371420891489834e-05,0.007979598827660084
0.00864848680794239,0.007132412865757942,-0.011231353506445885,0.004809583071619272,-5.762399814557284e-05,0.007753758691251278
0.008939248509705067,0.006786798592656851,-0.011455678381025791,0.0048010568134486675,-5.689543831977062e-05,0.008075417950749397
0.009181184694170952,0.006430166307836771,-0.010925962589681149,0.004716644994914532,-6.172384019009769e-05,0.008300557732582092
0.00903717614710331,0.00733644375577569,-0.011013614945113659,0.004832269158214331,-6.575518636964262e-05,0.008351696655154228
0.009460080415010452,0.0066735693253576756,-0.011185090988874435,0.004653290845453739,-6.498627044493333e-05,0.008368346840143204
0.009104403667151928,0.00691557303071022,-0.012083875015377998,0.004641622770577669,-6.421498255804181e-05,0.008509309962391853
0.009508805349469185,0.006901570595800877,-0.011533071286976337,0.004222643095999956,-6.346045120153576e-05,0.008405430242419243
0.009341967292129993,0.00804686639457941,-0.011486079543828964,0.004400759004056454,-6.272333121160045e-05,0.008327672258019447
0.009765960276126862,0.007099055219441652,-0.011282537132501602,0.00440613366663456,-6.200320785865188e-05,0.008715348318219185
0.008961779996752739,0.007391293067485094,-0.01121584139764309,0.004664324223995209,-6.129930989118293e-05,0.008592839352786541
0.00991752091795206,0.006611967924982309,-0.011728594079613686,0.00482071191072464,-6.061131352907978e-05,0.008737295866012573
0.009147342294454575,0.006756100337952375,-0.011333126574754715,0.004800483118742704,-5.993852028041147e-05,0.008687993511557579
0.009509343653917313,0.007073412649333477,-0.011617294512689114,0.004940601997077465,-1.5231249562930316e-05,0.008313508704304695
0.00970032811164856,0.006813299376517534,-0.011902578175067902,0.005029832012951374,-9.944917565007927e-07,0.008661390282213688
0.009319844655692577,0.006622387561947107,-0.011485890485346317,0.00514951441437006,-6.493319659739427e-08,0.008754775859415531
0.009422573260962963,0.006473553832620382,-0.011343106627464294,0.004372544586658478,-4.239673501160723e-09,0.00848186481744051
0.0092886071652174,0.006992839276790619,-0.010930552147328854,0.0043084947392344475,-2.7682039993592866e-10,0.008575815707445145
0.00991016998887062,0.0069265165366232395,-0.01111413910984993,0.004472638480365276,-1.8074394411704553e-11,0.008609502576291561
0.009710597805678844,0.006518105510622263,-0.011326165869832039,0.0048775989562273026,-1.18012891126007e-12,0.008155596442520618
0.009587375447154045,0.006361804436892271,-0.011032178066670895,0.00482946215197444,-7.705397734800168e-14,0.008343884721398354
0.009355811402201653,0.007321792654693127,-0.011675178073346615,0.004701034631580114,-5.031073739444848e-15,0.00859214086085558
0.009066223166882992,0.006857582833617926,-0.011434068903326988,0.004548291675746441,-3.2849316770039016e-16,0.008441820740699768
0.010056919418275356,0.006155768409371376,-0.012205615639686584,0.004681386519223452,-2.1448255616101848e-17,0.008690139278769493
0.010563798248767853,0.006112690083682537,-0.011516335420310497,0.0046990616247057915,-1.4004179144256181e-18,0.009446690790355206
0.010563798248767853,0.006112690083682537,-0.011516335420310497,0.0046990616247057915,-1.4004179144256181e-18,0.009446690790355206
0.009490142576396465,0.006237126886844635,-0.011061201803386211,0.004892205353826284,-9.143728161934473e-20,0.008923381567001343
0.00940223690122366,0.006854130420833826,-0.011578834615647793,0.005267673172056675,-5.970201516598836e-21,0.009738313965499401
0.009426495991647243,0.006251796148717403,-0.011747502721846104,0.004879123531281948,-2.5451904487081162e-23,0.008247237652540207
0.009426495991647243,0.006251796148717403,-0.011747502721846104,0.004879123531281948,-2.5451904487081162e-23,0.008247237652540207
0.009879457764327526,0.0060535273514688015,-0.011921304278075695,0.004430840723216534,-1.661827596358746e-24,0.008404289372265339
0.00952048972249031,0.006883013527840376,-0.011706019751727581,0.004972969647496939,-7.0846319080416e-27,0.00929744727909565
0.009825644083321095,0.007009229622781277,-0.011516879312694073,0.004689549095928669,-4.625758725740025e-28,0.008543333038687706
0.010425620712339878,0.006314507219940424,-0.011354994960129261,0.004550646059215069,-3.02028968147735e-29,0.008238421753048897
0.009422576054930687,0.006425309926271439,-0.011842136271297932,0.004321222193539143,-6.468557694461197e-05,0.00892456155270338
0.010020512156188488,0.006891091354191303,-0.011196963489055634,0.004277950618416071,-6.828147888882086e-05,0.00906284898519516
0.010394066572189331,0.0069107129238545895,-0.0116900485008955,0.004844997078180313,-6.755532376701012e-05,0.00865484680980444
0.009527971968054771,0.00637789536267519,-0.011427867226302624,0.004820809233933687,-6.657546327915043e-05,0.008871748112142086
0.010374540463089943,0.006200307514518499,-0.011004318483173847,0.005196869373321533,-6.56061529298313e-05,0.008659773506224155
0.010239295661449432,0.0066948845051229,-0.011616612784564495,0.005670774728059769,-7.426756201311946e-05,0.008566430769860744
0.010393813252449036,0.006795113440603018,-0.011102542281150818,0.005208809860050678,-7.627960440004244e-05,0.009087694808840752
0.010080834850668907,0.006615450605750084,-0.012075870297849178,0.005018636118620634,-7.541425293311477e-05,0.009178579784929752
0.010505436919629574,0.00654041301459074,-0.01167820394039154,0.004870493896305561,-8.049748430494219e-05,0.008981004357337952
0.010018064640462399,0.006254586856812239,-0.011672179214656353,0.005179619882255793,-8.519752009306103e-05,0.008733108639717102
0.010238303802907467,0.006479420233517885,-0.012091202661395073,0.005574308335781097,-8.443377737421542e-05,0.009258146397769451
0.010169063694775105,0.006454740650951862,-0.011699993163347244,0.005482712760567665,-8.334142330568284e-05,0.008935295045375824
0.011478742584586143,0.00652795284986496,-0.011890645138919353,0.005660182796418667,-9.32283146539703e-05,0.008778668940067291
0.010281209833920002,0.006318078376352787,-0.011519256979227066,0.005336443893611431,-9.274357580579817e-05,0.00887921079993248
0.009655183181166649,0.006244462449103594,-0.011672070249915123,0.005009888205677271,-9.161022171610966e-05,0.009144344367086887
0.0103066461160779,0.006164627615362406,-0.012106705456972122,0.005119475536048412,-9.046231571119279e-05,0.009100031107664108
0.010587375611066818,0.007044222671538591,-0.011278721503913403,0.005514332093298435,-0.00022387006902135909,0.008732534945011139
0.010874205268919468,0.006621806416660547,-0.012197012081742287,0.005609314423054457,-0.00025397242279723287,0.008731995709240437
0.010562030598521233,0.006562649738043547,-0.01204510498791933,0.005266694817692041,-0.00024304848921019584,0.00895626936107874
0.0106368288397789,0.00698397122323513,-0.012353533878922462,0.005225360859185457,-0.00023076422803569585,0.00968016404658556
0.0106368288397789,0.00698397122323513,-0.012353533878922462,0.005225360859185457,-0.00023076422803569585,0.00968016404658556
0.010850915685296059,0.006396808195859194,-0.012441097758710384,0.005031909793615341,-0.00024829746689647436,0.00962156057357788
0.010474463924765587,0.0064602443017065525,-0.012166081927716732,0.005376835819333792,-0.00023981205595191568,0.010142127983272076
0.010382666252553463,0.006612453144043684,-0.011841258965432644,0.0051957969553768635,-0.00026545728906057775,0.009929830208420753
0.010445591993629932,0.00644067395478487,-0.012623697519302368,0.005292428657412529,-0.00025696607190184295,0.009253728203475475
0.010295001789927483,0.006302372086793184,-0.01227816753089428,0.005418336484581232,-0.00024704032693989575,0.009241925552487373
0.011215115897357464,0.006600966677069664,-0.012414085678756237,0.0052566551603376865,-0.00025435592397116125,0.009590724483132362
0.01064547710120678,0.006397259887307882,-0.012503791600465775,0.005394831765443087,-0.0002606762573122978,0.010044379159808159
0.010385647416114807,0.006529347505420446,-0.012057172134518623,0.00526649272069335,-0.0002525468007661402,0.00933292880654335
0.01049021165817976,0.006422217469662428,-0.01244134921580553,0.005483894143253565,-0.000244460825342685,0.009566407650709152
0.010631110519170761,0.0064622522331774235,-0.01215811725705862,0.0053691859357059,-0.00030765877454541624,0.00965085532516241
0.010161330923438072,0.006521456874907017,-0.012805603444576263,0.005051776301115751,-0.0002928657049778849,0.009726138785481453
0.010450885631144047,0.0069517032243311405,-0.012257718481123447,0.00561909144744277,-0.00027528387727215886,0.010073564946651459
0.010653823614120483,0.006837262772023678,-0.012596526183187962,0.0056929318234324455,-0.00030771823367103934,0.010283082723617554
0.010676326230168343,0.006289307959377766,-0.012772797606885433,0.005790955387055874,-0.0002941054408438504,0.0093757389113307
0.010980415157973766,0.006365218199789524,-0.012576183304190636,0.005344026256352663,-0.0003017991839442402,0.009410382248461246
0.010916255414485931,0.0067238654009997845,-0.01277832966297865,0.005348787643015385,-0.0003080730384681374,0.00988374650478363
0.011389019899070263,0.00696742907166481,-0.012287258170545101,0.0046886964701116085,-0.0002950199705082923,0.00974362064152956
0.011524154804646969,0.006412913091480732,-0.013274256139993668,0.005580391734838486,-0.0003015881811734289,0.010044470429420471
0.010255944915115833,0.006183062680065632,-0.012617986649274826,0.006226415280252695,-0.00030703816446475685,0.010230198502540588
0.011017694137990475,0.006711720023304224,-0.012892481870949268,0.006319670472294092,-0.00029562701820395887,0.009407646022737026
0.011095421388745308,0.006861412897706032,-0.012405024841427803,0.006233407650142908,-0.0003531180846039206,0.00961286574602127
0.010206173174083233,0.007157049607485533,-0.012312721461057663,0.006052677519619465,-0.00034887646324932575,0.010394035838544369
0.010206173174083233,0.007157049607485533,-0.012312721461057663,0.006052677519619465,-0.00034887646324932575,0.010394035838544369
0.010959316045045853,0.006599824409931898,-0.012783822603523731,0.0063890027813613415,-0.00032516723149456084,0.010095751844346523
0.010667314752936363,0.006239019799977541,-0.012328051030635834,0.006083493120968342,-0.00030333464383147657,0.010041390545666218
0.010688608512282372,0.006621325854212046,-0.012902501970529556,0.005650567356497049,-0.00028417480643838644,0.010534397326409817
0.010731150396168232,0.006918127182871103,-0.01218318473547697,0.005455930717289448,-0.00031703346758149564,0.009093464352190495
0.01093398965895176,0.006037569139152765,-0.011666413396596909,0.005770972464233637,-0.0002866595459636301,0.010536153800785542
0.011161711066961288,0.006091047544032335,-0.010593404993414879,0.005841427482664585,-0.000311495503410697,0.010861774906516075
0.010638990439474583,0.006201227195560932,-0.012448137626051903,0.00582314794883132,-0.00030194452847354114,0.010529818013310432
0.01071175467222929,0.006673853378742933,-0.01262930128723383,0.005284951534122229,-0.00028846817440353334,0.010629406198859215
0.010486647486686707,0.006520573515444994,-0.012700613588094711,0.005279180593788624,-0.0002758568152785301,0.010254555381834507
0.010500052012503147,0.006343366112560034,-0.012145277112722397,0.005808680318295956,-0.00026428321143612266,0.01033121719956398
0.010908695869147778,0.005913658533245325,-0.012563355267047882,0.006591503508388996,-0.00028741054120473564,0.010205741040408611
0.010654550977051258,0.00639928225427866,-0.012316730804741383,0.005979268811643124,-0.00027849487378261983,0.01072991918772459
0.011076022870838642,0.006640186998993158,-0.011785662733018398,0.005749606993049383,-0.0002682606573216617,0.01063847541809082
0.01109438855201006,0.0064656720496714115,-0.012500496581196785,0.005878673866391182,-0.00025863214978016913,0.010855707339942455
0.010790841653943062,0.006226304918527603,-0.011757569387555122,0.006025627255439758,-0.00024966319324448705,0.011194374412298203
0.010856359265744686,0.006463068071752787,-0.012454204261302948,0.006362880580127239,-0.00024259772908408195,0.011174011044204235
0.011035350151360035,0.006658811587840319,-0.011918118223547935,0.0057190596126019955,-0.0002318157785339281,0.010337029583752155
0.010987351648509502,0.006166517734527588,-0.012259162031114101,0.005800379440188408,-0.0002205624186899513,0.010031851008534431
0.011255335062742233,0.006038910709321499,-0.012345854192972183,0.005923300515860319,-0.00021026165632065386,0.010266042314469814
0.01071727555245161,0.005645419470965862,-0.011792409233748913,0.006588643882423639,-0.00023567848256789148,0.010737546719610691
0.010907204821705818,0.005905005615204573,-0.012387152761220932,0.0066839419305324554,-0.00023039545339997858,0.010872279293835163
0.0113665871322155,0.006258124019950628,-0.012127488851547241,0.006527075543999672,-0.00022126559633761644,0.01087641716003418
0.011050805449485779,0.005658880341798067,-0.01270308718085289,0.006152651272714138,-0.0002125740284100175,0.011112628504633904
0.011228160932660103,0.005865943152457476,-0.012258696369826794,0.0059488858096301556,-0.00020452307944651693,0.011329792439937592
0.011325366795063019,0.005749768577516079,-0.012734916061162949,0.006239934358745813,-0.00022135251492727548,0.010797878727316856
0.011243957094848156,0.006234798114746809,-0.01228750217705965,0.006156700197607279,-0.00022124775568954647,0.010826950892806053
0.012135806493461132,0.0069588422775268555,-0.01160364132374525,0.006213311105966568,-0.00021422503050416708,0.010704879648983479
0.012411593459546566,0.006458540912717581,-0.012505444698035717,0.0057100458070635796,-0.00020721093460451812,0.01081873383373022
0.012800193391740322,0.006195531226694584,-0.012456939555704594,0.005730492062866688,-0.00020061411487404257,0.010995835065841675
0.012427269481122494,0.006471947766840458,-0.012855998240411282,0.005750922951847315,-0.00021852437930647284,0.010720156133174896
0.012427269481122494,0.006471947766840458,-0.012855998240411282,0.005750922951847315,-0.00021852437930647284,0.010720156133174896
0.012772790156304836,0.006682283710688353,-0.012238983064889908,0.00634805578738451,-0.0002092633512802422,0.01131259836256504
0.012686221860349178,0.006179152522236109,-0.012656526640057564,0.005919463932514191,-0.00020336643501650542,0.010951176285743713
0.01268851850181818,0.005936519242823124,-0.0121828094124794,0.005894329398870468,-0.0002338413760298863,0.01094540860503912
0.0126889543607831,0.006207384634763002,-0.012924066744744778,0.0062074060551822186,-0.0002338367630727589,0.010699949227273464
0.013159600086510181,0.006670251954346895,-0.012994751334190369,0.006252937950193882,-0.00022303863079287112,0.010644669644534588
0.01293275598436594,0.00684535875916481,-0.013126147910952568,0.006257947068661451,-0.0002125526370946318,0.010691440664231777
0.01361364871263504,0.006185467354953289,-0.012566127814352512,0.006210630293935537,-0.0002029670577030629,0.010903450660407543
0.012812533415853977,0.0056939986534416676,-0.012524623423814774,0.006107922177761793,-0.0002278609899803996,0.0109855430200696
0.013371432200074196,0.005773400422185659,-0.01287454180419445,0.0062853205017745495,-0.00022306464961729944,0.011380292475223541
0.013226291164755821,0.006244376767426729,-0.012105121277272701,0.006639414932578802,-0.00021450391795951873,0.011108367703855038
0.0127476267516613,0.006734470836818218,-0.01293589174747467,0.006219443865120411,-0.00020632712403312325,0.011506340466439724
0.013144227676093578,0.006028096191585064,-0.012467194348573685,0.00607633450999856,-0.00019873352721333504,0.011062435805797577
0.012594969011843204,0.005938556976616383,-0.013098901137709618,0.006771821063011885,-0.00019167811842635274,0.011339874938130379
0.013181671500205994,0.006166553124785423,-0.012501252815127373,0.00745491124689579,-0.0002118677512044087,0.011573730036616325
0.012593578547239304,0.00632370263338089,-0.012655184604227543,0.007068909239023924,-0.000208532641408965,0.011377849616110325
0.01296794880181551,0.006461031269282103,-0.01239830069243908,0.006806648802012205,-0.0002020834945142269,0.012646202929317951
0.012879803776741028,0.006059688050299883,-0.012369994074106216,0.006519955117255449,-0.00019581745436880738,0.010951806791126728
0.013026883825659752,0.005896762013435364,-0.012551712803542614,0.0070038363337516785,-0.00018991470278706402,0.01056539174169302
0.013103457167744637,0.006324301939457655,-0.012246062979102135,0.007311517838388681,-0.00018435672973282635,0.011205106973648071
0.013052044436335564,0.0068676164373755455,-0.012948606163263321,0.007213514763861895,-0.00019807022181339562,0.011289659887552261
0.013120077550411224,0.006669125985354185,-0.01225975714623928,0.0067531936801970005,-0.0001986107527045533,0.011866246350109577
0.013025105930864811,0.006115023046731949,-0.0124948900192976,0.006670678965747356,-0.00019366046763025224,0.011438518762588501
0.013721765950322151,0.006185639183968306,-0.012370907701551914,0.0070476955734193325,-0.0001886126701720059,0.01175837591290474
0.013182323426008224,0.006565735675394535,-0.013140535913407803,0.0069574941881000996,-0.00018379914399702102,0.01229532528668642
0.013362744823098183,0.00720770051702857,-0.012919002212584019,0.006443019025027752,-0.00017922378901857883,0.0120144197717309
0.013362744823098183,0.00720770051702857,-0.012919002212584019,0.006443019025027752,-0.00017922378901857883,0.0120144197717309
0.013834129087626934,0.0063028484582901,-0.013353876769542694,0.007003726437687874,-0.00018519576406106353,0.012233557179570198
0.012818125076591969,0.00666014151647687,-0.012237530201673508,0.0070728641003370285,-0.00017816325998865068,0.012309161946177483
0.01323980838060379,0.006488597486168146,-0.012899404391646385,0.006541092414408922,-0.00017139644478447735,0.012038717977702618
0.013173389248549938,0.006357917096465826,-0.012443030253052711,0.006952865514904261,-0.00016510830027982593,0.011725213378667831
0.013399672694504261,0.006163979414850473,-0.013596359640359879,0.006752942688763142,-0.000159263945533894,0.01206940971314907
0.013346266001462936,0.005991077516227961,-0.01290263794362545,0.006952696479856968,-0.0001538191136205569,0.011797345243394375
0.013618813827633858,0.006221770774573088,-0.013071143068373203,0.0068393368273973465,-0.00017454118642490357,0.012351639568805695
0.012093503959476948,0.006516066379845142,-0.013250408694148064,0.00705525791272521,-0.00017251315875910223,0.012591257691383362
0.014269070699810982,0.006414878647774458,-0.0124500198289752,0.007135645020753145,-0.00016739680722821504,0.01244230568408966
0.013884452171623707,0.006070353090763092,-0.012756829150021076,0.007627867162227631,-0.00016237761883530766,0.012416969053447247
0.013719050213694572,0.005964530631899834,-0.012524698860943317,0.007495654746890068,-0.00017709811800159514,0.012062587775290012
0.013867934234440327,0.007007087580859661,-0.013704733923077583,0.007138099987059832,-0.00017824939277488738,0.012430769391357899
0.013691852800548077,0.006553864572197199,-0.013199408538639545,0.006989029236137867,-0.00017373640730511397,0.012466704472899437
0.01415632851421833,0.006223766133189201,-0.013467441312968731,0.007855345495045185,-0.00016909922123886645,0.012737026438117027
0.014268123544752598,0.00650697760283947,-0.012863014824688435,0.007883362472057343,-0.0001646804012125358,0.012418299913406372
0.014542002230882645,0.0061875805258750916,-0.013179236091673374,0.007092979736626148,-0.00016048518591560423,0.012495252303779125
0.01425672136247158,0.006466912105679512,-0.013481458649039268,0.006942921783775091,-0.0001730704098008573,0.012770075350999832
0.014828015118837357,0.006972311530262232,-0.01397501491010189,0.0069681028835475445,-0.00017414195463061333,0.012328693643212318
0.014578158035874367,0.006306771654635668,-0.013823159970343113,0.007101305760443211,-0.00017036509234458208,0.012569764629006386
0.014907794073224068,0.006058462895452976,-0.013418084010481834,0.006899498403072357,-0.00016644880815874785,0.012453887611627579
0.014423253946006298,0.0065705557353794575,-0.013739910908043385,0.007087334059178829,-0.0001626889716135338,0.01302543468773365
0.014405392110347748,0.006925838999450207,-0.013081713579595089,0.007479237392544746,-0.0001590942410985008,0.012748594395816326
0.014384003356099129,0.006407467648386955,-0.013602592051029205,0.0077058677561581135,-0.00015565469220746309,0.013356544077396393
0.014692549593746662,0.006275991443544626,-0.013472014106810093,0.007098253350704908,-0.00017542089335620403,0.01305740512907505
0.01445666141808033,0.006257975939661264,-0.01386919617652893,0.0073343245312571526,-0.00017618756101001054,0.012795540504157543
0.014564231038093567,0.005963084287941456,-0.013145077042281628,0.007932346314191818,-0.00017002881213556975,0.012609031982719898
0.014872324652969837,0.006274887826293707,-0.01351161953061819,0.007755506318062544,-0.00017360734636895359,0.012455555610358715
0.014872324652969837,0.006274887826293707,-0.01351161953061819,0.007755506318062544,-0.00017360734636895359,0.012455555610358715
0.014550000429153442,0.005806931294500828,-0.013807046227157116,0.0077348570339381695,-0.000182241084985435,0.012650834396481514
0.014737273566424847,0.006176724098622799,-0.01315359678119421,0.0076343463733792305,-0.00017720703908707947,0.013209505006670952
0.01449485681951046,0.005664346273988485,-0.013858286663889885,0.008052910678088665,-0.00017163637676276267,0.01351994089782238
0.014891412109136581,0.006063523236662149,-0.013643333688378334,0.007691813632845879,-0.00016635200881864876,0.012939793057739735
0.01471984013915062,0.005990325007587671,-0.013744434341788292,0.008233263157308102,-0.0001823580387281254,0.012943568639457226
0.01471984013915062,0.005990325007587671,-0.013744434341788292,0.008233263157308102,-0.0001823580387281254,0.012943568639457226
0.015223335474729538,0.006249463185667992,-0.01380122546106577,0.008366396650671959,-0.00017762785137165338,0.012963918037712574
0.014759115874767303,0.006680005695670843,-0.013407443650066853,0.008446057327091694,-0.0001727831258904189,0.012819312512874603
0.01496115978807211,0.00639110803604126,-0.013804207555949688,0.008148728869855404,-0.00016817240975797176,0.01353723369538784
0.014824737794697285,0.006264913827180862,-0.013857039622962475,0.008144655264914036,-0.00016379958833567798,0.013208328746259212
0.01503626350313425,0.005815803539007902,-0.013370408676564693,0.007944482378661633,-0.0001596487854840234,0.013521063141524792
0.015420649200677872,0.0058150822296738625,-0.01352781243622303,0.007822899147868156,-0.00015570282994303852,0.013922872953116894
0.015184083953499794,0.0065107387490570545,-0.013147027231752872,0.008190734311938286,-0.00016803955077193677,0.013714310713112354
0.014865389093756676,0.006815354339778423,-0.013424335047602654,0.008246646262705326,-0.0001691976358415559,0.013328074477612972
0.01514606736600399,0.006185427308082581,-0.012581029906868935,0.008164102211594582,-0.0001656384119996801,0.013366123661398888
0.01507461816072464,0.006243571639060974,-0.013574277050793171,0.008453726768493652,-0.00016193496412597597,0.013611507602036
0.015301920473575592,0.0057240319438278675,-0.01333020068705082,0.008377701975405216,-0.0001583743141964078,0.013570202514529228
0.015130722895264626,0.006067750044167042,-0.014021594077348709,0.008390442468225956,-0.00018810693291015923,0.013660204596817493
0.015768690034747124,0.006288757547736168,-0.013337320648133755,0.0089335385710001,-0.00019104874809272587,0.013634629547595978
0.01516690943390131,0.005966262426227331,-0.013493111357092857,0.00882050022482872,-0.00018395273946225643,0.013895696960389614
0.01565564237535,0.006146609783172607,-0.013332024216651917,0.008110031485557556,-0.0001767716312315315,0.014194965362548828
0.01549563929438591,0.005734101869165897,-0.013890877366065979,0.007871092297136784,-0.0002018014492932707,0.014714517630636692
0.015806062147021294,0.006069572642445564,-0.013850648887455463,0.00811585783958435,-0.00019652456103358418,0.014360940083861351
0.015703778713941574,0.006271213758736849,-0.01393900066614151,0.008189233019948006,-0.00018975352577399462,0.014107947237789631
0.015921635553240776,0.006003218702971935,-0.0138001823797822,0.007902552373707294,-0.0001833194401115179,0.013954946771264076
0.016111092641949654,0.006322427652776241,-0.01342903170734644,0.008136765100061893,-0.00020485518325585872,0.013876359909772873
0.01627405360341072,0.006238001398742199,-0.013246143236756325,0.008103806525468826,-0.000194094332982786,0.013689706102013588
0.01569884829223156,0.005783303175121546,-0.013824786059558392,0.0076135266572237015,-0.00018830058979801834,0.013480217196047306
0.016352945938706398,0.00489635206758976,-0.013520559296011925,0.008532868698239326,-0.00020218233112245798,0.01408364251255989
0.016352945938706398,0.00489635206758976,-0.013520559296011925,0.008532868698239326,-0.00020218233112245798,0.01408364251255989
0.015680527314543724,0.004613442812114954,-0.013952198438346386,0.00814198236912489,-0.00020261942700017244,0.013876010663807392
0.015858417376875877,0.005290985107421875,-0.013162617571651936,0.007955078035593033,-0.0001974622718989849,0.013770091347396374
0.015825768932700157,0.005108707118779421,-0.013528769835829735,0.007816516794264317,-0.00024048934574238956,0.013247568160295486
0.01597541570663452,0.0052396743558347225,-0.01321052573621273,0.008650229312479496,-0.0002716025337576866,0.013629237189888954
0.01638849265873432,0.004981045611202717,-0.014046586118638515,0.0086343539878726,-0.0002589556679595262,0.013998004607856274
0.01643744856119156,0.0048223440535366535,-0.013449902646243572,0.00812018197029829,-0.0002811814483720809,0.01452685333788395
0.016448911279439926,0.004962833132594824,-0.013591263443231583,0.008042479865252972,-0.0002780374197755009,0.014376786537468433
0.015904569998383522,0.005088904872536659,-0.013487925752997398,0.00900485459715128,-0.0003033936955034733,0.014249668456614017
0.016787417232990265,0.005635639186948538,-0.013899033889174461,0.008719964884221554,-0.0003150765842292458,0.014107907190918922
0.016571838408708572,0.005315978545695543,-0.013444974087178707,0.008154165931046009,-0.0003205109969712794,0.015051900409162045
0.01699080877006054,0.00487799197435379,-0.013496468774974346,0.007717933971434832,-0.0004210585029795766,0.013375740498304367
0.016881683841347694,0.005275938659906387,-0.013459926471114159,0.008491895161569118,-0.0004811424878425896,0.01372172124683857
0.016683610156178474,0.005249497946351767,-0.013524135574698448,0.008285288698971272,-0.0005227699293754995,0.013891324400901794
0.01708231307566166,0.0050763217732310295,-0.013914011418819427,0.00849247258156538,-0.0005206939531490207,0.014479104429483414
0.01657097600400448,0.005266914144158363,-0.013686608523130417,0.009063632227480412,-0.0005137934349477291,0.014769027009606361
0.016809480264782906,0.004999504890292883,-0.013960227370262146,0.009182797744870186,-0.0005102313007228076,0.014733131974935532
0.01675294153392315,0.005072277504950762,-0.013770821504294872,0.008532043546438217,-0.0005047995364293456,0.014322259463369846
0.017054643481969833,0.005344611592590809,-0.013691804371774197,0.008594496175646782,-0.0005773919983766973,0.014661130495369434
0.017712635919451714,0.005049122963100672,-0.013335272669792175,0.008907821029424667,-0.0005967330071143806,0.014467411674559116
0.01672193966805935,0.005505006294697523,-0.014267178252339363,0.008398917503654957,-0.0005815448239445686,0.014691450633108616
0.017304956912994385,0.005325749516487122,-0.013615020550787449,0.008509429171681404,-0.0006095070857554674,0.014543799683451653
0.017346328124403954,0.005068278405815363,-0.014372228644788265,0.008945227600634098,-0.0006298177177086473,0.014917242340743542
0.01714521273970604,0.005159073043614626,-0.013598640449345112,0.00877667497843504,-0.0007070288993418217,0.014669078402221203
0.01746312715113163,0.005321076139807701,-0.014562483876943588,0.008391883224248886,-0.0008313868311233819,0.01450471580028534
0.017583757638931274,0.00563066778704524,-0.014330236241221428,0.008761947974562645,-0.0008539210539311171,0.01447849441319704
0.01760924980044365,0.0061348192393779755,-0.01363576389849186,0.008378350175917149,-0.0009045542101375759,0.01461779698729515
0.017576631158590317,0.005548500921577215,-0.014346537180244923,0.008565209805965424,-0.0010069507407024503,0.01472882367670536
0.017576631158590317,0.005548500921577215,-0.014346537180244923,0.008565209805965424,-0.0010069507407024503,0.01472882367670536
0.017635496333241463,0.005324335303157568,-0.012527992017567158,0.008566771633923054,-0.0009965013014152646,0.014331494458019733
0.017448285594582558,0.005316939204931259,-0.015136596746742725,0.0085241524502635,-0.0009834442753344774,0.01496538333594799
0.017690330743789673,0.005547116510570049,-0.014224684797227383,0.008757221512496471,-0.0011538441758602858,0.01489743497222662
0.01805601827800274,0.005682657938450575,-0.014420301653444767,0.00917481817305088,-0.0011761885834857821,0.015138647519052029
0.01785293221473694,0.005551593843847513,-0.01438556332141161,0.009358095936477184,-0.0011357354233041406,0.014996436424553394
0.018072234466671944,0.005078184884041548,-0.015233075246214867,0.009270351380109787,-0.0011636955896392465,0.015084863640367985
0.017780913040041924,0.0058409976772964,-0.014227022416889668,0.009656505659222603,-0.0011181844165548682,0.015082699246704578
0.01805036887526512,0.005494730081409216,-0.014806902967393398,0.009427674114704132,-0.0010798503644764423,0.015357733704149723
0.018398983404040337,0.005441303364932537,-0.01398836262524128,0.009233241900801659,-0.0010185273131355643,0.015208050608634949
0.01815078593790531,0.005744355730712414,-0.014263741672039032,0.0093048932030797,-0.0009441000875085592,0.01518403273075819
0.018431542441248894,0.0059006353840231895,-0.013824318535625935,0.009065833874046803,-0.0008452772162854671,0.015390639193356037
0.01815449446439743,0.005334239918738604,-0.01461288146674633,0.009123936295509338,-0.0007213882054202259,0.015563596971333027
0.017729269340634346,0.005063404329121113,-0.014082644134759903,0.009265179745852947,-0.0007285983301699162,0.01551085151731968
0.018375134095549583,0.0057370285503566265,-0.014586754143238068,0.009260115213692188,-0.0006545308278873563,0.015273399651050568
0.01802361197769642,0.0060299960896372795,-0.014078082516789436,0.009112830273807049,-0.0005845013074576855,0.01574835740029812
0.017940325662493706,0.005917747970670462,-0.01446909923106432,0.009582171216607094,-0.000527387426700443,0.015498281456530094
0.018794944509863853,0.00591738848015666,-0.014138832688331604,0.00967542827129364,-0.0005190756637603045,0.015727251768112183
0.018515657633543015,0.0054038031958043575,-0.014920379035174847,0.009589355438947678,-0.0005119446432217956,0.01638682372868061
0.018287481740117073,0.005502194631844759,-0.013946877792477608,0.009261523373425007,-0.00047557277139276266,0.015400825068354607
0.018525050953030586,0.006005932576954365,-0.014873470179736614,0.009491266682744026,-0.00044231116771698,0.01470742467790842
0.018554633483290672,0.006424042396247387,-0.014612050727009773,0.009359347634017467,-0.00041328673250973225,0.015339446254074574
0.018444443121552467,0.005654705688357353,-0.015137401409447193,0.008796804584562778,-0.00041478656930848956,0.015642045065760612
0.01842787303030491,0.0064072636887431145,-0.015143726952373981,0.009315879084169865,-0.00039450565236620605,0.016089728102087975
0.01854259893298149,0.00623977230861783,-0.014342992566525936,0.009400444105267525,-0.0003741069231182337,0.01624293066561222
0.01854259893298149,0.00623977230861783,-0.014342992566525936,0.009400444105267525,-0.0003741069231182337,0.01624293066561222
0.018782181665301323,0.005602551624178886,-0.014581538736820221,0.009608150459825993,-0.00033888648613356054,0.01602223329246044
0.018782181665301323,0.005602551624178886,-0.014581538736820221,0.009608150459825993,-0.00033888648613356054,0.01602223329246044
0.01898338459432125,0.005765173118561506,-0.014800619333982468,0.00976018700748682,-0.0002767900296021253,0.01618790440261364
0.018538644537329674,0.005909096449613571,-0.0150538245216012,0.010013082064688206,-0.00024756844504736364,0.016020430251955986
0.01672322489321232,0.006393141113221645,-0.015210960060358047,0.009824184700846672,-0.00023378487094305456,0.015665307641029358
0.019301168620586395,0.0065204971469938755,-0.014601849019527435,0.009610182605683804,-0.00022217840887606144,0.01528304722160101
0.019550517201423645,0.005729363299906254,-0.014734569005668163,0.009764928370714188,-0.00021171777916606516,0.01583884097635746
0.018997101113200188,0.005771279335021973,-0.015064853243529797,0.00931685883551836,-0.0002022021944867447,0.01580151915550232
0.01896483637392521,0.006111858878284693,-0.014747022651135921,0.009065534919500351,-0.0002124281891155988,0.016139769926667213
0.019002700224518776,0.007208698894828558,-0.01485537551343441,0.009803645312786102,-0.00022133917082101107,0.016326110810041428
0.01925724186003208,0.006425932049751282,-0.01487790048122406,0.009750762954354286,-0.000213730163522996,0.015848925337195396
0.019567355513572693,0.005751823075115681,-0.015239689499139786,0.009247591719031334,-0.0002056632802123204,0.0163564495742321
0.01924096792936325,0.005943445488810539,-0.014976742677390575,0.009687256067991257,-0.0001981212990358472,0.016067732125520706
0.019037017598748207,0.0063062324188649654,-0.01484599243849516,0.009259562939405441,-0.0001911096042022109,0.01641867123544216
0.019325440749526024,0.006715655326843262,-0.015060924924910069,0.009874441660940647,-0.0001845761144068092,0.016624484211206436
0.01866784133017063,0.0063079725950956345,-0.015265155583620071,0.009924446232616901,-0.00017847519484348595,0.01685679703950882
0.018664103001356125,0.005855940748006105,-0.014749241061508656,0.009408204816281796,-0.00018688449927140027,0.01632433757185936
0.019432738423347473,0.006202378310263157,-0.01525715459138155,0.009253964759409428,-0.00019435145077295601,0.016039209440350533
0.019794994965195656,0.006089243572205305,-0.014727394096553326,0.009975780732929707,-0.000189373386092484,0.016076823696494102
0.01936287246644497,0.00619175098836422,-0.015272620134055614,0.010090092197060585,-0.00018390156037639827,0.016258344054222107
0.01936287246644497,0.00619175098836422,-0.015272620134055614,0.010090092197060585,-0.00018390156037639827,0.016258344054222107
0.01964655891060829,0.006443215534090996,-0.014768329448997974,0.009726123884320259,-0.00017868874419946223,0.01651225984096527
0.019516926258802414,0.005721555091440678,-0.01514318399131298,0.01044607162475586,-0.00017376030154991895,0.016553839668631554
0.019459612667560577,0.006566793192178011,-0.01543294358998537,0.009960832074284554,-0.00016467590467073023,0.016936693340539932
0.019669990986585617,0.0063691455870866776,-0.014585837721824646,0.010505976155400276,-0.0001717428967822343,0.01671653613448143
0.019530119374394417,0.006219653878360987,-0.01491297222673893,0.010796705260872841,-0.00017808882694225758,0.01685890555381775
0.019976535812020302,0.005835998337715864,-0.014311498031020164,0.010404566302895546,-0.00017446582205593586,0.016508450731635094
0.01964300312101841,0.005722805857658386,-0.015196592546999454,0.0103743402287364,-0.0001703821326373145,0.01682615466415882
0.01954680308699608,0.006144417449831963,-0.01503303274512291,0.010331819765269756,-0.00016644602874293923,0.01654994487762451
0.02015209011733532,0.006178677082061768,-0.015093313530087471,0.01081057358533144,-0.0001626851299079135,0.016942191869020462
0.020046323537826538,0.006038263905793428,-0.014665837399661541,0.010458027012646198,-0.00015909047215245664,0.01618948020040989
0.019814154133200645,0.005791651085019112,-0.015124747529625893,0.010219916701316833,-0.00015590192924719304,0.016376841813325882
0.020041448995471,0.005773909389972687,-0.0149090476334095,0.01014410238713026,-0.0001489409914938733,0.01689395308494568
0.0203352440148592,0.0059630293399095535,-0.015392806380987167,0.010141156613826752,-0.00014405520050786436,0.016608916223049164
0.020135747268795967,0.006078733131289482,-0.0158038642257452,0.009434012696146965,-0.00013957849296275526,0.016942087560892105
0.019882934167981148,0.005798828322440386,-0.015437998808920383,0.010430652648210526,-0.00013537859194912016,0.016922015696763992
0.02017180807888508,0.0050147478468716145,-0.01577598974108696,0.010459125973284245,-0.00013142440002411604,0.017054446041584015
0.020354483276605606,0.004940476734191179,-0.01496745552867651,0.009885113686323166,-0.0001276946277357638,0.017324337735772133
0.02004903182387352,0.005288028623908758,-0.01601412333548069,0.01040578167885542,-0.0001457294129068032,0.01722351647913456
0.02024625800549984,0.005294850096106529,-0.015327366068959236,0.010397086851298809,-0.00014479026140179485,0.017408331856131554
0.020017119124531746,0.0053697265684604645,-0.015513552352786064,0.010406116023659706,-0.00014119774277787656,0.017364218831062317
0.02047101780772209,0.005000174045562744,-0.01507575809955597,0.01123820710927248,-0.00013761187437921762,0.01752629317343235
0.020549675449728966,0.005267295986413956,-0.015920953825116158,0.010996783152222633,-0.00013419300375971943,0.01746744103729725
0.020690450444817543,0.005517568904906511,-0.015838012099266052,0.01122759748250246,-0.0001498906349297613,0.017178179696202278
0.020539363846182823,0.005141584202647209,-0.0160228218883276,0.010874852538108826,-0.00014895804633852094,0.01743374951183796
0.020539363846182823,0.005141584202647209,-0.0160228218883276,0.010874852538108826,-0.00014895804633852094,0.01743374951183796
0.020572945475578308,0.005441146902740002,-0.01598530076444149,0.010576889850199223,-0.00014568389451596886,0.01742972992360592
0.021160777658224106,0.005153621546924114,-0.015557022765278816,0.010740634053945541,-0.00016007228987291455,0.01747271604835987
0.02104942873120308,0.005103345960378647,-0.01628596894443035,0.010526347905397415,-0.0001589739549672231,0.017276285216212273
0.02078406699001789,0.0053461166098713875,-0.01617649756371975,0.010456498712301254,-0.00020899984519928694,0.017028365284204483
0.021036487072706223,0.005536727607250214,-0.015794645994901657,0.010883381590247154,-0.0002731565327849239,0.018328458070755005
0.021065669134259224,0.005336777772754431,-0.016412019729614258,0.01060252171009779,-0.00027069522184319794,0.017778465524315834
0.02119365520775318,0.004938942845910788,-0.016310883685946465,0.010721692815423012,-0.00027951112133450806,0.017579756677150726
0.020474256947636604,0.00519385002553463,-0.016281576827168465,0.010077070444822311,-0.00028638585354201496,0.017166893929243088
0.02167321741580963,0.005118340719491243,-0.016380080953240395,0.010683338157832623,-0.00030420476105064154,0.01717601902782917
0.02152983658015728,0.0049460348673164845,-0.01586097851395607,0.01041535846889019,-0.00030072443769313395,0.017331000417470932
0.021219704300165176,0.00524615403264761,-0.016707558184862137,0.009624678641557693,-0.00041280605364590883,0.017455682158470154
0.021349633112549782,0.00538210803642869,-0.016054654493927956,0.01075110025703907,-0.0004835595318581909,0.017950691282749176
0.021445849910378456,0.00543522322550416,-0.016782868653535843,0.010743807069957256,-0.0004434406291693449,0.01817570999264717
0.0208622794598341,0.00513698672875762,-0.016461489722132683,0.0105663500726223,-0.00047909727436490357,0.017802715301513672
0.020132487639784813,0.004857370629906654,-0.016354849562048912,0.011071952991187572,-0.0004989466979168355,0.01785426028072834
0.021130817010998726,0.004801498726010323,-0.016221243888139725,0.010824772529304028,-0.0004782305040862411,0.01781470887362957
0.021710600703954697,0.005298808217048645,-0.01618620939552784,0.010992465540766716,-0.000476407672977075,0.018551699817180634
0.021576380357146263,0.005087620113044977,-0.01676151715219021,0.011014583520591259,-0.00047345171333290637,0.018732046708464622
0.02091420814394951,0.005179313011467457,-0.015931706875562668,0.010677513666450977,-0.00044633421930484474,0.0177029799669981
0.021679718047380447,0.0045592300593853,-0.01656879112124443,0.011197160929441452,-0.00048696115845814347,0.017646826803684235
0.022066829726099968,0.004540390335023403,-0.016265789046883583,0.011429969221353531,-0.0004875174490734935,0.01749374158680439
0.02159004658460617,0.004625595640391111,-0.016405247151851654,0.010534605011343956,-0.0004829566751141101,0.01866457425057888
0.021095693111419678,0.005058859940618277,-0.016200104728341103,0.011090034618973732,-0.0004815776483155787,0.0175604447722435
0.02194657176733017,0.005038074217736721,-0.01636883243918419,0.011624062433838844,-0.0004779170558322221,0.017537955194711685
0.021640842780470848,0.004858202766627073,-0.01661483198404312,0.011453031562268734,-0.0004930786089971662,0.018486402928829193
0.021640842780470848,0.004858202766627073,-0.01661483198404312,0.011453031562268734,-0.0004930786089971662,0.018486402928829193
0.021260984241962433,0.004415322560817003,-0.016072742640972137,0.011231590062379837,-0.00047524989349767566,0.018930310383439064
0.021117186173796654,0.00448286347091198,-0.016677916049957275,0.01120937429368496,-0.00054024817654863,0.01865246891975403
0.02187168039381504,0.0046729533933103085,-0.016273116692900658,0.011403759941458702,-0.0005114340456202626,0.01844589225947857
0.021969741210341454,0.0046799867413938046,-0.016666362062096596,0.01143280602991581,-0.0005466415896080434,0.018574394285678864
0.0219558235257864,0.005092971492558718,-0.016421210020780563,0.011222891509532928,-0.0005419026128947735,0.01858394779264927
0.02183668129146099,0.004727752413600683,-0.016452612355351448,0.010878448374569416,-0.0005453507183119655,0.018578914925456047
0.021984824910759926,0.0045505668967962265,-0.016665618866682053,0.011240911670029163,-0.000522018875926733,0.018413057550787926
0.021507607772946358,0.004611503798514605,-0.016895009204745293,0.011341328732669353,-0.0005434674676507711,0.018743090331554413
0.021809006109833717,0.004750694148242474,-0.016131224110722542,0.010746180079877377,-0.000532653764821589,0.01863609254360199
0.021746238693594933,0.0057181986048817635,-0.016520056873559952,0.011900481767952442,-0.000561814580578357,0.01886582188308239
0.02210674248635769,0.005345521029084921,-0.016666395589709282,0.011336872354149818,-0.0005609235377050936,0.01885281875729561
0.021801579743623734,0.004688399378210306,-0.016644995659589767,0.011116738431155682,-0.0005503795109689236,0.018420252948999405
0.021447453647851944,0.0048494357615709305,-0.016587410122156143,0.011328432708978653,-0.0005084507283754647,0.018781011924147606
0.022091936320066452,0.0049874624237418175,-0.015926474705338478,0.010903386399149895,-0.0005330920685082674,0.018895231187343597
0.022057395428419113,0.005262989085167646,-0.016641413792967796,0.01114017516374588,-0.0005001280223950744,0.01865343190729618
0.022273698821663857,0.005500693339854479,-0.016385089606046677,0.010910368524491787,-0.0005227408837527037,0.01888231933116913
0.022617598995566368,0.005026991944760084,-0.016302352771162987,0.010851889848709106,-0.0004866073140874505,0.01909402757883072
0.02230340614914894,0.004766418132930994,-0.01630583591759205,0.01172016840428114,-0.0005219797603785992,0.01895826868712902
0.021832628175616264,0.005137351341545582,-0.01618657261133194,0.011544683948159218,-0.00051960936980322,0.019118227064609528
0.023161131888628006,0.0052537755109369755,-0.016323287039995193,0.011924885213375092,-0.0005127834156155586,0.019328810274600983
0.02278669737279415,0.005590210668742657,-0.01613282412290573,0.011650380678474903,-0.0004763157630804926,0.01937377266585827
0.022331207990646362,0.005381871946156025,-0.01670144498348236,0.01140525471419096,-0.0004429542750585824,0.019428551197052002
0.02244235761463642,0.0050630210898816586,-0.016017060726881027,0.011927318759262562,-0.0004425794177222997,0.019815117120742798
0.023079533129930496,0.005059357732534409,-0.01653308980166912,0.011553688906133175,-0.00044181529665365815,0.01950933039188385
0.022557834163308144,0.005086682736873627,-0.0163123719394207,0.01188595686107874,-0.00041789148235693574,0.019528202712535858
0.022595155984163284,0.005669403821229935,-0.0166422501206398,0.01229158230125904,-0.0003968559030909091,0.019582094624638557
0.02342410571873188,0.005431880243122578,-0.017015984281897545,0.012257122434675694,-0.00039418350206688046,0.01951303519308567
0.023586804047226906,0.005394456442445517,-0.016424624249339104,0.012265208177268505,-0.0003643505915533751,0.019506629556417465
0.023586804047226906,0.005394456442445517,-0.016424624249339104,0.012265208177268505,-0.0003643505915533751,0.019506629556417465
0.0238893274217844,0.005267307162284851,-0.016682034358382225,0.01219395361840725,-0.000337167177349329,0.019785486161708832
0.02298826538026333,0.005052078515291214,-0.016226474195718765,0.012736285105347633,-0.00031365835457108915,0.01982715353369713
0.022916795685887337,0.005189070012420416,-0.01678057760000229,0.012656789273023605,-0.00032979570096358657,0.01979183591902256
0.02357085421681404,0.005710030440241098,-0.016800686717033386,0.012125748209655285,-0.00031123272492550313,0.019806882366538048
0.023464495316147804,0.005292834248393774,-0.016882821917533875,0.012434839271008968,-0.00029429380083456635,0.019900914281606674
0.02376878447830677,0.005323259625583887,-0.01656997762620449,0.012198016047477722,-0.00031934294383972883,0.019977020099759102
0.02372470684349537,0.005491183139383793,-0.016806622967123985,0.012019197456538677,-0.0003091808466706425,0.02017350308597088
0.02436394989490509,0.005213984753936529,-0.01650875434279442,0.012599484995007515,-0.00029505687416531146,0.020128976553678513
0.023707859218120575,0.0053076790645718575,-0.016954511404037476,0.012448014691472054,-0.0003193913144059479,0.019965482875704765
0.024037711322307587,0.005205994006246328,-0.017681242898106575,0.012456721626222134,-0.0003081665199715644,0.01987234130501747
0.02366948127746582,0.005795264150947332,-0.016960103064775467,0.01213242020457983,-0.0002965936146210879,0.02050342597067356
0.024161869660019875,0.0053385780192911625,-0.017593102529644966,0.011829470284283161,-0.00030016902019269764,0.02013196423649788
0.024678701534867287,0.005362249910831451,-0.017318343743681908,0.012265182100236416,-0.0002828253782354295,0.01986304298043251
0.02469191513955593,0.005635903216898441,-0.01739041693508625,0.01196689810603857,-0.0003157315659336746,0.02002994529902935
0.024161605164408684,0.005716411396861076,-0.017259886488318443,0.012175883166491985,-0.0003013443492818624,0.020806066691875458
0.02475973591208458,0.005661852192133665,-0.01684262789785862,0.011861979030072689,-0.00032681305310688913,0.021115420386195183
0.02473202720284462,0.005427227355539799,-0.017599329352378845,0.012401895597577095,-0.00031606771517544985,0.020561860874295235
0.024644779041409492,0.005720410495996475,-0.017478518187999725,0.012813546694815159,-0.0003414123202674091,0.01949937269091606
0.02490001544356346,0.005356417968869209,-0.017325377091765404,0.012299635447561741,-0.00044104192056693137,0.020011037588119507
0.024736793711781502,0.005685565061867237,-0.017436861991882324,0.012684746645390987,-0.0004980902303941548,0.02095516212284565
0.022771773859858513,0.005842755548655987,-0.017106425017118454,0.01220654882490635,-0.0004985005944035947,0.021307989954948425
0.025172773748636246,0.005788904614746571,-0.018118610605597496,0.012568730860948563,-0.0004929164424538612,0.020728304982185364
0.025172773748636246,0.005788904614746571,-0.018118610605597496,0.012568730860948563,-0.0004929164424538612,0.020728304982185364
0.02530934102833271,0.005213596858084202,-0.01799612306058407,0.012146216817200184,-0.000454056600574404,0.020712021738290787
0.025046207010746002,0.005290698725730181,-0.017786309123039246,0.012242555618286133,-0.00048385473201051354,0.021045546978712082
0.025168616324663162,0.0055538322776556015,-0.01708143576979637,0.012616218999028206,-0.0004813516861759126,0.02137952670454979
0.02557997591793537,0.005444645881652832,-0.01751500554382801,0.012990817427635193,-0.0005259376484900713,0.02062482200562954
0.025430353358387947,0.005558650009334087,-0.017347311601042747,0.012539157643914223,-0.0004940789076499641,0.020176799967885017
0.025547228753566742,0.005258728750050068,-0.017839977517724037,0.012746741995215416,-0.0005235609714873135,0.02040044777095318
0.026038195937871933,0.00533159077167511,-0.018395332619547844,0.012651672586798668,-0.0005463865818455815,0.021191775798797607
0.02552870474755764,0.005687366705387831,-0.017550135031342506,0.012777158990502357,-0.0005203171167522669,0.021740756928920746
0.025882793590426445,0.005660150200128555,-0.017533522099256516,0.012954602017998695,-0.0005457162042148411,0.02159072458744049
0.0259970985352993,0.0055605326779186726,-0.017477836459875107,0.013174529187381268,-0.0005965583259239793,0.02162652462720871
0.02622796595096588,0.005218252073973417,-0.017386987805366516,0.01335758063942194,-0.0006000546272844076,0.021549975499510765
0.026570433750748634,0.005293909925967455,-0.01825486123561859,0.012940583750605583,-0.0006331864278763533,0.021540991961956024
0.026549894362688065,0.005153657868504524,-0.01780368946492672,0.012958433479070663,-0.0006186889368109405,0.021538740023970604
0.02647337131202221,0.005792634095996618,-0.017954379320144653,0.012070476077497005,-0.0006013042875565588,0.02145802602171898
0.026801707223057747,0.005250913556665182,-0.018048999831080437,0.012906455434858799,-0.0006091056275181472,0.021449683234095573
0.026882557198405266,0.0052063665352761745,-0.017338361591100693,0.01219786237925291,-0.0005781945656053722,0.022041985765099525
0.026667293161153793,0.005515626631677151,-0.017990102991461754,0.01227797381579876,-0.0006026053451932967,0.022053681313991547
0.027040701359510422,0.005394591484218836,-0.01816132478415966,0.012373818084597588,-0.0006072581163607538,0.021919650956988335
0.026947734877467155,0.006046067923307419,-0.017448008060455322,0.012379695661365986,-0.0005899235256947577,0.021614234894514084
0.02685295045375824,0.005631444044411182,-0.01797599345445633,0.012920219451189041,-0.0005998513079248369,0.02205517701804638
0.027109188959002495,0.005277008283883333,-0.017642974853515625,0.012575224041938782,-0.0006053331890143454,0.022109923884272575
0.02744205668568611,0.0050737084820866585,-0.017778001725673676,0.013022633269429207,-0.0005923301796428859,0.022062575444579124
0.028043873608112335,0.005756204482167959,-0.017796624451875687,0.012558666057884693,-0.0006257966160774231,0.022346284240484238
0.027851754799485207,0.00518942391499877,-0.017509780824184418,0.01280941441655159,-0.000615829776506871,0.02230384573340416
0.025329113006591797,0.004484252538532019,-0.018275799229741096,0.012762046419084072,-0.0006471282104030252,0.022186648100614548
0.027870936319231987,0.004427954088896513,-0.017971232533454895,0.013178141787648201,-0.0006550836842507124,0.02189573459327221
0.027870936319231987,0.004427954088896513,-0.017971232533454895,0.013178141787648201,-0.0006550836842507124,0.02189573459327221
0.028345702216029167,0.004537142813205719,-0.017485151067376137,0.013380376622080803,-0.0006135025760158896,0.02235829457640648
0.027581706643104553,0.004736430011689663,-0.018120288848876953,0.01316124852746725,-0.0006293174810707569,0.022249454632401466
0.028877202421426773,0.005255348980426788,-0.01831706240773201,0.013306559063494205,-0.0006611606804654002,0.022353798151016235
0.028877202421426773,0.005255348980426788,-0.01831706240773201,0.013306559063494205,-0.0006611606804654002,0.022353798151016235
0.02832798659801483,0.005201456602662802,-0.01796029321849346,0.013204963877797127,-0.0006428885972127318,0.022934703156352043
0.0269590113312006,0.004607073497027159,-0.01878422498703003,0.014091959223151207,-0.0006225084071047604,0.023181192576885223
0.027573956176638603,0.0043944246135652065,-0.018143033608794212,0.013233760371804237,-0.0006391131901182234,0.02322748303413391
0.028824426233768463,0.004608117043972015,-0.017937710508704185,0.013440590351819992,-0.0005958833498880267,0.0223813746124506
0.028398042544722557,0.004763796925544739,-0.018439171835780144,0.013062708079814911,-0.0006051894160918891,0.022069629281759262
0.02859046868979931,0.004768942948430777,-0.018646148964762688,0.01362449862062931,-0.0005522975698113441,0.021990543231368065
0.0285265501588583,0.005106692668050528,-0.01882595382630825,0.013508787378668785,-0.0005404411349445581,0.02266477607190609
0.028524238616228104,0.00484320567920804,-0.019219787791371346,0.01324783731251955,-0.0005299376789480448,0.02345859818160534
0.02819039486348629,0.004244095645844936,-0.01863279938697815,0.01395774818956852,-0.0004850826517213136,0.023030616343021393
0.02843441069126129,0.0039695859886705875,-0.01849258877336979,0.014596646651625633,-0.0004452309221960604,0.0233395267277956
0.028508638963103294,0.004258804488927126,-0.01876063644886017,0.014318504370748997,-0.00044451808207668364,0.02372295968234539
0.02830507792532444,0.004525558557361364,-0.01874443143606186,0.014427855610847473,-0.0004435590235516429,0.023750489577651024
0.028348440304398537,0.004649304319173098,-0.019431844353675842,0.014270005747675896,-0.0004162278783041984,0.02313634380698204
0.02839922346174717,0.004692190792411566,-0.01930917054414749,0.014521246775984764,-0.0003905408375430852,0.02268313243985176
0.028508394956588745,0.004435934592038393,-0.01809031143784523,0.014471710659563541,-0.00041663384763523936,0.02254551649093628
0.02859502099454403,0.004187524784356356,-0.019291065633296967,0.014889413490891457,-0.0003969748504459858,0.023070354014635086
0.029026499018073082,0.004493880085647106,-0.020081643015146255,0.014416360296308994,-0.00036507376353256404,0.02402997761964798
0.028670012950897217,0.004717560019344091,-0.018776947632431984,0.014661360532045364,-0.000337677716743201,0.023878775537014008
0.028813479468226433,0.004655054770410061,-0.018634092062711716,0.01419554278254509,-0.0003683456452563405,0.02392052672803402
0.028180306777358055,0.004748976323753595,-0.01950971595942974,0.014518005773425102,-0.0003517451696097851,0.02342616394162178
0.02966097556054592,0.005059109069406986,-0.01892935484647751,0.014100877568125725,-0.00037126766983419657,0.02336171641945839
0.03008638508617878,0.004410596564412117,-0.018465878441929817,0.014276457019150257,-0.00036260802880860865,0.02365708351135254
0.028731204569339752,0.004351521376520395,-0.018933814018964767,0.014077349565923214,-0.0004678659315686673,0.024066755548119545
0.028731204569339752,0.004351521376520395,-0.018933814018964767,0.014077349565923214,-0.0004678659315686673,0.024066755548119545
0.028675267472863197,0.004343446344137192,-0.019402027130126953,0.01401455421000719,-0.0005075468216091394,0.023951303213834763
0.0295750480145216,0.004883666057139635,-0.01913939043879509,0.014245599508285522,-0.0005471989861689508,0.024160083383321762
0.030436553061008453,0.005028091836720705,-0.018725300207734108,0.014357700943946838,-0.0005743998335674405,0.024368515238165855
0.029945071786642075,0.004737040027976036,-0.0191165953874588,0.014338784851133823,-0.0005357125774025917,0.024331526830792427
0.030443333089351654,0.004453381523489952,-0.019283441826701164,0.014367349445819855,-0.0005552401999011636,0.024431049823760986
0.030457252636551857,0.00447667483240366,-0.018856536597013474,0.014560284093022346,-0.0005232116091065109,0.0244308989495039
0.03085392341017723,0.0048290337435901165,-0.01942545734345913,0.014818540774285793,-0.000615500146523118,0.02456243894994259
0.029868191108107567,0.004332005511969328,-0.01945067010819912,0.015049372799694538,-0.0006412960938178003,0.02396436221897602
0.02972578816115856,0.00453118747100234,-0.0184796005487442,0.014889344573020935,-0.0005966431344859302,0.023819006979465485
0.03046272322535515,0.00497668469324708,-0.019284596666693687,0.015385481528937817,-0.0006220592185854912,0.02451491542160511
0.030422696843743324,0.004773067310452461,-0.019341599196195602,0.015173661522567272,-0.0006309563759714365,0.024616198614239693
0.030541270971298218,0.004415488336235285,-0.018917426466941833,0.01546195987612009,-0.0005974004161544144,0.02482176385819912
0.030487410724163055,0.0044031897559762,-0.019461169838905334,0.01505297515541315,-0.0006565937073901296,0.024994982406497
0.030108051374554634,0.004634554032236338,-0.0195544995367527,0.015504206530749798,-0.0006746335420757532,0.024876760318875313
0.0301626268774271,0.004753978457301855,-0.019027622416615486,0.015089044347405434,-0.0006239065551199019,0.024925481528043747
0.030623968690633774,0.004934398923069239,-0.01977209933102131,0.01543512661010027,-0.0006474857218563557,0.024690179154276848
0.030944976955652237,0.00470269238576293,-0.019587576389312744,0.015071108005940914,-0.00065429019741714,0.024813393130898476
0.031138084828853607,0.0047532650642097,-0.018987761810421944,0.01561055425554514,-0.0006202882505021989,0.024633493274450302
0.031297530978918076,0.004807477351278067,-0.01969671994447708,0.01553044468164444,-0.000677051953971386,0.024870526045560837
0.03146611899137497,0.004856116138398647,-0.019742684438824654,0.015819646418094635,-0.0007075603934936225,0.024997642263770103
0.03178803250193596,0.0045710070990026,-0.018894582986831665,0.01579173095524311,-0.0007230007904581726,0.025103604421019554
0.03178803250193596,0.0045710070990026,-0.018894582986831665,0.01579173095524311,-0.0007230007904581726,0.025103604421019554
0.029803328216075897,0.005011032801121473,-0.019215762615203857,0.01569943130016327,-0.0007411197293549776,0.024740207940340042
0.03176860883831978,0.004822634160518646,-0.019044987857341766,0.01489685196429491,-0.0008298248867504299,0.024504519999027252
0.03176860883831978,0.004822634160518646,-0.019044987857341766,0.01489685196429491,-0.0008298248867504299,0.024504519999027252
0.031679023057222366,0.0044593303464353085,-0.01953899674117565,0.014841551892459393,-0.0007728366181254387,0.025398140773177147
0.031570322811603546,0.0049734520725905895,-0.018876781687140465,0.015520937740802765,-0.0007601170800626278,0.02566644549369812
0.03185674920678139,0.005072728265076876,-0.019313517957925797,0.015273837372660637,-0.0007329237414523959,0.025174308568239212
0.03208529204130173,0.004837782587856054,-0.01959570311009884,0.015633942559361458,-0.0007452250574715436,0.024346115067601204
0.0328231118619442,0.0046678632497787476,-0.01909499056637287,0.015159040689468384,-0.0007574658375233412,0.024793511256575584
0.03265620395541191,0.00464487774297595,-0.019497379660606384,0.015519309788942337,-0.0007318038260564208,0.025555776432156563
0.03247479721903801,0.004855920560657978,-0.019500304013490677,0.01501860748976469,-0.0006995643489062786,0.025401677936315536
0.032863181084394455,0.0048295361921191216,-0.019540302455425262,0.015570444986224174,-0.0007102321833372116,0.025282271206378937
0.03294197469949722,0.004918970167636871,-0.01960207149386406,0.015218316577374935,-0.0006561997579410672,0.02597653493285179
0.03247126191854477,0.004498364869505167,-0.01946268044412136,0.015725024044513702,-0.0006455920520238578,0.026534099131822586
0.0326543003320694,0.004532818682491779,-0.019218595698475838,0.015318863093852997,-0.0006560300244018435,0.02589779533445835
0.03300638124346733,0.0045550791546702385,-0.01956084743142128,0.015451924875378609,-0.0006080879829823971,0.024249402806162834
0.03385044261813164,0.004631177056580782,-0.020103128626942635,0.015391046181321144,-0.0006327137816697359,0.025363845750689507
0.03385908529162407,0.004646555986255407,-0.019306128844618797,0.015452587977051735,-0.0005800448125228286,0.02629278227686882
0.03203216940164566,0.004865782335400581,-0.01916341669857502,0.015349355526268482,-0.0005968810874037445,0.026545315980911255
0.03255094587802887,0.004638581536710262,-0.019720520824193954,0.015403141267597675,-0.0005594035610556602,0.025831878185272217
0.033483657985925674,0.004470264073461294,-0.02056211605668068,0.01596241630613804,-0.000574963167309761,0.025548486039042473
0.03313041850924492,0.004889488685876131,-0.019751038402318954,0.01604393869638443,-0.000518862740136683,0.026122333481907845
0.03444290533661842,0.004470253828912973,-0.01969689503312111,0.016211021691560745,-0.0005337969050742686,0.02604128047823906
0.03382458910346031,0.004499400034546852,-0.01972522772848606,0.01579773984849453,-0.0005048183957114816,0.02630414441227913
0.03382458910346031,0.004499400034546852,-0.01972522772848606,0.01579773984849453,-0.0005048183957114816,0.02630414441227913
0.03275378420948982,0.00421274546533823,-0.020145324990153313,0.016346896067261696,-0.0004924110253341496,0.026457956060767174
0.03275378420948982,0.00421274546533823,-0.020145324990153313,0.016346896067261696,-0.0004924110253341496,0.026457956060767174
0.033443741500377655,0.004384609404951334,-0.020305978134274483,0.016356637701392174,-0.00046069378731772304,0.026370439678430557
0.034522976726293564,0.004546761978417635,-0.019836515188217163,0.017084980383515358,-0.0004825575742870569,0.025997478514909744
0.03459543362259865,0.004376488272100687,-0.020515045151114464,0.017474573105573654,-0.0004612679476849735,0.02617129310965538
0.03375028073787689,0.004163884092122316,-0.020043939352035522,0.01708407700061798,-0.00048294744919985533,0.02593456581234932
0.03303922340273857,0.004224403295665979,-0.02081163041293621,0.017009824514389038,-0.00046094536082819104,0.02657425031065941
0.03340136259794235,0.004483601078391075,-0.020663771778345108,0.017034655436873436,-0.0004870698612648994,0.026516791433095932
0.03390021249651909,0.00425186101347208,-0.020069414749741554,0.01625153422355652,-0.0004918240592814982,0.026789763942360878
0.03357556462287903,0.004483756609261036,-0.019401079043745995,0.01619756408035755,-0.00048821710515767336,0.026722190901637077
0.03381504490971565,0.004583348054438829,-0.021113980561494827,0.01541003119200468,-0.0006026998162269592,0.026999104768037796
0.03379932418465614,0.0044882590882480145,-0.0197225920855999,0.015670359134674072,-0.0006304935086518526,0.026701435446739197
0.03388700261712074,0.005014078225940466,-0.01990889571607113,0.015768995508551598,-0.0006114462157711387,0.026785682886838913
0.033764567226171494,0.004378275480121374,-0.02104528434574604,0.016222277656197548,-0.0006314822239801288,0.026509160175919533
0.03356875479221344,0.0045018745586276054,-0.020468812435865402,0.01620752550661564,-0.0005838685319758952,0.02643468603491783
0.035076938569545746,0.00466893520206213,-0.020113468170166016,0.01640503667294979,-0.0006059334264136851,0.027003074064850807
0.034955836832523346,0.0046216025948524475,-0.02021034248173237,0.01714431494474411,-0.0006338459788821638,0.02776883915066719
0.03254126012325287,0.004544011317193508,-0.020434292033314705,0.016326623037457466,-0.0007053741137497127,0.02747156098484993
0.03358859941363335,0.004701395519077778,-0.020119136199355125,0.0165629331022501,-0.0007313932292163372,0.02686573751270771
0.034882497042417526,0.004798889625817537,-0.02025558240711689,0.01640264503657818,-0.0006788527825847268,0.026504894718527794
0.03423133119940758,0.0043202354572713375,-0.020895719528198242,0.016726963222026825,-0.00069572648499161,0.027222445234656334
0.035381510853767395,0.004380775615572929,-0.020856553688645363,0.01677663065493107,-0.0007935544126667082,0.02725856564939022
0.0350676067173481,0.004549744538962841,-0.020180216059088707,0.016727494075894356,-0.0007898893672972918,0.02729307860136032
0.03381694108247757,0.004585977178066969,-0.020280828699469566,0.01704052835702896,-0.0007444556104019284,0.02790950983762741
0.03381694108247757,0.004585977178066969,-0.020280828699469566,0.01704052835702896,-0.0007444556104019284,0.02790950983762741
0.03340071812272072,0.004373876843601465,-0.020663907751441002,0.01676473580300808,-0.0007593116024509072,0.028418436646461487
0.03535107895731926,0.004455794580280781,-0.020377621054649353,0.016973672434687614,-0.0007676907698623836,0.027559639886021614
0.0352146178483963,0.004364554304629564,-0.020308122038841248,0.016550390049815178,-0.0007561405654996634,0.027102796360850334
0.03407985717058182,0.004052574280649424,-0.020969612523913383,0.016496198251843452,-0.0007622485281899571,0.026697281748056412
0.034953974187374115,0.004274718929082155,-0.02101266011595726,0.01682497188448906,-0.0007798652513884008,0.027862148359417915
0.03573083132505417,0.004135280381888151,-0.020180579274892807,0.01769612729549408,-0.000756247085519135,0.02856582961976528
0.03506355732679367,0.004274639766663313,-0.020783478394150734,0.017607491463422775,-0.0009371014311909676,0.027967585250735283
0.03490043058991432,0.004229916259646416,-0.020475560799241066,0.017549358308315277,-0.0009545636712573469,0.028152937069535255
0.034887734800577164,0.004086699802428484,-0.020366692915558815,0.017872992902994156,-0.0009485016926191747,0.027669617906212807
0.035300709307193756,0.0038968906737864017,-0.020850198343396187,0.017517143860459328,-0.0008892372716218233,0.027816276997327805
0.03576111048460007,0.004148642532527447,-0.02101217582821846,0.01795303262770176,-0.0009024625760503113,0.0282063540071249
0.03544069454073906,0.004638559650629759,-0.020390018820762634,0.017755834385752678,-0.0008630793308839202,0.028521519154310226
0.035296566784381866,0.004329837393015623,-0.020800096914172173,0.017378216609358788,-0.0008022337569855154,0.028326626867055893
0.03595619276165962,0.0039624678902328014,-0.02080126479268074,0.01788652315735817,-0.0008024562848731875,0.028382105752825737
0.03513133153319359,0.003918857779353857,-0.020392725244164467,0.017452798783779144,-0.0007994119077920914,0.028236232697963715
0.03547080233693123,0.003950652200728655,-0.02056226320564747,0.017468586564064026,-0.000741053547244519,0.028101999312639236
0.036620285362005234,0.004139358643442392,-0.02126108482480049,0.017108505591750145,-0.0007083016680553555,0.028696663677692413
0.03646453842520714,0.0040313792414963245,-0.021371617913246155,0.017250558361411095,-0.0006783114513382316,0.028853638097643852
0.03607592359185219,0.003896658308804035,-0.020663747563958168,0.01790187880396843,-0.00064939318690449,0.028694620355963707
0.035579878836870193,0.004276637453585863,-0.020632587373256683,0.018226435407996178,-0.0006535990396514535,0.02885477803647518
0.03584960848093033,0.004186147358268499,-0.020339032635092735,0.017967144027352333,-0.0006542654591612518,0.0293131023645401
0.036425959318876266,0.003999838139861822,-0.020506707951426506,0.017863433808088303,-0.0006360185798257589,0.028897294774651527
0.036425959318876266,0.003999838139861822,-0.020506707951426506,0.017863433808088303,-0.0006360185798257589,0.028897294774651527
0.03639296442270279,0.003442143788561225,-0.020311826840043068,0.017355095595121384,-0.0006425917963497341,0.02890835702419281
0.036141153424978256,0.0035951335448771715,-0.021214840933680534,0.017069727182388306,-0.0006154552684165537,0.029112832620739937
0.036141153424978256,0.0035951335448771715,-0.021214840933680534,0.017069727182388306,-0.0006154552684165537,0.029112832620739937
0.036043714731931686,0.004378517623990774,-0.0208255797624588,0.017722945660352707,-0.0006230771541595459,0.028180386871099472
0.03666907548904419,0.004148721229285002,-0.02076718397438526,0.018514780327677727,-0.0005860865931026638,0.029031720012426376
0.03693322837352753,0.0037196280900388956,-0.02176653780043125,0.01807355508208275,-0.000564633694011718,0.029335251078009605
0.03627536818385124,0.0041537052020430565,-0.021497558802366257,0.01833387464284897,-0.0005936837987974286,0.03013794496655464
0.036820292472839355,0.004265929106622934,-0.021278589963912964,0.01803210936486721,-0.000613554148003459,0.030512794852256775
0.038032758980989456,0.003821157617494464,-0.021364443004131317,0.018759412690997124,-0.0005940381670370698,0.028739547356963158
0.038032758980989456,0.003821157617494464,-0.021364443004131317,0.018759412690997124,-0.0005940381670370698,0.028739547356963158
0.03858179971575737,0.00418048445135355,-0.02128474786877632,0.018024912104010582,-0.0005903111305087805,0.029054589569568634
0.03665193170309067,0.004298775922507048,-0.02167181298136711,0.018575647845864296,-0.0005781883373856544,0.03044249303638935
0.03573089838027954,0.004026850685477257,-0.021964190527796745,0.01792561635375023,-0.0006335917860269547,0.029958432540297508
0.03786889836192131,0.0037895599380135536,-0.021942874416708946,0.017946714535355568,-0.0006712732720188797,0.03073594905436039
0.03779282048344612,0.003709718119353056,-0.021238157525658607,0.018093477934598923,-0.0006720503442920744,0.030720049515366554
0.0375896692276001,0.003921874798834324,-0.02156948857009411,0.01793196238577366,-0.0006492040702141821,0.030325427651405334
0.03807153180241585,0.0037875978741794825,-0.021324077621102333,0.018881013616919518,-0.0006696731434203684,0.029377352446317673
0.03751329705119133,0.003483266569674015,-0.02161068096756935,0.01889372058212757,-0.0007667150348424911,0.02923148311674595
0.03760528936982155,0.0038206265307962894,-0.021624267101287842,0.0183832086622715,-0.0008212743559852242,0.03063841164112091
0.038117967545986176,0.0040471856482326984,-0.02157052978873253,0.018491845577955246,-0.000842521374579519,0.030780665576457977
0.037574104964733124,0.004376428667455912,-0.021857649087905884,0.018778976052999496,-0.0008020226960070431,0.03070123679935932
0.03761791065335274,0.004217416979372501,-0.022219223901629448,0.019106337800621986,-0.0007677949615754187,0.03036382794380188
0.037367649376392365,0.003991431090980768,-0.021506937220692635,0.01935449242591858,-0.0009056839626282454,0.030008114874362946
0.0377250611782074,0.003851416287943721,-0.02134132944047451,0.018858809024095535,-0.000845362083055079,0.029788529500365257
0.03874785453081131,0.0037791947834193707,-0.021963024511933327,0.01869867369532585,-0.0008487052982673049,0.030495434999465942
0.03775592893362045,0.004340068437159061,-0.021657582372426987,0.01893262192606926,-0.0008545070304535329,0.030342180281877518
0.036825038492679596,0.004121090285480022,-0.021505365148186684,0.01847519539296627,-0.0008399025537073612,0.030452439561486244
0.036825038492679596,0.004121090285480022,-0.021505365148186684,0.01847519539296627,-0.0008399025537073612,0.030452439561486244
0.03819660842418671,0.0038081565871834755,-0.02151672914624214,0.018398994579911232,-0.0008382259402424097,0.03045389987528324
0.03747032955288887,0.003696637926623225,-0.02190648391842842,0.018629008904099464,-0.000784087460488081,0.030628450214862823
0.038778554648160934,0.004089586436748505,-0.021923689171671867,0.018470855429768562,-0.0007945807883515954,0.030980367213487625
0.03893697261810303,0.004284198861569166,-0.021483730524778366,0.0188376996666193,-0.0007992892060428858,0.031103450804948807
0.037253111600875854,0.0037700349930673838,-0.02149275504052639,0.018680909648537636,-0.0009225562680512667,0.0320010744035244
0.03870140761137009,0.0038483096286654472,-0.02186390943825245,0.018756242468953133,-0.0009568702662363648,0.031479816883802414
0.03873969987034798,0.00399774918332696,-0.021829504519701004,0.01864691823720932,-0.001208605244755745,0.03154263272881508
0.03881823644042015,0.00391243863850832,-0.021392086520791054,0.01886841654777527,-0.0012432942166924477,0.03162724897265434
0.03823428601026535,0.0038060203660279512,-0.021614287048578262,0.019275818020105362,-0.0011844515101984143,0.031572408974170685
0.03827724605798721,0.004312720149755478,-0.021828165277838707,0.01898930035531521,-0.001129024662077427,0.03086286410689354
0.0390910804271698,0.004218568094074726,-0.02173558995127678,0.018615847453475,-0.0010000672191381454,0.03060104139149189
0.03916424885392189,0.003939529415220022,-0.02145836129784584,0.01936565712094307,-0.0008508364553563297,0.0322764590382576
0.03882259875535965,0.00423038424924016,-0.021955527365207672,0.019271856173872948,-0.0008496402879245579,0.03302275761961937
0.03855210542678833,0.004255172796547413,-0.02184651419520378,0.018749115988612175,-0.000800422509200871,0.0321502722799778
0.03894875571131706,0.003961778711527586,-0.02129417657852173,0.019278816878795624,-0.0007567838183604181,0.030882472172379494
0.03956950455904007,0.004244525451213121,-0.021460888907313347,0.019505677744746208,-0.0007619519019499421,0.031821370124816895
0.03906814008951187,0.004169702064245939,-0.022071732208132744,0.018582291901111603,-0.0007264388259500265,0.03205959498882294
0.039448536932468414,0.004260068293660879,-0.022663384675979614,0.01875249855220318,-0.0006523399497382343,0.03229716792702675
0.03987303748726845,0.004156942013651133,-0.02186012826859951,0.01949073188006878,-0.0007317393901757896,0.03327889367938042
0.03962402045726776,0.0044179633259773254,-0.022145342081785202,0.01973298005759716,-0.00075398018816486,0.03254121541976929
0.03971606865525246,0.004563163034617901,-0.021723860874772072,0.020146043971180916,-0.0007252019131556153,0.031233714893460274
0.039898380637168884,0.004323608707636595,-0.021968111395835876,0.019707126542925835,-0.0008379818755201995,0.03094514273107052
0.040188562124967575,0.004049972631037235,-0.022679978981614113,0.01911952719092369,-0.0008577493717893958,0.03262903541326523
0.04008292779326439,0.0038908892311155796,-0.022538747638463974,0.018811823800206184,-0.0008729572291485965,0.03286555036902428
0.04032464697957039,0.004351903218775988,-0.021648650988936424,0.019688144326210022,-0.0008768154657445848,0.032274868339300156
