davideferrari95/blind_handover_controller/data/Test 19 - [2024-02-07 -- 14-16-47]/joint_states_data.csv
shoulder_pan_joint,shoulder_lift_joint,elbow_joint,wrist_1_joint,wrist_2_joint,wrist_3_joint
0.006343764718621969,0.00039635555003769696,-0.005141860339790583,0.012072121724486351,-0.0,0.005920910742133856
0.00629053357988596,1.1489670214359649e-05,-0.005595834460109472,0.011599796824157238,-0.0,0.0055568334646523
0.00629053357988596,1.1489670214359649e-05,-0.005595834460109472,0.011599796824157238,-0.0,0.0055568334646523
0.0062304227612912655,-0.003878998104482889,-0.005296733230352402,0.011208965443074703,-0.0,0.005729391239583492
0.0065668425522744656,-0.003177208360284567,-0.0042883893474936485,0.010485160164535046,-0.0,0.005882660858333111
0.006432752124965191,-0.0010970914736390114,-0.004193498287349939,0.011119225062429905,-0.0,0.005477318074554205
0.006432752124965191,-0.0010970914736390114,-0.004193498287349939,0.011119225062429905,-0.0,0.005477318074554205
0.006099157501012087,-0.000819136796053499,-0.004189324099570513,0.01078755408525467,-0.0,0.005565035622566938
0.00700716907158494,-0.0004425613151397556,-0.0044230129569768906,0.010223384015262127,-0.0,0.0059833708219230175
0.00700716907158494,-0.0004425613151397556,-0.0044230129569768906,0.010223384015262127,-0.0,0.0059833708219230175
0.006116089876741171,-0.0019231608603149652,-0.0037617080379277468,0.010528245009481907,-0.0,0.005729748401790857
0.006196827627718449,-0.0017472015460953116,-0.004342793021351099,0.009955083951354027,-0.0,0.0054074181243777275
0.00653065787628293,-0.0014249732485041022,-0.0041856905445456505,0.010462921112775803,-0.0,0.005224364809691906
0.006248416844755411,-0.001189468544907868,-0.003968426957726479,0.009903987869620323,-0.0,0.005681000184267759
0.006256008055061102,-0.0010427640518173575,-0.0039376867935061455,0.009108531288802624,-0.0,0.006048812530934811
0.0064747948199510574,-0.0007641861448064446,-0.004396496806293726,0.009326801635324955,-0.0,0.005873306654393673
0.006034349091351032,-0.0007765329210087657,-0.004208698403090239,0.009068713523447514,-0.0,0.0055602965876460075
0.00629725307226181,-0.0008690637769177556,-0.003943435847759247,0.00904372800141573,-0.0,0.005848026368767023
0.006031770724803209,-0.0010542795062065125,-0.003855403047055006,0.008489617146551609,-0.0,0.005711082834750414
0.0059777600690722466,-0.001210897578857839,-0.003953894600272179,0.008403496816754341,-0.0,0.005768219940364361
0.005867325235158205,-0.0012086429633200169,-0.004229951184242964,0.008211086504161358,-0.0,0.0054554115049541
0.005784014239907265,-0.0017272322438657284,-0.00481803435832262,0.008151954971253872,-0.0,0.005490337498486042
0.006127543747425079,-0.0016190757742151618,-0.004759723320603371,0.008709308691322803,-0.0,0.005451673176139593
0.006289896555244923,-0.001627612509764731,-0.0037642386741936207,0.008763694204390049,-0.0,0.005433594807982445
0.006321164779365063,-0.0015275926562026143,-0.0035944683477282524,0.008672619238495827,-0.0,0.0056755212135612965
0.006321164779365063,-0.0015275926562026143,-0.0035944683477282524,0.008672619238495827,-0.0,0.0056755212135612965
0.005972394719719887,-0.0015291167655959725,-0.0043439436703920364,0.008574552834033966,-0.0,0.005957579705864191
0.00597799988463521,-0.0016342176822945476,-0.0047801402397453785,0.008712509647011757,-0.0,0.005551678128540516
0.006034819409251213,-0.0018009296618402004,-0.004645506851375103,0.008410664275288582,-0.0,0.005649272818118334
0.006209017243236303,-0.002088931854814291,-0.004708484280854464,0.008302188478410244,-0.0,0.005393770523369312
0.006228608079254627,-0.0022336996626108885,-0.004295609891414642,0.0085099246352911,-0.0,0.005725559778511524
0.005819692276418209,-0.0021352185867726803,-0.004506476689130068,0.008975903503596783,-0.0,0.005680662114173174
0.005585692822933197,-0.0021448154002428055,-0.004193163011223078,0.008654494769871235,-0.0,0.005402765702456236
0.00583226652815938,-0.0021093005780130625,-0.0039623030461370945,0.008560903370380402,-0.0,0.005143932066857815
0.006076263263821602,-0.002282632514834404,-0.004379334393888712,0.008738688193261623,-0.0,0.005711260251700878
0.00553253386169672,-0.002314186654984951,-0.004411056637763977,0.008503777906298637,-0.0,0.005920924711972475
0.0060411375015974045,-0.002151909749954939,-0.004458773415535688,0.00890335813164711,-0.0,0.00553300604224205
0.006142516620457172,-0.002127238782122731,-0.004054610151797533,0.008907322771847248,-0.0,0.005443309899419546
0.006278388202190399,-0.0023283453192561865,-0.0037842877209186554,0.009187167510390282,-0.0,0.005527286324650049
0.006218325812369585,-0.0025752834044396877,-0.004230564925819635,0.00894121639430523,-0.0,0.005741962231695652
0.005845530424267054,-0.0025290767662227154,-0.0041991546750068665,0.008703378960490227,-0.0,0.0058366344310343266
0.005417586769908667,-0.0028909228276461363,-0.004460925702005625,0.00844497885555029,-0.0,0.005581358913332224
0.005666114389896393,-0.0029848020058125257,-0.004095215816050768,0.008698530495166779,-0.0,0.005281256977468729
0.006136843468993902,-0.003102164948359132,-0.0038168607279658318,0.009234198369085789,-0.0,0.004962814971804619
0.006253190338611603,-0.0028852266259491444,-0.0038561271503567696,0.008556927554309368,-0.0,0.005358947440981865
0.005547750741243362,-0.0027996357530355453,-0.003820098005235195,0.008307117037475109,-0.0,0.005464151501655579
0.005311727058142424,-0.002758247312158346,-0.003599917283281684,0.00836218148469925,-0.0,0.005848267115652561
0.00555415078997612,-0.0027696997858583927,-0.003609185107052326,0.00856864731758833,-0.0,0.005448259878903627
0.006639972794800997,-0.002958951285108924,-0.004097362514585257,0.008087566122412682,-0.0,0.005102164577692747
0.006639972794800997,-0.002958951285108924,-0.004097362514585257,0.008087566122412682,-0.0,0.005102164577692747
0.006270106416195631,-0.0030943374149501324,-0.004272372927516699,0.007750959601253271,-0.0,0.005284665152430534
0.005814725998789072,-0.0031926531810313463,-0.003961537033319473,0.008127979002892971,-0.0,0.005336652975529432
0.005250171758234501,-0.0033762031234800816,-0.0036439718678593636,0.00817983690649271,-0.0,0.005822633858770132
0.00588266272097826,-0.0032206904143095016,-0.004148633219301701,0.0076561919413506985,-0.0,0.005623721983283758
0.006315462291240692,-0.0036380640231072903,-0.004144991748034954,0.008582241833209991,-0.0,0.0052820369601249695
0.005645700730383396,-0.0034374473616480827,-0.004049352370202541,0.008325653150677681,-0.0,0.005103991832584143
0.005903258919715881,-0.003521912731230259,-0.004030331969261169,0.007837594486773014,-0.0,0.005098484456539154
0.005302648060023785,-0.0036549854557961226,-0.0044292849488556385,0.007865984924137592,-0.0,0.005541048012673855
0.005957446992397308,-0.0037437169812619686,-0.004056040197610855,0.00843813270330429,-0.0,0.005280887708067894
0.005741472821682692,-0.003774163778871298,-0.003776972182095051,0.008562589064240456,-0.0,0.005206776317209005
0.005816965829581022,-0.003472261829301715,-0.0038280209992080927,0.008425208739936352,-0.0,0.005154490936547518
0.005542359780520201,-0.004265408031642437,-0.004311978351324797,0.00824627187103033,-0.0,0.005431309808045626
0.005532016046345234,-0.00414293073117733,-0.004238434601575136,0.008287191390991211,-0.0,0.005385811440646648
0.006127606611698866,-0.004305291920900345,-0.004377035889774561,0.008828689344227314,-0.0,0.0053519634529948235
0.006449700798839331,-0.0042253159917891026,-0.004022924695163965,0.009078101254999638,-0.0,0.005053602624684572
0.005992187187075615,-0.003581584896892309,-0.0036165141500532627,0.008207705803215504,-0.0,0.004772279877215624
0.005700193345546722,-0.004157604184001684,-0.003463503671810031,0.007596141193062067,-0.0,0.004990438465029001
0.0056259301491081715,-0.00418206537142396,-0.0034267527516931295,0.008078564889729023,-0.0,0.004981339443475008
0.006328478921204805,-0.003954713232815266,-0.0036369175650179386,0.008092916570603848,-0.0,0.00493687205016613
0.005736406426876783,-0.003822985803708434,-0.004131468012928963,0.0077257840894162655,-0.0,0.005582625512033701
0.005965287797152996,-0.00422201631590724,-0.004502629861235619,0.0075285956263542175,-0.0,0.005198692437261343
0.006247262004762888,-0.004159513860940933,-0.004049859009683132,0.008138122968375683,-0.0,0.004906627349555492
0.00571489380672574,-0.004026430193334818,-0.0037520681507885456,0.008278255350887775,-0.0,0.004792187362909317
0.005918226670473814,-0.0040031918324530125,-0.0037814199458807707,0.0076273418962955475,-0.0,0.004709712229669094
0.005918226670473814,-0.0040031918324530125,-0.0037814199458807707,0.0076273418962955475,-0.0,0.004709712229669094
0.006112704984843731,-0.003940723370760679,-0.0042298585176467896,0.007829817943274975,-0.0,0.005130760371685028
0.006112704984843731,-0.003940723370760679,-0.0042298585176467896,0.007829817943274975,-0.0,0.005130760371685028
0.005864324048161507,-0.0042204298079013824,-0.004254413768649101,0.007288183085620403,-0.0,0.005368354264646769
0.005788141395896673,-0.00448857806622982,-0.004548999946564436,0.007347236853092909,-0.0,0.005007210187613964
0.006198659539222717,-0.004154946655035019,-0.004260694142431021,0.008027073927223682,-0.0,0.0047811707481741905
0.005855761934071779,-0.003900127951055765,-0.0041834088042378426,0.008354210294783115,-0.0,0.004621206317096949
0.005727900192141533,-0.004442300647497177,-0.0038672946393489838,0.008143171668052673,-0.0,0.004628815222531557
0.005770676303654909,-0.00459517864510417,-0.003662368981167674,0.0070834774523973465,-0.0,0.005210329312831163
0.0059480671770870686,-0.0044032917357981205,-0.003728577634319663,0.007407857570797205,-0.0,0.005244677420705557
0.006552283652126789,-0.0041943262331187725,-0.003959139809012413,0.008044877089560032,-0.0,0.004566325806081295
0.006177714094519615,-0.004132349044084549,-0.004405690357089043,0.0076581877656280994,-0.0,0.004376702010631561
0.006241359747946262,-0.004467623773962259,-0.004597636871039867,0.007463101297616959,-0.0,0.004466529004275799
0.00596850598230958,-0.004011350683867931,-0.0042465911246836185,0.008363994769752026,-0.0,0.004391959868371487
0.007449050433933735,-0.004426518455147743,-0.0036067042965441942,0.008042100816965103,-0.0,0.004568294622004032
0.005620061885565519,-0.004188815131783485,-0.00406233174726367,0.006982041988521814,-0.0,0.004506066907197237
0.005371923092752695,-0.004424429032951593,-0.004212694708257914,0.00727071613073349,-0.0,0.004234721884131432
0.00578011479228735,-0.004321018233895302,-0.0042772451415658,0.008021472953259945,-0.0,0.004754236899316311
0.006472902838140726,-0.004261179827153683,-0.004266596399247646,0.007532691583037376,-0.0,0.004555830731987953
0.006791597697883844,-0.0043940856121480465,-0.004399796016514301,0.007362096104770899,-0.0,0.004538430366665125
0.0065879495814442635,-0.004223561380058527,-0.0040857079438865185,0.007420131471008062,-0.0,0.004286512266844511
0.0061362627893686295,-0.0045197270810604095,-0.004039355553686619,0.007373643573373556,-0.0,0.004371081944555044
0.006305336952209473,-0.004637819714844227,-0.004044227302074432,0.007172721903771162,-0.0,0.004186744801700115
0.006421583238989115,-0.004249674268066883,-0.004403118975460529,0.006520386319607496,-0.0,0.0038725666236132383
0.006262774113565683,-0.004320715554058552,-0.004323144908994436,0.006859601009637117,-0.0,0.003785649547353387
0.006257055327296257,-0.004125626757740974,-0.004521547816693783,0.007641896139830351,-0.0,0.004223550204187632
0.006197156850248575,-0.004267564974725246,-0.0044555217027664185,0.007515196688473225,-0.0,0.004389439709484577
0.006197156850248575,-0.004267564974725246,-0.0044555217027664185,0.007515196688473225,-0.0,0.004389439709484577
0.006372716277837753,-0.004738297313451767,-0.0037576034665107727,0.0077275861985981464,-0.0,0.004463220480829477
0.006372716277837753,-0.004738297313451767,-0.0037576034665107727,0.0077275861985981464,-0.0,0.004463220480829477
0.006765842903405428,-0.004438833799213171,-0.003698260523378849,0.0076982309110462666,-0.0,0.004264242481440306
0.00645555229857564,-0.004148499574512243,-0.0045494334772229195,0.007016870193183422,-0.0,0.004138491582125425
0.006042807828634977,-0.003917337860912085,-0.00477259699255228,0.00665132375434041,-0.0,0.003972908947616816
0.006282920949161053,-0.0043759956024587154,-0.004813092295080423,0.007323877420276403,-0.0,0.0038496884517371655
0.006894432473927736,-0.00421934062615037,-0.004472939297556877,0.007213797885924578,-0.0,0.0041639916598796844
0.006816734094172716,-0.00439069839194417,-0.004252133425325155,0.00718071311712265,-0.0,0.004183806478977203
0.006187748163938522,-0.004267282318323851,-0.003998715430498123,0.006889081094413996,-0.0,0.004477816633880138
0.006283583119511604,-0.004503899719566107,-0.003941596485674381,0.007222674321383238,-0.0,0.004193857312202454
0.006459459662437439,-0.0026044268161058426,-0.0045270794071257114,0.0062980251386761665,-0.0,0.0034549885895103216
0.006560532376170158,-0.0017979724798351526,-0.004371927585452795,0.006497745867818594,-0.0,0.0036568280775099993
0.006394542753696442,-0.0016865028301253915,-0.004541844595223665,0.007124050986021757,-0.0,0.004338026512414217
0.005959899164736271,-0.002178196795284748,-0.004415671806782484,0.007495122496038675,-0.0,0.004228212404996157
0.006309025920927525,-0.003118986263871193,-0.004129799082875252,0.006969326641410589,-0.0,0.004364535212516785
0.0064878822304308414,-0.0030367770232260227,-0.004407936707139015,0.00634004594758153,-0.0,0.00421795854344964
0.006285698153078556,-0.0027508882340043783,-0.004179446958005428,0.006216004956513643,-0.0,0.003996121231466532
0.006104886066168547,-0.002243980299681425,-0.004476982168853283,0.006839876063168049,-0.0,0.003683775896206498
0.006224203389137983,-0.0022517750039696693,-0.004670985043048859,0.006835589185357094,-0.0,0.0034987153485417366
0.0062485565431416035,-0.0021494689863175154,-0.004709976725280285,0.007049383595585823,-0.0,0.0036059641279280186
0.006385926157236099,-0.00206117145717144,-0.004598753526806831,0.0067385840229690075,-0.0,0.0036556576378643513
0.006181736942380667,-0.0024209648836404085,-0.0042213378474116325,0.007069713436067104,-0.0,0.003727074945345521
0.005965287331491709,-0.002378302626311779,-0.004024341702461243,0.007248540874570608,-0.0,0.0038279485888779163
0.00607524998486042,-0.002284254413098097,-0.004333008546382189,0.006824670359492302,-0.0,0.0034503783099353313
0.006809729151427746,-0.0020323866046965122,-0.004661716986447573,0.006769953295588493,-0.0,0.003136445302516222
0.006786847021430731,-0.0019772988744080067,-0.00451591657474637,0.006686268839985132,-0.0,0.0030648086685687304
0.006340479012578726,-0.0018922482850030065,-0.004537652712315321,0.007089987862855196,-0.0,0.003345730947330594
0.006340479012578726,-0.0018922482850030065,-0.004537652712315321,0.007089987862855196,-0.0,0.003345730947330594
0.006334806326776743,-0.0019180603558197618,-0.004436625633388758,0.007337084040045738,-0.0,0.003568098647519946
0.0064385635778307915,-0.0022810203954577446,-0.004132794216275215,0.006967372726649046,-0.0,0.0035800086334347725
0.006537371780723333,-0.002173962304368615,-0.004046790301799774,0.006729667540639639,-0.0,0.003188172122463584
0.006519288755953312,-0.002200007438659668,-0.004081926308572292,0.006608732044696808,-0.0,0.0030167899094522
0.00653298432007432,-0.0020912298932671547,-0.004518534522503614,0.006255274172872305,-0.0,0.0032583605498075485
0.006429571192711592,-0.0021913612727075815,-0.004825754556804895,0.006379768252372742,-0.0,0.0030262297950685024
0.006564180366694927,-0.0020015817135572433,-0.00461049797013402,0.006255133543163538,-0.0,0.003076651832088828
0.006778406444936991,-0.002165489597246051,-0.0045232404954731464,0.006858816370368004,-0.0,0.002991871675476432
0.006675191223621368,-0.002369190566241741,-0.004511284176260233,0.007263082079589367,-0.0,0.0029684058390557766
0.0067115649580955505,-0.0024702660739421844,-0.004115163814276457,0.006974326446652412,-0.0,0.0029195810202509165
0.006520682014524937,-0.0023668301291763783,-0.004992763977497816,0.00605045398697257,-0.0,0.003275515977293253
0.006628051400184631,-0.0020289302337914705,-0.005468698218464851,0.006633229553699493,-0.0,0.0030005909502506256
0.006615458521991968,-0.002011223929002881,-0.004942532628774643,0.006831418257206678,-0.0,0.00288171274587512
0.006557582411915064,-0.002297142753377557,-0.0045544784516096115,0.0065548415295779705,-0.0,0.002720009069889784
0.007345882244408131,-0.0026381590869277716,-0.0045600272715091705,0.006192065309733152,-0.0,0.0028576573822647333
0.006647617556154728,-0.0025475011207163334,-0.0047754268161952496,0.006032681558281183,-1.305692239839118e-05,0.0028981277719140053
0.006485532037913799,-0.0025364721659570932,-0.004859249107539654,0.006081360392272472,-8.525236694367777e-07,0.0026182413566857576
0.006691863760352135,-0.0026259960141032934,-0.005204763729125261,0.00605626218020916,-5.566370475662552e-08,0.0024119883310049772
0.006948050111532211,-0.0024775441270321608,-0.0049482472240924835,0.006099118385463953,-3.634441858579862e-09,0.0020929891616106033
0.006831345614045858,-0.002522337483242154,-0.004145889077335596,0.005929663777351379,-2.373030938418452e-10,0.0019882796332240105
0.006687795277684927,-0.002312388503924012,-0.0043085613287985325,0.0064637307077646255,-1.5494196203835742e-11,0.0019097106996923685
0.006598022300750017,-0.002422250108793378,-0.004226647783070803,0.006905819289386272,-1.011660265108627e-12,0.0020815280731767416
0.006598022300750017,-0.002422250108793378,-0.004226647783070803,0.006905819289386272,-1.011660265108627e-12,0.0020815280731767416
0.006844818126410246,-0.0028124279342591763,-0.004524705000221729,0.005919196642935276,-4.312866456654928e-15,0.002330716233700514
0.0065858326852321625,-0.0026383050717413425,-0.004659023601561785,0.0064238435588777065,-2.8159938556736276e-16,0.0023381777573376894
0.006648941431194544,-0.0026989509351551533,-0.00464961864054203,0.007335562724620104,-1.8386426726402115e-17,0.002143902936950326
0.006680002436041832,-0.002628275891765952,-0.004271411802619696,0.007631758227944374,-1.200502112249235e-18,0.0021077690180391073
0.006911506876349449,-0.002461358206346631,-0.004297752398997545,0.006995490286499262,-7.838420999454457e-20,0.0018679570639505982
0.007027889136224985,-0.002605568151921034,-0.004694052971899509,0.006205151788890362,-5.1179288163725384e-21,0.0017145727761089802
0.00688099255785346,-0.0030947693157941103,-0.0047053680755198,0.006561688147485256,-3.341641805113601e-22,0.0017263487679883838
0.00688099255785346,-0.0030947693157941103,-0.0047053680755198,0.006561688147485256,-3.341641805113601e-22,0.0017263487679883838
0.007216744590550661,-0.003101660870015621,-0.004810221027582884,0.007109416648745537,-2.1818532642212586e-23,0.0017756008310243487
0.006750150118023157,-0.00283815898001194,-0.0046171038411557674,0.006911752745509148,-1.4245943438001494e-24,0.0017952036578208208
0.00720291817560792,-0.002643915358930826,-0.005006898194551468,0.006731762550771236,-0.00019924248044844717,0.0017847710987553
0.007255450822412968,-0.0025549621786922216,-0.004879996180534363,0.006461923476308584,-0.0002462865086272359,0.0016741063445806503
0.007035173941403627,-0.0024484239984303713,-0.004462380427867174,0.006413132883608341,-0.00023709816741757095,0.001599504379555583
0.007017933297902346,-0.0027518963906913996,-0.004580297507345676,0.006578716915100813,-0.00025871963589452207,0.0015970721142366529
0.007168310694396496,-0.0025517616886645555,-0.004751270636916161,0.006532215978950262,-0.00024587451480329037,0.0016571017913520336
0.0071049765683710575,-0.0026664878241717815,-0.005118703935295343,0.006853685714304447,-0.000235207931837067,0.001533359638415277
0.006837464869022369,-0.0024901684373617172,-0.004636932164430618,0.007297588046640158,-0.00025313679361715913,0.001511911628767848
0.0072701661847531796,-0.0024190235417336226,-0.004541267175227404,0.00709915766492486,-0.0002517778775654733,0.0015560844913125038
0.0075728255324065685,-0.0026413414161652327,-0.004989385139197111,0.006681213155388832,-0.0002426512073725462,0.001502819242887199
0.007074679248034954,-0.002781639574095607,-0.004930511116981506,0.006849541328847408,-0.000233686703722924,0.0015329128364101052
0.007239567581564188,-0.002491721650585532,-0.004899016581475735,0.007160412613302469,-0.00024109883815981448,0.0014908602461218834
0.007840016856789589,-0.0025480829644948244,-0.005462795030325651,0.006864422466605902,-0.00024755392223596573,0.0013818322913721204
0.006965071428567171,-0.0024204528890550137,-0.005140039604157209,0.006383719388395548,-0.000307938433252275,0.0013408566592261195
0.007126241456717253,-0.0025507884565740824,-0.004624139983206987,0.006178935058414936,-0.000309394410578534,0.0012571278493851423
0.007184518501162529,-0.0026379639748483896,-0.0049265786074101925,0.006693623960018158,-0.0002908703754656017,0.0012339968234300613
0.007282430771738291,-0.0027633565478026867,-0.00483990553766489,0.006635538302361965,-0.0003135188017040491,0.001177281024865806
0.00726681062951684,-0.0027722869999706745,-0.004955701529979706,0.00578685337677598,-0.00030823107226751745,0.0012393209617584944
0.00729115167632699,-0.0025592446327209473,-0.005234872456640005,0.006223538890480995,-0.00029236296541057527,0.0012270476436242461
0.006857162807136774,-0.0025220627430826426,-0.005415488500148058,0.006790281739085913,-0.00031147757545113564,0.0012561629991978407
0.007181134540587664,-0.0027033963706344366,-0.004835227504372597,0.007455838844180107,-0.00030701979994773865,0.0011386793339625
0.00738921482115984,-0.0025872772093862295,-0.004829327575862408,0.006861879024654627,-0.00032435113098472357,0.0010115111945196986
0.00738921482115984,-0.0025872772093862295,-0.004829327575862408,0.006861879024654627,-0.00032435113098472357,0.0010115111945196986
0.007686246652156115,-0.002829024102538824,-0.005379140377044678,0.0063505652360618114,-0.00031974181183613837,0.000856238417327404
0.007404965814203024,-0.002616083947941661,-0.005908610764890909,0.006114617455750704,-0.0003067572833970189,0.0007390267564915121
0.007178188767284155,-0.0024521949235349894,-0.005829261615872383,0.006241166964173317,-0.0002945080923382193,0.0007017154712229967
0.007540354039520025,-0.002639722777530551,-0.0050876447930932045,0.006453974638134241,-0.0003603883378673345,0.0006729090237058699
0.007537250407040119,-0.0026099688839167356,-0.005184180103242397,0.0064699104987084866,-0.00033908753539435565,0.0006106469663791358
0.007282828446477652,-0.00251166895031929,-0.0050292485393583775,0.006483042147010565,-0.0003620489442255348,0.0005568063934333622
0.00767242256551981,-0.0027178556192666292,-0.0050358846783638,0.006179997697472572,-0.00035289174411445856,0.0005115621024742723
0.008314953185617924,-0.0028418349102139473,-0.005361245479434729,0.006381040904670954,-0.00035906428820453584,0.0005314451409503818
0.00796511396765709,-0.0027704411186277866,-0.0052751218900084496,0.006359244231134653,-0.0003632346633821726,0.0005022998666390777
0.008418719284236431,-0.0026608286425471306,-0.004836031701415777,0.006220113951712847,-0.00036760943476110697,0.0004412277485243976
0.008072856813669205,-0.002734906505793333,-0.004751072730869055,0.006295509170740843,-0.00035502377431839705,0.00041574082570150495
0.007687814068049192,-0.0026146669406443834,-0.005052885971963406,0.006976685486733913,-0.00039577920688316226,0.0003930363745894283
0.00782356970012188,-0.0027297004126012325,-0.0056261480785906315,0.006575467064976692,-0.0004135124618187547,0.0003726841532625258
0.00795006100088358,-0.0027929022908210754,-0.005064737517386675,0.006394446361809969,-0.0004478398768696934,0.00035433750599622726
0.007732389960438013,-0.0028710553888231516,-0.004760134965181351,0.006317897699773312,-0.00042201936594210565,0.0003377121756784618
0.007766390684992075,-0.0027769326698035,-0.004765138030052185,0.006971054244786501,-0.00044837387395091355,0.00032257757266052067
0.007427321746945381,-0.0027987612411379814,-0.00476077338680625,0.007388940081000328,-0.0004257889522705227,0.0003087418444920331
0.007609272841364145,-0.0027915670070797205,-0.005135455168783665,0.006715357769280672,-0.000448603299446404,0.0002960448618978262
0.007809214293956757,-0.002829606644809246,-0.005528368055820465,0.006444431375712156,-0.0004286542534828186,0.00028435082640498877
0.00743809062987566,-0.002676445757970214,-0.005271528847515583,0.006712958216667175,-0.0004049782291986048,0.00027354576741345227
0.007562435697764158,-0.0029490343295037746,-0.0047753038816154,0.007120651658624411,-0.0004574279300868511,0.00026353224529884756
0.008206483907997608,-0.002977025927975774,-0.004872581921517849,0.00732582388445735,-0.0004596852231770754,0.0002455540234223008
0.008206483907997608,-0.002977025927975774,-0.004872581921517849,0.00732582388445735,-0.0004596852231770754,0.0002455540234223008
0.007620441261678934,-0.00281140417791903,-0.00491630844771862,0.0073687913827598095,-0.0004404417413752526,0.0002374546165810898
0.007658778224140406,-0.0028508766554296017,-0.005438096355646849,0.006988650653511286,-0.00040830971556715667,0.00022987269039731473
0.008290935307741165,-0.0031209252774715424,-0.005521747283637524,0.0070614321157336235,-0.0003796607197728008,0.00022275974333751947
0.007763521280139685,-0.003090556710958481,-0.005534990690648556,0.006945132743567228,-0.0003547114320099354,0.00021607428789138794
0.007544129155576229,-0.0030132951214909554,-0.005116749554872513,0.0069266981445252895,-0.0003736817161552608,0.0002097780379699543
0.008516010828316212,-0.0027611241675913334,-0.005436518229544163,0.007387747056782246,-0.000364800012903288,0.00020383855735417455
0.008516010828316212,-0.0027611241675913334,-0.005436518229544163,0.007387747056782246,-0.000364800012903288,0.00020383855735417455
0.00855241995304823,-0.0029583624564111233,-0.005244683939963579,0.007257172372192144,-0.00034561610664241016,0.00019822640751954168
0.008528165519237518,-0.003062568372115493,-0.005090189632028341,0.006780589930713177,-0.0003276867500972003,0.0001719792780932039
0.007786426227539778,-0.003028388135135174,-0.0052205659449100494,0.006540998816490173,-0.00031148316338658333,0.00016460270853713155
0.008242733776569366,-0.0028391878586262465,-0.005150719545781612,0.0070152077823877335,-0.00033629973768256605,0.00016022802446968853
0.008496006019413471,-0.002861269051209092,-0.005662153474986553,0.0069017065688967705,-0.00032375039882026613,0.00015624177467543632
0.008673797361552715,-0.0031200959347188473,-0.005290186032652855,0.006335616111755371,-0.0003108339151367545,6.0902304539922625e-05
0.008007554337382317,-0.003153338795527816,-0.0054865628480911255,0.006419734563678503,-0.00032022720552049577,4.6748475142521784e-05
0.008597249165177345,-0.003040921874344349,-0.005586286541074514,0.006883182097226381,-0.0003270023735240102,2.8194919650559314e-05
0.008474595844745636,-0.0029190450441092253,-0.005584577564150095,0.006756747141480446,-0.00034119977499358356,5.531353053811472e-06
0.008165509440004826,-0.002961109159514308,-0.005269640125334263,0.006699786987155676,-0.0003470244409982115,3.611578165418905e-07
0.008770845830440521,-0.0034689130261540413,-0.005450163967907429,0.0067101349122822285,-0.00035110139288008213,2.3581025132557443e-08
0.008292372338473797,-0.0032857719343155622,-0.005600871983915567,0.007144061848521233,-0.0003379019908607006,1.539672389583302e-09
0.008374039083719254,-0.0030207533854991198,-0.005589737556874752,0.006927639711648226,-0.0005168883362784982,1.0052960547346501e-10
0.008429471403360367,-0.0029615440871566534,-0.005123245995491743,0.006589306052774191,-0.0005461926339194179,6.5638653366784094e-12
0.008871606551110744,-0.003076900728046894,-0.0052766515873372555,0.006389001850038767,-0.0005162938614375889,4.285734636101657e-13
0.008585008792579174,-0.0030727593693882227,-0.005469253286719322,0.006742230150848627,-0.0005404190742410719,-0.0003078528679907322
0.008424133062362671,-0.0031327353790402412,-0.0054812077432870865,0.007442745845764875,-0.0005062859272584319,-0.0010403705528005958
0.008373666554689407,-0.002957034856081009,-0.0056226314045488834,0.0071555753238499165,-0.0005184016772545874,-0.0010780829470604658
0.009017808362841606,-0.0028079194016754627,-0.005516873672604561,0.006681189872324467,-0.000498406239785254,-0.0010736685944721103
0.008650197647511959,-0.0027512265369296074,-0.005598746705800295,0.0069308774545788765,-0.0005554981762543321,-0.0012871059589087963
0.009288473054766655,-0.002869213931262493,-0.005159527529031038,0.006952774245291948,-0.0005495364312082529,-0.0013487180694937706
0.008671766147017479,-0.0026421688962727785,-0.005524966865777969,0.006766491569578648,-0.0005383918760344386,-0.0015850088093429804
0.008679459802806377,-0.0021523493342101574,-0.005654112435877323,0.006464862730354071,-0.0005683093913830817,-0.0017559011466801167
0.009981807321310043,-0.002038731938228011,-0.005725232884287834,0.006302557419985533,-0.0005259827594272792,-0.0020679302979260683
0.010236033238470554,-0.0018878458067774773,-0.0052245440892875195,0.006720013916492462,-0.000550216471310705,-0.0020494440104812384
0.009099510498344898,-0.0019283890724182129,-0.005269457120448351,0.007376022636890411,-0.0005160494474694133,-0.0021625536028295755
0.009696564637124538,-0.002318425104022026,-0.005458549130707979,0.0068747359327971935,-0.0005704119685105979,-0.0023843736853450537
0.009665113873779774,-0.0022738450206816196,-0.006095087621361017,0.006201499607414007,-0.0006014161044731736,-0.0024394369684159756
0.009189188480377197,-0.0024158444721251726,-0.005411253776401281,0.006158577743917704,-0.000631610513664782,-0.002630298025906086
0.010138745419681072,-0.002221096307039261,-0.004964286927133799,0.0070397392846643925,-0.000645747291855514,-0.002405356615781784
0.010138745419681072,-0.002221096307039261,-0.004964286927133799,0.0070397392846643925,-0.000645747291855514,-0.002405356615781784
0.009407728910446167,-0.0021669468842446804,-0.005739816464483738,0.006893049459904432,-0.0006118831224739552,-0.0024233893491327763
0.009168798103928566,-0.002095234813168645,-0.005499314982444048,0.006804748438298702,-0.0008313452126458287,-0.0023346696980297565
0.010671568103134632,-0.002017388818785548,-0.005957134999334812,0.006344361696392298,-0.0008530907216481864,-0.002302523236721754
0.009672393091022968,-0.0025695785880088806,-0.005726255942136049,0.007211221382021904,-0.0008050173637457192,-0.0036081282887607813
0.009981842711567879,-0.002515881322324276,-0.005602079909294844,0.006891327444463968,-0.0008245270000770688,-0.004449374973773956
0.010699055157601833,-0.0023253958206623793,-0.005616400390863419,0.006586367730051279,-0.0008457826334051788,-0.004226197022944689
0.00972235482186079,-0.002188350073993206,-0.005329274106770754,0.006848752032965422,-0.0008876098436303437,-0.003905682358890772
0.009678399190306664,-0.0021852958016097546,-0.006020915228873491,0.006883859634399414,-0.00086266512516886,-0.0038177778478711843
0.010343288071453571,-0.002004761015996337,-0.005582453217357397,0.0066515058279037476,-0.0008160684374161065,-0.0038678646087646484
0.009355466812849045,-0.0021232941653579473,-0.005747313145548105,0.006394016090780497,-0.0008472887566313148,-0.004196475725620985
0.009913119487464428,-0.0023604081943631172,-0.005433343350887299,0.00619006622582674,-0.0008660955936647952,-0.004234972409904003
0.010289319790899754,-0.002284061862155795,-0.005290822591632605,0.006670273374766111,-0.0008463269332423806,-0.004096801392734051
0.00959441252052784,-0.0023858414497226477,-0.005454391706734896,0.006865892559289932,-0.0008238065056502819,-0.003948272671550512
0.00979113020002842,-0.002309848554432392,-0.006118658930063248,0.00721289636567235,-0.0007830454269424081,-0.004295916762202978
0.010155771858990192,-0.0022265359293669462,-0.005623925011605024,0.006186352577060461,-0.0007459035841748118,-0.00449351267889142
0.009829356335103512,-0.002288145013153553,-0.005361863877624273,0.006459410768002272,-0.0006742716650478542,-0.00481514073908329
0.01037507876753807,-0.002182754222303629,-0.00538905244320631,0.00663824612274766,-0.0006974189891479909,-0.004906605463474989
0.010042142122983932,-0.002504353877156973,-0.006110701244324446,0.006407088600099087,-0.000673870905302465,-0.00478485319763422
0.009975416585803032,-0.0027269702404737473,-0.0061054169200360775,0.006246069446206093,-0.000649430206976831,-0.004685118794441223
0.01077166385948658,-0.002581715816631913,-0.005802726838737726,0.006439621094614267,-0.0006697840290144086,-0.004780742339789867
0.01077166385948658,-0.002581715816631913,-0.005802726838737726,0.006439621094614267,-0.0006697840290144086,-0.004780742339789867
0.009996779263019562,-0.0026073164772242308,-0.005154559388756752,0.006716683506965637,-0.0006956486031413078,-0.004874172620475292
0.009792929515242577,-0.0023464164696633816,-0.005206243600696325,0.006563042756170034,-0.0006292351754382253,-0.005007876083254814
0.010087157599627972,-0.0024446339812129736,-0.005495566409081221,0.006575769744813442,-0.0006561953341588378,-0.005607998464256525
0.010434658266603947,-0.002403906313702464,-0.006219304632395506,0.006148129235953093,-0.0006384303560480475,-0.006056330166757107
0.010116277262568474,-0.002372949616983533,-0.005854859948158264,0.0063844649121165276,-0.0006186109967529774,-0.006127060856670141
0.010668234899640083,-0.0025878760498017073,-0.005657519213855267,0.006800837814807892,-0.0006354700308293104,-0.00616021454334259
0.009980378672480583,-0.002481362083926797,-0.005164682865142822,0.007178012281656265,-0.0005979188717901707,-0.005955733824521303
0.010606866329908371,-0.002284347079694271,-0.005723464768379927,0.006917922291904688,-0.0006114326533861458,-0.0057756477035582066
0.010529938153922558,-0.0023208227939903736,-0.0065811011008918285,0.006625033915042877,-0.000644451763946563,-0.0057335407473146915
0.010257174260914326,-0.0022592879831790924,-0.0061867982149124146,0.007071638945490122,-0.0005819147918373346,-0.0063271913677453995
0.011021084152162075,-0.0026745309587568045,-0.005441730376332998,0.007090988103300333,-0.0006271849269978702,-0.006698629818856716
0.010388532653450966,-0.002377774566411972,-0.005664607044309378,0.007456333376467228,-0.0007032770663499832,-0.006436062976717949
0.01055694930255413,-0.002230023266747594,-0.005712261889129877,0.007733159698545933,-0.0007557274657301605,-0.00633316719904542
0.010187134146690369,-0.002277626655995846,-0.0061746942810714245,0.0069379499182105064,-0.0006783872959204018,-0.0064949397929012775
0.010537954047322273,-0.0021684281527996063,-0.0056174262426793575,0.007230696734040976,-0.000696792732924223,-0.006752841640263796
0.01077200472354889,-0.0024809427559375763,-0.005943628028035164,0.0067512597888708115,-0.0006764204590581357,-0.006701957900077105
0.010332264937460423,-0.002236963715404272,-0.005598402116447687,0.006556314881891012,-0.0006545414798893034,-0.006768158636987209
0.010414734482765198,-0.0022698952816426754,-0.0061272140592336655,0.007135667372494936,-0.0006023385212756693,-0.006596424616873264
0.010707732290029526,-0.0020538961980491877,-0.0064110769890248775,0.006685974542051554,-0.0005952426581643522,-0.006789816543459892
0.010972575284540653,-0.002005744492635131,-0.00593489920720458,0.006540653761476278,-0.0005332292057573795,-0.007091217674314976
0.011509421281516552,-0.0019144510151818395,-0.00562686612829566,0.0066931541077792645,-0.0005656206631101668,-0.006924317684024572
0.01057259738445282,-0.0021031105425208807,-0.005580482073128223,0.007160895969718695,-0.0005803193780593574,-0.0066315969452261925
0.009971344843506813,-0.002318255603313446,-0.00641739834100008,0.00761620607227087,-0.0005495063378475606,-0.00669083371758461
0.009971344843506813,-0.002318255603313446,-0.00641739834100008,0.00761620607227087,-0.0005495063378475606,-0.00669083371758461
0.010489633306860924,-0.002306445734575391,-0.0064469692297279835,0.0071195210330188274,-0.0005738255567848682,-0.006899165455251932
0.010345004498958588,-0.002640082035213709,-0.006220614537596703,0.006783433258533478,-0.0006417719414457679,-0.006875037681311369
0.010181562975049019,-0.002427858766168356,-0.0061048585921525955,0.0072402204386889935,-0.0006980473990552127,-0.007155583705753088
0.010715743526816368,-0.0023094324860721827,-0.006015174090862274,0.00744911702349782,-0.0007232514908537269,-0.007453730795532465
0.010835488326847553,-0.0021206396631896496,-0.00714359013363719,0.007421807385981083,-0.0007482936489395797,-0.007895181886851788
0.01068056095391512,-0.002087455941364169,-0.006478576920926571,0.006668885704129934,-0.0008470170432701707,-0.007292925845831633
0.010535111650824547,-0.0023045239504426718,-0.006189689971506596,0.006935548037290573,-0.000842310197185725,-0.006981734186410904
0.00994117558002472,-0.0024492042139172554,-0.005698228254914284,0.0069409264251589775,-0.0008404039544984698,-0.006965567357838154
0.010358408093452454,-0.002386760665103793,-0.0059845661744475365,0.0068292985670268536,-0.0008008210570551455,-0.007429950404912233
0.01055765151977539,-0.002498485380783677,-0.0068884240463376045,0.0065122805535793304,-0.0007576487842015922,-0.007660055998712778
0.010387344285845757,-0.002176158595830202,-0.006869754754006863,0.006206209305673838,-0.0007694249507039785,-0.0077613042667508125
0.010160432197153568,-0.0021518098656088114,-0.006215325556695461,0.0070490483194589615,-0.0007224694709293544,-0.008058730512857437
0.009770072065293789,-0.0023354378063231707,-0.006619017105549574,0.007277344819158316,-0.0007396923610940576,-0.008221900090575218
0.01011889148503542,-0.002632196992635727,-0.006752456072717905,0.007096038665622473,-0.0007557576755061746,-0.008156241849064827
0.010431033559143543,-0.0028041356708854437,-0.005573535803705454,0.007279181387275457,-0.0008703906205482781,-0.00860790815204382
0.009680303744971752,-0.0026091402396559715,-0.0063185621984303,0.006933815777301788,-0.0010003502247855067,-0.008425060659646988
0.010042576119303703,-0.0025658435188233852,-0.006829164922237396,0.007095344364643097,-0.001044770237058401,-0.008465545251965523
0.010426212102174759,-0.002573602367192507,-0.007362949196249247,0.007064376957714558,-0.0012234579771757126,-0.008206124417483807
0.010051325894892216,-0.002457051072269678,-0.006710940506309271,0.007494054734706879,-0.0012235958129167557,-0.008613184094429016
0.010689524933695793,-0.002541549038141966,-0.0061151268891990185,0.007658444810658693,-0.0010219044052064419,-0.009035098366439342
0.009832622483372688,-0.002562938956543803,-0.006264331750571728,0.007557093631476164,-0.0009827176108956337,-0.008718240074813366
0.010143709369003773,-0.00242254720069468,-0.00620795926079154,0.007582180202007294,-0.0009230176219716668,-0.008711477741599083
0.010535743087530136,-0.0025185178965330124,-0.006957125384360552,0.007698946166783571,-0.0008650858071632683,-0.008648420684039593
0.010194887407124043,-0.0026199312414973974,-0.006682056002318859,0.007106924429535866,-0.0007752843084745109,-0.009170692414045334
0.01060489472001791,-0.0024641123600304127,-0.00677060941234231,0.007240562234073877,-0.0007074280292727053,-0.009279290214180946
0.01060489472001791,-0.0024641123600304127,-0.00677060941234231,0.007240562234073877,-0.0007074280292727053,-0.009279290214180946
0.010978354141116142,-0.0024662858340889215,-0.006175261456519365,0.0074823396280407906,-0.0005381364026106894,-0.009373370558023453
0.010734755545854568,-0.002628736197948456,-0.0065191276371479034,0.00761266378685832,-0.0005572287482209504,-0.009639620780944824
0.010964500717818737,-0.0025749916676431894,-0.006734018214046955,0.00738480594009161,-0.0005887275910936296,-0.009954381734132767
0.011255074292421341,-0.0027984678745269775,-0.00666981004178524,0.007350021041929722,-0.0006056793499737978,-0.009974063374102116
0.010311540216207504,-0.002589387819170952,-0.006665534805506468,0.007421241607517004,-0.0005789207061752677,-0.010263889096677303
0.010948250070214272,-0.002463999902829528,-0.006371461320668459,0.008114157244563103,-0.0008068156312219799,-0.010258684866130352
0.010641968809068203,-0.0026288675144314766,-0.006954668555408716,0.007784750312566757,-0.0008643831824883819,-0.010382154025137424
0.010960256680846214,-0.002546986797824502,-0.006609730888158083,0.007533726282417774,-0.0008436511270701885,-0.010407187975943089
0.01101691648364067,-0.002467223210260272,-0.006763171870261431,0.007411159109324217,-0.0008001115056686103,-0.01058528758585453
0.011195583269000053,-0.0027826745063066483,-0.006556824781000614,0.007557769306004047,-0.0008958381949923933,-0.010045732371509075
0.010608826763927937,-0.0028530051931738853,-0.006933063734322786,0.007147996686398983,-0.0008470758330076933,-0.01019240915775299
0.010615083388984203,-0.0027022601570934057,-0.006602443289011717,0.007340045180171728,-0.0008506110752932727,-0.010099716484546661
0.011162659153342247,-0.002954981755465269,-0.0068311248905956745,0.007731323596090078,-0.000865884474478662,-0.010573242790997028
0.011095743626356125,-0.0029448382556438446,-0.006765144877135754,0.007329746149480343,-0.000896052981261164,-0.011007454246282578
0.010477157309651375,-0.0025670540053397417,-0.007366984151303768,0.006948284804821014,-0.0008983690058812499,-0.010326525196433067
0.010650756768882275,-0.0026536057703197002,-0.006787053309381008,0.0071046375669538975,-0.0008987574838101864,-0.010394849814474583
0.01048749964684248,-0.0026519475504755974,-0.006275648716837168,0.007649593520909548,-0.0009460279834456742,-0.010528886690735817
0.011166532523930073,-0.0027344345580786467,-0.006576370447874069,0.007241107057780027,-0.001030959072522819,-0.01065036840736866
0.011154037900269032,-0.0025573493912816048,-0.007266392931342125,0.007155469618737698,-0.0009591295965947211,-0.011206010356545448
0.010916188359260559,-0.002559137297794223,-0.007233902812004089,0.006702866870909929,-0.000947463558986783,-0.011408437974750996
0.011509069241583347,-0.002734302543103695,-0.0073065366595983505,0.0074527026154100895,-0.0008915571379475296,-0.011279747821390629
0.011115675792098045,-0.002687755972146988,-0.006976789329200983,0.008180785924196243,-0.0008538018446415663,-0.01185189001262188
0.011131878942251205,-0.002856775186955929,-0.0075866952538490295,0.007658164016902447,-0.0008583720191381872,-0.011450524441897869
0.011822903528809547,-0.0028439548332244158,-0.00814942829310894,0.0070261647924780846,-0.000855283928103745,-0.011746936477720737
0.011312377639114857,-0.0027692653238773346,-0.007045473903417587,0.007824120111763477,-0.0008601335575804114,-0.011568138375878334
0.011511987075209618,-0.002605494810268283,-0.0074621159583330154,0.008457275107502937,-0.0009069154039025307,-0.011731348000466824
0.011377516202628613,-0.0028539742343127728,-0.008037500083446503,0.007813534699380398,-0.0009923783363774419,-0.012112926691770554
0.011377516202628613,-0.0028539742343127728,-0.008037500083446503,0.007813534699380398,-0.0009923783363774419,-0.012112926691770554
0.013122744858264923,-0.0029440608341246843,-0.0071135894395411015,0.007565189618617296,-0.0010177288204431534,-0.012140733189880848
0.01218821108341217,-0.0020587837789207697,-0.007195189595222473,0.008237148635089397,-0.0012463127495720983,-0.012256822548806667
0.01218821108341217,-0.0020587837789207697,-0.007195189595222473,0.008237148635089397,-0.0012463127495720983,-0.012256822548806667
0.012704260647296906,-0.0019241338595747948,-0.007316542323678732,0.007903576828539371,-0.001195175456814468,-0.013653382658958435
0.01302303932607174,-0.0017459375085309148,-0.007383149582892656,0.007292021997272968,-0.0010999550577253103,-0.01171527523547411
0.012910974211990833,-0.001806930755265057,-0.007186306174844503,0.00770164467394352,-0.00111227051820606,-0.011657141149044037
0.012598494067788124,-0.002411980414763093,-0.007219694554805756,0.00818911474198103,-0.001118423300795257,-0.012333163991570473
0.012955877929925919,-0.0027000342961400747,-0.007440612651407719,0.007882210426032543,-0.0010520275682210922,-0.012755973264575005
0.013032909482717514,-0.0025243160780519247,-0.008077542297542095,0.008170206099748611,-0.000980569515377283,-0.012461140751838684
0.013345226645469666,-0.00209296983666718,-0.007578282617032528,0.008076652884483337,-0.00090353301493451,-0.012144919484853745
0.013276772573590279,-0.0020640750881284475,-0.0077881659381091595,0.007593700196594,-0.0008936308440752327,-0.012409520335495472
0.01346474140882492,-0.002121372614055872,-0.00823644082993269,0.007961459457874298,-0.0008505572332069278,-0.012438847683370113
0.012986243702471256,-0.0021265919785946608,-0.007232732139527798,0.008266936056315899,-0.0008047801675274968,-0.012599237263202667
0.013367179781198502,-0.002264987677335739,-0.007221391890197992,0.008400489576160908,-0.0007552336901426315,-0.012585963122546673
0.013358230702579021,-0.002181926742196083,-0.008249728009104729,0.008049776777625084,-0.0008371385047212243,-0.012507084757089615
0.013678975403308868,-0.002122973557561636,-0.007920569740235806,0.007813171483576298,-0.0008492997731082141,-0.013003861531615257
0.013220902532339096,-0.00204271893016994,-0.007872241549193859,0.008003242313861847,-0.0009914633119478822,-0.013051774352788925
0.013441331684589386,-0.0020602575968950987,-0.007502884138375521,0.008009291253983974,-0.0012296841014176607,-0.012607432901859283
0.01339456345885992,-0.0020070120226591825,-0.008119327947497368,0.008444994688034058,-0.001228434732183814,-0.012957712635397911
0.012993366457521915,-0.00226259371265769,-0.008217896334826946,0.008545911870896816,-0.0013149161823093891,-0.013056871481239796
0.013069111853837967,-0.0020220554433763027,-0.007646520622074604,0.00807823147624731,-0.0013937294716015458,-0.013481123372912407
0.013405888341367245,-0.0020617337431758642,-0.007574582938104868,0.007964059710502625,-0.0013528373092412949,-0.01406994741410017
0.01382062491029501,-0.001907676924020052,-0.008231385610997677,0.008146492764353752,-0.0012978706508874893,-0.014198584482073784
0.013340095058083534,-0.0020599246490746737,-0.0075998990796506405,0.008562035858631134,-0.00134515471290797,-0.013401777483522892
0.013522738590836525,-0.002303927205502987,-0.007734267972409725,0.00807383842766285,-0.0013350392691791058,-0.012800680473446846
0.013234137557446957,-0.0023052473552525043,-0.008205247111618519,0.007955698296427727,-0.001425338676199317,-0.01336197555065155
0.013234137557446957,-0.0023052473552525043,-0.008205247111618519,0.007955698296427727,-0.001425338676199317,-0.01336197555065155
0.013453069142997265,-0.002522118389606476,-0.009253534488379955,0.00866243988275528,-0.001237209071405232,-0.013536722399294376
0.0133036645129323,-0.0022132950834929943,-0.00810182373970747,0.008395752869546413,-0.0011566043831408024,-0.013702450320124626
0.013792479410767555,-0.0021300858352333307,-0.007599938195198774,0.007832339033484459,-0.0010606552241370082,-0.013962920755147934
0.013558799400925636,-0.0019657211378216743,-0.008788571693003178,0.008234163746237755,-0.0009655111352913082,-0.014156321063637733
0.013820973224937916,-0.0020326031371951103,-0.008429604582488537,0.008749565109610558,-0.0009192919242195785,-0.01431935653090477
0.013760342262685299,-0.001995592378079891,-0.008239193819463253,0.00797155313193798,-0.0009141174959950149,-0.014888730831444263
0.013948798179626465,-0.0022098359186202288,-0.00838865339756012,0.008107530884444714,-0.0009275987395085394,-0.014813701622188091
0.013899216428399086,-0.0022073143627494574,-0.009068423882126808,0.008498097769916058,-0.0011751874117180705,-0.015107575803995132
0.014169086702167988,-0.002179724397137761,-0.008598079904913902,0.008332181721925735,-0.0013102933298796415,-0.01475022453814745
0.014299635775387287,-0.0020125925075262785,-0.008885002695024014,0.008281061425805092,-0.0016457278979942203,-0.014994852244853973
0.013791456818580627,-0.0019500432536005974,-0.009046637453138828,0.008267818950116634,-0.001502932165749371,-0.0150874899700284
0.014011401683092117,-0.0019142162054777145,-0.008093297481536865,0.007923721335828304,-0.0012981431791558862,-0.014848338440060616
0.014389507472515106,-0.002205470809713006,-0.008364439010620117,0.007798470091074705,-0.001183079555630684,-0.015003593638539314
0.014680659398436546,-0.002229277743026614,-0.009530698880553246,0.007748857606202364,-0.0010863750940188766,-0.015181679278612137
0.014328030869364738,-0.0024127198848873377,-0.008655015379190445,0.00814878661185503,-0.0009869167115539312,-0.015174009837210178
0.014713010750710964,-0.0022449286188930273,-0.008323302492499352,0.008283475413918495,-0.0009755925857461989,-0.01495475322008133
0.01445990614593029,-0.0021941305603832006,-0.009022066369652748,0.00780915841460228,-0.0009553603595122695,-0.015208362601697445
0.015186498872935772,-0.002081151818856597,-0.008966504596173763,0.008216447196900845,-0.0009827126050367951,-0.015309021808207035
0.014326687902212143,-0.0020636245608329773,-0.008581716567277908,0.008429115638136864,-0.0009735759231261909,-0.01577983796596527
0.014444240368902683,-0.0022651185281574726,-0.008691400289535522,0.008273083716630936,-0.0010789789957925677,-0.01522570289671421
0.014060740359127522,-0.0024310362059623003,-0.008606224320828915,0.007973921485245228,-0.0011031433241441846,-0.01536000706255436
0.014753389172255993,-0.00230806483887136,-0.008452966809272766,0.008276029489934444,-0.0011449489975348115,-0.015601197257637978
0.014665408059954643,-0.002243991941213608,-0.008549919351935387,0.008188601583242416,-0.0010519440984353423,-0.01559287030249834
0.014888535253703594,-0.0021270224824547768,-0.009126474149525166,0.007902449928224087,-0.0010178405791521072,-0.015092438086867332
0.014715311117470264,-0.0022738503757864237,-0.009150354191660881,0.007724286522716284,-0.0009835175005719066,-0.015417936258018017
0.01496984250843525,-0.0022120897192507982,-0.008489484898746014,0.008426602929830551,-0.0010463088983669877,-0.015376091934740543
0.014738304540514946,-0.0021618104074150324,-0.009289870038628578,0.008569394238293171,-0.0010648578172549605,-0.01516306959092617
0.015462597832083702,-0.00230389297939837,-0.008743259124457836,0.007712056860327721,-0.0011056502116844058,-0.015462370589375496
0.014990311115980148,-0.0022391246166080236,-0.008617616258561611,0.008103650063276291,-0.0011596253607422113,-0.015105381608009338
0.01566634327173233,-0.002175810979679227,-0.00874391756951809,0.008320033550262451,-0.0012293310137465596,-0.015527119860053062
0.01566634327173233,-0.002175810979679227,-0.00874391756951809,0.008320033550262451,-0.0012293310137465596,-0.015527119860053062
0.015211080200970173,-0.002092616632580757,-0.008989867754280567,0.008264847099781036,-0.001401783898472786,-0.01575513929128647
0.015399354510009289,-0.002226312179118395,-0.009152118116617203,0.008466150611639023,-0.0013874585274606943,-0.016536839306354523
0.016840562224388123,-0.002042857464402914,-0.008742651902139187,0.00861399993300438,-0.001494507072493434,-0.016506381332874298
0.015402287244796753,-0.0021188328973948956,-0.00912634190171957,0.00872576143592596,-0.0014395720791071653,-0.0159471295773983
0.014801327139139175,-0.0022816616110503674,-0.00896325334906578,0.008671222254633904,-0.0013729037018492818,-0.0165454912930727
0.015575941652059555,-0.002199494279921055,-0.008634014055132866,0.008710905909538269,-0.0014014424523338675,-0.01673041842877865
0.015400360338389874,-0.002109360648319125,-0.008882120251655579,0.008932630531489849,-0.0012675998732447624,-0.017762551084160805
0.016028979793190956,-0.002357061952352524,-0.008715684525668621,0.008953100070357323,-0.0013364455662667751,-0.017125139012932777
0.015776455402374268,-0.0022612973116338253,-0.009281152859330177,0.008984347805380821,-0.0012812591157853603,-0.016664987429976463
0.016295291483402252,-0.0023993728682398796,-0.00963891576975584,0.009152314625680447,-0.0012359976535663009,-0.016869159415364265
0.015525015071034431,-0.002354764612391591,-0.00886609312146902,0.008777291513979435,-0.0013540821382775903,-0.017504215240478516
0.016409479081630707,-0.0022499177139252424,-0.009758676402270794,0.008936585858464241,-0.0014467376749962568,-0.017608949914574623
0.01596548594534397,-0.002396334195509553,-0.008517418056726456,0.009148597717285156,-0.001473695388995111,-0.018003961071372032
0.016049588099122047,-0.002177296206355095,-0.009118659421801567,0.008301680907607079,-0.0015661206562072039,-0.01852935180068016
0.0161137618124485,-0.0023020326625555754,-0.009607472456991673,0.008758761920034885,-0.001468052389100194,-0.018401311710476875
0.016180669888854027,-0.002162554766982794,-0.009312215261161327,0.009074096567928791,-0.0012906364863738418,-0.01784685254096985
0.01621372066438198,-0.0021417175885289907,-0.008622704073786736,0.008718040771782398,-0.0012079206062480807,-0.01766250655055046
0.0161228496581316,-0.0024436740204691887,-0.00874089915305376,0.0086233364418149,-0.001150605734437704,-0.017947904765605927
0.01662478595972061,-0.0025552089791744947,-0.00992557406425476,0.008708343841135502,-0.0011014211922883987,-0.018489699810743332
0.016586117446422577,-0.0024523029569536448,-0.009361174888908863,0.008351704105734825,-0.000979698495939374,-0.018579229712486267
0.017102684825658798,-0.0024812775664031506,-0.009072665125131607,0.007848306559026241,-0.000957003328949213,-0.018449129536747932
0.01660841517150402,-0.002342280698940158,-0.009559226222336292,0.008687934838235378,-0.0009294705232605338,-0.018827393651008606
0.016386400908231735,-0.002443206962198019,-0.00935972947627306,0.008877157233655453,-0.0009243476670235395,-0.01903565041720867
0.016624659299850464,-0.0024504042230546474,-0.009182659909129143,0.0086654769256711,-0.0009832089999690652,-0.019209187477827072
0.01668456941843033,-0.0025694912765175104,-0.009734117425978184,0.00891821552067995,-0.0010906718671321869,-0.019167382270097733
0.01726333238184452,-0.0026491789612919092,-0.010029037483036518,0.009243964217603207,-0.0011232711840420961,-0.018817299976944923
0.01705848053097725,-0.002479949500411749,-0.008973409421741962,0.008525226265192032,-0.0014572140062227845,-0.01923961378633976
0.016606973484158516,-0.002355629578232765,-0.009841695427894592,0.00856492854654789,-0.0015694929752498865,-0.019933804869651794
0.016606973484158516,-0.002355629578232765,-0.009841695427894592,0.00856492854654789,-0.0015694929752498865,-0.019933804869651794
0.016955560073256493,-0.0023087370209395885,-0.00961126945912838,0.009324473328888416,-0.0017139328410848975,-0.019980307668447495
0.01681143045425415,-0.002475379966199398,-0.009279594756662846,0.008841504342854023,-0.0016420946922153234,-0.019999271258711815
0.01725168712437153,-0.00241490569896996,-0.010578684508800507,0.008847770281136036,-0.0015171742998063564,-0.02022363618016243
0.016823653131723404,-0.0025107923429459333,-0.009999825619161129,0.00950112659484148,-0.0014860187657177448,-0.01993960700929165
0.017056794837117195,-0.0025244997814297676,-0.009089815430343151,0.009347354993224144,-0.001503471052274108,-0.02003476582467556
0.01693660579621792,-0.002442985540255904,-0.00939853210002184,0.009054028429090977,-0.0016288895858451724,-0.020049506798386574
0.017447324469685555,-0.0027013367507606745,-0.00968546885997057,0.009431161917746067,-0.001514545176178217,-0.020104065537452698
0.017279433086514473,-0.002618518890812993,-0.009896269999444485,0.00965075008571148,-0.0014550002524629235,-0.020614255219697952
0.017249820753932,-0.0029563007410615683,-0.009493950754404068,0.009235036559402943,-0.0013930024579167366,-0.020815163850784302
0.016901381313800812,-0.003003720659762621,-0.008895762264728546,0.009549610316753387,-0.0013301896397024393,-0.020472479984164238
0.017075316980481148,-0.0026082301046699286,-0.009509670548141003,0.008839253336191177,-0.0013884517829865217,-0.020459411665797234
0.01768534816801548,-0.002614530036225915,-0.009507337585091591,0.009908773005008698,-0.001410846714861691,-0.02070564404129982
0.017401553690433502,-0.002694776514545083,-0.009321407414972782,0.009452428668737411,-0.0014044279232621193,-0.020643241703510284
0.017425987869501114,-0.0028518131002783775,-0.009907146915793419,0.009360366500914097,-0.001502834027633071,-0.02065025456249714
0.017479240894317627,-0.0027335723862051964,-0.010630538687109947,0.009543580934405327,-0.0014908413868397474,-0.021106967702507973
0.017369113862514496,-0.0028754216618835926,-0.0091932388022542,0.009570766240358353,-0.0016437339363619685,-0.021267149597406387
0.01825130358338356,-0.0026230025105178356,-0.009774778969585896,0.009193052537739277,-0.0016312026418745518,-0.02155500091612339
0.01827920787036419,-0.002521354705095291,-0.009742612019181252,0.009320482611656189,-0.0014788752887398005,-0.02160811237990856
0.018055282533168793,-0.002675246447324753,-0.009276769123971462,0.010213724337518215,-0.0015611277194693685,-0.0218749288469553
0.01822253316640854,-0.002758892485871911,-0.010363494046032429,0.009291205555200577,-0.001502055674791336,-0.02228217013180256
0.017402516677975655,-0.0025103269144892693,-0.010032818652689457,0.009033513255417347,-0.0016507760155946016,-0.022125951945781708
0.017656804993748665,-0.0026405451353639364,-0.009701383300125599,0.009253560565412045,-0.0016612550243735313,-0.022447839379310608
0.017884474247694016,-0.002661597216501832,-0.010198486968874931,0.00969097763299942,-0.00172430241946131,-0.022399943321943283
0.017884474247694016,-0.002661597216501832,-0.010198486968874931,0.00969097763299942,-0.00172430241946131,-0.022399943321943283
0.01808311603963375,-0.0027239180635660887,-0.010005386546254158,0.00909772701561451,-0.0017009552102535963,-0.022693486884236336
0.018279481679201126,-0.002548514399677515,-0.00964753795415163,0.009539495222270489,-0.001572857960127294,-0.02276032045483589
0.01838083378970623,-0.0025791239459067583,-0.010450280271470547,0.00945785641670227,-0.0016086632385849953,-0.02240869402885437
0.018332770094275475,-0.0026894111651927233,-0.010063287802040577,0.0092076500877738,-0.001542912214063108,-0.022541513666510582
0.018658652901649475,-0.0025345550384372473,-0.009700069203972816,0.010047808289527893,-0.0015252350131049752,-0.022773917764425278
0.01870150677859783,-0.0025731546338647604,-0.010375370271503925,0.0098089799284935,-0.001581401564180851,-0.02276156283915043
0.019409270957112312,-0.002693978836759925,-0.010003871284425259,0.009175287559628487,-0.001760771032422781,-0.022567743435502052
0.018697377294301987,-0.0025402740575373173,-0.009827813133597374,0.009320770390331745,-0.0019037441816180944,-0.022716600447893143
0.019055940210819244,-0.002685744548216462,-0.0102645019069314,0.009753527119755745,-0.002003840636461973,-0.022622637450695038
0.018628602847456932,-0.0026814790908247232,-0.009816250763833523,0.0100946594029665,-0.0016524273669347167,-0.02256953902542591
0.01840548776090145,-0.002780698938295245,-0.010437985882163048,0.010167740285396576,-0.0015752778854221106,-0.023624146357178688
0.018824642524123192,-0.0028476580046117306,-0.009745561517775059,0.009287746623158455,-0.001485997112467885,-0.02491183951497078
0.019323617219924927,-0.0028091336134821177,-0.009992701932787895,0.009444242343306541,-0.001294359564781189,-0.024572383612394333
0.01819276250898838,-0.002743317047134042,-0.010393288917839527,0.009552241303026676,-0.0013632833724841475,-0.02379363216459751
0.02019779570400715,-0.0028130337595939636,-0.009642418473958969,0.009423835203051567,-0.001572909066453576,-0.02301337942481041
0.019524192437529564,-0.002438456052914262,-0.010075918398797512,0.009151490405201912,-0.0017947475425899029,-0.023356057703495026
0.018882431089878082,-0.0021737241186201572,-0.010128701105713844,0.00930886808782816,-0.0017916486831381917,-0.02387194149196148
0.018823780119419098,-0.0018886389443650842,-0.009927184320986271,0.009292740374803543,-0.00201713340356946,-0.0247435811907053
0.01934879645705223,-0.0018549093510955572,-0.01022875215858221,0.009761192835867405,-0.0020977621898055077,-0.02428322471678257
0.01921781525015831,-0.0020480097737163305,-0.010114211589097977,0.01046574953943491,-0.002062999876216054,-0.024577148258686066
0.019788647070527077,-0.002459663897752762,-0.009875969029963017,0.009884716011583805,-0.0017708806553855538,-0.025485621765255928
0.01968526281416416,-0.002640704158693552,-0.010368408635258675,0.009782538749277592,-0.0015620632329955697,-0.025494134053587914
0.019379856064915657,-0.002356667770072818,-0.010853947140276432,0.010069374926388264,-0.0015733555192127824,-0.024656031280755997
0.01974503882229328,-0.0022635103669017553,-0.010090629570186138,0.009858112782239914,-0.0015403944998979568,-0.024090098217129707
0.01974503882229328,-0.0022635103669017553,-0.010090629570186138,0.009858112782239914,-0.0015403944998979568,-0.024090098217129707
0.019826095551252365,-0.0019811789970844984,-0.010606718249619007,0.01003785990178585,-0.001991033786907792,-0.025403060019016266
0.019826095551252365,-0.0019811789970844984,-0.010606718249619007,0.01003785990178585,-0.001991033786907792,-0.025403060019016266
0.019811641424894333,-0.0019984475802630186,-0.010470600798726082,0.01008415687829256,-0.0019031066913157701,-0.025521906092762947
0.019987324252724648,-0.0020172991789877415,-0.011247444897890091,0.010083195753395557,-0.0018788896268233657,-0.025310251861810684
0.02015104703605175,-0.002201875438913703,-0.010381391271948814,0.009882512502372265,-0.0018789831083267927,-0.025162795558571815
0.02011883072555065,-0.0021121760364621878,-0.01047668606042862,0.009709665551781654,-0.0019606249406933784,-0.025362102314829826
0.019890133291482925,-0.002063675317913294,-0.011215535923838615,0.010544977150857449,-0.0019616263452917337,-0.025355879217386246
0.019711900502443314,-0.00193150551058352,-0.010475936345756054,0.01012562308460474,-0.00195410312153399,-0.02554897777736187
0.019907953217625618,-0.001931574079208076,-0.01047481968998909,0.009597200900316238,-0.001784943975508213,-0.025570154190063477
0.020374050363898277,-0.0019355061231181026,-0.012429841794073582,0.009964748285710812,-0.0017222421010956168,-0.02549603022634983
0.020212851464748383,-0.002189627382904291,-0.013067630119621754,0.009832078590989113,-0.001681675435975194,-0.025391295552253723
0.020537005737423897,-0.0021569791715592146,-0.012236818671226501,0.010696282610297203,-0.0018915942637249827,-0.025633523240685463
0.020668359473347664,-0.0021084637846797705,-0.012231623753905296,0.010108444839715958,-0.0018425063462927938,-0.02525286190211773
0.020385822281241417,-0.0020362657960504293,-0.012415999546647072,0.010326068848371506,-0.0019175108755007386,-0.026209160685539246
0.020515283569693565,-0.0023818155750632286,-0.012004265561699867,0.01025162823498249,-0.0018413923680782318,-0.0270770862698555
0.02085202932357788,-0.002127646002918482,-0.012201852165162563,0.009673337452113628,-0.0018999824533239007,-0.026534246280789375
0.020698893815279007,-0.002202453324571252,-0.012040729634463787,0.009769526310265064,-0.0018037186237052083,-0.02676321193575859
0.02064279280602932,-0.002020361367613077,-0.01235518604516983,0.00996498391032219,-0.0017545250011608005,-0.0255991593003273
0.020613636821508408,-0.002067890716716647,-0.012260754592716694,0.0097125843167305,-0.0017310474067926407,-0.02581564337015152
0.02073008194565773,-0.002008482115343213,-0.01282486692070961,0.009621527045965195,-0.0017540734261274338,-0.02717031165957451
0.020527580752968788,-0.0022058093454688787,-0.011442787945270538,0.011072978377342224,-0.0018089148215949535,-0.026490716263651848
0.020684611052274704,-0.002300577936694026,-0.013016561046242714,0.010026799514889717,-0.0018836865201592445,-0.026720089837908745
0.0210551954805851,-0.002240523463115096,-0.013046051375567913,0.009901906363666058,-0.001865627127699554,-0.02756199799478054
0.021281592547893524,-0.002329003531485796,-0.011789286509156227,0.010337643325328827,-0.0017551062628626823,-0.02708072029054165
0.021129650995135307,-0.0021337943617254496,-0.012341411784291267,0.010306308977305889,-0.0017545329174026847,-0.02643408626317978
0.02121102623641491,-0.002273345598950982,-0.012922342866659164,0.010698412545025349,-0.0016070816200226545,-0.026159895583987236
0.020944083109498024,-0.002182113705202937,-0.013041242957115173,0.010238505899906158,-0.0018273763125762343,-0.02683723159134388
0.02114112302660942,-0.0021592299453914165,-0.012691785581409931,0.009592716582119465,-0.0021510045044124126,-0.027955932542681694
0.021157443523406982,-0.002386268461123109,-0.011870961636304855,0.010035631246864796,-0.0022371839731931686,-0.027770599350333214
0.021157443523406982,-0.002386268461123109,-0.011870961636304855,0.010035631246864796,-0.0022371839731931686,-0.027770599350333214
0.021664969623088837,-0.002281822729855776,-0.012388711795210838,0.010618478059768677,-0.0022840765304863453,-0.02761811390519142
0.02145966701209545,-0.002396204974502325,-0.012145701795816422,0.009902781806886196,-0.0021128179505467415,-0.02763635851442814
0.0214401762932539,-0.0023035085760056973,-0.012826602905988693,0.010562526062130928,-0.0019863152410835028,-0.027517709881067276
0.021767767146229744,-0.00215794681571424,-0.012068395502865314,0.010371075943112373,-0.0018548304215073586,-0.02780727855861187
0.021842433139681816,-0.0022369150537997484,-0.012316472828388214,0.009733558632433414,-0.0019879955798387527,-0.027939027175307274
0.022001052275300026,-0.0021450521890074015,-0.011756635271012783,0.011222468689084053,-0.00235051685012877,-0.028321044519543648
0.022001052275300026,-0.0021450521890074015,-0.011756635271012783,0.011222468689084053,-0.00235051685012877,-0.028321044519543648
0.02140023000538349,-0.002336708828806877,-0.011676421388983727,0.011524125002324581,-0.0021323675755411386,-0.02855117805302143
0.0221291221678257,-0.0025313266087323427,-0.012450742535293102,0.010447651147842407,-0.0018477471312507987,-0.028363704681396484
0.02291647344827652,-0.0021980497986078262,-0.011604481376707554,0.010242091491818428,-0.0016349675133824348,-0.02870097942650318
0.02178659476339817,-0.0021106291096657515,-0.011435759253799915,0.011380262672901154,-0.001528580323792994,-0.02867387980222702
0.021850747987627983,-0.002086109947413206,-0.012282947078347206,0.01054956391453743,-0.0015868848422542214,-0.0280592143535614
0.022403286769986153,-0.0022918768227100372,-0.011943151243031025,0.010842030867934227,-0.00210536178201437,-0.028595605865120888
0.022445784881711006,-0.002695971867069602,-0.012207027524709702,0.010693363845348358,-0.002209865255281329,-0.029430478811264038
0.022324318066239357,-0.002831733087077737,-0.01186780259013176,0.010473322123289108,-0.002362803788855672,-0.02945311740040779
0.022224178537726402,-0.002615234348922968,-0.012560995295643806,0.011540854349732399,-0.0022108531557023525,-0.02948916330933571
0.02261163480579853,-0.0022395022679120302,-0.012199019081890583,0.011308369226753712,-0.002243951428681612,-0.029574662446975708
0.02238669991493225,-0.0021088439971208572,-0.011516428552567959,0.011109515093266964,-0.0020026483107358217,-0.02926819398999214
0.022460943087935448,-0.0021656902972608805,-0.012662393040955067,0.011756946332752705,-0.0017800988862290978,-0.029718035832047462
0.022372500970959663,-0.0022585398983210325,-0.011757232248783112,0.011330642737448215,-0.0017419917276129127,-0.029818095266819
0.02237742207944393,-0.0025286704767495394,-0.012306466698646545,0.011361799202859402,-0.0017318041063845158,-0.030342593789100647
0.0226252693682909,-0.002645959611982107,-0.011892243288457394,0.011322221718728542,-0.0018386791925877333,-0.029968993738293648
0.022721942514181137,-0.0023055574856698513,-0.0117189921438694,0.0108867222443223,-0.0023975037038326263,-0.029766442254185677
0.02295144647359848,-0.002248370321467519,-0.012170658446848392,0.011586975306272507,-0.0024947465863078833,-0.030411383137106895
0.0228879451751709,-0.0023875292390584946,-0.011873516254127026,0.01108242105692625,-0.0023135480005294085,-0.030270176008343697
0.022806016728281975,-0.0022737286053597927,-0.012251046486198902,0.010953735560178757,-0.002043232787400484,-0.030143722891807556
0.02282916195690632,-0.002281098160892725,-0.012158084660768509,0.011008059605956078,-0.0018846148159354925,-0.030368026345968246
0.02282916195690632,-0.002281098160892725,-0.012158084660768509,0.011008059605956078,-0.0018846148159354925,-0.030368026345968246
0.023165348917245865,-0.0021595268044620752,-0.011903321370482445,0.01060902513563633,-0.0016232045600190759,-0.030650917440652847
0.0231742262840271,-0.0022444897331297398,-0.012016513384878635,0.011115326546132565,-0.0016256760573014617,-0.030057614669203758
0.02261478640139103,-0.002042450476437807,-0.011483008041977882,0.011025357991456985,-0.001716645434498787,-0.03053351491689682
0.022851282730698586,-0.0021288550924509764,-0.012176742777228355,0.011062782257795334,-0.002024066401645541,-0.030894944444298744
0.02330082282423973,-0.002308146096765995,-0.012292503379285336,0.011538243852555752,-0.0025513735599815845,-0.031976889818906784
0.023272205144166946,-0.0022906980011612177,-0.012136071920394897,0.010936635546386242,-0.0026987618766725063,-0.03185541182756424
0.02339041419327259,-0.0022344961762428284,-0.012176276184618473,0.011324823834002018,-0.0025138931814581156,-0.031437356024980545
0.023153316229581833,-0.0021962879691272974,-0.012155509553849697,0.011615991592407227,-0.0018651800928637385,-0.031183084473013878
0.02347055822610855,-0.0021109527442604303,-0.011763708665966988,0.011507867835462093,-0.0020715261343866587,-0.03203873336315155
0.024422654882073402,-0.00227138283662498,-0.012485532090067863,0.011149927973747253,-0.0020544924773275852,-0.03150591626763344
0.02437581680715084,-0.002419533208012581,-0.012019763700664043,0.011360635980963707,-0.002170194871723652,-0.03261096775531769
0.02345862425863743,-0.0023747808299958706,-0.012342100962996483,0.011558841913938522,-0.0022061835043132305,-0.032501909881830215
0.02080625854432583,-0.002653340343385935,-0.01238127052783966,0.01112569123506546,-0.0023661726154386997,-0.031096184626221657
0.02451205998659134,-0.002428613603115082,-0.011766674928367138,0.011443928815424442,-0.0021612662822008133,-0.030539043247699738
0.024720003828406334,-0.0023192320950329304,-0.0125381238758564,0.011436625383794308,-0.0022613583132624626,-0.031919561326503754
0.023776430636644363,-0.002395066898316145,-0.01180220115929842,0.01126391626894474,-0.0023074813652783632,-0.0324426144361496
0.02409774251282215,-0.0026223286986351013,-0.012444977648556232,0.011696907691657543,-0.002324239816516638,-0.0324714258313179
0.024089321494102478,-0.0025167022831737995,-0.012842104770243168,0.011200888082385063,-0.0027412730269134045,-0.03236917406320572
0.02421831153333187,-0.002641176339238882,-0.012253142893314362,0.01139079499989748,-0.002952469978481531,-0.03205551952123642
0.02420632354915142,-0.002633756725117564,-0.013103500008583069,0.011264634318649769,-0.0027222437784075737,-0.03209036961197853
0.024320105090737343,-0.0024506784975528717,-0.012585336342453957,0.011328097432851791,-0.0024304057005792856,-0.032420266419649124
0.02390925958752632,-0.0024564943742007017,-0.013423874974250793,0.011864886619150639,-0.002138097770512104,-0.032473210245370865
0.02414710447192192,-0.0023631297517567873,-0.013099533505737782,0.011726927943527699,-0.0021142796613276005,-0.0325925275683403
0.025014134123921394,-0.002485963050276041,-0.01319160871207714,0.011538277380168438,-0.0020640890579670668,-0.03295588865876198
0.025014134123921394,-0.002485963050276041,-0.01319160871207714,0.011538277380168438,-0.0020640890579670668,-0.03295588865876198
0.024374406784772873,-0.0026065923739224672,-0.013614362105727196,0.011140028014779091,-0.0021653834264725447,-0.0322984978556633
0.024636512622237206,-0.002656754804775119,-0.013788755983114243,0.0113821467384696,-0.0020482828840613365,-0.033395472913980484
0.024636512622237206,-0.002656754804775119,-0.013788755983114243,0.0113821467384696,-0.0020482828840613365,-0.033395472913980484
0.024620020762085915,-0.0021610266994684935,-0.014244787395000458,0.011185353621840477,-0.002262833761051297,-0.0349210649728775
0.025044752284884453,-0.0019440313335508108,-0.014256222173571587,0.01110357791185379,-0.002413046546280384,-0.03440815210342407
0.025435645133256912,-0.002228412078693509,-0.014091896824538708,0.01149405725300312,-0.002360631711781025,-0.032222338020801544
0.02507149986922741,-0.0022531140130013227,-0.013453294523060322,0.011430068872869015,-0.0024690041318535805,-0.032516419887542725
0.024874147027730942,-0.0027230207342654467,-0.013621396385133266,0.01152027677744627,-0.0027350850868970156,-0.03389546275138855
0.024801475927233696,-0.002410576678812504,-0.013526765629649162,0.011435369029641151,-0.0026101642288267612,-0.034585606306791306
0.025432411581277847,-0.002089472720399499,-0.014023282565176487,0.011778376065194607,-0.0025209395680576563,-0.0343070924282074
0.02573397196829319,-0.0020695526618510485,-0.013746646232903004,0.011376720853149891,-0.0023204833269119263,-0.033458128571510315
0.025505047291517258,-0.002337278798222542,-0.013868212699890137,0.011996408924460411,-0.0022236574441194534,-0.03326642885804176
0.025500226765871048,-0.0025911186821758747,-0.013608894310891628,0.011826110072433949,-0.0021485965698957443,-0.03438430279493332
0.02594173513352871,-0.0024895279202610254,-0.01261843740940094,0.011869808658957481,-0.002547272713854909,-0.034963056445121765
0.02569625899195671,-0.002516991924494505,-0.013851246796548367,0.01255456730723381,-0.0026493154000490904,-0.03478086739778519
0.025427835062146187,-0.002222512848675251,-0.014294802211225033,0.01204547006636858,-0.0025522017385810614,-0.034716345369815826
0.02595294639468193,-0.0022030938416719437,-0.013354441151022911,0.012189713306725025,-0.0024330653250217438,-0.03420067951083183
0.0258032139390707,-0.0024959631264209747,-0.014009353704750538,0.012213860638439655,-0.002409550826996565,-0.035382404923439026
0.02569144405424595,-0.0024262748192995787,-0.013576807454228401,0.01229981891810894,-0.002382744802162051,-0.03589095547795296
0.026150396093726158,-0.002706023631617427,-0.014196669682860374,0.012135965749621391,-0.002787776989862323,-0.035482246428728104
0.026515275239944458,-0.002441003220155835,-0.01353125087916851,0.012019285932183266,-0.0029239801224321127,-0.03502275422215462
0.026165850460529327,-0.002314340090379119,-0.014056048355996609,0.012031538411974907,-0.002654312178492546,-0.035403940826654434
0.026498017832636833,-0.0023381453938782215,-0.013837355189025402,0.011639753356575966,-0.0026047558058053255,-0.035837460309267044
0.026649216189980507,-0.0026564421132206917,-0.014306946657598019,0.011824010871350765,-0.002357487566769123,-0.03562314435839653
0.026586199179291725,-0.002576996572315693,-0.013833731412887573,0.012270906008780003,-0.0022994226310402155,-0.03617241978645325
0.02637537568807602,-0.0027574338018894196,-0.014375299215316772,0.01176549680531025,-0.002475673332810402,-0.03633343428373337
0.02637537568807602,-0.0027574338018894196,-0.014375299215316772,0.01176549680531025,-0.002475673332810402,-0.03633343428373337
0.02605438232421875,-0.002632409567013383,-0.01365278847515583,0.01238927710801363,-0.0025044598150998354,-0.03633284196257591
0.027052681893110275,-0.0022358542773872614,-0.014058827422559261,0.012777726165950298,-0.0025034158024936914,-0.03630804270505905
0.027052681893110275,-0.0022358542773872614,-0.014058827422559261,0.012777726165950298,-0.0025034158024936914,-0.03630804270505905
0.026941563934087753,-0.0021781977266073227,-0.014626453630626202,0.012726319022476673,-0.002613973570987582,-0.03678731992840767
0.02703905664384365,-0.0026217929553240538,-0.013959739357233047,0.012530126608908176,-0.0026103847194463015,-0.03707775101065636
0.026194516569375992,-0.0028787762857973576,-0.01428073551505804,0.012284415774047375,-0.002932497765868902,-0.03697182983160019
0.026556245982646942,-0.0024789273738861084,-0.014341810718178749,0.012599852867424488,-0.002977654803544283,-0.03709724545478821
0.027499137446284294,-0.0023722483310848475,-0.014183826744556427,0.012390795163810253,-0.002633059397339821,-0.037450943142175674
0.027093708515167236,-0.00223534950055182,-0.014265958219766617,0.0132817467674613,-0.002282714704051614,-0.03754241019487381
0.028065228834748268,-0.0025682728737592697,-0.014416435733437538,0.01229601539671421,-0.0022165998816490173,-0.037461794912815094
0.027797335758805275,-0.0028078751638531685,-0.01474435068666935,0.012899871915578842,-0.0024256035685539246,-0.03685515373945236
0.027482839301228523,-0.002623890992254019,-0.014415889978408813,0.012485886923968792,-0.0029502015095204115,-0.038757022470235825
0.027044907212257385,-0.002502923598513007,-0.014410736970603466,0.013507972471415997,-0.0030127998907119036,-0.038780372589826584
0.026811443269252777,-0.002228753175586462,-0.01463139895349741,0.013263355009257793,-0.002814029110595584,-0.03683473914861679
0.027135610580444336,-0.002297364640980959,-0.01468090619891882,0.012421397492289543,-0.002772163599729538,-0.03683721274137497
0.027636410668492317,-0.0023426273837685585,-0.014535825699567795,0.013407968915998936,-0.0024048120249062777,-0.03645027428865433
0.02762014977633953,-0.0022279429249465466,-0.014823345467448235,0.011808576993644238,-0.00240345555357635,-0.03835483640432358
0.02742304652929306,-0.0024394216015934944,-0.014909456484019756,0.012646635994315147,-0.0025048828683793545,-0.04002104327082634
0.02742927148938179,-0.002513539046049118,-0.015136751346290112,0.013327850960195065,-0.0027199506293982267,-0.039292916655540466
0.02742927148938179,-0.002513539046049118,-0.015136751346290112,0.013327850960195065,-0.0027199506293982267,-0.039292916655540466
0.02743850275874138,-0.0024128942750394344,-0.014468271285295486,0.013806949369609356,-0.002699421253055334,-0.03765600547194481
0.02722572349011898,-0.0024858282413333654,-0.015051783062517643,0.013272457756102085,-0.0026744066271930933,-0.0387992188334465
0.02731051854789257,-0.002377846045419574,-0.014714903198182583,0.01325463317334652,-0.00266123260371387,-0.03920477256178856
0.027773942798376083,-0.002474138978868723,-0.015102210454642773,0.01332723256200552,-0.0024580347817391157,-0.03928074985742569
0.02736605703830719,-0.002427806379273534,-0.014546751044690609,0.012907705269753933,-0.002338268095627427,-0.03893500193953514
0.027532322332262993,-0.0022568413987755775,-0.015215733088552952,0.013055246323347092,-0.002273225225508213,-0.038911860436201096
0.027667785063385963,-0.002342428080737591,-0.014772996306419373,0.012650384567677975,-0.002214769134297967,-0.03938049450516701
0.02791319228708744,-0.002219331683591008,-0.015067046508193016,0.012949220836162567,-0.0023534432984888554,-0.03962527588009834
0.027711322531104088,-0.0023493701592087746,-0.014397582970559597,0.012726337648928165,-0.002361143007874489,-0.03909777104854584
0.027219394221901894,-0.0023050482850521803,-0.015243669971823692,0.013171412982046604,-0.002541041001677513,-0.03918891027569771
0.029047982767224312,-0.0022369599901139736,-0.01473547238856554,0.0127914659678936,-0.002650619251653552,-0.039609696716070175
0.028511270880699158,-0.0023608640767633915,-0.015204914845526218,0.013086521998047829,-0.0028036213479936123,-0.0396900549530983
0.027817727997899055,-0.002158921444788575,-0.014282665215432644,0.012872966937720776,-0.0028275593649595976,-0.0395200215280056
0.02772139012813568,-0.0023303814232349396,-0.015132321044802666,0.013163076713681221,-0.0027953421231359243,-0.040947720408439636
0.028342608362436295,-0.0022742580622434616,-0.015169539488852024,0.013498282991349697,-0.0025951152201741934,-0.03938676789402962
0.02953498624265194,-0.0024944727774709463,-0.014820042997598648,0.01326846331357956,-0.0025016795843839645,-0.03926536813378334
0.029060710221529007,-0.002331383991986513,-0.015284368768334389,0.012655911967158318,-0.002554635051637888,-0.04085272550582886
0.028065547347068787,-0.0024288417771458626,-0.015335949137806892,0.013088243082165718,-0.0025216410867869854,-0.04236491024494171
0.028021326288580894,-0.002314856043085456,-0.015468989498913288,0.012893055565655231,-0.00279719615355134,-0.042552508413791656
0.02872634120285511,-0.0022380941081792116,-0.015593837946653366,0.013414616696536541,-0.002978311385959387,-0.039850395172834396
0.029021652415394783,-0.0023408120032399893,-0.015482399612665176,0.013254347257316113,-0.0029321741312742233,-0.039979565888643265
0.028705399483442307,-0.0023174649104475975,-0.015828391537070274,0.013597323559224606,-0.0026947814039885998,-0.04112790524959564
0.029239589348435402,-0.002444505924358964,-0.015338311903178692,0.013115627691149712,-0.0028561267536133528,-0.04163486137986183
0.02972574532032013,-0.002304729772731662,-0.015901770442724228,0.013255852274596691,-0.0031078746542334557,-0.04132867604494095
0.029692182317376137,-0.002238146960735321,-0.0155086824670434,0.013134405948221684,-0.003179421415552497,-0.041139695793390274
0.029692182317376137,-0.002238146960735321,-0.0155086824670434,0.013134405948221684,-0.003179421415552497,-0.041139695793390274
0.028795968741178513,-0.002132140565663576,-0.0158285740762949,0.013694616965949535,-0.0029349098913371563,-0.04165082797408104
0.029674142599105835,-0.00240121316164732,-0.016095690429210663,0.013288416899740696,-0.00269025145098567,-0.041473306715488434
0.02967398799955845,-0.0024842633865773678,-0.015479144640266895,0.013519157655537128,-0.0028199064545333385,-0.041489340364933014
0.029725050553679466,-0.0023687570355832577,-0.01562727428972721,0.013456798158586025,-0.0027806663420051336,-0.041458096355199814
0.029670370742678642,-0.00243435800075531,-0.016600707545876503,0.013742240145802498,-0.00283438921906054,-0.04184608533978462
0.029670370742678642,-0.00243435800075531,-0.016600707545876503,0.013742240145802498,-0.00283438921906054,-0.04184608533978462
0.029766470193862915,-0.002525138668715954,-0.016699960455298424,0.012958021834492683,-0.0025966267567127943,-0.042188890278339386
0.029900215566158295,-0.0024226673413068056,-0.0169861800968647,0.013127036392688751,-0.0024037230759859085,-0.04170525446534157
0.029792791232466698,-0.0025466138031333685,-0.015814054757356644,0.0128607964143157,-0.0026349532417953014,-0.042612168937921524
0.02982182987034321,-0.002574915997684002,-0.016445353627204895,0.013335347175598145,-0.002907100599259138,-0.04213746637105942
0.030268583446741104,-0.0024142591282725334,-0.016401425004005432,0.013405611738562584,-0.0031338513363152742,-0.04227051883935928
0.0298567283898592,-0.0024464502930641174,-0.016315417364239693,0.01385385449975729,-0.0029565130826085806,-0.04234140366315842
0.03015091083943844,-0.0024535655975341797,-0.016681822016835213,0.013340810313820839,-0.0024880431592464447,-0.042252421379089355
0.030118003487586975,-0.00234081014059484,-0.017057234421372414,0.013088940642774105,-0.0025065995287150145,-0.041690245270729065
0.030088085681200027,-0.002367001958191395,-0.016866084188222885,0.013160830363631248,-0.0027319742366671562,-0.04161437228322029
0.03068799339234829,-0.002481811912730336,-0.016566837206482887,0.013828294351696968,-0.003140920540317893,-0.04217474162578583
0.030178368091583252,-0.0024515909608453512,-0.014791170135140419,0.013794325292110443,-0.0033866807352751493,-0.04371483623981476
0.030611176043748856,-0.0023287199437618256,-0.017207186669111252,0.013813870958983898,-0.0033970829099416733,-0.0431339256465435
0.030914245173335075,-0.002467961050570011,-0.017696987837553024,0.013567933812737465,-0.0031256726942956448,-0.04083125293254852
0.030751902610063553,-0.0023202411830425262,-0.016617124900221825,0.013871915638446808,-0.002859205938875675,-0.042415060102939606
0.031095433980226517,-0.0024261430371552706,-0.0171477310359478,0.013475541025400162,-0.0027665726374834776,-0.04100745916366577
0.030827442184090614,-0.002580903470516205,-0.01729591377079487,0.014067133888602257,-0.002882607514038682,-0.0443972684442997
0.031602367758750916,-0.002301814965903759,-0.0170600563287735,0.013628178276121616,-0.0031461715698242188,-0.04355967789888382
0.03137229382991791,-0.0025267936289310455,-0.016700899228453636,0.013876509852707386,-0.002827851567417383,-0.04225777089595795
0.03159977123141289,-0.002384661231189966,-0.016009142622351646,0.013604925014078617,-0.002756792353466153,-0.04304235428571701
0.031631603837013245,-0.0022935722954571247,-0.01727030985057354,0.013940275646746159,-0.0026346640661358833,-0.04321294650435448
0.03136241063475609,-0.002338140271604061,-0.017320457845926285,0.013782881200313568,-0.0026868688873946667,-0.04344233125448227
0.03173293545842171,-0.002270287135615945,-0.01735422946512699,0.014243263751268387,-0.0026935990899801254,-0.043720752000808716
0.032370954751968384,-0.0021976144053041935,-0.017556816339492798,0.014337086118757725,-0.003124477341771126,-0.043260544538497925
0.033566735684871674,-0.002314087003469467,-0.01700782962143421,0.014968208968639374,-0.0033402058761566877,-0.04359607771039009
0.033566735684871674,-0.002314087003469467,-0.01700782962143421,0.014968208968639374,-0.0033402058761566877,-0.04359607771039009
0.03213830664753914,-0.0021790119353681803,-0.017683882266283035,0.014442965388298035,-0.003478613216429949,-0.043647851794958115
0.031483862549066544,-0.0022083523217588663,-0.017129791900515556,0.01476459763944149,-0.0033184844069182873,-0.04421994090080261
0.03293291851878166,-0.0021559351589530706,-0.017272621393203735,0.014121253043413162,-0.0030124925542622805,-0.044587235897779465
0.032391130924224854,-0.0022577729541808367,-0.017519084736704826,0.01460086740553379,-0.00279408460482955,-0.04383804649114609
0.03221014887094498,-0.0021520773880183697,-0.016659077256917953,0.014249314554035664,-0.002799715381115675,-0.04439275711774826
0.033482491970062256,-0.0020906925201416016,-0.017615564167499542,0.014052880927920341,-0.002833870006725192,-0.045453861355781555
0.033285535871982574,-0.0022131905425339937,-0.017401963472366333,0.013658632524311543,-0.0028368812054395676,-0.0465063638985157
0.03215598687529564,-0.002141568809747696,-0.01785258762538433,0.014017428271472454,-0.00274303974583745,-0.04456304758787155
0.03222271427512169,-0.0021396642550826073,-0.018275078386068344,0.014027176424860954,-0.0029795116279274225,-0.043766994029283524
0.03341255336999893,-0.0021289389114826918,-0.01709132455289364,0.014531789347529411,-0.0031365652102977037,-0.044284574687480927
0.033089421689510345,-0.0019772734958678484,-0.017527606338262558,0.014463366009294987,-0.003122668480500579,-0.0466989241540432
0.032920412719249725,-0.0019993640016764402,-0.017117684707045555,0.013281534425914288,-0.002851931843906641,-0.044227421283721924
0.03266225382685661,-0.0019894493743777275,-0.01793019473552704,0.013638305477797985,-0.0027520591393113136,-0.04485698789358139
0.03312389552593231,-0.0021385110449045897,-0.017763543874025345,0.014468599110841751,-0.003014924470335245,-0.04636494442820549
0.03323908895254135,-0.0019760674331337214,-0.017927542328834534,0.014324094168841839,-0.0031487380620092154,-0.04547680914402008
0.03324715420603752,-0.002116380725055933,-0.017772099003195763,0.015054875053465366,-0.0030568083748221397,-0.046087365597486496
0.03316175192594528,-0.002349608577787876,-0.01685391552746296,0.014569830149412155,-0.0030092273373156786,-0.04721906781196594
0.03346889466047287,-0.002286741277202964,-0.01723828911781311,0.014403259381651878,-0.0029058465734124184,-0.047037795186042786
0.033083073794841766,-0.0024447001051157713,-0.01730700023472309,0.014992370270192623,-0.0031284866854548454,-0.04643763601779938
0.03368391469120979,-0.0022645501885563135,-0.01788898929953575,0.014425349421799183,-0.0031230414751917124,-0.04656778648495674
0.03362327069044113,-0.0023671023081988096,-0.018776938319206238,0.014259175397455692,-0.003437791718170047,-0.04704217612743378
0.03350763022899628,-0.0023932931944727898,-0.017686594277620316,0.014034179970622063,-0.0033029087353497744,-0.04691426083445549
0.033185429871082306,-0.0022351534571498632,-0.018068308010697365,0.014528491534292698,-0.003221025923267007,-0.046824000775814056
0.03447756916284561,-0.0023182907607406378,-0.017718536779284477,0.014889995567500591,-0.003194129094481468,-0.04725212603807449
0.034603167325258255,-0.0022580567747354507,-0.017677122727036476,0.015502708032727242,-0.0030475324019789696,-0.04755748435854912
0.03365609049797058,-0.0024161033798009157,-0.018237194046378136,0.014834888279438019,-0.003298986004665494,-0.04665101319551468
0.03288864716887474,-0.002629610477015376,-0.01768624596297741,0.014519584365189075,-0.003172732423990965,-0.04759854078292847
0.03418012335896492,-0.002331505762413144,-0.01839427836239338,0.014398513361811638,-0.002964495914056897,-0.04810893535614014
0.03418012335896492,-0.002331505762413144,-0.01839427836239338,0.014398513361811638,-0.002964495914056897,-0.04810893535614014
0.034222159534692764,-0.002300118561834097,-0.018739141523838043,0.01531084906309843,-0.002913948381319642,-0.048394955694675446
0.03413882479071617,-0.0023802132345736027,-0.018200453370809555,0.015312150120735168,-0.0028999438509345055,-0.047204915434122086
0.034494537860155106,-0.0022890036925673485,-0.01890028640627861,0.015428712591528893,-0.0030297948978841305,-0.04853437468409538
0.0349847711622715,-0.002456646179780364,-0.018938763067126274,0.01477564312517643,-0.003313933266326785,-0.04872407391667366
0.033842723816633224,-0.002365333028137684,-0.018388262018561363,0.01518191397190094,-0.0035988162271678448,-0.046267274767160416
0.033915452659130096,-0.0024952159728854895,-0.01863807439804077,0.014741560444235802,-0.0033489565830677748,-0.0476398691534996
0.03434232249855995,-0.002700623357668519,-0.018465835601091385,0.01479056291282177,-0.003224121406674385,-0.04891042411327362
0.034526124596595764,-0.0027990303933620453,-0.018592461943626404,0.014124437235295773,-0.0030526749324053526,-0.05036561191082001
0.03458371385931969,-0.0026651390362530947,-0.018673434853553772,0.013586273416876793,-0.0030612715054303408,-0.04895860701799393
0.034141432493925095,-0.002724887104704976,-0.019132720306515694,0.014267077669501305,-0.0030246153473854065,-0.05005555972456932
0.03451363742351532,-0.0025502308271825314,-0.019556375220417976,0.014355700463056564,-0.0032260094303637743,-0.04949898272752762
0.034459732472896576,-0.0025872131809592247,-0.01864003948867321,0.01550988294184208,-0.003516958560794592,-0.049674760550260544
0.034628354012966156,-0.002696335082873702,-0.018917907029390335,0.015534031204879284,-0.004117488395422697,-0.049852561205625534
0.034761253744363785,-0.003082575974985957,-0.01942838355898857,0.015983805060386658,-0.00412988755851984,-0.04997187480330467
0.03493987023830414,-0.0028394265100359917,-0.019396783784031868,0.01562921144068241,-0.003186951857060194,-0.049985017627477646
0.03509035333991051,-0.0030471193604171276,-0.019058242440223694,0.015631571412086487,-0.0026760969776660204,-0.05043342337012291
0.03513583913445473,-0.003037187736481428,-0.019524797797203064,0.015595301985740662,-0.002593994839116931,-0.05040682107210159
0.03548947721719742,-0.0026247708592563868,-0.019215920940041542,0.015456914901733398,-0.0028582701925188303,-0.050488460808992386
0.034953773021698,-0.0026976135559380054,-0.01870819367468357,0.01574944518506527,-0.0031692557968199253,-0.050890885293483734
0.03465612977743149,-0.003054126165807247,-0.019278613850474358,0.015350274741649628,-0.003335945773869753,-0.05107283964753151
0.03533399477601051,-0.003118189051747322,-0.019530510529875755,0.015553146600723267,-0.003378766356036067,-0.051877304911613464
0.03588699921965599,-0.003150788601487875,-0.019239740446209908,0.014835817739367485,-0.003606374841183424,-0.05025515332818031
0.03568864241242409,-0.002862804103642702,-0.01962028257548809,0.015264622867107391,-0.003749495605006814,-0.04960598796606064
0.03568864241242409,-0.002862804103642702,-0.01962028257548809,0.015264622867107391,-0.003749495605006814,-0.04960598796606064
0.03585485368967056,-0.0027701950166374445,-0.019153812900185585,0.015087656676769257,-0.0033386899158358574,-0.05068708211183548
0.03576657921075821,-0.002870845375582576,-0.01909765414893627,0.015539020299911499,-0.003356069093570113,-0.052878182381391525
0.03633873164653778,-0.0032121031545102596,-0.019742077216506004,0.015483180992305279,-0.003053056774660945,-0.05118895694613457
0.036449067294597626,-0.0031639733351767063,-0.019116848707199097,0.015806663781404495,-0.003272288478910923,-0.049249716103076935
0.03581366315484047,-0.0028278473764657974,-0.018912095576524734,0.015411662869155407,-0.003373056882992387,-0.05104482173919678
0.03575987368822098,-0.0029686710331588984,-0.01969156228005886,0.015270717442035675,-0.0031455138232558966,-0.05191224068403244
0.036120910197496414,-0.003073736559599638,-0.01974397338926792,0.015127630904316902,-0.00318662216886878,-0.05180581659078598
0.03726116195321083,-0.0030417453963309526,-0.019185377284884453,0.015334035269916058,-0.0032878878992050886,-0.05119318887591362
0.03698582202196121,-0.0027996886055916548,-0.019450761377811432,0.015567784197628498,-0.0032114670611917973,-0.05082625150680542
0.0367577001452446,-0.002665724139660597,-0.019064905121922493,0.016239222139120102,-0.003263649996370077,-0.05084332823753357
0.03686828538775444,-0.002410179702565074,-0.019684767350554466,0.01539943739771843,-0.0031889500096440315,-0.051666513085365295
0.03721139580011368,-0.002354862168431282,-0.019801760092377663,0.015506685711443424,-0.0029847256373614073,-0.05122988298535347
0.037868667393922806,-0.002527362434193492,-0.019032998010516167,0.015011897310614586,-0.002809244906529784,-0.04925994202494621
0.036991849541664124,-0.0024356702342629433,-0.01976403221487999,0.016918649896979332,-0.00284387799911201,-0.0518990159034729
0.03610312566161156,-0.0025756992399692535,-0.01968507282435894,0.015650484710931778,-0.0030375164933502674,-0.052127301692962646
0.036822061985731125,-0.002629158552736044,-0.018977466970682144,0.01552977878600359,-0.0031796195544302464,-0.05224168300628662
0.03816965967416763,-0.00254127592779696,-0.019180210307240486,0.015408980660140514,-0.003427545540034771,-0.05122661218047142
0.03673757240176201,-0.00286321179009974,-0.019654523581266403,0.016404565423727036,-0.0036879554390907288,-0.05195878446102142
0.03780831769108772,-0.0026373392902314663,-0.018996426835656166,0.016666056588292122,-0.003570449771359563,-0.053817909210920334
0.03785790875554085,-0.0025132352020591497,-0.01961042545735836,0.015680192038416862,-0.00341876782476902,-0.05164533108472824
0.0370350144803524,-0.002624006476253271,-0.01969604752957821,0.016325004398822784,-0.0032542855478823185,-0.052007969468832016
0.03764024376869202,-0.0025120878126472235,-0.01946171745657921,0.016228044405579567,-0.003270917572081089,-0.053136713802814484
0.03764024376869202,-0.0025120878126472235,-0.01946171745657921,0.016228044405579567,-0.003270917572081089,-0.053136713802814484
0.037199992686510086,-0.0024387550074607134,-0.019650237634778023,0.017660336568951607,-0.0034899062011390924,-0.05444623902440071
0.03746223822236061,-0.002619862323626876,-0.020015636458992958,0.016897035762667656,-0.00422785896807909,-0.053228866308927536
0.037822604179382324,-0.0023917921353131533,-0.019380109384655952,0.016339287161827087,-0.004135633818805218,-0.053654830902814865
0.03791634738445282,-0.002299944404512644,-0.01967424713075161,0.016232363879680634,-0.00392130995169282,-0.05393286049365997
0.03811335936188698,-0.0023820498026907444,-0.020117906853556633,0.01604289747774601,-0.003314803121611476,-0.05402330681681633
0.03806497901678085,-0.0022416659630835056,-0.020217297598719597,0.016571538522839546,-0.003095614956691861,-0.054211486130952835
0.03940897807478905,-0.0023699577432125807,-0.01947588101029396,0.01624235324561596,-0.0030235489830374718,-0.054234158247709274
0.03798453509807587,-0.002609941875562072,-0.019702346995472908,0.016413617879152298,-0.0034158695489168167,-0.053833991289138794
0.03741315379738808,-0.002331525320187211,-0.019665373489260674,0.01652274653315544,-0.003292020410299301,-0.05444665625691414
0.03895317390561104,-0.0025533263105899096,-0.020792372524738312,0.01700202003121376,-0.003445926820859313,-0.05358640104532242
0.039237476885318756,-0.0024157401639968157,-0.021160781383514404,0.01625487208366394,-0.0033196036238223314,-0.05537348613142967
0.03987909108400345,-0.0025887503288686275,-0.020639749243855476,0.016766538843512535,-0.003332143882289529,-0.05475339666008949
0.038012612611055374,-0.0027803867124021053,-0.020413845777511597,0.016504330560564995,-0.003494005650281906,-0.05469023808836937
0.0383480079472065,-0.002551078563556075,-0.02009444124996662,0.016736654564738274,-0.004010937642306089,-0.056581031531095505
0.03966384381055832,-0.002606408204883337,-0.020059779286384583,0.016001814976334572,-0.00387756060808897,-0.054200541228055954
0.0389835424721241,-0.0024256312754005194,-0.02026286907494068,0.016140541061758995,-0.003462825436145067,-0.0545051246881485
0.03899518400430679,-0.002352350391447544,-0.020630065351724625,0.016095083206892014,-0.003135728882625699,-0.05532902106642723
0.03903565555810928,-0.002564261434599757,-0.0205139871686697,0.016120748594403267,-0.003068919526413083,-0.05760002136230469
0.0392308346927166,-0.0028111946303397417,-0.020229103043675423,0.016771763563156128,-0.0033357643987983465,-0.053588565438985825
0.03916748985648155,-0.002930308924987912,-0.020740555599331856,0.016587894409894943,-0.003616721834987402,-0.054943688213825226
0.039318982511758804,-0.0027504549361765385,-0.021204818040132523,0.016840487718582153,-0.0038225650787353516,-0.05624571815133095
0.03936556354165077,-0.002909131348133087,-0.02134738489985466,0.016504917293787003,-0.003592074615880847,-0.05615345761179924
0.0394776351749897,-0.0029694214463233948,-0.020505540072917938,0.016875654458999634,-0.003488629823550582,-0.05608978495001793
0.03980347141623497,-0.0030567494686692953,-0.020753920078277588,0.017037242650985718,-0.003533578710630536,-0.05616272613406181
0.03969074413180351,-0.002804121468216181,-0.020385000854730606,0.016724081709980965,-0.003734712488949299,-0.05615606531500816
0.04020325466990471,-0.002998553914949298,-0.020261505618691444,0.016920309513807297,-0.004174867644906044,-0.05642779543995857
0.04020325466990471,-0.002998553914949298,-0.020261505618691444,0.016920309513807297,-0.004174867644906044,-0.05642779543995857
0.03968590870499611,-0.003047769423574209,-0.020839592441916466,0.01673239655792713,-0.004041314125061035,-0.05655999109148979
0.03998520225286484,-0.0026617427356541157,-0.02151491306722164,0.016979031264781952,-0.003849688218906522,-0.05680268257856369
0.04100492224097252,-0.00265887170098722,-0.021301431581377983,0.017061453312635422,-0.003319080453366041,-0.0571092814207077
0.04025379940867424,-0.0027489459607750177,-0.020474212244153023,0.01696939580142498,-0.0033693567384034395,-0.055778466165065765
0.040082063525915146,-0.0028579598292708397,-0.02093050815165043,0.017468756064772606,-0.003667377633973956,-0.057608168572187424
0.04059566929936409,-0.0029243542812764645,-0.02132415771484375,0.017167871817946434,-0.00387211493216455,-0.057782769203186035
0.04033219814300537,-0.002971882466226816,-0.021451665088534355,0.017327891662716866,-0.003803358180448413,-0.05953225865960121
0.040583278983831406,-0.003117516404017806,-0.02098202146589756,0.0170398261398077,-0.0035279039293527603,-0.05672954395413399
0.040624991059303284,-0.003062137868255377,-0.0210301261395216,0.017282910645008087,-0.0035043417010456324,-0.05652134492993355
0.040907200425863266,-0.002969537628814578,-0.02136603370308876,0.017942756414413452,-0.0033340866211801767,-0.05860016494989395
0.0403464138507843,-0.002692530630156398,-0.02152104862034321,0.017816590145230293,-0.0034636277705430984,-0.059309959411621094
0.04107256978750229,-0.002729081781581044,-0.020846767351031303,0.019067073240876198,-0.003680812194943428,-0.05620516464114189
0.03982183337211609,-0.0025707860477268696,-0.021787729114294052,0.017123524099588394,-0.003976400010287762,-0.05827278643846512
0.03982183337211609,-0.0025707860477268696,-0.021787729114294052,0.017123524099588394,-0.003976400010287762,-0.05827278643846512
0.04044447839260101,-0.003022946882992983,-0.021432187408208847,0.017584025859832764,-0.00394810363650322,-0.05800922214984894
