davideferrari95/blind_handover_controller/data/Test 107 - [2024-02-07 -- 16-22-43]/joint_states_data.csv
shoulder_pan_joint,shoulder_lift_joint,elbow_joint,wrist_1_joint,wrist_2_joint,wrist_3_joint
0.007167764939367771,0.0069954125210642815,-0.00879120733588934,0.0043729315511882305,-0.0,0.007801821921020746
0.007854396477341652,0.007413104642182589,-0.0091111334040761,0.0040799998678267,-0.0,0.007329962216317654
0.007854396477341652,0.007413104642182589,-0.0091111334040761,0.0040799998678267,-0.0,0.007329962216317654
0.007471839897334576,0.007024610415101051,-0.007963662967085838,0.003914358094334602,-0.0,0.006776260677725077
0.006856238003820181,0.006569096352905035,-0.007269413210451603,0.003795214230194688,-0.0,0.00697901239618659
0.007093991152942181,0.006709657143801451,-0.008852639235556126,0.00384038919582963,-0.0,0.007824732922017574
0.007650701329112053,0.006679262034595013,-0.008161875419318676,0.0038147554732859135,-0.0,0.007882458157837391
0.007685402873903513,0.006364214699715376,-0.007907474413514137,0.00372010818682611,-0.0,0.0070642149075865746
0.007168400567024946,0.0071200295351445675,-0.0076482356525957584,0.0036983343306928873,-0.0,0.007319110445678234
0.006933815311640501,0.006539379246532917,-0.008810079656541348,0.003398340428248048,-0.0,0.008016900159418583
0.006933815311640501,0.006539379246532917,-0.008810079656541348,0.003398340428248048,-0.0,0.008016900159418583
0.007653889246284962,0.006856098771095276,-0.007745396811515093,0.003715002676472068,-0.0,0.0072220563888549805
0.007653889246284962,0.006856098771095276,-0.007745396811515093,0.003715002676472068,-0.0,0.0072220563888549805
0.007058440241962671,0.006735183298587799,-0.007820585742592812,0.003446495160460472,-0.0,0.00784723088145256
0.006988569162786007,0.006263640709221363,-0.00868096575140953,0.003512120572850108,-0.0,0.007856213487684727
0.007418581750243902,0.006525010336190462,-0.008847346529364586,0.0036621950566768646,-0.0,0.007716515101492405
0.007140727248042822,0.00626813480630517,-0.00874817930161953,0.0035134092904627323,-0.0,0.007068940903991461
0.006927009671926498,0.0060601262375712395,-0.008457044139504433,0.0035565774887800217,-0.0,0.007475488353520632
0.007241015788167715,0.0060656084679067135,-0.008638196624815464,0.004115211311727762,-0.0,0.0074236742220819
0.007241015788167715,0.0060656084679067135,-0.008638196624815464,0.004115211311727762,-0.0,0.0074236742220819
0.007436412386596203,0.007182007189840078,-0.009350397624075413,0.004074370954185724,-0.0,0.008003035560250282
0.007604019250720739,0.0068677556701004505,-0.008855567313730717,0.0039526913315057755,-0.0,0.007110811769962311
0.007047350984066725,0.00645950622856617,-0.008366425521671772,0.0034202083479613066,-0.0,0.0068956464529037476
0.007331004366278648,0.006512722000479698,-0.008870890364050865,0.003342342795804143,-0.0,0.006918658036738634
0.00805685855448246,0.006708262488245964,-0.008929751813411713,0.0035601011477410793,-0.0,0.007122135255485773
0.007039717398583889,0.006650509312748909,-0.008545574732124805,0.0036341692321002483,-0.0,0.0073793125338852406
0.007612049579620361,0.00641519483178854,-0.008953322656452656,0.003559101140126586,-0.0,0.007400249596685171
0.007884242571890354,0.006569225806742907,-0.0094140050932765,0.0038803708739578724,-0.0,0.007584028877317905
0.007042099256068468,0.006459570024162531,-0.008730964735150337,0.0040217312052845955,-0.0,0.007077282760292292
0.006910890806466341,0.007012554910033941,-0.008566983975470066,0.0038800917100161314,-0.0,0.007292469032108784
0.007192148827016354,0.006531863939017057,-0.008822190575301647,0.00378727400675416,-0.0,0.007821871899068356
0.007093422580510378,0.006583377253264189,-0.008439188823103905,0.003847836283966899,-0.0,0.007463753689080477
0.007718939799815416,0.006236509885638952,-0.008372155018150806,0.00428963266313076,-0.0,0.007208226714283228
0.0073373825289309025,0.006557415705174208,-0.008965814486145973,0.0040083942003548145,-0.0,0.0070224362425506115
0.0069940825924277306,0.006609131582081318,-0.008816390298306942,0.0035238023847341537,-0.0,0.0070264278911054134
0.0071540032513439655,0.006162027362734079,-0.008990521542727947,0.0033064030576497316,-0.0,0.0073368968442082405
0.007124384865164757,0.006042763590812683,-0.009411894716322422,0.0034250065218657255,-0.0,0.007368925027549267
0.006830083206295967,0.006181820295751095,-0.009325324557721615,0.0034397379495203495,-0.0,0.007351113948971033
0.0072187078185379505,0.0066981445997953415,-0.008438021875917912,0.0035567975137382746,-0.0,0.006981450133025646
0.007601941470056772,0.006532950792461634,-0.008950590156018734,0.003764217486605048,-0.0,0.007139093708246946
0.007214889861643314,0.006190846674144268,-0.009509445168077946,0.0038289485964924097,-0.0,0.007459101267158985
0.007214889861643314,0.006190846674144268,-0.009509445168077946,0.0038289485964924097,-0.0,0.007459101267158985
0.007276375778019428,0.006214088760316372,-0.009796319529414177,0.0037451640237122774,-0.0,0.007753738202154636
0.006653258111327887,0.006919392384588718,-0.009084958583116531,0.003734698984771967,-0.0,0.007756606210023165
0.007132568396627903,0.007067787926644087,-0.008937327191233635,0.003819175297394395,-0.0,0.007145478390157223
0.00726530933752656,0.006749175023287535,-0.00846497155725956,0.004101677797734737,-0.0,0.007062172517180443
0.006959127262234688,0.006347834598273039,-0.008365580812096596,0.0039756884798407555,-0.0,0.0076389494352042675
0.007067254278808832,0.006282989867031574,-0.00946597196161747,0.003534780815243721,-0.0,0.0071340398862957954
0.007262708153575659,0.007037161383777857,-0.009200754575431347,0.0033296917099505663,-0.0,0.007368896156549454
0.00710416492074728,0.007161044981330633,-0.009231042116880417,0.003374391933903098,-0.0,0.007613361347466707
0.007546607404947281,0.006480212323367596,-0.009183336049318314,0.003872948233038187,-0.0,0.007656604517251253
0.007108124904334545,0.0062095969915390015,-0.009630444459617138,0.0037941820919513702,-0.0,0.00673307292163372
0.007395046763122082,0.0067022391594946384,-0.008315716870129108,0.003606181824579835,-0.0,0.00651729479432106
0.007488159462809563,0.006743837147951126,-0.008709197863936424,0.0040419381111860275,-0.0,0.006963871419429779
0.006775666493922472,0.006116835400462151,-0.008633788675069809,0.0036002062261104584,-0.0,0.007110225036740303
0.0072745089419186115,0.005919953342527151,-0.00912066176533699,0.003585463622584939,-0.0,0.006847755517810583
0.0069130840711295605,0.0066130515187978745,-0.009242498315870762,0.0033230946864932775,-0.0,0.006527000106871128
0.007176834158599377,0.006608449388295412,-0.009209216572344303,0.0035055235493928194,-0.0,0.006976906675845385
0.0073698037303984165,0.006131578236818314,-0.00865914300084114,0.0037281427066773176,-0.0,0.006907793693244457
0.007664612028747797,0.006268247030675411,-0.009150196798145771,0.0034651958849281073,-0.0,0.007043721619993448
0.00721738813444972,0.006511085666716099,-0.009333386085927486,0.0033072151709347963,-0.0,0.006957742851227522
0.006857588887214661,0.006314147729426622,-0.008169452659785748,0.0033605003263801336,-0.0,0.006709299515932798
0.007199879735708237,0.005967124830931425,-0.00884206686168909,0.0033677052706480026,-0.0,0.00710691325366497
0.007561719045042992,0.006432042922824621,-0.00923242699354887,0.003530582645907998,-0.0,0.006793024949729443
0.0074453577399253845,0.006125320214778185,-0.008600076660513878,0.003398071974515915,-0.0,0.006994676310569048
0.007448570337146521,0.00635930709540844,-0.008289662189781666,0.003498800564557314,-0.0,0.006997616961598396
0.007634826935827732,0.006617272272706032,-0.009019479155540466,0.003630358027294278,-0.0,0.006815817207098007
0.007634826935827732,0.006617272272706032,-0.009019479155540466,0.003630358027294278,-0.0,0.006815817207098007
0.007663452997803688,0.0060489061288535595,-0.008438637480139732,0.0037372203078120947,-0.0,0.0068436963483691216
0.007439906243234873,0.006265129894018173,-0.008261533454060555,0.0033374109771102667,-0.0,0.006829144898802042
0.007390482816845179,0.00606994004920125,-0.008920922875404358,0.0030775435734540224,-0.0,0.007216848898679018
0.008138714358210564,0.006417832802981138,-0.009037543088197708,0.0030545357149094343,-0.0,0.007016665302217007
0.00853830948472023,0.006481419783085585,-0.009054993279278278,0.003320355201140046,-0.0,0.006851501762866974
0.007679325994104147,0.006367841735482216,-0.008535551838576794,0.0033920579589903355,-0.0,0.006796158384531736
0.0073292916640639305,0.006014971528202295,-0.008941239677369595,0.0035739075392484665,-0.0,0.00699737761169672
0.007935728877782822,0.005732410121709108,-0.00865775067359209,0.003335467306897044,-0.0,0.007182090077549219
0.008131368085741997,0.005865851417183876,-0.008686055429279804,0.003116848412901163,-0.0,0.007028758060187101
0.007808462250977755,0.006079801823943853,-0.00946885161101818,0.0028654318302869797,-0.0,0.007336567621678114
0.008101235143840313,0.005791635252535343,-0.008456728421151638,0.002890751464292407,-0.0,0.007199394982308149
0.00844952929764986,0.006091015879064798,-0.008724364452064037,0.00333046680316329,-0.0,0.007019966375082731
0.007985381409525871,0.0059018926694989204,-0.009010564535856247,0.0038119307719171047,-0.0,0.0068435207940638065
0.007095687557011843,0.006115149240940809,-0.008750896900892258,0.003487876383587718,-0.0,0.0066548497416079044
0.00788953434675932,0.005924357566982508,-0.008705002255737782,0.0034662503749132156,-0.0,0.006708460859954357
0.007916358299553394,0.005862584337592125,-0.009402885101735592,0.0033109511714428663,-0.0,0.007281528785824776
0.007960652932524681,0.005655158776789904,-0.00906610768288374,0.003275600029155612,-0.0,0.007446702104061842
0.007354981731623411,0.005785442888736725,-0.008629734627902508,0.0033677981700748205,-0.0,0.006979326251894236
0.007953520864248276,0.00559357600286603,-0.009368570521473885,0.003387963166460395,-0.0,0.00723737757652998
0.008575779385864735,0.00563155859708786,-0.00878448411822319,0.0034962438512593508,-0.0,0.00667171087116003
0.008493156172335148,0.005567214917391539,-0.00838476326316595,0.0037289815954864025,-0.0,0.006519442889839411
0.008009335026144981,0.005807057023048401,-0.009149433113634586,0.003941069357097149,-0.0,0.0062896329909563065
0.008009335026144981,0.005807057023048401,-0.009149433113634586,0.003941069357097149,-0.0,0.0062896329909563065
0.00794845912605524,0.006227986421436071,-0.009187515825033188,0.003544616512954235,-0.0,0.006891297642141581
0.008514338172972202,0.005619898904114962,-0.008296082727611065,0.003556601470336318,-0.0,0.006632336415350437
0.008325239643454552,0.0058657401241362095,-0.008872652426362038,0.0037718540988862514,-0.0,0.0069615403190255165
0.007837917655706406,0.005390041507780552,-0.008946786634624004,0.003421694738790393,-0.0,0.006694351322948933
0.008267574943602085,0.0060309842228889465,-0.008220628835260868,0.0035129431635141373,-0.0,0.006828811950981617
0.0082923648878932,0.005602972116321325,-0.008127951994538307,0.0032001868821680546,-0.0,0.006872073281556368
0.007612309884279966,0.006418366450816393,-0.009134016931056976,0.003317614085972309,-0.0,0.0066915638744831085
0.007993540726602077,0.00585878174751997,-0.008943555876612663,0.0033204739447683096,-0.0,0.006623002700507641
0.009149502031505108,0.005899268668144941,-0.008790313266217709,0.0032368877436965704,-0.0,0.006277125794440508
0.008355866186320782,0.005338854622095823,-0.009341094642877579,0.003425498493015766,-0.0,0.006445714738219976
0.008033881895244122,0.005701921414583921,-0.009123516269028187,0.003612817032262683,-0.0,0.00713070435449481
0.008804191835224628,0.006611967459321022,-0.008314595557749271,0.0036232820712029934,-0.0,0.007082079537212849
0.0085933618247509,0.005684631876647472,-0.00855906680226326,0.0035996136721223593,-0.0,0.006306504365056753
0.008250812068581581,0.0055727348662912846,-0.00876464694738388,0.0032679778523743153,-0.0,0.006241900380700827
0.009145556949079037,0.005789300426840782,-0.009145754389464855,0.003037680871784687,-0.0,0.006750795990228653
0.008358841761946678,0.005821038968861103,-0.00898932758718729,0.003211583476513624,-0.0,0.006646246183663607
0.008064009249210358,0.006209297571331263,-0.008854314684867859,0.00343960989266634,-0.0,0.006730090361088514
0.00871661864221096,0.0055074444971978664,-0.008466142229735851,0.003375675529241562,-0.0,0.006257051136344671
0.008547483943402767,0.0050973533652722836,-0.0087744714692235,0.0035559965763241053,-0.0,0.006461221259087324
0.008173187263309956,0.005760706961154938,-0.0093782814219594,0.003246527398005128,-0.0,0.006930634379386902
0.008451845496892929,0.005549865309149027,-0.008216376416385174,0.003281558398157358,-0.0,0.007058138959109783
0.00901869498193264,0.006019650027155876,-0.008354178629815578,0.0033578206785023212,-0.0,0.006483511067926884
0.008549441583454609,0.005309673957526684,-0.009408781304955482,0.0035522764082998037,-0.0,0.0061171166598796844
0.008232900872826576,0.0051618944853544235,-0.0084493113681674,0.003249741392210126,-0.0,0.006213047541677952
0.008177009411156178,0.005127571523189545,-0.008433765731751919,0.0029613508377224207,-0.0,0.006809585727751255
0.00831305980682373,0.005045859608799219,-0.00922832265496254,0.0029348554089665413,-0.0,0.006738082971423864
0.00831305980682373,0.005045859608799219,-0.00922832265496254,0.0029348554089665413,-0.0,0.006738082971423864
0.008195704780519009,0.005993410013616085,-0.008465436287224293,0.0033340754453092813,-0.0,0.00637053744867444
0.008442546240985394,0.00572162913158536,-0.008103018626570702,0.003413148457184434,-0.0,0.006357769016176462
0.009774652309715748,0.005223722662776709,-0.008567579090595245,0.003509369445964694,-0.0,0.006750588305294514
0.0083479518070817,0.005221861880272627,-0.008957204408943653,0.003396581392735243,-0.0,0.006641544867306948
0.0073677669279277325,0.005539205390959978,-0.009256571531295776,0.0033272700384259224,-0.0,0.0065739331766963005
0.008258400484919548,0.005664083641022444,-0.008801567368209362,0.003004111349582672,-0.0,0.006377483252435923
0.008859441615641117,0.006243129726499319,-0.009035637602210045,0.003038012655451894,-0.0,0.006543115712702274
0.008388461545109749,0.006255739368498325,-0.008790244348347187,0.0032081776298582554,-0.0,0.00660770945250988
0.008376206271350384,0.005409805104136467,-0.008516618981957436,0.0033022768329828978,-0.0,0.006945859175175428
0.008901399560272694,0.005989951081573963,-0.00972694531083107,0.0028319675475358963,-0.0,0.006617682985961437
0.008579002693295479,0.00561271607875824,-0.008784574456512928,0.002811037702485919,-0.0,0.006411886308342218
0.007790619973093271,0.00597564410418272,-0.008366568014025688,0.0030058592092245817,-0.0,0.006420503836125135
0.008372816257178783,0.005996339954435825,-0.009341677650809288,0.0034879641607403755,-0.0,0.006389799062162638
0.008217056281864643,0.005519368685781956,-0.008756294846534729,0.003453264245763421,-0.0,0.00591052882373333
0.008233952336013317,0.005902906414121389,-0.008406475186347961,0.00318788830190897,-0.0,0.005846689455211163
0.00891320314258337,0.006236881483346224,-0.008588036522269249,0.0033846592996269464,-0.0,0.006186732091009617
0.008573307655751705,0.006035312544554472,-0.008812534622848034,0.0036280108615756035,-0.0,0.0058541675098240376
0.008281085640192032,0.005991889629513025,-0.009053461253643036,0.0032799639739096165,-0.0,0.005792167969048023
0.008959298953413963,0.005603345111012459,-0.00930776260793209,0.0032982768025249243,-0.0,0.005550513043999672
0.008689863607287407,0.0056304605677723885,-0.008999048732221127,0.003563912818208337,-0.0,0.005770227871835232
0.008601523004472256,0.005842408165335655,-0.007470761425793171,0.0038129971362650394,-0.0,0.00656140549108386
0.008626553229987621,0.005816633813083172,-0.008990330621600151,0.0036890613846480846,-0.0,0.006484670098870993
0.008719364181160927,0.006005695555359125,-0.00928334891796112,0.0035200726706534624,-0.0,0.005836223717778921
0.008775572292506695,0.0054876189678907394,-0.008668437600135803,0.0032051117159426212,-0.0,0.005888556595891714
0.008769171312451363,0.0058803497813642025,-0.008838261477649212,0.003040529787540436,-0.0,0.005893278867006302
0.00902614463120699,0.0059024314396083355,-0.00888819620013237,0.0030940966680645943,-0.0,0.006176862400025129
0.009194212034344673,0.006366237998008728,-0.008455990813672543,0.003166504902765155,-0.0,0.005814386066049337
0.008417516946792603,0.005729670636355877,-0.009509584866464138,0.0033327145501971245,-0.0,0.005650960374623537
0.008417516946792603,0.005729670636355877,-0.009509584866464138,0.0033327145501971245,-0.0,0.005650960374623537
0.009300604462623596,0.005710079334676266,-0.009148484095931053,0.003361371112987399,-0.0,0.006024704314768314
0.008916324935853481,0.0057810228317976,-0.008935761637985706,0.0032297857105731964,-0.0,0.005539243575185537
0.00872635655105114,0.006304537877440453,-0.008579708635807037,0.0034326324239373207,-0.0,0.005283786449581385
0.00905187614262104,0.006340079940855503,-0.009274040348827839,0.0034284833818674088,-0.0,0.00534179899841547
0.009336410090327263,0.0056046233512461185,-0.00950447004288435,0.003377757966518402,-0.0,0.005260691978037357
0.00896847527474165,0.0057404059916734695,-0.008847621269524097,0.0031298540998250246,-0.0,0.005312969908118248
0.00866242777556181,0.005615019705146551,-0.009106931276619434,0.0032233477104455233,-0.0,0.0054551525972783566
0.009463346563279629,0.006091575138270855,-0.009182843379676342,0.003324554767459631,-0.0,0.00561203807592392
0.009304037317633629,0.006051511503756046,-0.008988005109131336,0.003525266656652093,-0.0,0.005684313364326954
0.009315041825175285,0.005680099129676819,-0.008913986384868622,0.0036939389538019896,-0.0,0.005531412083655596
0.00897424016147852,0.006091978866606951,-0.009700869210064411,0.004011285025626421,-0.0,0.005501629319041967
0.009554303251206875,0.0056287203915417194,-0.008827472105622292,0.003728590440005064,-0.0,0.005456028506159782
0.00963547546416521,0.005744561553001404,-0.009468594565987587,0.0036314877215772867,-0.0,0.005615978967398405
0.009007984772324562,0.005639597773551941,-0.009507796727120876,0.00388189940713346,-0.0,0.005338502582162619
0.008563107810914516,0.005491260439157486,-0.008343041874468327,0.004021086730062962,-0.0,0.005286161322146654
0.00900321826338768,0.005760837811976671,-0.009142239578068256,0.0040300022810697556,-0.0,0.005401388742029667
0.009106919169425964,0.005354594439268112,-0.00924655795097351,0.003990908153355122,-0.0,0.005395866930484772
0.008992927148938179,0.005886419210582972,-0.009173166938126087,0.003979301080107689,-0.0,0.0057920170947909355
0.009259619750082493,0.005532210227102041,-0.009423262439668179,0.0039108432829380035,-0.0,0.005516299046576023
0.009530926123261452,0.005092888604849577,-0.009681926108896732,0.003821505233645439,-0.0,0.0053494591265916824
0.009831973351538181,0.0051953778602182865,-0.008895508013665676,0.0037833231035619974,-0.0,0.00520889600738883
0.008848203346133232,0.005613888613879681,-0.009773698635399342,0.0037924712523818016,-0.0,0.005122675560414791
0.00915270671248436,0.005361447110772133,-0.009186426177620888,0.003778070444241166,-0.0,0.005320452153682709
0.009246359579265118,0.005814984906464815,-0.009577893652021885,0.003343352349475026,-0.0,0.005390699487179518
0.009900734759867191,0.005301712546497583,-0.009308786131441593,0.003481611143797636,-0.0,0.005477107595652342
0.009119235910475254,0.00535208685323596,-0.00948628131300211,0.003728459356352687,-0.0,0.00506552355363965
0.009717632085084915,0.005700537469238043,-0.009171671234071255,0.003435560967773199,-0.0,0.0052329967729747295
0.00932809617370367,0.005664594005793333,-0.008949646726250648,0.003501464147120714,-0.0,0.005037280730903149
0.009827299043536186,0.0058309659361839294,-0.00940686371177435,0.0036936053074896336,-0.0,0.004919606726616621
0.009827299043536186,0.0058309659361839294,-0.00940686371177435,0.0036936053074896336,-0.0,0.004919606726616621
0.009600719437003136,0.0052876160480082035,-0.009169870056211948,0.0033506175968796015,-0.0,0.005111457780003548
0.00917292945086956,0.005108500365167856,-0.008890204131603241,0.0033571352250874043,-0.0,0.004846036899834871
0.009927925653755665,0.005082547198981047,-0.009456820785999298,0.0033348503056913614,-0.0,0.004693103022873402
0.009570673108100891,0.005717336665838957,-0.00939401425421238,0.0034713302738964558,-0.0,0.004779066890478134
0.009294438175857067,0.005526736844331026,-0.009191225282847881,0.00338103249669075,-0.0,0.005299992393702269
0.009909483604133129,0.005795932840555906,-0.009806069545447826,0.00347835011780262,-0.0,0.005574620794504881
0.009668022394180298,0.005165683571249247,-0.009335688315331936,0.003664123360067606,-0.0,0.004937940742820501
0.009226656518876553,0.0052773007191717625,-0.008950605988502502,0.003812978509813547,-0.0,0.004996594041585922
0.009666826575994492,0.005456659942865372,-0.009559120051562786,0.003862628247588873,-0.0,0.00505841476842761
0.010134055279195309,0.005272876471281052,-0.009299186989665031,0.0038162115961313248,-0.0,0.004980562720447779
0.009439701214432716,0.005875344388186932,-0.008929148316383362,0.0037482271436601877,-0.0,0.0048911068588495255
0.010442804545164108,0.0057825050316751,-0.009508049115538597,0.003720514941960573,-0.0,0.005207977723330259
0.00996476598083973,0.005686172284185886,-0.009472504258155823,0.004229705315083265,-0.0,0.005096982233226299
0.009682963602244854,0.005630947183817625,-0.008946159854531288,0.004260937217622995,-0.0,0.004536034539341927
0.009800434112548828,0.005677832756191492,-0.009333598427474499,0.004031613934785128,-0.0,0.00436139851808548
0.009566470049321651,0.0057348888367414474,-0.008875812403857708,0.0037984736263751984,-0.0,0.0046485913917422295
0.010705276392400265,0.00605260394513607,-0.00901693943887949,0.00414724787697196,-0.0,0.005577675066888332
0.009955410845577717,0.005423846188932657,-0.009645890444517136,0.004191135056316853,-0.0,0.005450818687677383
0.009311561472713947,0.005057475529611111,-0.008895397186279297,0.004356022924184799,-0.0,0.0050302352756261826
0.009658518247306347,0.005787399597465992,-0.008508584462106228,0.004362734965980053,-0.0,0.004656890407204628
0.010022272355854511,0.00591424573212862,-0.00925392284989357,0.004568712320178747,-0.0,0.004613620229065418
0.009607222862541676,0.0056793419644236565,-0.009204653091728687,0.004126124083995819,-0.0,0.004760705400258303
0.009754256345331669,0.005418938118964434,-0.00930104311555624,0.003860002150759101,-0.0,0.004868353251367807
0.009807292371988297,0.005578712560236454,-0.009585116058588028,0.0037375199608504772,-0.0,0.005088113248348236
0.009459483437240124,0.0051976582035422325,-0.009165975265204906,0.004003423266112804,-0.0,0.004992116242647171
0.009642008692026138,0.005443125031888485,-0.008382225409150124,0.004161262419074774,-0.0,0.004778480622917414
0.010342382825911045,0.005505337379872799,-0.008935275487601757,0.0043780868873000145,-0.0,0.0046040089800953865
0.009185748174786568,0.005579098127782345,-0.009327721782028675,0.004385433625429869,-0.0,0.0046314033679664135
0.009534381330013275,0.005239339545369148,-0.00898411963135004,0.004264544695615768,-0.0,0.004656536038964987
0.009979408234357834,0.005796386394649744,-0.008691110648214817,0.004023543559014797,-0.0,0.004761027172207832
0.009979408234357834,0.005796386394649744,-0.008691110648214817,0.004023543559014797,-0.0,0.004761027172207832
0.0094883032143116,0.005487668793648481,-0.009122860617935658,0.003986353520303965,-0.0,0.005010105669498444
0.009781312197446823,0.005921531468629837,-0.008931640535593033,0.003965688403695822,-0.0,0.004493938758969307
0.010082277469336987,0.00537994597107172,-0.00880182534456253,0.003929732367396355,-0.0,0.004476257599890232
0.009474433958530426,0.005322249606251717,-0.00921580195426941,0.003895555390045047,-0.0,0.00429654261097312
0.009704740718007088,0.005524149630218744,-0.008660571649670601,0.004320912063121796,-0.0,0.004043571650981903
0.009648979641497135,0.005156239494681358,-0.008666024543344975,0.004229176323860884,-0.0,0.004266801290214062
0.009534253738820553,0.005509107373654842,-0.009118988178670406,0.004334446974098682,-0.0,0.005037405528128147
0.009699923917651176,0.0051597487181425095,-0.009129055775702,0.003994319587945938,-0.0,0.005241983104497194
0.009868857450783253,0.00496796565130353,-0.008648976683616638,0.003833385417237878,-0.0,0.004913550801575184
0.010650316253304482,0.00487214419990778,-0.009225843474268913,0.004166091326624155,-0.0,0.004412643611431122
0.01003595907241106,0.005153580103069544,-0.008708715438842773,0.004443374462425709,-0.0,0.004578311461955309
0.009238345548510551,0.005457677412778139,-0.008846571668982506,0.004478046670556068,-0.0,0.0046968767419457436
0.010662910528481007,0.005251047667115927,-0.009408822283148766,0.0043958378955721855,-0.0,0.004629404749721289
0.010129689238965511,0.005283168517053127,-0.009069609455764294,0.004315901547670364,-0.0,0.004736895672976971
0.009580479934811592,0.005128103774040937,-0.008996310643851757,0.004230803810060024,-0.0,0.004345725756138563
0.01005597598850727,0.005821481347084045,-0.009288881905376911,0.004385565873235464,-0.0,0.003973177168518305
0.009986449033021927,0.005444098263978958,-0.008968105539679527,0.00444752536714077,-0.0,0.0038911502342671156
0.009853767231106758,0.006024554837495089,-0.008443642407655716,0.004818093031644821,-0.0,0.003988442476838827
0.010528264567255974,0.005481591448187828,-0.008884306065738201,0.004432213958352804,-0.0,0.004051633179187775
0.009386134333908558,0.005423837341368198,-0.009356589987874031,0.003963313065469265,-0.0,0.004540012218058109
0.009295404888689518,0.005624284967780113,-0.00872365664690733,0.0037865936756134033,-0.0,0.004717545583844185
0.010393938049674034,0.005533356685191393,-0.00888172909617424,0.003794620744884014,-0.0,0.0041954005137085915
0.010252001695334911,0.005767836235463619,-0.009008616209030151,0.003787166904658079,-0.0,0.0038591246120631695
0.010051467455923557,0.00518064433708787,-0.008231445215642452,0.004144489299505949,-0.0,0.004052731208503246
0.010512039996683598,0.005248663015663624,-0.008169252425432205,0.004604887217283249,-0.0,0.004016086459159851
0.010091397911310196,0.005067708436399698,-0.009142361581325531,0.004617276135832071,-0.0,0.003922085743397474
0.010091397911310196,0.005067708436399698,-0.009142361581325531,0.004617276135832071,-0.0,0.003922085743397474
0.010128790512681007,0.005293773952871561,-0.008908023126423359,0.004433327354490757,-0.0,0.004227675963193178
0.010275498032569885,0.005509155336767435,-0.008472897112369537,0.00407664617523551,-0.0,0.004522442817687988
0.010617753490805626,0.005300615914165974,-0.008889696560800076,0.0039578769356012344,-0.0,0.00416053831577301
0.00999189168214798,0.005172948818653822,-0.008977343328297138,0.00421983003616333,-0.0,0.0034392981324344873
0.010089928284287453,0.005486832465976477,-0.008680294267833233,0.004448712337762117,-0.0,0.0034000787418335676
0.009838653728365898,0.006168053951114416,-0.008818340487778187,0.004768848419189453,-0.0,0.00368843344040215
0.010975240729749203,0.005667713470757008,-0.0093136727809906,0.004879328887909651,-0.0,0.0034213294275105
0.010194075293838978,0.005717304069548845,-0.008380784653127193,0.004781045019626617,-0.0,0.0035053633619099855
0.009553980082273483,0.005286346189677715,-0.008438542485237122,0.004301569890230894,-0.0,0.0036902143619954586
0.010001455433666706,0.0051964097656309605,-0.008666452020406723,0.004136741627007723,-0.0,0.003993658348917961
0.009740789420902729,0.005813864059746265,-0.007195740006864071,0.004495592787861824,-0.0,0.004201762843877077
0.010154128074645996,0.005393626634031534,-0.009085016325116158,0.004797294735908508,-0.0,0.003669747617095709
0.010254339314997196,0.005390196572989225,-0.009363328106701374,0.004727384075522423,-0.0,0.0035713533870875835
0.0096584502607584,0.005446730647236109,-0.008807526901364326,0.004546699114143848,-0.0,0.003582596080377698
0.009948638267815113,0.005032804328948259,-0.008588149212300777,0.00454092537984252,-0.0,0.0032344809733331203
0.009959225542843342,0.005452190525829792,-0.009764088317751884,0.004278696607798338,-0.0,0.003336483845487237
0.009715371765196323,0.005174506921321154,-0.009286116808652878,0.004457841161638498,-0.0,0.0035935062915086746
0.010374241508543491,0.0052794585935771465,-0.00964259821921587,0.004587528761476278,-0.0,0.0037190329749137163
0.010030534118413925,0.005523480009287596,-0.009668358601629734,0.004679999314248562,-0.0,0.003402489237487316
0.009817522019147873,0.005046076141297817,-0.00917294155806303,0.004738464951515198,-0.0,0.003140876302495599
0.010029135271906853,0.005227910354733467,-0.009436629712581635,0.004765148274600506,-0.0,0.0030581632163375616
0.010223526507616043,0.00520295137539506,-0.010427942499518394,0.004754229914397001,-0.0,0.003203384345397353
0.010223526507616043,0.00520295137539506,-0.010427942499518394,0.004754229914397001,-0.0,0.003203384345397353
0.010268468409776688,0.00544785987585783,-0.009023037739098072,0.004251728765666485,-0.0,0.00333918584510684
0.01003496814519167,0.005187646020203829,-0.010116763412952423,0.00472986651584506,-0.0,0.0032851132564246655
0.01003496814519167,0.005187646020203829,-0.010116763412952423,0.00472986651584506,-0.0,0.0032851132564246655
0.009866010397672653,0.004948340356349945,-0.010334346443414688,0.004564638249576092,-0.0,0.0034591106232255697
0.009866010397672653,0.004948340356349945,-0.010334346443414688,0.004564638249576092,-0.0,0.0034591106232255697
0.010048599913716316,0.005656899884343147,-0.010169273242354393,0.004177309572696686,-0.0,0.0033235722221434116
0.010206574574112892,0.005401414353400469,-0.00961699802428484,0.003974077291786671,-0.0,0.003528512315824628
0.010115702636539936,0.005100492388010025,-0.010156986303627491,0.0042661698535084724,-0.0,0.0032751967664808035
0.009929224848747253,0.0050829071551561356,-0.010182937607169151,0.004812181461602449,-0.0,0.003051535226404667
0.010599097236990929,0.004952062852680683,-0.009906098246574402,0.0052430033683776855,-0.0,0.0028823809698224068
0.010232803411781788,0.004927942529320717,-0.009733548387885094,0.005481880623847246,-0.0,0.002784295240417123
0.01001932006329298,0.005610972177237272,-0.010602854192256927,0.005185309797525406,-0.0,0.002919123973697424
0.009930362924933434,0.0054196687415242195,-0.009794704616069794,0.00449336925521493,-0.0,0.003174641402438283
0.010329827666282654,0.005261627957224846,-0.00963732972741127,0.00447055883705616,-0.0,0.0032520010136067867
0.009827363304793835,0.004708691034466028,-0.01000944897532463,0.0052157118916511536,-0.0,0.003424034221097827
0.010100055485963821,0.004849827848374844,-0.009988456964492798,0.004960878752171993,-0.0,0.0033532322850078344
0.009830781258642673,0.005366979166865349,-0.010039529763162136,0.0048667266964912415,-0.0,0.0031823928002268076
0.010391210205852985,0.005506678484380245,-0.00999749731272459,0.0046738795936107635,-0.0,0.0028390109073370695
0.010737868025898933,0.005434972234070301,-0.009809372015297413,0.0044038365595042706,-0.0,0.00264339754357934
0.009708107449114323,0.0049207392148673534,-0.009791349060833454,0.004521774593740702,-0.0,0.0026929331943392754
0.010356376878917217,0.004967589396983385,-0.00996228028088808,0.004660388454794884,-0.0,0.0028656460344791412
0.010098522529006004,0.005307868123054504,-0.009702816605567932,0.005080931819975376,-0.0,0.0034577304031699896
0.009779401123523712,0.005285324063152075,-0.010035433806478977,0.00498352712020278,-0.0,0.0033399565145373344
0.010284900665283203,0.005376068875193596,-0.009894362650811672,0.004663272760808468,-0.0,0.00315435160882771
0.010520737618207932,0.005019962787628174,-0.010661786422133446,0.004592637065798044,-0.0,0.0027620657347142696
0.010510725900530815,0.005101833492517471,-0.010016994550824165,0.004634725861251354,-0.0,0.0024927149061113596
0.010510725900530815,0.005101833492517471,-0.010016994550824165,0.004634725861251354,-0.0,0.0024927149061113596
0.010261479765176773,0.0053887441754341125,-0.009593214839696884,0.004669882822781801,-0.0,0.0023873248137533665
0.010536503978073597,0.005033655557781458,-0.010288840159773827,0.0052263205870985985,-0.0,0.002714534755796194
0.009972252883017063,0.0055970922112464905,-0.010483982972800732,0.005372512619942427,-0.0,0.002944610547274351
0.010248593986034393,0.0053970664739608765,-0.009284830652177334,0.004774337634444237,-0.0,0.003022456541657448
0.010137412697076797,0.004915189929306507,-0.01003191713243723,0.004542369395494461,-0.0,0.002884303918108344
0.009907321073114872,0.004647370427846909,-0.010246052406728268,0.004518738016486168,-0.0,0.002853618934750557
0.010556111112236977,0.005096492823213339,-0.009496763348579407,0.005182262510061264,-0.0,0.0025128654669970274
0.010576143860816956,0.0051895128563046455,-0.009768972173333168,0.005226923618465662,-0.0,0.002416159026324749
0.01049752626568079,0.005372426472604275,-0.010178424417972565,0.005693721119314432,-0.0,0.0024656152818351984
0.010565713047981262,0.005544422660022974,-0.009099489077925682,0.005318498704582453,-0.0,0.0025236238725483418
0.01015684474259615,0.005496363155543804,-0.009677850641310215,0.005436490289866924,-0.0,0.0024666099343448877
0.01171731948852539,0.0050337049178779125,-0.010737919248640537,0.005246701650321484,-0.0,0.0024180833715945482
0.01215013675391674,0.004720950964838266,-0.009265744127333164,0.0051084477454423904,-0.0,0.0022516220342367887
0.011481569148600101,0.0053193168714642525,-0.009876345284283161,0.00539488485082984,-0.0,0.0023280668538063765
0.011429160833358765,0.005256226751953363,-0.009638446383178234,0.005504858214408159,-0.0,0.002312082564458251
0.011486584320664406,0.005178424529731274,-0.009867041371762753,0.005184072069823742,-0.0,0.002373690251260996
0.012119635939598083,0.004925557877868414,-0.009536560624837875,0.005279772449284792,-0.0,0.002407251624390483
0.011103366501629353,0.005061650648713112,-0.00912552047520876,0.005687092896550894,-0.0,0.002260308712720871
0.011924137361347675,0.0053433701395988464,-0.010318538174033165,0.006540684495121241,-0.0,0.0021093564573675394
0.011836069636046886,0.005364769604057074,-0.009776977822184563,0.006642237771302462,-0.0,0.002027323003858328
0.011920435354113579,0.005441932938992977,-0.009289593435823917,0.0059285410679876804,-0.0,0.00205158069729805
0.012258641421794891,0.0052474248223006725,-0.009264614433050156,0.005815576761960983,-0.0,0.00208386336453259
0.01184252742677927,0.004989726934581995,-0.009886391460895538,0.005953841842710972,-0.0,0.0024965915363281965
0.01229303888976574,0.005269699264317751,-0.00958343781530857,0.0060670096427202225,-0.0,0.0024134612176567316
0.011984232813119888,0.00496452022343874,-0.01000827457755804,0.006120311561971903,-0.0,0.002335705328732729
0.011984232813119888,0.00496452022343874,-0.01000827457755804,0.006120311561971903,-0.0,0.002335705328732729
0.01248946599662304,0.00557946041226387,-0.00977910403162241,0.005530088674277067,-0.0,0.002158221323043108
0.012796548195183277,0.005388270597904921,-0.009394107386469841,0.005820229649543762,-0.0,0.0019758078269660473
0.011973190121352673,0.004950108006596565,-0.009951879270374775,0.005762945394963026,-0.0,0.001680323970504105
0.0119398795068264,0.005250263959169388,-0.010143173858523369,0.005923694930970669,-0.0,0.0014575328677892685
0.011925768107175827,0.00523007195442915,-0.0092470059171319,0.005683878902345896,-0.0,0.0014661418972536922
0.01257192250341177,0.005038546863943338,-0.009477575309574604,0.0055002570152282715,-0.0,0.0015463773161172867
0.011833938769996166,0.005188195034861565,-0.00952327623963356,0.005478165112435818,-0.0,0.0017060724785551429
0.011971654370427132,0.005474896635860205,-0.009092098101973534,0.005598430521786213,-0.0,0.0023662950843572617
0.012030127458274364,0.005440947599709034,-0.009291798807680607,0.0053764162585139275,-0.0,0.002241241279989481
0.01201058179140091,0.00505076814442873,-0.01015553716570139,0.005597275216132402,-0.0,0.0021620881743729115
0.012660526670515537,0.005164567846804857,-0.009115307591855526,0.005362959112972021,-0.0,0.0019437659066170454
0.011979150585830212,0.005072320811450481,-0.00949660874903202,0.005078621208667755,-0.0,0.0016298089176416397
0.012557795271277428,0.005270698107779026,-0.010728888213634491,0.005149155389517546,-0.0,0.0014527953462675214
0.012273356318473816,0.0055946242064237595,-0.009269128553569317,0.005476989783346653,-0.0,0.0013447386445477605
0.012450906448066235,0.0048324428498744965,-0.010006224736571312,0.005618050694465637,-0.0,0.0013328554341569543
0.012317808344960213,0.004835160449147224,-0.009547850117087364,0.005334299523383379,-0.0,0.0017807194963097572
0.012317808344960213,0.004835160449147224,-0.009547850117087364,0.005334299523383379,-0.0,0.0017807194963097572
0.012299577705562115,0.005141332745552063,-0.010476241819560528,0.0049681281670928,-0.0,0.0023538435343652964
0.012943273410201073,0.005303530488163233,-0.010019369423389435,0.005524506792426109,-0.0,0.002131463959813118
0.011939740739762783,0.005096837878227234,-0.009878014214336872,0.005499203689396381,-0.0,0.0018950110534206033
0.012641001492738724,0.0048953997902572155,-0.010455090552568436,0.005815258715301752,-0.0,0.0016360386507585645
0.012706420384347439,0.005091376136988401,-0.009678445756435394,0.0055245691910386086,-0.0,0.0014305891236290336
0.012618081644177437,0.005119765177369118,-0.009576017037034035,0.005853439215570688,-0.0,0.001259127166122198
0.01266755536198616,0.005319690331816673,-0.009307757019996643,0.005607109051197767,-0.0,0.0009586552623659372
0.012408390641212463,0.005439566448330879,-0.009960740804672241,0.0053894720040261745,-0.0,0.0009989363607019186
0.012680228799581528,0.005007750820368528,-0.011140292510390282,0.005033842287957668,-0.0,0.0010209338506683707
0.012680228799581528,0.005007750820368528,-0.011140292510390282,0.005033842287957668,-0.0,0.0010209338506683707
0.01271194126456976,0.005301743280142546,-0.010190214030444622,0.005137094296514988,-0.0,0.0013516753679141402
0.012879409827291965,0.00516279973089695,-0.009301310405135155,0.005060689058154821,-0.0,0.001478969119489193
0.013018296100199223,0.005068410653620958,-0.01028289645910263,0.005066310986876488,-0.0,0.0018627549288794398
0.01280395220965147,0.005651646293699741,-0.009953577071428299,0.005536462180316448,-0.0,0.0018948573851957917
0.012939129956066608,0.00534030981361866,-0.009617810137569904,0.005357357673346996,-0.0,0.0016051264246925712
0.01279706135392189,0.005331657361239195,-0.010054560378193855,0.0054122391156852245,-0.0,0.0014075005892664194
0.013248009607195854,0.005078010261058807,-0.010724466294050217,0.005520618986338377,-2.068185949610779e-06,0.0012970450334250927
0.01287082489579916,0.00484393909573555,-0.009902206249535084,0.005483146756887436,-1.350377800690694e-07,0.0012264121323823929
0.013187585398554802,0.00510667497292161,-0.01001830119639635,0.006036906968802214,-8.817002239425165e-09,0.0011723426869139075
0.012800224125385284,0.004981705453246832,-0.00991270411759615,0.006700864061713219,-5.756871646056538e-10,0.0011661427561193705
0.013103462755680084,0.004789529833942652,-0.009556378237903118,0.006804400589317083,-3.758825889432771e-11,0.0011472018668428063
0.012733455747365952,0.00521076750010252,-0.009956846944987774,0.006690572947263718,-2.4542447067676942e-12,0.0014603128656744957
0.013391509652137756,0.005132210906594992,-0.010274388827383518,0.006856737192720175,-1.6024464741248856e-13,0.001359949936158955
0.013079690746963024,0.00531987426802516,-0.011244509369134903,0.006889405194669962,-6.831481655865911e-16,0.0011167664779350162
0.013079690746963024,0.00531987426802516,-0.011244509369134903,0.006889405194669962,-6.831481655865911e-16,0.0011167664779350162
0.013255022466182709,0.004695025272667408,-0.009951111860573292,0.0054531036876142025,-2.9123672791787517e-18,0.0008575242245569825
0.013430467806756496,0.004914003890007734,-0.0107516935095191,0.0062082912772893906,-1.9015676408357369e-19,0.0007952242158353329
0.013022204861044884,0.005384255666285753,-0.009787425398826599,0.006615131627768278,-1.2415877596844376e-20,0.0007961721275933087
0.01352010015398264,0.005008453968912363,-0.009644280187785625,0.005968712270259857,-8.106681003542946e-22,0.0007938611088320613
0.01327587105333805,0.005517808720469475,-0.011749761179089546,0.005901651922613382,-5.2930834401782027e-23,0.0007556700729764998
0.013650869019329548,0.005290765780955553,-0.01033003255724907,0.005623324308544397,-3.456005147799589e-24,0.000769442121963948
0.013193661347031593,0.004552417900413275,-0.010047294199466705,0.00626398203894496,-2.256524539952093e-25,0.0008012994658201933
0.013531634584069252,0.004963153041899204,-0.010776925832033157,0.0064810775220394135,-1.4733491956310662e-26,0.0008136710384860635
0.01329171285033226,0.005337385926395655,-0.010366398841142654,0.006031906232237816,-9.619917034962218e-28,0.0010513466550037265
0.013670595362782478,0.0047265696339309216,-0.01051416713744402,0.0058910963125526905,-0.00020748528186231852,0.001060610986314714
0.013686807826161385,0.005055633373558521,-0.01032328512519598,0.005784581881016493,-0.00022496840392705053,0.0010361445602029562
0.013637502677738667,0.004804117139428854,-0.010743053629994392,0.0062340362928807735,-0.00021599030878860503,0.000991091481409967
0.013637502677738667,0.004804117139428854,-0.010743053629994392,0.0062340362928807735,-0.00021599030878860503,0.000991091481409967
0.013684546574950218,0.004152991343289614,-0.010596447624266148,0.006680869963020086,-0.00024193478748202324,0.0008963389554992318
0.013964858837425709,0.003908297047019005,-0.010658986866474152,0.00602336460724473,-0.0002362548839300871,0.0007986213895492256
0.013756089843809605,0.004388838540762663,-0.010577035136520863,0.0060682035982608795,-0.00022665724100079387,0.0006954879499971867
0.014154824428260326,0.00464401300996542,-0.011022549122571945,0.006100742146372795,-0.0002489731996320188,0.0006012606900185347
0.014140882529318333,0.0047355773858726025,-0.01011837087571621,0.005831779446452856,-0.0002436581125948578,0.0005301734781824052
0.01364414393901825,0.0047946590930223465,-0.010407055728137493,0.006351139396429062,-0.0002348557609366253,0.0004741968878079206
0.014045479707419872,0.004752288572490215,-0.01092150341719389,0.0061613828875124454,-0.000242278169025667,0.0004289285861887038
0.013510634191334248,0.004294574726372957,-0.010599952191114426,0.006052760872989893,-0.00024872386711649597,0.0004293957317713648
0.013753717765212059,0.004361269064247608,-0.011155364103615284,0.006489817518740892,-0.00024135364219546318,0.00042958365520462394
0.013738292269408703,0.004579002968966961,-0.01155633945018053,0.006712843663990498,-0.0002335860626772046,0.00039999803993850946
0.014022226445376873,0.004652774427086115,-0.010272885672748089,0.007063498720526695,-0.00031538718030788004,0.0003725299029611051
0.014015254564583302,0.0047022681683301926,-0.010758581571280956,0.006209766026586294,-0.00028817440033890307,0.0003809065092355013
0.014046869240701199,0.004315807018429041,-0.010831065475940704,0.0063740587793290615,-0.0003212869632989168,0.00036000407999381423
0.014139320701360703,0.004314091056585312,-0.011640713550150394,0.005937415640801191,-0.000306345202261582,0.00034059310564771295
0.013888897374272346,0.00453751627355814,-0.010469162836670876,0.006315625738352537,-0.00029009749414399266,0.0003231203299947083
0.014528621919453144,0.004667601548135281,-0.011250738985836506,0.006609324365854263,-0.0003180447674822062,0.00030735283507965505
0.014004727825522423,0.004565455950796604,-0.010953256860375404,0.006548060104250908,-0.0003054100088775158,0.0002930510963778943
0.015133298002183437,0.004746540915220976,-0.010435148142278194,0.007074261549860239,-0.00029145917505957186,0.00028002666658721864
0.014460328966379166,0.004763861186802387,-0.011206706054508686,0.006833172868937254,-0.0002785802644211799,0.0002681046025827527
0.014273684471845627,0.004683326929807663,-0.011248924769461155,0.0065908050164580345,-0.0002854186750482768,0.0002571574877947569
0.013811411336064339,0.004585741553455591,-0.011280548758804798,0.006507573649287224,-0.00029123248532414436,0.0002470739127602428
0.015039351768791676,0.00468059116974473,-0.01111668162047863,0.007366733159869909,-0.00028099978226237,0.00023774649889674038
0.014023471623659134,0.00468059629201889,-0.010745570063591003,0.006964380852878094,-0.00027051445795223117,0.00022910199186298996
0.014616073109209538,0.004946133121848106,-0.011243622750043869,0.006240515504032373,-0.0002607220667414367,0.00022106195683591068
0.014225954189896584,0.0048981234431266785,-0.011138355359435081,0.00621136836707592,-0.00027843608404509723,0.0002135669783456251
0.014225954189896584,0.0048981234431266785,-0.011138355359435081,0.00621136836707592,-0.00027843608404509723,0.0002135669783456251
0.014759596437215805,0.004641635809093714,-0.011762380599975586,0.00626300647854805,-0.00027093951939605176,0.00020656354899983853
0.014551516622304916,0.0045578498393297195,-0.01148075982928276,0.006906044203788042,-0.00025612013996578753,0.0002000055246753618
0.015192392282187939,0.00462459959089756,-0.010914566926658154,0.006697782315313816,-0.00027810331084765494,0.00019385108316782862
0.014607141725718975,0.004613266326487064,-0.011471270583570004,0.006862374022603035,-0.0002751356805674732,0.00018806368461810052
0.014518269337713718,0.00478897662833333,-0.01148440595716238,0.006981692276895046,-0.00026249155052937567,0.00018261218792758882
0.014232341200113297,0.004850963596254587,-0.010879273526370525,0.007516283076256514,-0.0002811781014315784,0.00017746795492712408
0.015131083317101002,0.004805007483810186,-0.011797321029007435,0.007056678645312786,-0.00027843849966302514,0.00017260505410376936
0.014890595339238644,0.005035716574639082,-0.01198461465537548,0.006476064212620258,-0.00026725829229690135,0.00016800199227873236
0.014927104115486145,0.00501709571108222,-0.01179451122879982,0.00686683552339673,-0.00027434140793047845,0.0001636380620766431
0.01479873526841402,0.004885269794613123,-0.011637533083558083,0.007450016215443611,-0.00028036910225637257,0.00015949498629197478
0.015456190332770348,0.0047484771348536015,-0.011200828477740288,0.00748193496838212,-0.00027091079391539097,0.00015555683057755232
0.015335951931774616,0.005013503134250641,-0.01175483874976635,0.007043434772640467,-0.0002611542004160583,0.00015180808259174228
0.015137705020606518,0.0047784470953047276,-0.011524811387062073,0.007439502980560064,-0.00029257783899083734,5.159518696018495e-05
0.015181300230324268,0.0046394155360758305,-0.011999065056443214,0.007613694295287132,-0.0002902909182012081,4.726481711259112e-05
0.015466513112187386,0.0050584059208631516,-0.01134074293076992,0.007612758316099644,-0.00027371308533474803,4.5865912397857755e-05
0.015347308479249477,0.004876547958701849,-0.012091564945876598,0.00710623525083065,-0.0002580796426627785,4.471377542358823e-05
0.015630153939127922,0.004984816536307335,-0.01125278789550066,0.00745730334892869,-0.00024407992896158248,2.3274315026355907e-05
0.015202982351183891,0.005224248394370079,-0.011870870366692543,0.007776195649057627,-0.00023151842469815165,2.139357638952788e-05
0.015551510266959667,0.004713831469416618,-0.012122104875743389,0.007626991253346205,-0.00024168469826690853,1.0584934898361098e-05
0.015352952294051647,0.005049273371696472,-0.01135224662721157,0.007011578883975744,-0.00025042289053089917,6.911206469339959e-07
0.015967825427651405,0.005307340528815985,-0.011519632302224636,0.007377505302429199,-0.00024056951224338263,4.512523688049441e-08
0.015443271026015282,0.005102470982819796,-0.011499635875225067,0.007838518358767033,-0.00023038883227854967,2.94635538189425e-09
0.015749936923384666,0.005319036543369293,-0.012539519928395748,0.007696313317865133,-0.00022096492466516793,1.9237594850451956e-10
0.015652742236852646,0.005109054036438465,-0.012444684281945229,0.007057199254631996,-0.00023843486269470304,1.2560774469150271e-11
0.01581430435180664,0.004740178119391203,-0.011365692131221294,0.0071309590712189674,-0.00023768573009874672,8.201287413946157e-13
0.01581430435180664,0.004740178119391203,-0.011365692131221294,0.0071309590712189674,-0.00023768573009874672,8.201287413946157e-13
0.016148820519447327,0.005483642220497131,-0.011573730036616325,0.00800902396440506,-0.00022956296743359417,5.35485487874153e-14
0.01584918238222599,0.005383915267884731,-0.011480583809316158,0.007723549846559763,-0.00022152485325932503,-0.00023368489928543568
0.01598437875509262,0.0049910168163478374,-0.012504920363426208,0.0070696137845516205,-0.00021400139667093754,-0.0010882184142246842
0.01598977856338024,0.00523536279797554,-0.012063799425959587,0.007156131323426962,-0.00023262113973032683,-0.0011140903225168586
0.016094032675027847,0.005030135158449411,-0.01181019563227892,0.007931706495583057,-0.00022875716967973858,-0.0010578026995062828
0.015535439364612103,0.004931693430989981,-0.01211240142583847,0.007898654788732529,-0.0002219355374109,-0.0009489881340414286
0.01647191494703293,0.005167857743799686,-0.011518308892846107,0.007676855195313692,-0.00021534379629883915,-0.0008661157335154712
0.016219554468989372,0.005049100145697594,-0.012218581512570381,0.007676738314330578,-0.00022061988420318812,-0.0008296449668705463
0.01601543091237545,0.005651829298585653,-0.011977444402873516,0.007759205996990204,-0.00021129404194653034,-0.000869559240527451
0.015887338668107986,0.005389480851590633,-0.012173113413155079,0.007109688129276037,-0.00020188052440062165,-0.0008902433328330517
0.016111504286527634,0.005201853811740875,-0.012161538004875183,0.007415337022393942,-0.00021210969134699553,-0.0013316748663783073
0.016441382467746735,0.005349523853510618,-0.011624053120613098,0.007670470979064703,-0.0002210212842328474,-0.0014109183102846146
0.01632377691566944,0.00506229791790247,-0.012679452076554298,0.008104504086077213,-0.00021343464322853833,-0.002028894377872348
0.016347462311387062,0.005336427595466375,-0.012438124977052212,0.0074201119132339954,-0.00022646549041382968,-0.002011618111282587
0.016652582213282585,0.005808169953525066,-0.011879920028150082,0.007608051411807537,-0.00022239939426071942,-0.001823062659241259
0.016805287450551987,0.005355227272957563,-0.011797384358942509,0.008550048805773258,-0.00021506319171749055,-0.0017320035258308053
0.0168150644749403,0.004788454622030258,-0.012706362642347813,0.007819835096597672,-0.00020797956676688045,-0.001674409955739975
0.01714758202433586,0.005423136055469513,-0.012003127485513687,0.007277106400579214,-0.00021543758339248598,-0.0017536795930936933
0.01655583269894123,0.00530178053304553,-0.012802336364984512,0.007372002582997084,-0.00022201184765435755,-0.0018915090477094054
0.017148150131106377,0.0051345909014344215,-0.012188752181828022,0.00817323662340641,-0.0002162082091672346,-0.0025999867357313633
0.01714484766125679,0.005010053515434265,-0.012386282905936241,0.007826683111488819,-0.00020995928207412362,-0.0029038928914815187
0.0172570887953043,0.004877449944615364,-0.01229150127619505,0.0074812681414186954,-0.00024303214740939438,-0.0026759409811347723
0.018077487125992775,0.004772471264004707,-0.01198042742908001,0.008262744173407555,-0.00026595467352308333,-0.002622524742037058
0.017514511942863464,0.0051660998724401,-0.01258869469165802,0.008700530976057053,-0.00025341467699036,-0.002468551741912961
0.01758410409092903,0.004994160030037165,-0.011892199516296387,0.007855377160012722,-0.00024005099839996547,-0.002366633852943778
0.017237454652786255,0.004947394598275423,-0.012699722312390804,0.007247109431773424,-0.00025014125276356936,-0.00242908438667655
0.016531627625226974,0.0049530137330293655,-0.012494264170527458,0.008089352399110794,-0.00025877042207866907,-0.002435073722153902
0.017476771026849747,0.0050587416626513,-0.012448790483176708,0.008320252411067486,-0.00024822205887176096,-0.0024165534414350986
0.017552701756358147,0.004867039620876312,-0.012493564747273922,0.007956041023135185,-0.00023739489552099258,-0.002797461114823818
0.018229862675070763,0.004964155610650778,-0.012287401594221592,0.007754651829600334,-0.00022740157146472484,-0.003034118330106139
0.017838556319475174,0.0047569889575243,-0.012898634187877178,0.007751619443297386,-0.0002450938627589494,-0.003329317783936858
0.017047768458724022,0.004721309058368206,-0.012316235341131687,0.007845966145396233,-0.0002440704411128536,-0.0032220836728811264
0.017047768458724022,0.004721309058368206,-0.012316235341131687,0.007845966145396233,-0.0002440704411128536,-0.0032220836728811264
0.01801813580095768,0.0047317128628492355,-0.012764988467097282,0.007712404243648052,-0.00023549921752419323,-0.003463134402409196
0.01817815564572811,0.004617845639586449,-0.01223184447735548,0.008085397072136402,-0.00022704726143274456,-0.0036431208718568087
0.018553130328655243,0.004522939212620258,-0.01305795181542635,0.008580696769058704,-0.00024231543648056686,-0.0037155374884605408
0.017797620967030525,0.004650294315069914,-0.012818081304430962,0.008508319966495037,-0.00024150540411937982,-0.0032912574242800474
0.01911969669163227,0.004458372946828604,-0.01265419740229845,0.008110973984003067,-0.00023412973678205162,-0.003185912501066923
0.018468284979462624,0.004469755105674267,-0.012628059834241867,0.008905538357794285,-0.00022678551613353193,-0.003331927116960287
0.017613109201192856,0.00511171156540513,-0.01220292504876852,0.008635594509541988,-0.0002198617294197902,-0.0036399003583937883
0.017807723954319954,0.004533074796199799,-0.01316919643431902,0.00792655162513256,-0.00024333715555258095,-0.0035073591861873865
0.01866794563829899,0.0042729186825454235,-0.013391286134719849,0.008772214874625206,-0.00022381152666639537,-0.0036538438871502876
0.018477406352758408,0.0044719805009663105,-0.012511098757386208,0.008096453733742237,-0.00021322349493857473,-0.0036613568663597107
0.018679263070225716,0.004683611914515495,-0.013197214342653751,0.007586951833218336,-0.0002035758225247264,-0.004076383076608181
0.018294284120202065,0.004666200838983059,-0.013089817017316818,0.008757321164011955,-0.0001947628625202924,-0.00453669298440218
0.018728574737906456,0.00486410316079855,-0.013412613421678543,0.009137162007391453,-0.00018668145639821887,-0.004808149300515652
0.018791496753692627,0.004313004668802023,-0.013295861892402172,0.0083578797057271,-0.00021265490795485675,-0.004965077619999647
0.018467949703335762,0.004068137612193823,-0.013028096407651901,0.008441861718893051,-0.00020669282821472734,-0.004885624162852764
0.01888577826321125,0.004072449170053005,-0.013268616981804371,0.00859389454126358,-0.0001992091565625742,-0.004641038831323385
0.018874598667025566,0.004550920333713293,-0.012753368355333805,0.008442078717052937,-0.00019212941697333008,-0.0047308299690485
0.018478086218237877,0.004639360122382641,-0.013452038168907166,0.008628534153103828,-0.0001855282171163708,-0.004762962926179171
0.019006308168172836,0.0043851593509316444,-0.013095086440443993,0.00921578612178564,-0.00020149099873378873,-0.004937002435326576
0.01891363225877285,0.004556289874017239,-0.013793770223855972,0.00879146158695221,-0.00020202415180392563,-0.0045060873962938786
0.018820535391569138,0.004188557155430317,-0.013454949483275414,0.008504965342581272,-0.00019618925580289215,-0.004508172627538443
0.019379697740077972,0.004197190515697002,-0.014193573035299778,0.009146190248429775,-0.0001902926596812904,-0.004846351686865091
0.019278334453701973,0.004464427940547466,-0.013217356987297535,0.008857734501361847,-0.00020425925322342664,-0.004954297561198473
0.018689794465899467,0.004678288474678993,-0.013752808794379234,0.009027939289808273,-0.00020464221597649157,-0.004392663016915321
0.01932506263256073,0.004414218943566084,-0.013572265394032001,0.00926945824176073,-0.0001993793121073395,-0.004294951446354389
0.01932506263256073,0.004414218943566084,-0.013572265394032001,0.00926945824176073,-0.0001993793121073395,-0.004294951446354389
0.018957844004034996,0.004299739375710487,-0.013623060658574104,0.008712471462786198,-0.00020954565843567252,-0.004742040298879147
0.018957844004034996,0.004299739375710487,-0.013623060658574104,0.008712471462786198,-0.00020954565843567252,-0.004742040298879147
0.0196673721075058,0.004325173329561949,-0.013592640869319439,0.008845442906022072,-0.0002070390182780102,-0.005064633674919605
0.019257578998804092,0.0046177939511835575,-0.01343074906617403,0.009366059675812721,-0.0001983764668693766,-0.004988155327737331
0.018904130905866623,0.004273999948054552,-0.013179951347410679,0.0091318991035223,-0.00022296379029285163,-0.0047568571753799915
0.01954757608473301,0.0044103218242526054,-0.012332762591540813,0.008944728411734104,-0.0002184639306506142,-0.00454343855381012
0.01934255287051201,0.004279826767742634,-0.014046435244381428,0.009271634742617607,-0.00023616415273863822,-0.004360782913863659
0.018895920366048813,0.004543011542409658,-0.013777860440313816,0.009352980181574821,-0.00023552549828309566,-0.004491019528359175
0.01966147869825363,0.004552091471850872,-0.01380524504929781,0.009668795391917229,-0.00025075027951970696,-0.005718673579394817
0.019190965220332146,0.0045320079661905766,-0.013269994407892227,0.00955994799733162,-0.00041891561704687774,-0.0053749121725559235
0.019635073840618134,0.004122571088373661,-0.014272451400756836,0.009411008097231388,-0.00043536516022868454,-0.005419145803898573
0.019454414024949074,0.004391325172036886,-0.013491957448422909,0.009216124191880226,-0.0004747289349325001,-0.005181145388633013
0.019336756318807602,0.004252420738339424,-0.013344310224056244,0.009509559720754623,-0.0004410299297887832,-0.005068231839686632
0.0194393377751112,0.004351917654275894,-0.013317929580807686,0.00879032351076603,-0.0004712164809461683,-0.0048479060642421246
0.01947559043765068,0.00468482868745923,-0.01401448529213667,0.009375824593007565,-0.00047294932301156223,-0.005072319880127907
0.01961330510675907,0.004272039048373699,-0.013425114564597607,0.009609254077076912,-0.0004704385937657207,-0.0055882735177874565
0.02006351761519909,0.004373340401798487,-0.013552037067711353,0.009339605458080769,-0.000443320139311254,-0.005698071792721748
0.02058468945324421,0.0042945570312440395,-0.013498065061867237,0.009392455220222473,-0.0005235247663222253,-0.005674602929502726
0.01968415267765522,0.004068008624017239,-0.01375405490398407,0.009450479410588741,-0.0005550658097490668,-0.005190468858927488
0.019454676657915115,0.004344354383647442,-0.013522540219128132,0.009125763550400734,-0.0005240343161858618,-0.004949752241373062
0.01945144310593605,0.004479377530515194,-0.013263258151710033,0.009049379266798496,-0.0005531342467293143,-0.005714743863791227
0.019523097202181816,0.00440494529902935,-0.013597455807030201,0.00986720621585846,-0.0005484814173541963,-0.006363235879689455
0.019523097202181816,0.00440494529902935,-0.013597455807030201,0.00986720621585846,-0.0005484814173541963,-0.006363235879689455
0.019677739590406418,0.004395213909447193,-0.013097455725073814,0.009792801924049854,-0.0005399759393185377,-0.005882177036255598
0.02008914016187191,0.0044497097842395306,-0.013704079203307629,0.009716276079416275,-0.000587979971896857,-0.005840673111379147
0.020072346553206444,0.004356011748313904,-0.01320655271410942,0.010118960402905941,-0.0005917130038142204,-0.0055030519142746925
0.019412439316511154,0.004074555356055498,-0.013656540773808956,0.009418167173862457,-0.0006045116460882127,-0.00595424510538578
0.02025994285941124,0.003910036291927099,-0.013183901086449623,0.00898496899753809,-0.0005650667590089142,-0.006154607981443405
0.020521055907011032,0.004352902993559837,-0.013877837918698788,0.00995618011802435,-0.0005922304117120802,-0.00605601305142045
0.020279671996831894,0.004507922567427158,-0.013393980450928211,0.00963042676448822,-0.0005461277323774993,-0.005626239348202944
0.020098285749554634,0.004699271637946367,-0.013684673234820366,0.009128924459218979,-0.0005695834988728166,-0.005548275541514158
0.02035004459321499,0.004690431524068117,-0.013311292044818401,0.010386905632913113,-0.000531858648173511,-0.00606361823156476
0.020150190219283104,0.0047113909386098385,-0.013867258094251156,0.010133592411875725,-0.000522214628290385,-0.006155831273645163
0.01975611224770546,0.004423784092068672,-0.013430528342723846,0.00969415158033371,-0.0004917876794934273,-0.006233145482838154
0.02061133086681366,0.005100839305669069,-0.013540741987526417,0.009843282401561737,-0.00048431570758111775,-0.0057749077677726746
0.01975381374359131,0.004507988225668669,-0.013339144177734852,0.010230371728539467,-0.0004456329334061593,-0.006502259057015181
0.021008718758821487,0.004471511114388704,-0.013203413225710392,0.010805320926010609,-0.00046210363507270813,-0.006638091988861561
0.02081291750073433,0.004526823293417692,-0.013118580915033817,0.010504623875021935,-0.00044509791769087315,-0.006576217245310545
0.02051354944705963,0.004683847539126873,-0.013496886007487774,0.010129137896001339,-0.0004455985617823899,-0.00613438943400979
0.02025935985147953,0.004541636444628239,-0.012945196591317654,0.01021249033510685,-0.00044471255387179554,-0.005935337394475937
0.02068028785288334,0.004358124453574419,-0.013686551712453365,0.00969209149479866,-0.0004204760189168155,-0.006116780918091536
0.020976347848773003,0.004569478332996368,-0.012893779203295708,0.010273399762809277,-0.0004334227123763412,-0.00667167641222477
0.020626498386263847,0.004613255150616169,-0.013261928223073483,0.010440428741276264,-0.00046002480667084455,-0.006723267026245594
0.020933106541633606,0.0046384879387915134,-0.012999963015317917,0.009832658804953098,-0.0004767203936353326,-0.006868048571050167
0.020823592320084572,0.004743191413581371,-0.013295499607920647,0.010539751499891281,-0.00047451714635826647,-0.006831618025898933
0.020823592320084572,0.004743191413581371,-0.013295499607920647,0.010539751499891281,-0.00047451714635826647,-0.006831618025898933
0.021146701648831367,0.004627592395991087,-0.013421311043202877,0.010238020680844784,-0.0004898902261629701,-0.006489397492259741
0.021098509430885315,0.004339460749179125,-0.01386431697756052,0.009736163541674614,-0.0004723824094980955,-0.006434657610952854
0.021251952275633812,0.004526740405708551,-0.013605174608528614,0.010281255468726158,-0.0006369120092131197,-0.006498569156974554
0.021360334008932114,0.004983530379831791,-0.013581299223005772,0.010284875519573689,-0.000584188150241971,-0.006722000427544117
0.02142213098704815,0.004962826147675514,-0.014040888287127018,0.010444192215800285,-0.0005943290307186544,-0.00653770100325346
0.021377116441726685,0.00441757682710886,-0.013735068961977959,0.010990998707711697,-0.0005563122685998678,-0.006864710710942745
0.021571017801761627,0.004443504847586155,-0.014045190997421741,0.010799642652273178,-0.0005782697116956115,-0.006859933957457542
0.02136525698006153,0.004955305717885494,-0.01390793640166521,0.011007066816091537,-0.0005759872146882117,-0.006636364851146936
0.021339382976293564,0.004955844022333622,-0.013985784724354744,0.010575925000011921,-0.0005652518011629581,-0.00717530632391572
0.021437350660562515,0.004641301464289427,-0.013249157927930355,0.010389585047960281,-0.0005558862467296422,-0.007098660804331303
0.02185167372226715,0.004551560152322054,-0.014229437336325645,0.010261863470077515,-0.0005228077061474323,-0.007780021522194147
0.021545207127928734,0.004417379852384329,-0.013617953285574913,0.010117346420884132,-0.0005573859671130776,-0.0072227101773023605
0.021562427282333374,0.004998211283236742,-0.014097974635660648,0.010322913527488708,-0.0005727841635234654,-0.00733491824939847
0.02124886028468609,0.004761041607707739,-0.013249164447188377,0.010214279405772686,-0.0005429848097264767,-0.00745556503534317
0.021743033081293106,0.00482699740678072,-0.013808290474116802,0.009956142865121365,-0.0004641840059775859,-0.00848756730556488
0.021612942218780518,0.004402201157063246,-0.014533087611198425,0.010257081128656864,-0.0004777302674483508,-0.007047754712402821
0.021677779033780098,0.004527652636170387,-0.014171167276799679,0.010079246945679188,-0.0004612622724380344,-0.006412114016711712
0.02216455340385437,0.00462754350155592,-0.015157933346927166,0.010439582169055939,-0.00043435010593384504,-0.007457958534359932
0.02198627218604088,0.004547602962702513,-0.014135405421257019,0.011196477338671684,-0.00040968565735965967,-0.007566532120108604
0.021734017878770828,0.004579710308462381,-0.01459900476038456,0.01084966491907835,-0.00039019447285681963,-0.007471224293112755
0.021863847970962524,0.004666994325816631,-0.01422900054603815,0.010036252439022064,-0.00037081382470205426,-0.007372662425041199
0.022417083382606506,0.004656914621591568,-0.01510893926024437,0.010059383697807789,-0.00034333899384364486,-0.007561082951724529
0.02262568473815918,0.004632242023944855,-0.013810629956424236,0.010444178245961666,-0.0003659365465864539,-0.007398614659905434
0.022768035531044006,0.004578760359436274,-0.014704531989991665,0.010128863155841827,-0.0003563801583368331,-0.007870368659496307
0.022277463227510452,0.004740193951874971,-0.014002092182636261,0.010172405280172825,-0.0003352041239850223,-0.007866311818361282
0.021783752366900444,0.0045595052652060986,-0.014609095640480518,0.010226930491626263,-0.00036462530260905623,-0.008547280915081501
0.022284120321273804,0.0050870506092906,-0.014236426912248135,0.010457933880388737,-0.00034769263584166765,-0.007941430434584618
0.022784557193517685,0.004946660250425339,-0.013363105244934559,0.011055419221520424,-0.00037355595850385725,-0.00789150781929493
0.022784557193517685,0.004946660250425339,-0.013363105244934559,0.011055419221520424,-0.00037355595850385725,-0.00789150781929493
0.022876109927892685,0.004673772491514683,-0.01475193165242672,0.010688424110412598,-0.0004595551290549338,-0.007578735239803791
0.022443125024437904,0.004572325851768255,-0.015410466119647026,0.01083015464246273,-0.0005256881122477353,-0.007851316593587399
0.0230021383613348,0.0051147365011274815,-0.014290401712059975,0.01129026710987091,-0.0005612566019408405,-0.007580142002552748
0.02330009452998638,0.005116600077599287,-0.014823753386735916,0.010049005970358849,-0.0005896420916542411,-0.007303458638489246
0.02335006184875965,0.005002210848033428,-0.014665273949503899,0.01058591902256012,-0.0008768668631091714,-0.007046593353152275
0.023114077746868134,0.005171953234821558,-0.014723146334290504,0.0106152119114995,-0.0010554430773481727,-0.007670389488339424
0.02292810007929802,0.0048536076210439205,-0.01440989039838314,0.010139665566384792,-0.0010430315742269158,-0.0078059895895421505
0.02260417491197586,0.004635588265955448,-0.015044917352497578,0.010543431155383587,-0.0011017824290320277,-0.008114385418593884
0.0228696521371603,0.005081653129309416,-0.015033261850476265,0.010580232366919518,-0.0011457597138360143,-0.007940164767205715
0.024130381643772125,0.0050589251331985,-0.015442106872797012,0.010994777083396912,-0.001128421165049076,-0.00807879026979208
0.023466121405363083,0.005489226430654526,-0.014773855917155743,0.011588218621909618,-0.0012044914765283465,-0.0076374453492462635
0.02369648404419422,0.0050748237408697605,-0.015346999280154705,0.012251181527972221,-0.0011986593017354608,-0.007969778031110764
0.02420409396290779,0.004705244209617376,-0.015348006039857864,0.011847920715808868,-0.0011525839800015092,-0.007916515693068504
0.024251224473118782,0.00524104991927743,-0.015478064306080341,0.01197761669754982,-0.0010915573220700026,-0.008309233002364635
0.024041863158345222,0.005078285001218319,-0.015098297968506813,0.012138649821281433,-0.0009452918893657625,-0.008530454710125923
0.023992298170924187,0.005053163971751928,-0.015365456230938435,0.012334338389337063,-0.0009297797805629671,-0.008362133987247944
0.02359314076602459,0.005365351680666208,-0.014914118684828281,0.012842190451920033,-0.0008979869307950139,-0.008113185875117779
0.02418883517384529,0.004983956925570965,-0.0155247887596488,0.011959260329604149,-0.0008119342965073884,-0.008076902478933334
0.024649392813444138,0.004764092620462179,-0.015038865618407726,0.011981588788330555,-0.0008092497591860592,-0.008633293211460114
0.024540312588214874,0.0050446162931621075,-0.01542514655739069,0.011760370805859566,-0.0007382618496194482,-0.008663671091198921
0.024379683658480644,0.0050045764073729515,-0.015039739198982716,0.011959169991314411,-0.0006768502644263208,-0.008827063255012035
0.024362212046980858,0.004819148685783148,-0.015516347251832485,0.012036704458296299,-0.0005634951521642506,-0.0087305698543787
0.0240714643150568,0.005231389310210943,-0.014650455676019192,0.0113965580239892,-0.0004989890148863196,-0.0085520651191473
0.024675151333212852,0.005070505663752556,-0.015465181320905685,0.012300553731620312,-0.0004489924176596105,-0.008416523225605488
0.024479910731315613,0.004755617585033178,-0.01518313493579626,0.011465232819318771,-0.0004785203200299293,-0.008605927228927612
0.02468990534543991,0.004930620081722736,-0.0154926348477602,0.011718742549419403,-0.00044832052662968636,-0.008981010876595974
0.02468990534543991,0.004930620081722736,-0.0154926348477602,0.011718742549419403,-0.00044832052662968636,-0.008981010876595974
0.024707097560167313,0.004998445976525545,-0.01480624545365572,0.011705601587891579,-0.0004145051643718034,-0.008833413012325764
0.024793289601802826,0.0046999151818454266,-0.01536653283983469,0.011274466291069984,-0.00038497219793498516,-0.00852474756538868
0.024803411215543747,0.004224355798214674,-0.015616992488503456,0.012110820040106773,-0.00040339952101930976,-0.008842666633427143
0.024385778233408928,0.004357530269771814,-0.015471232123672962,0.011768003925681114,-0.0003920274320989847,-0.008696082979440689
0.02486732229590416,0.004174605943262577,-0.01586943119764328,0.01200626976788044,-0.0003698996442835778,-0.008965483866631985
0.02504695951938629,0.004016335587948561,-0.015585741028189659,0.012313208542764187,-0.0003494323755148798,-0.009294196963310242
0.025089675560593605,0.00392994424328208,-0.015856392681598663,0.012018275447189808,-0.00033106698538176715,-0.009442169219255447
0.02516798861324787,0.004439325537532568,-0.015320743434131145,0.012511828914284706,-0.00035637698601931334,-0.009110037237405777
0.026156732812523842,0.004517586436122656,-0.015906300395727158,0.011946999467909336,-0.0003421656147111207,-0.00932290405035019
0.02558649145066738,0.004383800085633993,-0.015541080385446548,0.012182110920548439,-0.00032680941512808204,-0.009464399889111519
0.025339296087622643,0.004372405353933573,-0.016104094684123993,0.012394040822982788,-0.0003126271767541766,-0.009651869535446167
0.025601495057344437,0.0042970250360667706,-0.016106324270367622,0.01252747979015112,-0.0002529376361053437,-0.00971920695155859
0.026331542059779167,0.004199264105409384,-0.01627206616103649,0.012305519543588161,-0.00023754325229674578,-0.01019107922911644
0.02574906311929226,0.00401058467105031,-0.01602158695459366,0.012179514393210411,-0.00022550212452188134,-0.009997942484915257
0.026013147085905075,0.004382159560918808,-0.016801809892058372,0.011910455301404,-0.00021472938533406705,-0.009851913899183273
0.025947924703359604,0.004663647618144751,-0.016173211857676506,0.01244601421058178,-0.00024045347527135164,-0.01018729992210865
0.026315081864595413,0.0043556299060583115,-0.016683373600244522,0.012551113031804562,-0.00023486244026571512,-0.009989483281970024
0.02616947516798973,0.004223352763801813,-0.015957791358232498,0.012891632504761219,-0.00022537674522027373,-0.009972338564693928
0.025070827454328537,0.004029267467558384,-0.01652301475405693,0.013163847848773003,-0.00024997329455800354,-0.010136434808373451
0.0249780286103487,0.003829575376585126,-0.01699862815439701,0.01297626830637455,-0.00024254135496448725,-0.010710119269788265
0.025743016973137856,0.00381865119561553,-0.016490960493683815,0.0130106620490551,-0.0002500361588317901,-0.010747822932898998
0.02637028507888317,0.00432049622759223,-0.01629229076206684,0.012683511711657047,-0.00025641507818363607,-0.01092025451362133
0.026467278599739075,0.004233185667544603,-0.01607869565486908,0.012685979716479778,-0.00024856103118509054,-0.011299042031168938
0.02618689090013504,0.004556234925985336,-0.01707124151289463,0.012334509752690792,-0.00024032835790421814,-0.010338221676647663
0.02618689090013504,0.004556234925985336,-0.01707124151289463,0.012334509752690792,-0.00024032835790421814,-0.010338221676647663
0.02609190344810486,0.004200815688818693,-0.01690935157239437,0.012836999259889126,-0.00023256924760062248,-0.00999371986836195
0.02661324478685856,0.004379061050713062,-0.01695849560201168,0.012809262610971928,-0.0002614559489302337,-0.01072789914906025
0.027137042954564095,0.004203914199024439,-0.017091820016503334,0.01298841554671526,-0.00027954470715485513,-0.011076048016548157
0.026863230392336845,0.004131005145609379,-0.016824491322040558,0.013107930310070515,-0.00026530632749199867,-0.01131571177393198
0.02678767591714859,0.004191073589026928,-0.01714048907160759,0.012908359989523888,-0.000250668526859954,-0.011455095373094082
0.026949845254421234,0.004510525614023209,-0.016893643885850906,0.013417903333902359,-0.00023744623467791826,-0.011761528439819813
0.027077745646238327,0.004183207638561726,-0.017274284735322,0.01298507396131754,-0.00026459567015990615,-0.011489460244774818
0.027393560856580734,0.004417336080223322,-0.01777900569140911,0.013254217803478241,-0.00025733362417668104,-0.011232911609113216
0.027140602469444275,0.0046419305726885796,-0.017559610307216644,0.013000363484025002,-0.00024595981813035905,-0.011428913101553917
0.02655491977930069,0.0043439362198114395,-0.018007662147283554,0.013618473894894123,-0.0002352637966396287,-0.0115429125726223
0.027391083538532257,0.004297489766031504,-0.017284540459513664,0.013161033391952515,-0.0002254414721392095,-0.011290425434708595
0.0274277962744236,0.004157115705311298,-0.01759129762649536,0.013163570314645767,-0.00024766914430074394,-0.011705840937793255
0.027343111112713814,0.004342842847108841,-0.017571693286299706,0.013034728355705738,-0.00024242924700956792,-0.011801613494753838
0.028084376826882362,0.0045962403528392315,-0.017959991469979286,0.013125325553119183,-0.00024114412372000515,-0.01177186332643032
0.027924634516239166,0.004334169439971447,-0.0176486074924469,0.012845873832702637,-0.0002475995570421219,-0.011638239026069641
0.028021404519677162,0.004223269410431385,-0.018148252740502357,0.013123922981321812,-0.0002402988902758807,-0.011620724573731422
0.028484901413321495,0.004435169044882059,-0.018131665885448456,0.012958046980202198,-0.0002325980894966051,-0.011773135513067245
0.028110673651099205,0.00460668234154582,-0.016959356144070625,0.013544010929763317,-0.00022532223374582827,-0.011636972427368164
0.028417648747563362,0.004841556306928396,-0.0180243831127882,0.013325166888535023,-0.00024261546786874533,-0.011730118654668331
0.02869468554854393,0.005122563801705837,-0.019073083996772766,0.013885190710425377,-0.00023376484750770032,-0.011388996616005898
0.0283573716878891,0.004817651119083166,-0.01829695701599121,0.013688710518181324,-0.0002552867226768285,-0.011176099069416523
0.02693416178226471,0.004845672752708197,-0.018318740651011467,0.01410437561571598,-0.00025362111045978963,-0.011282030493021011
0.028778377920389175,0.004719855729490519,-0.01816556416451931,0.014168422669172287,-0.0002727911632973701,-0.01109240297228098
0.029140127822756767,0.004653106443583965,-0.018189091235399246,0.014739119447767735,-0.0002705265942495316,-0.011430683545768261
0.029270682483911514,0.004731338005512953,-0.01807902753353119,0.013821984641253948,-0.00029459554934874177,-0.01282988116145134
0.029285931959748268,0.004891297779977322,-0.017642946913838387,0.013848653994500637,-0.0004978646757081151,-0.011993062682449818
0.028379032388329506,0.004723079036921263,-0.018178541213274002,0.013426882214844227,-0.0005987089243717492,-0.011762000620365143
0.028379032388329506,0.004723079036921263,-0.018178541213274002,0.013426882214844227,-0.0005987089243717492,-0.011762000620365143
0.028345782309770584,0.004611202981323004,-0.019131356850266457,0.013871250674128532,-0.0006840651039965451,-0.012220649048686028
0.029386302456259727,0.004672517534345388,-0.018417350947856903,0.013800803571939468,-0.0009556530858390033,-0.012203486636281013
0.028763065114617348,0.004422652069479227,-0.01844465173780918,0.013991913758218288,-0.0011800396023318172,-0.01236884668469429
0.028990216553211212,0.004536326974630356,-0.01812078058719635,0.014393646270036697,-0.0011438530636951327,-0.01216863188892603
0.030225252732634544,0.005157169885933399,-0.017567837610840797,0.014849485829472542,-0.0011064743157476187,-0.011580069549381733
0.029370563104748726,0.005020716227591038,-0.01809457316994667,0.014963782392442226,-0.001008049352094531,-0.01160377822816372
0.02923884242773056,0.004661330953240395,-0.01802816055715084,0.014777854084968567,-0.0009869640925899148,-0.011721372604370117
0.028838351368904114,0.004359678830951452,-0.01816108264029026,0.014295648783445358,-0.000972958339843899,-0.012467858381569386
0.028648370876908302,0.004483641590923071,-0.018623704090714455,0.014218882657587528,-0.0008722093189135194,-0.012292539700865746
0.029503576457500458,0.004689364228397608,-0.018132643774151802,0.01430179551243782,-0.0008694703574292362,-0.012007522396743298
0.029438607394695282,0.004744426347315311,-0.018198877573013306,0.014802283607423306,-0.0008537469548173249,-0.012251559644937515
0.02931470051407814,0.004750160966068506,-0.018519213423132896,0.015026507899165154,-0.0008512928616255522,-0.012280287221074104
0.029741952195763588,0.0044644963927567005,-0.0181720070540905,0.014529459178447723,-0.0007793983677402139,-0.012252658605575562
0.029527347534894943,0.004467244725674391,-0.018269971013069153,0.014757296070456505,-0.0007693697698414326,-0.012519369833171368
0.02912508137524128,0.0046387165784835815,-0.01850070059299469,0.01430446282029152,-0.0007153591141104698,-0.012917923741042614
0.02927115187048912,0.004386718850582838,-0.01901911571621895,0.014611640013754368,-0.0006519796443171799,-0.013213482685387135
0.029116667807102203,0.004475229419767857,-0.01841941475868225,0.014275404624640942,-0.0006069224327802658,-0.013181166723370552
0.029548758640885353,0.004499254282563925,-0.018335724249482155,0.0147633645683527,-0.0006167929386720061,-0.012941122055053711
0.029147466644644737,0.004161820746958256,-0.018572896718978882,0.014769374392926693,-0.0006214758614078164,-0.01345660537481308
0.02944674901664257,0.004368622321635485,-0.01775450073182583,0.015537437982857227,-0.0006048805662430823,-0.012678703293204308
0.02952054888010025,0.0042958250269293785,-0.018209725618362427,0.015261594206094742,-0.0006227038684301078,-0.012482657097280025
0.02948708087205887,0.004533467814326286,-0.01873679831624031,0.01531212404370308,-0.0006797258392907679,-0.012963647022843361
0.029964838176965714,0.004475105088204145,-0.018947115167975426,0.014719098806381226,-0.0007364474586211145,-0.012708699330687523
0.029973190277814865,0.00465781195089221,-0.019446538761258125,0.01497076079249382,-0.0007032889989204705,-0.012705364264547825
0.029541274532675743,0.004661904647946358,-0.019248871132731438,0.014642486348748207,-0.0007153759943321347,-0.012917875312268734
0.02937336638569832,0.004378555808216333,-0.018099606037139893,0.015061766840517521,-0.0006534697604365647,-0.013465996831655502
0.02935418300330639,0.004548677243292332,-0.018428580835461617,0.014674212783575058,-0.0006713005714118481,-0.0131886787712574
0.03102327510714531,0.004610317759215832,-0.018515443429350853,0.01478033047169447,-0.0006187407416291535,-0.013162177056074142
0.031056715175509453,0.004653851501643658,-0.018507840111851692,0.01423956174403429,-0.0006055769044905901,-0.012983017601072788
0.030342670157551765,0.004658094607293606,-0.01922101154923439,0.014527149498462677,-0.000547836534678936,-0.012897354550659657
0.030342670157551765,0.004658094607293606,-0.01922101154923439,0.014527149498462677,-0.000547836534678936,-0.012897354550659657
0.029490258544683456,0.004708446562290192,-0.01905967853963375,0.014608229510486126,-0.0005606408230960369,-0.013018117286264896
0.03054216131567955,0.0045372070744633675,-0.01866382360458374,0.015167098492383957,-0.0005277746240608394,-0.013091593980789185
0.030619991943240166,0.004618796985596418,-0.019211433827877045,0.014947258867323399,-0.0004820518952328712,-0.013178490102291107
0.03070303425192833,0.004774837754666805,-0.019362492486834526,0.015015809796750546,-0.0004782850737683475,-0.013432260602712631
0.03125806897878647,0.004790256731212139,-0.01967337541282177,0.014645951800048351,-0.0004747344646602869,-0.01367679238319397
0.0315699465572834,0.004625637549906969,-0.01931150257587433,0.014783885329961777,-0.00044343163608573377,-0.0135158970952034
0.030999675393104553,0.004772910848259926,-0.01893160678446293,0.01482892595231533,-0.00046944647328928113,-0.013679245486855507
0.030137449502944946,0.0048254565335810184,-0.019261036068201065,0.014770904555916786,-0.0004440804186742753,-0.01367573719471693
0.030507881194353104,0.004792788531631231,-0.019686266779899597,0.014431367628276348,-0.00042637120350264013,-0.013656859286129475
0.031605202704668045,0.00433943048119545,-0.01952480338513851,0.01431058906018734,-0.00039936063694767654,-0.013646645471453667
0.03169238194823265,0.004969035740941763,-0.02038753777742386,0.015068026259541512,-0.0004393168492242694,-0.014047286473214626
0.031170455738902092,0.005123360548168421,-0.019857386127114296,0.015204252675175667,-0.00043983303476125,-0.014122627675533295
0.031028738245368004,0.004822514485567808,-0.01926518604159355,0.015330004505813122,-0.00046792966895736754,-0.013689962215721607
0.031777139753103256,0.004392480943351984,-0.01931215077638626,0.01548189576715231,-0.0005840398371219635,-0.014113475568592548
0.03178098797798157,0.004829459358006716,-0.01964394934475422,0.015432416461408138,-0.0006334400386549532,-0.014036518521606922
0.03208877146244049,0.004914551507681608,-0.01916472241282463,0.015825962647795677,-0.0006670753355138004,-0.014088170602917671
0.03184732422232628,0.004586440976709127,-0.019857054576277733,0.015295629389584064,-0.000686228449922055,-0.01388478558510542
0.03183472156524658,0.0049628159031271935,-0.0200895257294178,0.015886440873146057,-0.0006955483113415539,-0.014495705254375935
0.031750619411468506,0.004877162631601095,-0.019760385155677795,0.015452176332473755,-0.000660426972899586,-0.013963324949145317
0.03181009367108345,0.0043932548724114895,-0.0199674554169178,0.015866413712501526,-0.0007845165091566741,-0.013762393966317177
0.03196675702929497,0.004448478110134602,-0.020002426579594612,0.015639783814549446,-0.0007467890973202884,-0.014067850075662136
0.032703742384910583,0.004516049288213253,-0.019455356523394585,0.016116879880428314,-0.0007618903764523566,-0.014436876401305199
0.0324506014585495,0.004602001514285803,-0.01950933039188385,0.015945488587021828,-0.0007700424175709486,-0.014447596855461597
0.0326244980096817,0.004596298094838858,-0.020191477611660957,0.015400721691548824,-0.0008674963028170168,-0.014626845717430115
0.03261987864971161,0.004827173426747322,-0.020426703616976738,0.014960713684558868,-0.0008913580095395446,-0.014728132635354996
0.032470397651195526,0.004909556359052658,-0.019766338169574738,0.015009679831564426,-0.0008679473539814353,-0.014578042551875114
0.032470397651195526,0.004909556359052658,-0.019766338169574738,0.015009679831564426,-0.0008679473539814353,-0.014578042551875114
0.03282543644309044,0.005047007463872433,-0.01999448612332344,0.015826385468244553,-0.0008422310929745436,-0.014638520777225494
0.03289524465799332,0.004471268504858017,-0.020491644740104675,0.015924032777547836,-0.000882982334587723,-0.014450694434344769
0.0333898663520813,0.004528770223259926,-0.019581513479351997,0.016838833689689636,-0.000930548005271703,-0.014928994700312614
0.033641520887613297,0.004564572591334581,-0.020104454830288887,0.016233935952186584,-0.0009289375157095492,-0.015161058865487576
0.033666856586933136,0.004745127633213997,-0.020079629495739937,0.016454746946692467,-0.0009253405150957406,-0.014825459569692612
0.033678632229566574,0.0052263750694692135,-0.01988435909152031,0.015855226665735245,-0.0009482582099735737,-0.015209273435175419
0.03374083340167999,0.00461582699790597,-0.020482761785387993,0.015354362316429615,-0.0009997602319344878,-0.014712127856910229
0.03415784612298012,0.004379346966743469,-0.020731966942548752,0.015550595708191395,-0.000987607636488974,-0.014413942582905293
0.0354667603969574,0.004294456448405981,-0.020336907356977463,0.016033941879868507,-0.0009755906648933887,-0.014023490250110626
0.03259991481900215,0.004807526711374521,-0.020146790891885757,0.016738103702664375,-0.0008930577896535397,-0.014240257441997528
0.033754125237464905,0.00499584898352623,-0.02064467966556549,0.016410764306783676,-0.0009656445472501218,-0.014208593405783176
0.03506183996796608,0.004866625182330608,-0.020394306629896164,0.016642078757286072,-0.0009969170205295086,-0.014701396226882935
0.03487754613161087,0.0040958640165627,-0.020467018708586693,0.01682729460299015,-0.0008919144747778773,-0.015206310898065567
0.03615234047174454,0.004357360769063234,-0.021006178110837936,0.016979234293103218,-0.0008978101541288197,-0.015392492525279522
0.035083282738924026,0.004711411893367767,-0.020189989358186722,0.017159216105937958,-0.0008763129590079188,-0.015312239527702332
0.03389861807227135,0.004316195845603943,-0.019896693527698517,0.017203565686941147,-0.0007834633579477668,-0.015251529403030872
0.03558989614248276,0.00436873733997345,-0.020391929894685745,0.015889937058091164,-0.0007839900790713727,-0.015582792460918427
0.035868432372808456,0.0045667486265301704,-0.020397275686264038,0.01612035557627678,-0.0007090066792443395,-0.015299231745302677
0.035696953535079956,0.004561354406177998,-0.019931163638830185,0.016114311292767525,-0.0006379750557243824,-0.015454738400876522
0.03518024459481239,0.0045608333311975,-0.020994538441300392,0.01679421216249466,-0.0006398754194378853,-0.015277744270861149
0.0351501889526844,0.00417016027495265,-0.02093982696533203,0.0168985016644001,-0.0006047936622053385,-0.015389416366815567
0.03606826812028885,0.004263313487172127,-0.020404446870088577,0.01706385612487793,-0.0005590590881183743,-0.01512362901121378
0.03592301905155182,0.004501488991081715,-0.020522480830550194,0.017700932919979095,-0.000469889520900324,-0.015285761095583439
0.03547830879688263,0.004691596608608961,-0.02096567302942276,0.016968565061688423,-0.00042356608901172876,-0.015374518930912018
0.035803165286779404,0.004770866595208645,-0.020602872595191002,0.01706617698073387,-0.00045882497215643525,-0.015481838025152683
0.035803165286779404,0.004770866595208645,-0.020602872595191002,0.01706617698073387,-0.00045882497215643525,-0.015481838025152683
0.03635980933904648,0.004413674119859934,-0.017975924536585808,0.016584502533078194,-0.0004794806882273406,-0.01583799161016941
0.03624927997589111,0.004034442361444235,-0.021322859451174736,0.016366370022296906,-0.0004609159950632602,-0.016044428572058678
0.03644862025976181,0.0040462384931743145,-0.021775823086500168,0.01685858704149723,-0.00048768558190204203,-0.016296980902552605
0.035722557455301285,0.004254678264260292,-0.02155955508351326,0.016346246004104614,-0.0004602954431902617,-0.016010913997888565
0.03566325083374977,0.004852140322327614,-0.021246103569865227,0.01658928208053112,-0.0005015265196561813,-0.01612773723900318
0.03760935366153717,0.004914749413728714,-0.02162220887839794,0.01673027314245701,-0.0005102817667648196,-0.016272351145744324
0.03838459402322769,0.00452908780425787,-0.021172305569052696,0.016881197690963745,-0.0005066319718025625,-0.015404638834297657
0.036647502332925797,0.004382262006402016,-0.020920541137456894,0.01680777594447136,-0.0005000336095690727,-0.015603410080075264
0.035529933869838715,0.004154808819293976,-0.02124275639653206,0.016147099435329437,-0.0005312810535542667,-0.016047170385718346
0.03719838708639145,0.004340037237852812,-0.021863678470253944,0.016286343336105347,-0.0005553566734306514,-0.016413265839219093
0.037109460681676865,0.00449505215510726,-0.02145380526781082,0.015832703560590744,-0.0005235699354670942,-0.016650503501296043
0.03813610598444939,0.004513023421168327,-0.021207569167017937,0.017362358048558235,-0.000549120653886348,-0.016414789482951164
0.0372912622988224,0.004485699348151684,-0.02230266109108925,0.017621099948883057,-0.0005813376046717167,-0.016421955078840256
0.036974504590034485,0.004151762463152409,-0.022530561313033104,0.017651023343205452,-0.0006122547201812267,-0.01647890731692314
0.03742920979857445,0.004307136870920658,-0.02208399772644043,0.017413176596164703,-0.000632590614259243,-0.016665812581777573
0.03777114301919937,0.004062485881149769,-0.020901741459965706,0.017682412639260292,-0.0007664915174245834,-0.016900712624192238
0.0381607860326767,0.004321923945099115,-0.021569378674030304,0.017584631219506264,-0.0008063167333602905,-0.017069142311811447
0.03801986575126648,0.004316956736147404,-0.022216223180294037,0.017122969031333923,-0.0008198750438168645,-0.017243923619389534
0.0372256301343441,0.0040991115383803844,-0.0226223636418581,0.018068548291921616,-0.0008292220300063491,-0.017058711498975754
0.037904489785432816,0.003942061215639114,-0.02214064449071884,0.018129339441657066,-0.0009283656254410744,-0.016777636483311653
0.03831672668457031,0.004319399129599333,-0.021839143708348274,0.018152454867959023,-0.0009437707485631108,-0.01698240265250206
0.037639956921339035,0.0041224099695682526,-0.021981369704008102,0.01827234961092472,-0.0009112568222917616,-0.016983382403850555
0.03777249529957771,0.003882631892338395,-0.02213934436440468,0.017694776877760887,-0.0008224899647757411,-0.017238307744264603
0.03847477212548256,0.00377822108566761,-0.02210913598537445,0.017719691619277,-0.0008255932480096817,-0.01659882627427578
0.03756919503211975,0.0037889040540903807,-0.0220442283898592,0.017510024830698967,-0.0007733856909908354,-0.017119692638516426
0.038707517087459564,0.004054774064570665,-0.021991588175296783,0.01786627247929573,-0.0006844777381047606,-0.017671991139650345
0.038617316633462906,0.004524122457951307,-0.02224596217274666,0.0181430596858263,-0.000705717655364424,-0.017367372289299965
0.03809555992484093,0.0042315395548939705,-0.022219063714146614,0.01780276745557785,-0.0007071350701153278,-0.017780862748622894
0.03809555992484093,0.0042315395548939705,-0.022219063714146614,0.01780276745557785,-0.0007071350701153278,-0.017780862748622894
0.03855546563863754,0.003960893955081701,-0.02191827818751335,0.01780111715197563,-0.0007024712976999581,-0.017714984714984894
0.039090320467948914,0.003945533186197281,-0.02239117957651615,0.01748565211892128,-0.0006821155548095703,-0.017672311514616013
0.038643740117549896,0.003942809067666531,-0.02256111614406109,0.017492612823843956,-0.0007819660240784287,-0.018016794696450233
0.03887442871928215,0.003912501968443394,-0.022225232794880867,0.017974911257624626,-0.0008028533775359392,-0.017848802730441093
0.03874625638127327,0.004265092313289642,-0.02220875211060047,0.01797815039753914,-0.0008424310944974422,-0.017852092161774635
0.03854167461395264,0.00431798305362463,-0.02218751236796379,0.01820417493581772,-0.0009448432247154415,-0.017925972118973732
0.03897901624441147,0.0040408237837255,-0.02270435355603695,0.018202491104602814,-0.001003802171908319,-0.01814977079629898
0.038810018450021744,0.004327963571995497,-0.022792331874370575,0.018179820850491524,-0.0009180547785945237,-0.019577594473958015
0.03865830972790718,0.0040995958261191845,-0.022312065586447716,0.018718643113970757,-0.0009106456418521702,-0.018168872222304344
0.04067883640527725,0.0038727137725800276,-0.022660529240965843,0.01843610219657421,-0.0008065499714575708,-0.018221870064735413
0.03776485100388527,0.003949026111513376,-0.02318994142115116,0.019414490088820457,-0.0007388163357973099,-0.018436890095472336
0.038778144866228104,0.004111199174076319,-0.023844946175813675,0.01968551054596901,-0.0006421862635761499,-0.018506519496440887
0.03955609351396561,0.004295663442462683,-0.022710246965289116,0.01910739578306675,-0.0006663942476734519,-0.018349293619394302
0.040234848856925964,0.004345895256847143,-0.022982846945524216,0.01890641823410988,-0.0006917878636159003,-0.01856110990047455
0.040894459933042526,0.003972525242716074,-0.023058492690324783,0.01871018297970295,-0.0006948704249225557,-0.018648279830813408
0.03915882855653763,0.004249243531376123,-0.022919338196516037,0.018385805189609528,-0.0006593919242732227,-0.018383661285042763
0.03874951973557472,0.0042894864454865456,-0.023478325456380844,0.019064886495471,-0.0008498039096593857,-0.01858021505177021
0.0402398444712162,0.003999458625912666,-0.023609047755599022,0.019374996423721313,-0.0008672310505062342,-0.01909760758280754
0.03917662054300308,0.004118861630558968,-0.022971531376242638,0.018799876794219017,-0.0008438772638328373,-0.0186698529869318
0.040801096707582474,0.004252870567142963,-0.023591622710227966,0.018946446478366852,-0.000800162844825536,-0.018376776948571205
0.04096541926264763,0.004440592601895332,-0.024431370198726654,0.01888257823884487,-0.0008457168587483466,-0.018779728561639786
0.04006586968898773,0.004542895592749119,-0.024195918813347816,0.01927855983376503,-0.0008600481669418514,-0.018384313210844994
0.04075824096798897,0.004234005231410265,-0.024039488285779953,0.01943020708858967,-0.0008340394706465304,-0.018885474652051926
0.04051476716995239,0.004030541982501745,-0.023010458797216415,0.018749486654996872,-0.0007863028440624475,-0.019608814269304276
0.040912382304668427,0.0039444006979465485,-0.023196522146463394,0.01805580034852028,-0.0007884384249337018,-0.019745325669646263
0.04069380834698677,0.004394037649035454,-0.02372806705534458,0.01815177872776985,-0.0007212759810499847,-0.019349751994013786
0.04069380834698677,0.004394037649035454,-0.02372806705534458,0.01815177872776985,-0.0007212759810499847,-0.019349751994013786
0.040828902274370193,0.004647298716008663,-0.02420521341264248,0.01829051412642002,-0.0006975437863729894,-0.018835250288248062
0.04074130579829216,0.004502890631556511,-0.024360142648220062,0.019009996205568314,-0.0007010353147052228,-0.01902959868311882
0.04179539531469345,0.004270531237125397,-0.023811709135770798,0.019536051899194717,-0.0006964789354242384,-0.01829392835497856
0.042676620185375214,0.003988848067820072,-0.02368490770459175,0.01934259757399559,-0.0006702003884129226,-0.018755769357085228
0.039704203605651855,0.004300372209399939,-0.023910043761134148,0.018682416528463364,-0.0006921252934262156,-0.01864883489906788
0.04127950593829155,0.004658190533518791,-0.024260081350803375,0.01850660890340805,-0.0008932931814342737,-0.01959158293902874
0.041232142597436905,0.004711864050477743,-0.02454289048910141,0.018229316920042038,-0.0009231949225068092,-0.01950874924659729
0.04280189424753189,0.004566892981529236,-0.024518519639968872,0.018731672316789627,-0.0009220631909556687,-0.018953029066324234
0.04281420633196831,0.00424971105530858,-0.024575911462306976,0.01919201761484146,-0.0011122282594442368,-0.019720537588000298
0.04087072238326073,0.004206547047942877,-0.024405356496572495,0.019357945770025253,-0.00107110058888793,-0.019631413742899895
0.04268369451165199,0.004407403524965048,-0.024665087461471558,0.019463082775473595,-0.0010458547621965408,-0.01939239352941513
0.04218030348420143,0.00424588518217206,-0.025050638243556023,0.01901812106370926,-0.0009732006583362818,-0.01918075606226921
0.042219698429107666,0.004414063412696123,-0.024960123002529144,0.019510824233293533,-0.0009620582568459213,-0.018904980272054672
0.04234764724969864,0.00421207444742322,-0.025156479328870773,0.019501565024256706,-0.0009524659253656864,-0.01925281435251236
0.042132966220378876,0.0042535713873803616,-0.02458190731704235,0.019021525979042053,-0.0009372102795168757,-0.01964418776333332
0.04243313893675804,0.003985647577792406,-0.0247103963047266,0.019456524401903152,-0.0008929073810577393,-0.020000552758574486
0.042292628437280655,0.0038053416647017,-0.02454054169356823,0.019731806591153145,-0.000905125867575407,-0.020175499841570854
0.04259015619754791,0.004237613640725613,-0.02479076385498047,0.01952354796230793,-0.000871546333655715,-0.019970577210187912
0.04286767914891243,0.004024394787847996,-0.02508583851158619,0.019744906574487686,-0.000817126885522157,-0.019447876140475273
0.04291239753365517,0.004379804711788893,-0.02511860616505146,0.02005516178905964,-0.0008157366537488997,-0.019473984837532043
0.04267873987555504,0.00464812433347106,-0.025377098470926285,0.019907312467694283,-0.0008449718006886542,-0.019786490127444267
0.04267314076423645,0.004503537900745869,-0.02509971149265766,0.019776664674282074,-0.0009331704932264984,-0.019977690652012825
0.04245666414499283,0.004262436646968126,-0.02492065541446209,0.020143544301390648,-0.000965290586464107,-0.01971425488591194
0.04404911771416664,0.004414786119014025,-0.025011742487549782,0.019832348451018333,-0.0010519134812057018,-0.01972646266222
0.04330332949757576,0.00421257084235549,-0.024849995970726013,0.019505854696035385,-0.0011331564746797085,-0.019780294969677925
0.04298790916800499,0.004447413608431816,-0.024695059284567833,0.019877325743436813,-0.0010576260974630713,-0.019737081602215767
0.04296440631151199,0.00459640147164464,-0.02498549222946167,0.01968562789261341,-0.0009653811575844884,-0.019663216546177864
0.04358804225921631,0.004308963194489479,-0.025471102446317673,0.019713448360562325,-0.0008981256396509707,-0.019853616133332253
0.04358804225921631,0.004308963194489479,-0.025471102446317673,0.019713448360562325,-0.0008981256396509707,-0.019853616133332253
0.043419595807790756,0.004435020498931408,-0.025590943172574043,0.02002534084022045,-0.0008466592407785356,-0.019681168720126152
0.043267834931612015,0.004583167843520641,-0.025515008717775345,0.019856277853250504,-0.0007353801047429442,-0.01954583451151848
0.042941123247146606,0.004653182812035084,-0.0254728514701128,0.020042939111590385,-0.0007417340530082583,-0.020246166735887527
0.043440502136945724,0.0047251200303435326,-0.02526240050792694,0.020524712279438972,-0.0007601631223224103,-0.020399343222379684
0.04483531787991524,0.0043028234504163265,-0.02518637664616108,0.02035951055586338,-0.0007821237668395042,-0.020563561469316483
0.043562695384025574,0.004168296232819557,-0.025574296712875366,0.020286446437239647,-0.0009861428989097476,-0.019760897383093834
0.042078424245119095,0.004818756598979235,-0.02617732621729374,0.020674336701631546,-0.0009983652271330357,-0.01956137642264366
0.04333573579788208,0.004813582170754671,-0.02596295438706875,0.021375423297286034,-0.0009857718832790852,-0.020073149353265762
0.04492782801389694,0.00404631532728672,-0.025874456390738487,0.020017605274915695,-0.0009388217586092651,-0.02132229693233967
0.043446820229291916,0.004363597370684147,-0.026227714493870735,0.01967363990843296,-0.0009326696745119989,-0.02106175757944584
0.04224541038274765,0.004394849296659231,-0.026242824271321297,0.019800545647740364,-0.0009008963243104517,-0.020294560119509697
0.04405638203024864,0.004248519893735647,-0.025669008493423462,0.01996569149196148,-0.0008990386850200593,-0.020051445811986923
0.04431786760687828,0.004451937973499298,-0.026209665462374687,0.02074391022324562,-0.0008271409315057099,-0.020229410380125046
0.04423586279153824,0.004753032699227333,-0.026830822229385376,0.020800858736038208,-0.0007554113399237394,-0.0206637904047966
0.04399319365620613,0.004623355343937874,-0.025862490758299828,0.02046806924045086,-0.0008324284572154284,-0.021353088319301605
0.04437711089849472,0.004361973609775305,-0.02510513737797737,0.02013094536960125,-0.0008731549605727196,-0.021334504708647728
0.0439310222864151,0.004131820518523455,-0.02532803639769554,0.020828956738114357,-0.0011687014484778047,-0.020598605275154114
0.04393213242292404,0.004278494510799646,-0.02559681609272957,0.02049209363758564,-0.0012458829442039132,-0.020661504939198494
0.043921999633312225,0.0045082224532961845,-0.026282470673322678,0.01924084685742855,-0.001195108867250383,-0.021417461335659027
0.044169891625642776,0.004699477925896645,-0.026232348755002022,0.019173217937350273,-0.0012129208771511912,-0.02190978266298771
