davideferrari95/blind_handover_controller/data/Test 89 - [2024-02-07 -- 16-10-18]/joint_states_data.csv
shoulder_pan_joint,shoulder_lift_joint,elbow_joint,wrist_1_joint,wrist_2_joint,wrist_3_joint
0.008443080820143223,-0.005392187274992466,-0.01347157172858715,0.015452002175152302,-9.745446004671976e-05,0.007860410027205944
0.008324680849909782,-0.005899261683225632,-0.012880713678896427,0.01573812961578369,-9.572681301506236e-05,0.00788307748734951
0.008343190886080265,-0.005924568977206945,-0.013445830903947353,0.015702633187174797,-9.405924356542528e-05,0.007892691530287266
0.008343190886080265,-0.005924568977206945,-0.013445830903947353,0.015702633187174797,-9.405924356542528e-05,0.007892691530287266
0.007767719682306051,-0.006034458056092262,-0.012792528606951237,0.016335733234882355,-9.244907414540648e-05,0.00763867050409317
0.00809765700250864,-0.005454988684505224,-0.013117828406393528,0.015900908038020134,-9.089290688280016e-05,0.007970461621880531
0.00827718898653984,-0.005840308498591185,-0.013158232904970646,0.016345059499144554,-8.938836253946647e-05,0.008539053611457348
0.00789793860167265,-0.005858086049556732,-0.013520939275622368,0.01657991297543049,-8.793269080342725e-05,0.008558647707104683
0.007555464282631874,-0.005879758391529322,-0.013141471892595291,0.016741974279284477,-9.998751193052158e-05,0.00793084129691124
0.00809269119054079,-0.0053322953172028065,-0.012544259428977966,0.01769389398396015,-9.928999497788027e-05,0.007716946769505739
0.008347851224243641,-0.003974863328039646,-0.013063767924904823,0.01748543232679367,-9.780602704267949e-05,0.007870502769947052
0.008223071694374084,-0.002770155668258667,-0.012251817621290684,0.017541784793138504,-9.631455759517848e-05,0.007599839940667152
0.00792134739458561,-0.002857041545212269,-0.013252067379653454,0.01684282161295414,-9.486438648309559e-05,0.007477250881493092
0.007946424186229706,-0.0038248125929385424,-0.012356328777968884,0.015883933752775192,-9.34572090045549e-05,0.007875777781009674
0.0083882175385952,-0.004108353517949581,-0.012719104066491127,0.015677569434046745,-9.209103882312775e-05,0.007710887584835291
0.0083882175385952,-0.004108353517949581,-0.012719104066491127,0.015677569434046745,-9.209103882312775e-05,0.007710887584835291
0.007783158216625452,-0.003930309321731329,-0.012858187779784203,0.015607520006597042,-9.076422429643571e-05,0.007531569804996252
0.007433796767145395,-0.0033254593145102262,-0.01278455276042223,0.01671050861477852,-8.947525202529505e-05,0.007149734068661928
0.008212746120989323,-0.0033990528900176287,-0.011410868726670742,0.017629360780119896,-8.822225208859891e-05,0.007279808167368174
0.007620467338711023,-0.0032356835436075926,-0.013585742563009262,0.015197237022221088,-8.58187850099057e-05,0.007693601306527853
0.007620467338711023,-0.0032356835436075926,-0.013585742563009262,0.015197237022221088,-8.58187850099057e-05,0.007693601306527853
0.007551463320851326,-0.0030507249757647514,-0.01210103277117014,0.016263270750641823,-8.466544386465102e-05,0.007968745194375515
0.007956096902489662,-0.0031802719458937645,-0.012684827670454979,0.017095686867833138,-8.942415297497064e-05,0.008006603457033634
0.007547171786427498,-0.0031234535854309797,-0.012196832336485386,0.01741778291761875,-9.383260476170108e-05,0.007643149234354496
0.007572725415229797,-0.0028205241542309523,-0.012565958313643932,0.016256317496299744,-9.066808706847951e-05,0.007933235727250576
0.007572725415229797,-0.0028205241542309523,-0.012565958313643932,0.016256317496299744,-9.066808706847951e-05,0.007933235727250576
0.007493612822145224,-0.002805163851007819,-0.012585590593516827,0.01600758545100689,-8.954061922850087e-05,0.008022337220609188
0.008082492277026176,-0.0028603856917470694,-0.011960410512983799,0.016077840700745583,-8.844077092362568e-05,0.0077489400282502174
0.008004873059689999,-0.0029986873269081116,-0.012710563838481903,0.016216620802879333,-8.736758172744885e-05,0.007595523726195097
0.008235463872551918,-0.0031577639747411013,-0.012444783002138138,0.016038047149777412,-8.632015669718385e-05,0.007977278903126717
0.007712475024163723,-0.002964126644656062,-0.012897596694529057,0.01664617657661438,-8.529749175067991e-05,0.007884618826210499
0.007458437234163284,-0.002878578845411539,-0.01261245645582676,0.01614968292415142,-8.429888112004846e-05,0.0076327030546963215
0.007928243838250637,-0.002787048928439617,-0.013135106302797794,0.016352465376257896,-8.332331344718114e-05,0.007708776276558638
0.007561898324638605,-0.00299825519323349,-0.012707934714853764,0.0160460714250803,-8.242970216087997e-05,0.007493259385228157
0.007258073426783085,-0.0031866738572716713,-0.012461756356060505,0.016383517533540726,-9.529358794679865e-05,0.00799036119133234
0.006954314187169075,-0.0030811759643256664,-0.01329175103455782,0.016384992748498917,-9.42515762289986e-05,0.007807489484548569
0.0073058512061834335,-0.0029626423493027687,-0.012334806844592094,0.016256453469395638,-9.237899212166667e-05,0.00762941362336278
0.00791147816926241,-0.0029065310955047607,-0.01289363857358694,0.016409555450081825,-9.052477253135294e-05,0.007759973406791687
0.007232476491481066,-0.0029468259308487177,-0.012744528241455555,0.01585623249411583,-8.87398564373143e-05,0.007714899256825447
0.007045532576739788,-0.003121791174635291,-0.0133577985689044,0.015736322849988937,-8.702369086677209e-05,0.0075057013891637325
0.007513240911066532,-0.0030380256939679384,-0.01290891319513321,0.015436021611094475,-8.537267422070727e-05,0.0077124061062932014
0.0075379591435194016,-0.0031422299798578024,-0.012948671355843544,0.01630542054772377,-8.378321945201606e-05,0.007930848747491837
0.007228825241327286,-0.0033128876239061356,-0.013139555230736732,0.016182715073227882,-8.225175406550989e-05,0.007604386657476425
0.007091462146490812,-0.003076307475566864,-0.012776235118508339,0.016293605789542198,-8.077533129835501e-05,0.007336670998483896
0.007528971880674362,-0.0031894647981971502,-0.013255749829113483,0.01621832326054573,-9.314368071500212e-05,0.007430600468069315
0.007687253411859274,-0.003255323274061084,-0.012761442922055721,0.01635872945189476,-9.343545389128849e-05,0.007396870758384466
0.007687253411859274,-0.003255323274061084,-0.012761442922055721,0.01635872945189476,-9.343545389128849e-05,0.007396870758384466
0.007322832476347685,-0.0031875816639512777,-0.01307572703808546,0.016568921506404877,-9.196845348924398e-05,0.00790045503526926
0.007285594940185547,-0.003219194244593382,-0.012962388806045055,0.01600699871778488,-9.04363114386797e-05,0.007971863262355328
0.007569869048893452,-0.003338864305987954,-0.013758428394794464,0.016762103885412216,-8.894716302165762e-05,0.008295032195746899
0.007534114643931389,-0.0031379880383610725,-0.01314956322312355,0.01649905927479267,-8.750591950956732e-05,0.007887408137321472
0.007334536872804165,-0.0031820854637771845,-0.013637670315802097,0.01658606342971325,-8.611050725448877e-05,0.007105587515980005
0.007366739679127932,-0.0033445130102336407,-0.013056022115051746,0.016505593433976173,-8.475885260850191e-05,0.007363414857536554
0.007685497403144836,-0.0033840960822999477,-0.013300665654242039,0.015917621552944183,-8.344906382262707e-05,0.007638821378350258
0.00800931453704834,-0.0033074028324335814,-0.01323087140917778,0.016348468139767647,-8.217911090468988e-05,0.007605616934597492
0.007369518280029297,-0.003211244475096464,-0.013175111263990402,0.016194505617022514,-8.629947842564434e-05,0.007069882936775684
0.008054844103753567,-0.003449023934081197,-0.012605583295226097,0.01586904563009739,-9.124908683588728e-05,0.007101090624928474
0.007777590770274401,-0.0032333885319530964,-0.013333503156900406,0.01602875627577305,-9.034552203956991e-05,0.007176670711487532
0.007549848407506943,-0.0032726959325373173,-0.01322110928595066,0.016079723834991455,-8.909436292015016e-05,0.007432125508785248
0.007683980744332075,-0.0033476343378424644,-0.013841446489095688,0.01646355539560318,-8.785360114416108e-05,0.007386306766420603
0.007610461674630642,-0.0034353851806372404,-0.012933514080941677,0.016249777749180794,-8.664551569381729e-05,0.007344583049416542
0.007787513080984354,-0.0035966758150607347,-0.013179129920899868,0.015630917623639107,-8.546998287783936e-05,0.007196004036813974
0.007456284947693348,-0.003458669176325202,-0.013020896352827549,0.01571188122034073,-8.432591857854277e-05,0.007356348447501659
0.007492398377507925,-0.0034088909160345793,-0.013735799118876457,0.015550108626484871,-8.321216591866687e-05,0.007171063218265772
0.00752238230779767,-0.0033238257747143507,-0.013482523150742054,0.01579982228577137,-8.212742977775633e-05,0.007051769644021988
0.007808579131960869,-0.0033811647444963455,-0.013063212856650352,0.015530342236161232,-8.107056783046573e-05,0.006663426756858826
0.007357002701610327,-0.003636969719082117,-0.013307486660778522,0.01638290286064148,-8.004063420230523e-05,0.007193508557975292
0.008372779935598373,-0.003351840889081359,-0.013246904127299786,0.015822596848011017,-7.903647201601416e-05,0.0071401954628527164
0.007450752425938845,-0.003306517144665122,-0.01357679907232523,0.01613917388021946,-7.80571936047636e-05,0.00727746682241559
0.0067468080669641495,-0.0034210700541734695,-0.013098048977553844,0.01546752080321312,-7.710199861321598e-05,0.006986350752413273
0.007220578845590353,-0.003630016464740038,-0.01343879010528326,0.015890222042798996,-7.616975926794112e-05,0.006636335048824549
0.008188202045857906,-0.003692545462399721,-0.01279347576200962,0.015389754436910152,-7.52598571125418e-05,0.006542230490595102
0.0083097442984581,-0.0036404570564627647,-0.013264564797282219,0.015371670946478844,-7.437139720423147e-05,0.006819087080657482
0.007707384414970875,-0.003518790705129504,-0.012773090973496437,0.016311515122652054,-7.350373198278248e-05,0.00696529122069478
0.007409683428704739,-0.003544120816513896,-0.013292274437844753,0.016286125406622887,-7.265609019668773e-05,0.00668377336114645
0.007409683428704739,-0.003544120816513896,-0.013292274437844753,0.016286125406622887,-7.265609019668773e-05,0.00668377336114645
0.008102990686893463,-0.0037684948183596134,-0.013009408488869667,0.016517626121640205,-7.182768604252487e-05,0.007164228707551956
0.0076508899219334126,-0.0038623132277280092,-0.013307977467775345,0.016049155965447426,-7.101801020326093e-05,0.006807324942201376
0.007377285975962877,-0.003979276400059462,-0.013213269412517548,0.016654953360557556,-7.022641511866823e-05,0.006979614030569792
0.007385056000202894,-0.0035077091306447983,-0.012607182376086712,0.017110586166381836,-3.52052302332595e-05,0.006741467863321304
0.008130432106554508,-0.0035301102325320244,-0.012907663360238075,0.016742387786507607,-2.29864986067696e-06,0.006856630556285381
0.007964512333273888,-0.0036590297240763903,-0.012395521625876427,0.01654766872525215,-1.5008541254246666e-07,0.006725509651005268
0.007455561310052872,-0.0038250673096626997,-0.012256530113518238,0.015474168583750725,-9.799505207297443e-09,0.007111398968845606
0.007469395641237497,-0.0033193230628967285,-0.012461568228900433,0.016403276473283768,-6.398376273253348e-10,0.006775121670216322
0.008211630396544933,-0.0031056194566190243,-0.01292103435844183,0.015850212424993515,-2.727727765883259e-12,0.006794912274926901
0.007706827949732542,-0.0032497509382665157,-0.012741235084831715,0.01585935428738594,-1.7810111838014592e-13,0.006941487081348896
0.007708634249866009,-0.003445286536589265,-0.012959974817931652,0.015984611585736275,-1.1628730679671788e-14,0.0071782697923481464
0.008187857456505299,-0.0034719440154731274,-0.012807806022465229,0.016448546200990677,-7.59273081199144e-16,0.00688718119636178
0.007705943193286657,-0.003652178915217519,-0.013101436197757721,0.01624009944498539,-4.957510794095274e-17,0.0065111806616187096
0.007262504193931818,-0.003397446358576417,-0.012374463491141796,0.016362320631742477,-3.2369002187805096e-18,0.006527455057948828
0.007622942328453064,-0.0035897535271942616,-0.012901011854410172,0.015480372123420238,-2.1134644304019146e-19,0.0067407842725515366
0.008209634572267532,-0.0034885951317846775,-0.01266605593264103,0.015963800251483917,-1.3799413103934608e-20,0.006554485764354467
0.007744693662971258,-0.003440028289332986,-0.012930084951221943,0.015585717745125294,-9.010030491007259e-22,0.006408632267266512
0.007434175815433264,-0.00318474555388093,-0.012697502039372921,0.015844276174902916,-5.882906850402901e-23,0.006544861476868391
0.00814083218574524,-0.0031678332015872,-0.013121399097144604,0.01525118201971054,-3.8411175753976246e-24,0.006835440173745155
0.008047695271670818,-0.0033550094813108444,-0.013186503201723099,0.01575426012277603,-2.507975432605488e-25,0.007008389104157686
0.0075274622067809105,-0.003437295090407133,-0.012680674903094769,0.016014117747545242,-1.6375287144886515e-26,0.006607368588447571
0.007338144816458225,-0.003489852650091052,-0.012907424010336399,0.015914835035800934,-1.0691891567938098e-27,0.006385690066963434
0.00769623601809144,-0.0033379774540662766,-0.012433086521923542,0.016219362616539,-6.981041649307476e-29,0.006524611264467239
0.0078783193603158,-0.003373149549588561,-0.013006550259888172,0.015694722533226013,-4.558121345030999e-30,0.006842535454779863
0.007580338045954704,-0.0036203316412866116,-0.01271976437419653,0.015650784596800804,-2.9761276470587652e-31,0.006445880047976971
0.0073317005299031734,-0.0033731628209352493,-0.013302856124937534,0.015315445140004158,-1.9431985441479907e-32,0.006449141073971987
0.0073317005299031734,-0.0033731628209352493,-0.013302856124937534,0.015315445140004158,-1.9431985441479907e-32,0.006449141073971987
0.007792616728693247,-0.0031748556066304445,-0.012879043817520142,0.015955327078700066,-1.2687697357245399e-33,0.00623552268370986
0.008663786575198174,-0.003225696040317416,-0.012699180282652378,0.015716323629021645,-8.284159832119536e-35,0.006538625806570053
0.007844886742532253,-0.003460358828306198,-0.012909572571516037,0.01612437330186367,-5.4089643608836806e-36,0.00661053042858839
0.007649305276572704,-0.0035285726189613342,-0.012230084277689457,0.015817146748304367,-3.5316671841616015e-37,0.006249157711863518
0.007931767031550407,-0.003490063128992915,-0.012881997972726822,0.015917010605335236,-2.3059261660183568e-38,0.006151106208562851
0.007945604622364044,-0.0034311250783503056,-0.012422068044543266,0.01578328385949135,-1.505605516815299e-39,0.00627181027084589
0.007434694096446037,-0.0032092505134642124,-0.013165086507797241,0.015469364821910858,-9.83052911677789e-41,0.0062802815809845924
0.008522361516952515,-0.0037026475183665752,-0.01296225655823946,0.01563728228211403,-5.092252467875369e-05,0.0061136530712246895
0.008149271830916405,-0.0038344725035130978,-0.012758330442011356,0.015788104385137558,-5.729313852498308e-05,0.006276390515267849
0.007621678523719311,-0.003410083707422018,-0.012990854680538177,0.015486665070056915,-5.702543421648443e-05,0.006457978393882513
0.008043311536312103,-0.0031474456191062927,-0.012781730853021145,0.016227450221776962,-5.634141052723862e-05,0.006411159411072731
0.008612076751887798,-0.0031429205555468798,-0.012279706075787544,0.015760941430926323,-5.564661478274502e-05,0.006361765321344137
0.008353419601917267,-0.0033394955098628998,-0.01272493228316307,0.01612364687025547,-5.4967065807431936e-05,0.005830493289977312
0.008313559927046299,-0.003424010705202818,-0.012396352365612984,0.015760308131575584,-5.430373130366206e-05,0.005892022047191858
0.008279905654489994,-0.003638344584032893,-0.012970279902219772,0.016157884150743484,-5.3656272939406335e-05,0.005898577161133289
0.008689588867127895,-0.003383976174518466,-0.012826945632696152,0.016132863238453865,-5.302408681018278e-05,0.006132831797003746
0.008487481623888016,-0.0031554403249174356,-0.013516864739358425,0.01650477573275566,-5.2406572649488226e-05,0.0063267177902162075
0.008597344160079956,-0.0033958933781832457,-0.012383542023599148,0.015952054411172867,-5.180327934795059e-05,0.006232846062630415
0.008892842568457127,-0.003120801178738475,-0.01238559652119875,0.015435758046805859,-5.1213715778430924e-05,0.006286206655204296
0.008201619610190392,-0.0032344693318009377,-0.012785217724740505,0.015974562615156174,-5.0637438107514754e-05,0.006277687381953001
0.008481672033667564,-0.0032750756945461035,-0.012670670635998249,0.015782136470079422,-5.0073969759978354e-05,0.006134317256510258
0.008481672033667564,-0.0032750756945461035,-0.012670670635998249,0.015782136470079422,-5.0073969759978354e-05,0.006134317256510258
0.008338981308043003,-0.0033612751867622137,-0.012652418576180935,0.015600762329995632,-1.639045308365894e-06,0.005890103988349438
0.008338981308043003,-0.0033612751867622137,-0.012652418576180935,0.015600762329995632,-1.639045308365894e-06,0.005890103988349438
0.008161368779838085,-0.0036231873091310263,-0.01316027157008648,0.01587272249162197,-1.0701795361001132e-07,0.005890751723200083
0.008762539364397526,-0.0034455680288374424,-0.012373466044664383,0.016289692372083664,-6.987507017441885e-09,0.0059774499386549
0.008563701063394547,-0.0034099563490599394,-0.013234748505055904,0.01606496050953865,-4.56234244827769e-10,0.005989127326756716
0.008139777928590775,-0.003134841099381447,-0.013365388847887516,0.016347991302609444,-2.9788834593480473e-11,0.005881881806999445
0.008975883014500141,-0.00353476544842124,-0.013197827152907848,0.016044871881604195,-1.2699448426450183e-13,0.006005532573908567
0.008975883014500141,-0.00353476544842124,-0.013197827152907848,0.016044871881604195,-1.2699448426450183e-13,0.006005532573908567
0.008538097143173218,-0.003592186141759157,-0.012695364654064178,0.015667935833334923,-8.29183252550221e-15,0.006069847382605076
0.008216005750000477,-0.00352890370413661,-0.013081802986562252,0.015999987721443176,-5.413973606822615e-16,0.006045614834874868
0.008940224535763264,-0.00344293424859643,-0.012772815302014351,0.01577439345419407,-3.5349381497718876e-17,0.006060045678168535
0.008338130079209805,-0.003618805669248104,-0.01343044638633728,0.015499505214393139,-2.3080620040768587e-18,0.006161336787045002
0.008438781835138798,-0.003389251185581088,-0.012878541834652424,0.015341255813837051,-1.5069995159676163e-19,0.00579253863543272
0.008626182563602924,-0.003562572877854109,-0.013475661166012287,0.015630776062607765,-9.839630041396507e-21,0.006236678920686245
0.008604567497968674,-0.003909114748239517,-0.014298011548817158,0.01603924110531807,-4.194788373896266e-23,0.006200441624969244
0.00859080720692873,-0.003432003315538168,-0.013167041353881359,0.016631213948130608,-2.7388970583652176e-24,0.00580422580242157
0.008587760850787163,-0.0031435631681233644,-0.013159628957509995,0.016193807125091553,-1.7883039150076973e-25,0.00524798734113574
0.008444092236459255,-0.003212975338101387,-0.013193264603614807,0.015908217057585716,-1.1676346259044183e-26,0.005719119217246771
0.008298791013658047,-0.0034838852006942034,-0.013663890771567822,0.0150531567633152,-7.623819684911122e-28,0.006159747950732708
0.009020622819662094,-0.0035907814744859934,-0.013458655215799809,0.014836217276751995,-4.9778096917773976e-29,0.0058925519697368145
0.008712082169950008,-0.0034551031421869993,-0.012781074270606041,0.014637495391070843,-3.2501538590066354e-30,0.005258358549326658
0.008309510536491871,-0.0031971000134944916,-0.013216483406722546,0.01564548723399639,-2.1221180707485143e-31,0.005438186693936586
0.008304527960717678,-0.003228904912248254,-0.012991063296794891,0.016353050246834755,-1.385591484702312e-32,0.005605654325336218
0.008551276288926601,-0.003678476670756936,-0.012674065306782722,0.01645972579717636,-9.046922274745031e-34,0.006049672141671181
0.008739238604903221,-0.0034123077057302,-0.01337440311908722,0.016396699473261833,-5.906993996266977e-35,0.00570630794391036
0.008997034281492233,-0.003533437615260482,-0.013657803647220135,0.015250163152813911,-3.85684474820452e-36,0.005271191243082285
0.009037207812070847,-0.003250908339396119,-0.012553238309919834,0.01613679900765419,-2.5182440990223165e-37,0.005125772673636675
0.008896762505173683,-0.0032456873450428247,-0.013030040077865124,0.016109880059957504,-1.644233311423871e-38,0.005093993619084358
0.00844463612884283,-0.003383183153346181,-0.013082128949463367,0.016852596774697304,-1.0735669833839218e-39,0.005395230837166309
0.008860099129378796,-0.003371728817000985,-0.013805738650262356,0.0160030797123909,-7.0095751782456e-41,0.005440859589725733
0.009199315682053566,-0.00321809365414083,-0.013452393002808094,0.015585937537252903,-4.5766407844848526e-42,0.005445688497275114
0.008529730141162872,-0.0032813302241265774,-0.012686021625995636,0.015203342773020267,-2.9847657290118604e-43,0.005189885385334492
0.008430707268416882,-0.0032035340555012226,-0.012909346260130405,0.015549059957265854,-1.961817850054744e-44,0.00531906308606267
0.008911728858947754,-0.0034871562384068966,-0.013015812262892723,0.01509404182434082,-1.401298464324817e-45,0.0052353511564433575
0.00868990644812584,-0.0033016400411725044,-0.013501103967428207,0.01488445047289133,-0.0,0.0058586494997143745
0.008257929235696793,-0.003171065589413047,-0.012352271936833858,0.015532721765339375,-0.0,0.005738795269280672
0.008866989053785801,-0.003141978057101369,-0.013410978019237518,0.015441151335835457,-0.0,0.005779352970421314
0.008866989053785801,-0.003141978057101369,-0.013410978019237518,0.015441151335835457,-0.0,0.005779352970421314
0.008799344301223755,-0.003069064812734723,-0.012609265744686127,0.0163226630538702,-0.0,0.005346433725208044
0.008676018565893173,-0.0030458334367722273,-0.01326722651720047,0.016080575063824654,-0.0,0.005274342373013496
0.008729706518352032,-0.0033751376904547215,-0.012577373534440994,0.01603500358760357,-0.0,0.005672923289239407
0.009066358208656311,-0.0031740600243210793,-0.013128564693033695,0.015629196539521217,-0.0,0.005590741988271475
0.008801635354757309,-0.003110418329015374,-0.01317687425762415,0.016728753224015236,-0.0,0.005518677178770304
0.008923109620809555,-0.003165879985317588,-0.012990334071218967,0.015388552099466324,-0.0,0.0049269613809883595
0.008829206228256226,-0.003310776548460126,-0.012250127270817757,0.015479014255106449,-0.0,0.004803437273949385
0.008625316433608532,-0.0033855789806693792,-0.013026082888245583,0.015648381784558296,-0.0,0.004863786045461893
0.008998685516417027,-0.0029675185214728117,-0.012669816613197327,0.01627054624259472,-0.0,0.005230163224041462
0.009014502167701721,-0.003041165415197611,-0.01328231766819954,0.015750812366604805,-0.0,0.004933156073093414
0.008942653425037861,-0.003038465278223157,-0.012913118116557598,0.01592922769486904,-0.0,0.004670382011681795
0.008832985535264015,-0.0030127884820103645,-0.012966650538146496,0.015587743371725082,-0.0,0.004437901079654694
0.009686943143606186,-0.0027472234796732664,-0.012872666120529175,0.016153089702129364,-0.0,0.004351834300905466
0.008954830467700958,-0.0026175365783274174,-0.012897687032818794,0.016146305948495865,-0.0,0.0046482812613248825
0.00851039681583643,-0.0025911862030625343,-0.013117182068526745,0.016237040981650352,-0.0,0.004779200069606304
0.009111463092267513,-0.0025547645054757595,-0.0120459645986557,0.016005244106054306,-0.0,0.004683846142143011
0.009348859079182148,-0.002522924216464162,-0.012962809763848782,0.015833811834454536,-0.0,0.00442125229164958
0.009348859079182148,-0.002522924216464162,-0.012962809763848782,0.015833811834454536,-0.0,0.00442125229164958
0.009161347523331642,-0.0014825072139501572,-0.012847155332565308,0.016137253493070602,-0.0,0.004688422195613384
0.00938438717275858,-0.001526075997389853,-0.012421483173966408,0.016297722235322,-0.0,0.004762443248182535
0.00938438717275858,-0.001526075997389853,-0.012421483173966408,0.016297722235322,-0.0,0.004762443248182535
0.009073697961866856,-0.0016935642343014479,-0.012723409570753574,0.015787607058882713,-0.0,0.004383804276585579
0.009073697961866856,-0.0016935642343014479,-0.012723409570753574,0.015787607058882713,-0.0,0.004383804276585579
0.009530879557132721,-0.0022876285947859287,-0.01239397469907999,0.015463890507817268,-0.0,0.004421696998178959
0.008953900076448917,-0.002261745510622859,-0.012895885854959488,0.015727385878562927,-0.0,0.004617825150489807
0.009413043968379498,-0.0021578881423920393,-0.01234284695237875,0.01589648425579071,-0.0,0.00474952906370163
0.009134081192314625,-0.001990819349884987,-0.01268039084970951,0.015736643224954605,-0.0,0.004573588725179434
0.009196184575557709,-0.0016581767704337835,-0.012385223992168903,0.01602880284190178,-0.0,0.004376829136162996
0.00935002975165844,-0.0016777648124843836,-0.012935245409607887,0.01562758907675743,-0.0,0.004396695178002119
0.009961518459022045,-0.0017380825011059642,-0.012528604827821255,0.01562950573861599,-0.0,0.004758630413562059
0.009561638347804546,-0.0018333465559408069,-0.012085496447980404,0.015250992961227894,-0.0,0.004821150563657284
0.009293178096413612,-0.00228076777420938,-0.012479562312364578,0.015670711174607277,-0.0,0.00472514471039176
0.009505648165941238,-0.0018391022458672523,-0.013075831346213818,0.016465257853269577,-0.0,0.004728551488369703
0.009690125472843647,-0.0018313393229618669,-0.012459778226912022,0.015698479488492012,-0.0,0.004740274045616388
0.010127360001206398,-0.0016754608368501067,-0.012538093142211437,0.015346961095929146,-0.0,0.004523721989244223
0.010459838435053825,-0.0017699572490528226,-0.012430340982973576,0.015083025209605694,-0.0,0.004576568491756916
0.010383909568190575,-0.0016862943302839994,-0.01199294812977314,0.015068566426634789,-0.0,0.004367000889033079
0.009621093049645424,-0.0020321570336818695,-0.012548449449241161,0.015066406689584255,-0.0,0.004259217064827681
0.00920434296131134,-0.002038853242993355,-0.012273984029889107,0.015226434916257858,-0.0,0.004428117070347071
0.009502643719315529,-0.002226038835942745,-0.012350869365036488,0.01595938391983509,-0.0,0.004148024134337902
0.010035831481218338,-0.001916124951094389,-0.012307198718190193,0.01581655815243721,-5.368656275095418e-06,0.0039579421281814575
0.009893142618238926,-0.0018724399851635098,-0.012940116226673126,0.015732357278466225,-3.505349184251827e-07,0.00472539197653532
0.009729583747684956,-0.0018122544279322028,-0.013023480772972107,0.014747888781130314,-2.2887425288331542e-08,0.004617696162313223
0.010176761075854301,-0.001834585564211011,-0.012614184059202671,0.015674421563744545,-1.4943855042304222e-09,0.004077311605215073
0.010176761075854301,-0.001834585564211011,-0.012614184059202671,0.015674421563744545,-1.4943855042304222e-09,0.004077311605215073
0.009831000119447708,-0.0020103363785892725,-0.012404132634401321,0.01569483056664467,-6.370799287419571e-12,0.003994160331785679
0.009831000119447708,-0.0020103363785892725,-0.012404132634401321,0.01569483056664467,-6.370799287419571e-12,0.003994160331785679
0.009900374338030815,-0.0021796913351863623,-0.012807770632207394,0.015299966558814049,-4.1596768889616553e-13,0.0038966506253927946
0.009921858087182045,-0.0021004555746912956,-0.012737983837723732,0.015381301753222942,-2.715971673635572e-14,0.0037999083288013935
0.010965016670525074,-0.0020506049040704966,-0.013351255096495152,0.014483911916613579,-1.7733354728773944e-15,0.004274164326488972
0.010298948734998703,-0.0019918049219995737,-0.013210502453148365,0.014705133624374866,-1.1578613487188205e-16,0.004517014138400555
0.00957836490124464,-0.001967377495020628,-0.012830154970288277,0.016125859692692757,-7.560007282261046e-18,0.004420790821313858
0.010154476389288902,-0.0017728330567479134,-0.012765301391482353,0.014902858063578606,-4.936144470718845e-19,0.00450234767049551
0.010118682868778706,-0.0017188001656904817,-0.013096332550048828,0.014548168517649174,-3.222949636804044e-20,0.004282526671886444
0.010158074088394642,-0.0017711403779685497,-0.013476095162332058,0.01508485246449709,-2.1043557582189636e-21,0.0040404777973890305
0.010104297660291195,-0.002121996833011508,-0.012256639078259468,0.015684396028518677,-1.3739938747210108e-22,0.003964872565120459
0.010075196623802185,-0.0018924600444734097,-0.01319860853254795,0.015811346471309662,-8.971197582324742e-24,0.004056074656546116
0.010591190308332443,-0.0017978076357394457,-0.012826869264245033,0.01599467359483242,-5.8575505732124725e-25,0.0040688058361411095
0.010164914652705193,-0.0018301871605217457,-0.013278638944029808,0.015719424933195114,-3.8245622199659137e-26,0.0038662974257022142
0.010176927782595158,-0.0018340382957831025,-0.013099727220833302,0.01580946333706379,-2.4971657733103454e-27,0.0037387320771813393
0.010036260820925236,-0.0019007009686902165,-0.012866180390119553,0.015840396285057068,-1.064580948104688e-29,0.004033488687127829
0.010067645460367203,-0.0019504455849528313,-0.013024039566516876,0.015786385163664818,-6.950952943587444e-31,0.0038610331248492002
0.010357292369008064,-0.0019418505253270268,-0.01279650442302227,0.015930909663438797,-4.5384755430445764e-32,0.003700974863022566
0.010205930098891258,-0.0021704675164073706,-0.012167021632194519,0.015915703028440475,-2.963300402910043e-33,0.0037429295480251312
0.009999856352806091,-0.0021787399891763926,-0.013004218228161335,0.015517676249146461,-1.9348232938351757e-34,0.0038945013657212257
0.010472739115357399,-0.002089677145704627,-0.012632428668439388,0.015381631441414356,-1.2633014255441233e-35,0.003819609060883522
0.010156450793147087,-0.0020420695655047894,-0.012895822525024414,0.015105498023331165,-8.24845530328377e-37,0.0037702687550336123
0.010039929300546646,-0.0019892461132258177,-0.012564635835587978,0.015274057164788246,-5.385651866374113e-38,0.0037943487986922264
0.010223221965134144,-0.0020443391986191273,-0.012755372561514378,0.01461381372064352,-3.5164463923459825e-39,0.0037732042837888002
0.01032816618680954,-0.001998055959120393,-0.012838496826589108,0.014872034080326557,-2.295985494842283e-40,0.0035409503616392612
0.010700156912207603,-0.0021510529331862926,-0.012691829353570938,0.01487002708017826,-1.4991090971346893e-41,0.0038661037106066942
0.010252350941300392,-0.0020611498039215803,-0.013184025883674622,0.015408957377076149,-9.795076265630471e-43,0.004032188560813665
0.010119613260030746,-0.002247493714094162,-0.012319459579885006,0.014824088662862778,-6.445972935894159e-44,0.003911344334483147
0.010031578131020069,-0.002039069775491953,-0.012873277999460697,0.015112319029867649,-4.203895392974451e-45,0.0036849018651992083
0.010031578131020069,-0.002039069775491953,-0.012873277999460697,0.015112319029867649,-4.203895392974451e-45,0.0036849018651992083
0.010351011529564857,-0.0020738784223794937,-0.012311059981584549,0.014945042319595814,-0.0,0.0035380397457629442
0.01107209175825119,-0.002039878163486719,-0.012994127348065376,0.015531891956925392,-0.0,0.003579566488042474
0.009980294853448868,-0.002213153289631009,-0.012722461484372616,0.014989805407822132,-0.0,0.0037246432621032
0.010120714083313942,-0.00238264468498528,-0.013145162723958492,0.01525919046252966,-0.0,0.0035449774004518986
0.010224002413451672,-0.002265271497890353,-0.013028568588197231,0.015184520743787289,-0.0,0.003540566423907876
0.010456441901624203,-0.0024586429353803396,-0.012607531622052193,0.01567899063229561,-0.0,0.0036940390709787607
0.010253245010972023,-0.0025136638432741165,-0.013184384442865849,0.015332934446632862,-0.0,0.003759603016078472
0.010436419397592545,-0.002340092556551099,-0.012575741857290268,0.015529818832874298,-0.0,0.0037481235340237617
0.009556679986417294,-0.002159823663532734,-0.013183658942580223,0.015380708500742912,-0.0,0.003364552976563573
0.010149692185223103,-0.002123841317370534,-0.012459967285394669,0.01521919947117567,-0.0,0.0031045509967952967
0.010142759419977665,-0.002313215285539627,-0.013372590765357018,0.015093407593667507,-0.0,0.0029363459907472134
0.010306156240403652,-0.0023321874905377626,-0.013045590370893478,0.014849665574729443,-0.0,0.003279466414824128
0.009805864654481411,-0.002323275664821267,-0.012907217256724834,0.014802005141973495,-0.0,0.002787598641589284
0.010653176344931126,-0.002174188382923603,-0.012409836985170841,0.015186687931418419,-0.0,0.0033760196529328823
0.010356695391237736,-0.0021015629172325134,-0.013112316839396954,0.015076535753905773,-0.0,0.003660853486508131
0.01048535481095314,-0.0021069124341011047,-0.012537626549601555,0.01603701151907444,-0.0,0.0035754686687141657
0.010226292535662651,-0.0025635976344347,-0.013388286344707012,0.015722673386335373,-0.0,0.00309441308490932
0.011511718854308128,-0.0028257868252694607,-0.012574841268360615,0.015943055972456932,-0.0,0.003057448659092188
0.01105065643787384,-0.002569890581071377,-0.012816235423088074,0.015480759553611279,-0.0,0.0030375656206160784
0.010481517761945724,-0.002585894661024213,-0.012840076349675655,0.01572323590517044,-0.0,0.0030635010916739702
0.010712642222642899,-0.002450130879878998,-0.013040967285633087,0.01544216088950634,-0.0,0.0033958188723772764
0.010651362128555775,-0.0023096625227481127,-0.01314722653478384,0.0152524933218956,-0.0,0.0036676169838756323
0.011027871631085873,-0.002432024572044611,-0.01292459573596716,0.015248001553118229,-0.0,0.0034465440548956394
0.010801581665873528,-0.002517326967790723,-0.013202544301748276,0.01527370698750019,-0.0,0.003197339829057455
0.010801581665873528,-0.002517326967790723,-0.013202544301748276,0.01527370698750019,-0.0,0.003197339829057455
0.010853144340217113,-0.002479635877534747,-0.012635871767997742,0.015778137370944023,-0.0,0.002975866664201021
0.011110774241387844,-0.002494323765859008,-0.012950767762959003,0.01443501003086567,-0.0,0.0027426350861787796
0.011051341891288757,-0.0024916836991906166,-0.012562258169054985,0.015176836401224136,-0.0,0.0026992789935320616
0.010678770951926708,-0.002381565049290657,-0.013000273145735264,0.014871722087264061,-0.0,0.0029427274130284786
0.010816715657711029,-0.002431448083370924,-0.012842058204114437,0.015249630436301231,-0.0,0.0031856014393270016
0.010838106274604797,-0.0022451214026659727,-0.013094337657094002,0.014810389839112759,-0.0,0.0030827592127025127
0.011381988413631916,-0.0023545571602880955,-0.013190516270697117,0.015312996692955494,-0.0,0.002683772938326001
0.01112401857972145,-0.0026136511005461216,-0.013029146939516068,0.01505931094288826,-0.0,0.0026168094482272863
0.011172739788889885,-0.002735671354457736,-0.013309022411704063,0.01538159791380167,-0.0,0.002767226193100214
0.01197796780616045,-0.002564700786024332,-0.013087810948491096,0.014678596518933773,-0.0,0.0031367528717964888
0.011062503792345524,-0.0025618274230509996,-0.013258898630738258,0.015430610626935959,-0.0,0.003130456665530801
0.01100202463567257,-0.0024098895955830812,-0.013255813159048557,0.01566222868859768,-0.0,0.002598703606054187
0.010998716577887535,-0.002606227295473218,-0.012479374185204506,0.015462442301213741,-0.0,0.002362904604524374
0.011791118420660496,-0.002451646141707897,-0.01302824541926384,0.015550979413092136,-0.0,0.00240611401386559
0.010668237693607807,-0.002542220987379551,-0.01262991689145565,0.015475586988031864,-0.0,0.002917178673669696
0.01143872831016779,-0.002700034063309431,-0.013322425074875355,0.015332011505961418,-0.0,0.003138755215331912
0.011236368678510189,-0.0027569360099732876,-0.013447662815451622,0.014807524159550667,-0.0,0.003079894231632352
0.010732796043157578,-0.002564293099567294,-0.012892527505755424,0.01454631332308054,-0.0,0.002817092929035425
0.011192519217729568,-0.0025564010720700026,-0.013219302520155907,0.014767143875360489,-0.0,0.002606981433928013
0.011094551533460617,-0.0026601499412208796,-0.012448612600564957,0.015114923939108849,-0.0,0.002284284681081772
0.012018288485705853,-0.002541142515838146,-0.013310820795595646,0.0154261514544487,-0.0,0.0023156835231930017
0.011355637572705746,-0.002639841055497527,-0.013328996486961842,0.014972500503063202,-3.758120146812871e-05,0.0023110373876988888
0.01094195619225502,-0.0026011408772319555,-0.013607433065772057,0.014961326494812965,-5.3455918532563373e-05,0.0022493251599371433
0.011227933689951897,-0.0024363351985812187,-0.013037287630140781,0.014636627398431301,-5.388144563767128e-05,0.002249445766210556
0.010829690843820572,-0.0024421326816082,-0.013720936141908169,0.01528959721326828,-5.3312676755012944e-05,0.0021722326055169106
0.011174828745424747,-0.002246555406600237,-0.013061782345175743,0.015372236259281635,-5.2692954341182485e-05,0.002303736051544547
0.011174828745424747,-0.002246555406600237,-0.013061782345175743,0.015372236259281635,-5.2692954341182485e-05,0.002303736051544547
0.011637254618108273,-0.002353082876652479,-0.013097910210490227,0.015832601115107536,-5.20833746122662e-05,0.0026059739757329226
0.011372730135917664,-0.0024071820080280304,-0.013609837740659714,0.015057584270834923,-5.148751733941026e-05,0.0027099219150841236
0.011999660171568394,-0.002248909557238221,-0.013965243473649025,0.014900771901011467,-5.090507329441607e-05,0.0025296788662672043
0.011418425478041172,-0.002343058353289962,-0.014162786304950714,0.014605561271309853,-5.0335671403445303e-05,0.002334345830604434
0.011440572328865528,-0.00224307831376791,-0.013376854360103607,0.015467660501599312,-4.977891512680799e-05,0.0021877652034163475
0.011780275031924248,-0.0023790413979440928,-0.013602832332253456,0.014818795956671238,-3.2502073281648336e-06,0.0020402180962264538
0.01148165948688984,-0.0025876290164887905,-0.013549627736210823,0.015243933536112309,-2.122153404116034e-07,0.001981236506253481
0.011584851890802383,-0.002443974604830146,-0.013791389763355255,0.015289783477783203,-1.3856143787904784e-08,0.001987543422728777
0.0114911999553442,-0.0025444685015827417,-0.013398994691669941,0.015307570807635784,-9.047071980461396e-10,0.001953708939254284
0.011595210991799831,-0.002321166917681694,-0.014271068386733532,0.015827326104044914,-5.90709078873708e-11,0.0019274824298918247
0.011880220845341682,-0.0022436659783124924,-0.01350647583603859,0.0156545527279377,-3.856908282334759e-12,0.0019500111229717731
0.011576468124985695,-0.0023265669587999582,-0.014347660355269909,0.015467820689082146,-2.5182856017505473e-13,0.002101303543895483
0.01197804231196642,-0.0020886268466711044,-0.01384507305920124,0.01560336071997881,-1.0735847203707902e-15,0.0017342199571430683
0.012121844105422497,-0.0023742825724184513,-0.0132257966324687,0.015370490960776806,-7.00974093075566e-17,0.0017352994764223695
0.012262784875929356,-0.002284655813127756,-0.014010744169354439,0.015317990444600582,-4.5768598124273566e-18,0.0016012588748708367
0.01180266123265028,-0.0022778220009058714,-0.013639479875564575,0.014575375244021416,-2.9883623783067415e-19,0.0016071309801191092
0.012038681656122208,-0.0021548024378716946,-0.014196996577084064,0.015497615560889244,-1.9511870715437533e-20,0.0015543407062068582
0.012183389626443386,-0.0019481710623949766,-0.013832394033670425,0.015032095834612846,-1.2739857747152401e-21,0.0017876171041280031
0.012633715756237507,-0.001505439868196845,-0.014047780074179173,0.01575576886534691,-8.318216390306239e-23,0.0017113912617787719
0.012509082444012165,-0.001363959047012031,-0.013283650390803814,0.015317704528570175,-5.431201230654914e-24,0.0018376014195382595
0.012151770293712616,-0.0012307375436648726,-0.011863860301673412,0.01550158578902483,-3.546185902243612e-25,0.0018515525152906775
0.012711555697023869,-0.0011103666620329022,-0.01426752284169197,0.014956921339035034,-2.3154061348088e-26,0.001747284783050418
0.012121438048779964,-0.0009284829720854759,-0.014266383834183216,0.016084447503089905,-1.511794821033218e-27,0.0016203681007027626
0.012676464393734932,-0.0010200274409726262,-0.013817823491990566,0.014483680948615074,-9.870939855018734e-29,0.0014983488945290446
0.01229075901210308,-0.0015842962311580777,-0.013509097509086132,0.014688506722450256,-6.445018482281667e-30,0.0014234321424737573
0.012686474248766899,-0.0015310433227568865,-0.014095575548708439,0.01492413692176342,-4.208136709983276e-31,0.0013947226107120514
0.012686474248766899,-0.0015310433227568865,-0.014095575548708439,0.01492413692176342,-4.208136709983276e-31,0.0013947226107120514
0.012383134104311466,-0.0014274606946855783,-0.013507497496902943,0.014974738471210003,-2.747612250555523e-32,0.0014713759301230311
0.01214053574949503,-0.001311082043685019,-0.013806303031742573,0.014848987571895123,-1.7939944788318578e-33,0.0016394932754337788
0.012922565452754498,-0.0012165228836238384,-0.01307751052081585,0.014792786911129951,-1.1713502740581582e-34,0.0015599860344082117
0.012186803855001926,-0.001105826930142939,-0.01373019814491272,0.014984858222305775,-7.648080209052293e-36,0.0016186778666451573
0.012678666040301323,-0.0010731141082942486,-0.013201414607465267,0.015153174288570881,-4.993649270847575e-37,0.0016074944287538528
0.012374179437756538,-0.0009913865942507982,-0.01418202556669712,0.01562708243727684,-3.260496425240126e-38,0.0014950408367440104
0.012947691604495049,-0.0008946470334194601,-0.013434174470603466,0.015252078883349895,-2.1288708438822983e-39,0.0015486141201108694
0.012681800872087479,-0.0009253010503016412,-0.013709449209272861,0.015491021797060966,-1.390003998702359e-40,0.0014529448235407472
0.012647509574890137,-0.000931840855628252,-0.012956403195858002,0.014931241981685162,-9.07621015343184e-42,0.0014472069451585412
0.012578848749399185,-0.0010569284204393625,-0.013471088372170925,0.014644027687609196,-3.923635700109488e-44,0.0013048131950199604
0.012724408879876137,-0.0010311317164450884,-0.013849466107785702,0.014947154559195042,-2.802596928649634e-45,0.0012051851954311132
0.012691646814346313,-0.0010089008137583733,-0.013629468157887459,0.014536482281982899,-0.0,0.0011629718355834484
0.012895619496703148,-0.0009321685647591949,-0.013485448434948921,0.01540080364793539,-0.0,0.001192847266793251
0.012822368182241917,-0.0008970295893959701,-0.013454328291118145,0.014451539143919945,-8.834743493935093e-05,0.001088554854504764
0.013107998296618462,-0.0009280997910536826,-0.014181203208863735,0.014884700998663902,-9.485640475759283e-05,0.0010223624994978309
0.01303855050355196,-0.0009248958085663617,-0.013983253389596939,0.014186520129442215,-9.343367128167301e-05,0.0009917508577927947
0.013003849424421787,-0.000846239912789315,-0.013898059725761414,0.014348042197525501,-9.156804298982024e-05,0.000854765938129276
0.013453735038638115,-0.0009795407531782985,-0.014416986145079136,0.014148795045912266,-8.97443387657404e-05,0.0008281483897008002
0.01332278922200203,-0.001001932891085744,-0.013908270746469498,0.01503011491149664,-9.664776735007763e-05,0.0007558402139693499
0.013490976765751839,-0.000988215091638267,-0.013830047100782394,0.014994478784501553,-0.00010297884728061035,0.0007659213151782751
0.013082119636237621,-0.0008984376327134669,-0.013685239478945732,0.015678320080041885,-0.0001015755333355628,0.0007343090255744755
0.013469507917761803,-0.0009926569182425737,-0.014525369741022587,0.015083657577633858,-9.973433770937845e-05,0.0007802129839546978
0.013163932599127293,-0.0009789703181013465,-0.013942345976829529,0.014959259890019894,-9.79279720922932e-05,0.000809054879937321
0.013696655631065369,-0.0009679919457994401,-0.014208642765879631,0.014840767718851566,-0.00011011576134478673,0.0011421475792303681
0.013277046382427216,-0.0008876809733919799,-0.013754226267337799,0.015294424258172512,-0.00011011358583346009,0.001142275519669056
0.013531495817005634,-0.0008750598644837737,-0.01395515538752079,0.01534044649451971,-0.00010834560816874728,0.0010912446305155754
0.013464054092764854,-0.0008816767949610949,-0.013406774960458279,0.01579403132200241,-0.00012072862591594458,0.0009461070294491947
0.014241707511246204,-0.000884179666172713,-0.01396373100578785,0.01514680590480566,-0.00011964955774601549,0.0008233625558204949
0.013753675855696201,-0.0008860641391947865,-0.013540094718337059,0.014805915765464306,-0.00019972088921349496,0.0007280634599737823
0.013753675855696201,-0.0008860641391947865,-0.013540094718337059,0.014805915765464306,-0.00019972088921349496,0.0007280634599737823
0.01422410923987627,-0.0009116690489463508,-0.014040001668035984,0.014807751402258873,-0.0002645717468112707,0.0006525227217935026
0.01391628012061119,-0.0008738276083022356,-0.013489649631083012,0.014539426192641258,-0.0002546115138102323,0.0006639228668063879
0.01380707323551178,-0.0007919228519313037,-0.014109978452324867,0.014962396584451199,-0.0002862132096197456,0.0006168645340949297
0.01334319170564413,-0.0008045173017308116,-0.013419422321021557,0.015002161264419556,-0.0002969555789604783,0.0005687440861947834
0.013962882570922375,-0.000812434998806566,-0.014141382649540901,0.01556436624377966,-0.0003035526315215975,0.0004385214124340564
0.014100296422839165,-0.0007977411733008921,-0.013904302380979061,0.015564661473035812,-0.00032159750116989017,0.0003895053523592651
0.013923592865467072,-0.0007970179431140423,-0.014313837513327599,0.015895787626504898,-0.0003171691205352545,0.00041949559818021953
0.014574235305190086,-0.0007318415446206927,-0.014104381203651428,0.015185948461294174,-0.0003043950127903372,0.0003969957761000842
0.014126447960734367,-0.000756360066588968,-0.013722213916480541,0.014672202989459038,-0.00048114624223671854,0.00040028904913924634
0.01430502813309431,-0.00069389957934618,-0.014439446851611137,0.015038755722343922,-0.0004784434859175235,0.00037966269883327186
0.01465052179992199,-0.0007050751592032611,-0.01368835847824812,0.014768577180802822,-0.0005054238718003035,0.0003832299553323537
0.014186045154929161,-0.0006986991502344608,-0.014312442392110825,0.014812871813774109,-0.0005348041304387152,0.0003857369301840663
0.014988639391958714,-0.0006521028699353337,-0.013933238573372364,0.014645274728536606,-0.000718838011380285,0.00036754735629074275
0.01467352919280529,-0.0006674089818261564,-0.014551135711371899,0.015014762058854103,-0.0007823276100680232,0.0003497858706396073
0.014911448583006859,-0.0006129958783276379,-0.01405691634863615,0.014763069339096546,-0.0008004589471966028,0.00033358167274855077
0.015801070258021355,-0.0006373968790285289,-0.014497778378427029,0.015171290375292301,-0.0008123586885631084,0.00031880801543593407
0.0141586409881711,-0.0006442738231271505,-0.014170276001095772,0.015184869058430195,-0.0008876789943315089,0.00030528660863637924
0.014067668467760086,-0.000590711017139256,-0.014251288957893848,0.015123176388442516,-0.0009727203869260848,0.0002928674512077123
0.014896136708557606,-0.0006254051113501191,-0.013972065411508083,0.015016867779195309,-0.0009307777509093285,0.0002814179752022028
0.015078566037118435,-0.0006513299886137247,-0.014494145289063454,0.015089398249983788,-0.0008653647382743657,0.0002708308456931263
0.014796552248299122,-0.0006680121296085417,-0.014609327539801598,0.015200348570942879,-0.0008684538188390434,0.00026101103867404163
0.015216533094644547,-0.0006233713938854635,-0.014812742359936237,0.015766793861985207,-0.0008509998442605138,0.00025187901337631047
0.015173246152698994,-0.000725722115021199,-0.014626290649175644,0.014931117184460163,-0.000723507720977068,0.000243364367634058
0.01530013233423233,-0.0007507334812544286,-0.01477113552391529,0.014080935157835484,-0.0007388065569102764,0.0002354070165893063
0.01530013233423233,-0.0007507334812544286,-0.01477113552391529,0.014080935157835484,-0.0007388065569102764,0.0002354070165893063
0.014971259981393814,-0.0007319613359868526,-0.014499113894999027,0.015040780417621136,-0.0006564023206010461,0.0002279528125654906
0.015242229215800762,-0.0006860927096568048,-0.015100857242941856,0.014779712073504925,-0.0006694551557302475,0.0002209566009696573
0.014773711562156677,-0.0006967641529627144,-0.014348671771585941,0.014842749573290348,-0.0006153834983706474,0.0002143774036085233
0.01502019353210926,-0.0006440681754611433,-0.014985812827944756,0.014303169213235378,-0.0005612436798401177,0.0002081783168250695
0.014925516210496426,-0.0006425905739888549,-0.01440321933478117,0.01481147576123476,-0.0005153376841917634,0.00018991138495039195
0.015664223581552505,-0.0006638925988227129,-0.014843299053609371,0.01495254598557949,-0.00047634128713980317,0.0001730382937239483
0.015307045541703701,-0.0006020590080879629,-0.014507193118333817,0.015150060877203941,-0.0004428342799656093,0.00016767112538218498
0.015801355242729187,-0.0006307396106421947,-0.01522507518529892,0.014374839141964912,-0.0004137338255532086,0.00016327548655681312
0.015415685251355171,-0.0006465070764534175,-0.014742960222065449,0.01529364287853241,-0.00038822414353489876,0.00015914753021206707
0.01591634191572666,-0.0006014811806380749,-0.015088704414665699,0.014694453217089176,-0.00036567862844094634,0.00015522587636951357
0.015663960948586464,-0.0006510363891720772,-0.0145717803388834,0.014903304167091846,-0.0003456094127614051,0.00010517311602598056
0.015652891248464584,-0.000616525998339057,-0.014305531047284603,0.014997031539678574,-0.0003543530765455216,5.383859752328135e-05
0.015685658901929855,-0.0006137916352599859,-0.015018286183476448,0.014516091905534267,-0.0003390461206436157,2.7804981073131785e-05
0.015784576535224915,-0.0005855082417838275,-0.014382206834852695,0.01466253213584423,-0.00032388055115006864,2.542358015489299e-05
0.015645289793610573,-0.0006033668178133667,-0.015175862237811089,0.014452144503593445,-0.0003099411551374942,2.4623606805107556e-05
0.01609187386929989,-0.0005644644843414426,-0.01457283180207014,0.015140444971621037,-0.00029714719858020544,1.607745730325405e-06
0.015549331903457642,-0.0005887156585231423,-0.014821798540651798,0.01487171184271574,-0.0002853678015526384,1.0497431190970019e-07
0.015869513154029846,-0.0005917086964473128,-0.01436921488493681,0.015103181824088097,-0.0002744869270827621,6.854071976647447e-09
0.015598294325172901,-0.0005624465411528945,-0.015117569826543331,0.015029734931886196,-0.000264405069174245,4.4752190841990114e-10
0.01611313223838806,-0.0005843959515914321,-0.014776980504393578,0.01522854808717966,-0.0002550379722379148,2.9219980601791207e-11
0.015648355707526207,-0.0005432788748294115,-0.01478850468993187,0.01509922556579113,-0.0002463117998559028,1.9078558177731963e-12
0.016045507043600082,-0.0005706710508093238,-0.01451613288372755,0.015420904383063316,-0.00023816348402760923,-0.0007278061239048839
0.0161561518907547,-0.0006221882649697363,-0.014817377552390099,0.015555608086287975,-0.00023053682525642216,-0.0010464811930432916
0.01599200814962387,-0.0005886386497877538,-0.01428383681923151,0.015605626627802849,-0.00022338343842420727,-0.0009632868459448218
0.016446033492684364,-0.0005887423176318407,-0.014719062484800816,0.015415243804454803,-0.00021666075917892158,-0.0008227096986956894
0.016053972765803337,-0.0005598835414275527,-0.01456670742481947,0.015165003016591072,-0.00021033079246990383,-0.0008004553965292871
0.0166992899030447,-0.0005076585221104324,-0.0149691766127944,0.01562122069299221,-0.00020436052000150084,-0.0007839156896807253
0.016350068151950836,-0.0005144511815160513,-0.014495939016342163,0.015077000483870506,-0.00019871974654961377,-0.0007562926039099693
0.016350068151950836,-0.0005144511815160513,-0.014495939016342163,0.015077000483870506,-0.00019871974654961377,-0.0007562926039099693
0.016354110091924667,-0.0004981504171155393,-0.014805832877755165,0.015349870547652245,-0.00019338200218044221,-0.0007559185614809394
0.016468053683638573,-0.0005050433101132512,-0.014961340464651585,0.015135428868234158,-0.0001883236109279096,-0.0008621411980129778
0.016560476273298264,-0.0004915595636703074,-0.01469077356159687,0.015580644831061363,-0.0001835229340940714,-0.0016146783018484712
0.01656835339963436,-0.0004873682919424027,-0.014775306917726994,0.01505129411816597,-0.00017896101053338498,-0.001685340772382915
0.016092712059617043,-0.00044367575901560485,-0.014640538953244686,0.015397805720567703,-0.00017462055257055908,-0.0016527054831385612
0.016617635264992714,-0.00048125808825716376,-0.014866798184812069,0.015227039344608784,-0.00017048558220267296,-0.0014993272488936782
0.01640627346932888,-0.00044469672138802707,-0.014903442934155464,0.015550834126770496,-0.00016654207138344646,-0.0013829413801431656
0.016401011496782303,-0.0004711233777925372,-0.01508389227092266,0.015385560691356659,-0.00016277677787002176,-0.0013125104596838355
0.016800401732325554,-0.00044535970664583147,-0.014987506903707981,0.015536024235188961,-0.00015917785640340298,-0.001337806461378932
0.016840942203998566,-0.0004549025616142899,-0.014769395813345909,0.015685293823480606,-0.0001557347713969648,-0.0018976387800648808
0.016779176890850067,-0.0004199969698674977,-0.015023686923086643,0.015157421119511127,-0.00014927677693776786,-0.0028928807005286217
0.016855822876095772,-0.00046393624506890774,-0.014380067586898804,0.015103890560567379,-0.0001462446671212092,-0.002630320144817233
0.01661314070224762,-0.00042895544902421534,-0.015008700080215931,0.01563723012804985,-0.00014333336730487645,-0.0023742327466607094
0.016622448340058327,-0.00039172355900518596,-0.014377733692526817,0.015385159291327,-0.00014053548511583358,-0.001970507437363267
0.0170209389179945,-0.0003603471559472382,-0.014715813100337982,0.015712840482592583,-0.000137844865093939,-0.0018844309961423278
0.0167645663022995,-0.0003993817954324186,-0.014329703524708748,0.015069753862917423,-0.00013525538088288158,-0.0020201837178319693
0.017229916527867317,-0.00031803149613551795,-0.014992444775998592,0.015784641727805138,-0.00013276134268380702,-0.002333027310669422
0.016973476856946945,-0.0002906341396737844,-0.014373453333973885,0.01479582954198122,-0.0001303576136706397,-0.0027131629176437855
0.01668871007859707,-0.0002729141269810498,-0.01495580654591322,0.015124290250241756,-0.00012803947902284563,-0.003137186635285616
0.016959279775619507,-0.00025730583001859486,-0.014515209011733532,0.015058057382702827,-0.00012580222391989082,-0.0032101960387080908
0.016721757128834724,-0.00024338779621757567,-0.015060503035783768,0.015501126646995544,-0.0001236417592735961,-0.003036409616470337
0.0176953487098217,-0.000230897479923442,-0.014403369277715683,0.015488424338400364,-0.00012155438889749348,-0.00280243088491261
0.017308466136455536,-0.00021962767641525716,-0.014803029596805573,0.01595977321267128,-0.00011953631474170834,-0.0027162947226315737
0.01713116653263569,-0.00020940699323546141,-0.014665180817246437,0.015581893734633923,-0.00011758417531382293,-0.002408696338534355
0.017455270513892174,-0.0002000944223254919,-0.014803677797317505,0.015254280529916286,-0.00011569473281269893,-0.0022207233123481274
0.016966242343187332,-0.00019157533824909478,-0.014514550566673279,0.01563081704080105,-0.00011386501864762977,-0.002368267858400941
0.017027370631694794,-0.00018375224317424,-0.015476599335670471,0.01551877148449421,-0.00011209228978259489,-0.00339870760217309
0.016973774880170822,-0.00017654387920629233,-0.0146360257640481,0.015775762498378754,-0.00011037394870072603,-0.004452467430382967
0.016973774880170822,-0.00017654387920629233,-0.0146360257640481,0.015775762498378754,-0.00011037394870072603,-0.004452467430382967
0.017029328271746635,-0.00016987862181849778,-0.015074174851179123,0.015385578386485577,-0.0001087075361283496,-0.004616750404238701
0.017754416912794113,-0.0001636983797652647,-0.014407757669687271,0.015831580385565758,-0.00010709068010328338,-0.004320617765188217
0.01668224297463894,-0.00015795273066032678,-0.015264834277331829,0.015268148854374886,-0.00010552120511420071,-0.0035957936197519302
0.018336469307541847,-0.00015259611245710403,-0.015146873891353607,0.015406148508191109,-0.00010399703023722395,-0.0034932754933834076
0.017422502860426903,-0.00014759112673345953,-0.015221224166452885,0.014443173073232174,-0.00010251623461954296,-0.00369156408123672
0.01734243519604206,-0.00014290398394223303,-0.014757703989744186,0.015133602544665337,-0.00010107710113516077,-0.004152888897806406
0.017396466806530952,-0.0001385056966682896,-0.015192201361060143,0.013992149382829666,-9.967780351871625e-05,-0.004038285464048386
0.017272712662816048,-0.00013437020243145525,-0.01474195159971714,0.01439947821199894,-9.83166610240005e-05,-0.003992477897554636
0.01767190359532833,-0.0001304739562328905,-0.015691226348280907,0.014735099859535694,-9.699225483927876e-05,-0.004290201235562563
0.018128100782632828,-0.00012332279584370553,-0.014951753430068493,0.01490102894604206,-9.44475905271247e-05,-0.00442407326772809
0.018315793946385384,-0.00012003326264675707,-0.015847980976104736,0.015320071019232273,-9.322473488282412e-05,-0.004259215667843819
0.018188025802373886,-0.00011691472900565714,-0.015463161282241344,0.015374886803328991,-9.203312947647646e-05,-0.004319670144468546
0.01811719313263893,-0.00011395406909286976,-0.01580885425209999,0.015489730052649975,-9.087158105103299e-05,-0.004548605531454086
0.01832529343664646,-0.00011113964865216985,-0.014878001995384693,0.01531426701694727,-8.97389036254026e-05,-0.004829889629036188
0.017997438088059425,-0.000108460990304593,-0.015118880197405815,0.01516093872487545,-8.86342822923325e-05,-0.004744045436382294
0.018588434904813766,-0.00010590851161396131,-0.014824293553829193,0.015383020043373108,-8.75564364832826e-05,-0.004270312376320362
0.018121933564543724,-0.00010347316856496036,-0.015892816707491875,0.015317413955926895,-8.650447125546634e-05,-0.004367718007415533
0.018123501911759377,-0.00010114740143762901,-0.015654390677809715,0.015431201085448265,-8.547752076992765e-05,-0.004915982950478792
0.018667280673980713,-9.892395610222593e-05,-0.015724772587418556,0.015254568308591843,-8.447464642813429e-05,-0.004914192482829094
0.018201477825641632,-7.970347360242158e-05,-0.01528046652674675,0.01565372385084629,-8.349506242666394e-05,-0.004900070838630199
0.01825595647096634,-6.336923252092674e-05,-0.015028582885861397,0.01585489511489868,-8.253790292656049e-05,-0.005331946071237326
0.018273673951625824,-5.576967669185251e-05,-0.015254185535013676,0.0156564824283123,-8.160242578014731e-05,-0.005262973252683878
0.018138570711016655,-5.455827704281546e-05,-0.015200940892100334,0.014997505582869053,-8.068798342719674e-05,-0.004945403430610895
0.018688566982746124,-5.3476669563679025e-05,-0.015462487004697323,0.015134605579078197,-7.979378278832883e-05,-0.005946730729192495
0.01877770759165287,-5.2438019338296726e-05,-0.01585257239639759,0.015471427701413631,-1.0278338777425233e-05,-0.005188268609344959
0.01811317726969719,-5.1439037633826956e-05,-0.015899650752544403,0.015751391649246216,-6.711020432703663e-07,-0.004493051674216986
0.018571799620985985,-5.0477385229896754e-05,-0.015202571637928486,0.015809180215001106,-4.3818172201781636e-08,-0.0044979494996368885
0.018571799620985985,-5.0477385229896754e-05,-0.015202571637928486,0.015809180215001106,-4.3818172201781636e-08,-0.0044979494996368885
0.018713265657424927,-4.955102122039534e-05,-0.01577957347035408,0.015462223440408707,-2.861013648214339e-09,-0.005142269656062126
0.01835775189101696,-4.865811570198275e-05,-0.014503709971904755,0.015847697854042053,-1.868037391439259e-10,-0.0052897813729941845
0.018994426354765892,-4.7796729631954804e-05,-0.015585264191031456,0.015265490859746933,-1.2196950047171917e-11,-0.0056953211314976215
0.018893497064709663,-4.6965378714958206e-05,-0.014857672154903412,0.015201867558062077,-7.963736007449151e-13,-0.005339916329830885
0.018678266555070877,-4.616238584276289e-05,-0.015407946892082691,0.014978908002376556,-5.199751287638006e-14,-0.005040675867348909
0.018928302451968193,-4.538645953289233e-05,-0.015592080540955067,0.015592490322887897,-3.395065812481662e-15,-0.005138913169503212
0.01909467950463295,-4.4636151869781315e-05,-0.01574457809329033,0.015670452266931534,-2.2167353831968492e-16,-0.005431612022221088
0.01906607672572136,2.5109162379521877e-05,-0.015474548563361168,0.01657448336482048,-1.447369864726501e-17,-0.006120010279119015
0.01923372410237789,3.349177859490737e-05,-0.015505436807870865,0.016205428168177605,-9.450290344234575e-19,-0.005790426395833492
0.019059674814343452,3.299658783362247e-05,-0.015606938861310482,0.015617514960467815,-6.170364119096967e-20,-0.005696185864508152
0.019170913845300674,3.24042011925485e-05,-0.015185222029685974,0.014602267183363438,-4.028807003349746e-21,-0.0057759941555559635
0.019603591412305832,3.127810123260133e-05,-0.015624085441231728,0.014633226208388805,-1.7175434615879218e-23,-0.006166211329400539
0.019634364172816277,3.074387495871633e-05,-0.016072124242782593,0.014707270078361034,-1.1214330271638384e-24,-0.005907017271965742
0.020268237218260765,3.0227618481148966e-05,-0.01514283288270235,0.014853592962026596,-7.322156385859691e-26,-0.005986118223518133
0.019295645877718925,2.972837864945177e-05,-0.015454230830073357,0.015186083503067493,-4.780844523401299e-27,-0.006436938885599375
0.018977679312229156,2.9245391488075256e-05,-0.015322543680667877,0.01540344301611185,-3.1215496612752624e-28,-0.0061310576274991035
0.020113080739974976,2.877784390875604e-05,-0.015879016369581223,0.01466087345033884,-2.0381489169585422e-29,-0.006334941368550062
0.020169999450445175,4.1922499804059044e-05,-0.01569046452641487,0.015035978518426418,-1.3307654936619515e-30,-0.0063384100794792175
0.02007760852575302,4.182174598099664e-05,-0.015699459239840508,0.014622506685554981,-8.68894802499996e-32,-0.006893177982419729
0.020060282200574875,4.1191033233189955e-05,-0.01560166571289301,0.01538472343236208,-7.992800419742707e-06,-0.006463456898927689
0.02035103738307953,4.057224577991292e-05,-0.01582488603889942,0.015710491687059402,-5.218727778810717e-07,-0.006308906711637974
0.02003747783601284,3.997160820290446e-05,-0.016006220132112503,0.01620333641767502,-3.40745636151496e-08,-0.00641862815245986
0.02040230669081211,3.938849476980977e-05,-0.015353608876466751,0.015191106125712395,-2.2248256570378544e-09,-0.005949761718511581
0.020740948617458344,5.0253147492185235e-05,-0.016186317428946495,0.015472766943275928,-1.4526521652236113e-10,-0.0064102718606591225
0.020010851323604584,5.1008955779252574e-05,-0.015568583272397518,0.014841582626104355,-9.484780148782956e-12,-0.006506570614874363
0.02003243938088417,5.031572436564602e-05,-0.0158326905220747,0.014924486167728901,-6.19288366247861e-13,-0.006452230736613274
0.020197300240397453,5.7791101426118985e-05,-0.01525642815977335,0.014656194485723972,-4.043510318241239e-14,-0.006241456139832735
0.020197300240397453,5.7791101426118985e-05,-0.01525642815977335,0.014656194485723972,-4.043510318241239e-14,-0.006241456139832735
0.02040201611816883,6.112791015766561e-05,-0.015998145565390587,0.014918740838766098,-2.6401229225275595e-15,-0.0062101432122290134
0.021097511053085327,6.036325794411823e-05,-0.01549210399389267,0.015140530653297901,-1.7238115740338036e-16,-0.0063614859245717525
0.0209386944770813,5.956502354820259e-05,-0.015813352540135384,0.015926331281661987,-1.125525634346816e-17,-0.006881217937916517
0.020756274461746216,5.8786994486581534e-05,-0.01576547510921955,0.01570955663919449,-7.348877806110588e-19,-0.0068435631692409515
0.020916547626256943,5.802885061712004e-05,-0.016015412285923958,0.015331598930060863,-4.7982921720739837e-20,-0.006348252296447754
0.02048606425523758,5.729013719246723e-05,-0.01585451140999794,0.015129764564335346,-3.1329419252315824e-21,-0.006004342809319496
0.020985858514904976,0.00015054077084641904,-0.015820248052477837,0.014975205063819885,-2.0455871353929362e-22,-0.006167279556393623
0.021111799404025078,0.00015731513849459589,-0.016464844346046448,0.015555532649159431,-1.3356222918958676e-23,-0.006574743892997503
0.020895428955554962,0.00015215722669381648,-0.01594080962240696,0.015392365865409374,-2.825028968800325e-05,-0.007283420767635107
0.021202266216278076,0.0001762113388394937,-0.01651107706129551,0.015394007787108421,-0.00024254704476334155,-0.007037755101919174
0.02114052325487137,0.00017102011770475656,-0.015783211216330528,0.015021289698779583,-0.00028583258972503245,-0.006819959729909897
0.021221010014414787,0.0001608379534445703,-0.01625882461667061,0.01490135956555605,-0.000286192778730765,-0.007328847888857126
0.021467095240950584,0.00017329146794509143,-0.015992864966392517,0.01475612260401249,-0.00029289498343132436,-0.007287339307367802
0.021809523925185204,0.00017697458679322153,-0.016241583973169327,0.014343286864459515,-0.0002811308077070862,-0.007110821083188057
0.02146928384900093,0.00017225122428499162,-0.016327863559126854,0.015106028877198696,-0.00030252657597884536,-0.007239921949803829
0.021481037139892578,0.00016766802582424134,-0.016869589686393738,0.015433823689818382,-0.000294719182420522,-0.0072911749593913555
0.021677760407328606,0.00018633178842719644,-0.01649085432291031,0.015559266321361065,-0.0004793503030668944,-0.00719183636829257
0.022350573912262917,0.00018193239520769566,-0.016568955034017563,0.014801948331296444,-0.0005264717619866133,-0.0077773649245500565
0.022126296535134315,0.000328609487041831,-0.016903195530176163,0.015399975702166557,-0.0005002844263799489,-0.007589671760797501
0.021815920248627663,0.00031211035093292594,-0.017089778557419777,0.015991687774658203,-0.0005302729550749063,-0.00740841357037425
0.0216754712164402,0.0003479105362202972,-0.017503447830677032,0.015682825818657875,-0.0005543077131733298,-0.007227306719869375
0.022220246493816376,0.00032895361073315144,-0.016801010817289352,0.015102646313607693,-0.0006419982528313994,-0.007391908206045628
0.022166136652231216,0.0003100901376456022,-0.017778726294636726,0.015090126544237137,-0.000759536400437355,-0.007363404147326946
0.022086162120103836,0.0002932491770479828,-0.017596127465367317,0.015769964084029198,-0.000854181416798383,-0.007329009938985109
0.02183457650244236,0.00032384443329647183,-0.016781019046902657,0.015560060739517212,-0.0013834518613293767,-0.0071037039160728455
0.02218620851635933,0.0003085941425524652,-0.017438484355807304,0.015492566861212254,-0.0015997455921024084,-0.007355464622378349
0.0222444087266922,0.00033450053888373077,-0.016890330240130424,0.015003293752670288,-0.002055149292573333,-0.007885405793786049
0.02168608270585537,0.00032146243029274046,-0.017386993393301964,0.015104416757822037,-0.0021042930893599987,-0.008157363161444664
0.02185543067753315,0.0004191370098851621,-0.017273398116230965,0.015072397887706757,-0.0020529618486762047,-0.008076542988419533
0.02185543067753315,0.0004191370098851621,-0.017273398116230965,0.015072397887706757,-0.0020529618486762047,-0.008076542988419533
0.022460374981164932,0.00043520069448277354,-0.017433783039450645,0.01608523540198803,-0.0019298759289085865,-0.00793093629181385
0.023179443553090096,0.0004252332146279514,-0.01777692884206772,0.015871703624725342,-0.001641151960939169,-0.008204140700399876
0.022798802703619003,0.0003944883937947452,-0.016682196408510208,0.016002781689167023,-0.001458953251130879,-0.008176194503903389
0.0224287249147892,0.0004215531225781888,-0.01743760146200657,0.015754226595163345,-0.0013382899342104793,-0.008120695129036903
0.020404454320669174,0.0004014589649159461,-0.01745004765689373,0.015822328627109528,-0.001248832093551755,-0.00821767933666706
0.022809559479355812,0.00042497896356508136,-0.017218368127942085,0.015565005131065845,-0.0010986797278746963,-0.007901450619101524
0.02325388416647911,0.000406940613174811,-0.017542608082294464,0.015422696247696877,-0.0008475484210066497,-0.007500420790165663
0.022988446056842804,0.000461938587250188,-0.016869546845555305,0.015860717743635178,-0.0007773940451443195,-0.00770511943846941
0.022421158850193024,0.0004542740061879158,-0.017658889293670654,0.015628883615136147,-0.0007305869949050248,-0.007225336506962776
0.022829778492450714,0.0004921997897326946,-0.017746618017554283,0.0162164568901062,-0.0006467686034739017,-0.007178692612797022
0.023271387442946434,0.0004882367793470621,-0.017815634608268738,0.015699628740549088,-0.0005218036822043359,-0.007385506294667721
0.022989239543676376,0.0005172495730221272,-0.01773599535226822,0.016565922647714615,-0.0004757733840961009,-0.007485778070986271
0.022196415811777115,0.0006961406907066703,-0.017903504893183708,0.015958629548549652,-0.0004372123221401125,-0.007862943224608898
0.02237984724342823,0.0007372712716460228,-0.017594462260603905,0.015582632273435593,-0.0004670859780162573,-0.0073962281458079815
0.02301505021750927,0.0007323020836338401,-0.017225757241249084,0.015901247039437294,-0.00043863439350388944,-0.007819917984306812
0.023740753531455994,0.0006865373579785228,-0.017948120832443237,0.016016187146306038,-0.0004103167448192835,-0.007596587296575308
0.023639075458049774,0.0007041843491606414,-0.017216337844729424,0.01594957336783409,-0.00038523069815710187,-0.007520580664277077
0.023344341665506363,0.0007497931364923716,-0.0175092164427042,0.015938973054289818,-0.000363023515092209,-0.007434500381350517
0.023241199553012848,0.000818830041680485,-0.017873095348477364,0.015567762777209282,-0.0003671383601613343,-0.008121614344418049
0.02338121458888054,0.0008301944471895695,-0.016915027052164078,0.016166627407073975,-0.0003703552356455475,-0.00831134058535099
0.02390286512672901,0.0008413142641074955,-0.01759721152484417,0.016287166625261307,-0.0003536081640049815,-0.008258395828306675
0.023971496149897575,0.0011625222396105528,-0.01741446554660797,0.016155902296304703,-0.0003371404018253088,-0.008353292010724545
0.023602403700351715,0.0011258932063356042,-0.017514681443572044,0.015646232292056084,-0.00032206226023845375,-0.008241863921284676
0.023593414574861526,0.0010903774527832866,-0.01775369606912136,0.015552237629890442,-0.00030826975125819445,-0.008308520540595055
0.023861661553382874,0.0010009482502937317,-0.017200326547026634,0.015865491703152657,-0.0002956109237857163,-0.008288105949759483
0.02372995764017105,0.0010940826032310724,-0.01787417195737362,0.015610342845320702,-0.00028395018307492137,-0.00825404841452837
0.02372995764017105,0.0010940826032310724,-0.01787417195737362,0.015610342845320702,-0.00028395018307492137,-0.00825404841452837
0.024275314062833786,0.0010623537236824632,-0.0177567508071661,0.01577053964138031,-0.00023997234529815614,-0.008601732552051544
0.024155713617801666,0.0012418627738952637,-0.017779912799596786,0.01595250517129898,-0.0001877921022241935,-0.008390016853809357
0.024155713617801666,0.0012418627738952637,-0.017779912799596786,0.01595250517129898,-0.0001877921022241935,-0.008390016853809357
0.02393781952559948,0.001183800515718758,-0.017135797068476677,0.015508479438722134,-0.00018013922090176493,-0.008225196972489357
0.02404765784740448,0.0011712159030139446,-0.017323169857263565,0.015882419422268867,-0.00017319575999863446,-0.008333957754075527
0.024295657873153687,0.0011829014401882887,-0.017681840807199478,0.015238268300890923,-0.0001667751930654049,-0.008725987747311592
0.024275440722703934,0.0013119044015184045,-0.017219912260770798,0.015472409315407276,-0.0001608143502380699,-0.008563333190977573
0.024225179105997086,0.0012688443530350924,-0.017822563648223877,0.015508245676755905,-0.0001552649773657322,-0.008776714093983173
0.024468520656228065,0.001699324930086732,-0.01750192791223526,0.015759143978357315,-0.000150085732457228,-0.009176426567137241
0.024546273052692413,0.0015810899203643203,-0.017672285437583923,0.016157902777194977,-0.00016674459038767964,-0.008902125060558319
0.024557538330554962,0.0017270082607865334,-0.01720026694238186,0.01604497618973255,-0.00016368774231523275,-0.009345296770334244
0.024557538330554962,0.0017270082607865334,-0.01720026694238186,0.01604497618973255,-0.00016368774231523275,-0.009345296770334244
0.024831540882587433,0.0016001049662008882,-0.0172564759850502,0.015690363943576813,-0.00015435910609085113,-0.009112376719713211
0.024883925914764404,0.0015515239210799336,-0.017539026215672493,0.01507340557873249,-0.00015006908506620675,-0.009814925491809845
0.024988951161503792,0.0018603994976729155,-0.01805655099451542,0.015479338355362415,-0.00014601102157030255,-0.009787313640117645
0.02498619444668293,0.001977014122530818,-0.017335329204797745,0.015492205508053303,-0.00015380351396743208,-0.009949159808456898
0.024894969537854195,0.002242635702714324,-0.01782793551683426,0.01657751575112343,-0.0001608189777471125,-0.01055731251835823
0.024788903072476387,0.0022150420118123293,-0.01755625568330288,0.016352159902453423,-0.0001575127971591428,-0.010493828915059566
0.025578584522008896,0.0021123643964529037,-0.01759333722293377,0.01584838703274727,-0.00015371618792414665,-0.010577254928648472
0.025546321645379066,0.002048526192083955,-0.018064992502331734,0.01603034697473049,-0.00015005767636466771,-0.010400376282632351
0.02575325220823288,0.002050802344456315,-0.017907889559864998,0.016228239983320236,-0.00014656665734946728,-0.009955326095223427
0.025906473398208618,0.002343451837077737,-0.01860576868057251,0.01702423207461834,-0.00016232919006142765,-0.010643874295055866
0.02542036585509777,0.002297079423442483,-0.018585622310638428,0.016705870628356934,-0.00015996798174455762,-0.01089374627918005
0.02445436641573906,0.0024364273995161057,-0.017909009009599686,0.01669415645301342,-0.00015657056064810604,-0.010805961675941944
0.025265773758292198,0.002589997136965394,-0.018230579793453217,0.016244659200310707,-0.00015324329433497041,-0.010510185733437538
0.025761108845472336,0.002742587821558118,-0.017811354249715805,0.016172165051102638,-0.00015004984743427485,-0.010377680882811546
0.025311021134257317,0.0025803351309150457,-0.01821424625813961,0.015822475776076317,-0.0001628116297069937,-0.010286303237080574
0.025463784113526344,0.002624942222610116,-0.019154123961925507,0.015374323353171349,-0.0001594567729625851,-0.010555332526564598
0.027158623561263084,0.002684811595827341,-0.01861092820763588,0.01588333770632744,-0.0001541514793643728,-0.010687815956771374
0.027158623561263084,0.002684811595827341,-0.01861092820763588,0.01588333770632744,-0.0001541514793643728,-0.010687815956771374
0.02603071555495262,0.0026022668462246656,-0.01803913712501526,0.016006993129849434,-0.0001490552385803312,-0.010640531778335571
0.025715526193380356,0.002933867508545518,-0.018680518493056297,0.016801338642835617,-0.00014427630230784416,-0.01103971153497696
0.025625474750995636,0.003345588920637965,-0.01827649027109146,0.016523495316505432,-0.00016049538680817932,-0.01141262799501419
0.025268208235502243,0.0029035110492259264,-0.019104192033410072,0.01658746600151062,-0.00016222406702581793,-0.010775407776236534
0.02560148388147354,0.0027187077794224024,-0.018848657608032227,0.016149025410413742,-0.00015790807083249092,-0.010755334980785847
0.025912579149007797,0.0028403927572071552,-0.01795872673392296,0.01584244705736637,-0.00017564799054525793,-0.01104998029768467
0.025942254811525345,0.003249528119340539,-0.018804136663675308,0.015803683549165726,-0.00018606673984322697,-0.011653578840196133
0.025689246132969856,0.0034058555029332638,-0.01849815435707569,0.015568368136882782,-0.00019275581871625036,-0.011327649466693401
0.02613057754933834,0.003280608681961894,-0.018013184890151024,0.015826920047402382,-0.0003609063569456339,-0.011089127510786057
0.02670598216354847,0.0033180364407598972,-0.0187822375446558,0.015413424000144005,-0.00041881122160702944,-0.011153860948979855
0.02620246447622776,0.003447639988735318,-0.01831365004181862,0.01596454530954361,-0.00046259924420155585,-0.011030072346329689
0.026366708800196648,0.0036803283728659153,-0.018352560698986053,0.01665683090686798,-0.0004610879987012595,-0.010976575314998627
0.0260955598205328,0.0032557076774537563,-0.01797638274729252,0.016511259600520134,-0.0008071634219959378,-0.011122752912342548
0.026184098795056343,0.0033063841983675957,-0.01860889606177807,0.016094587743282318,-0.0008615669212304056,-0.011289222165942192
0.02642677165567875,0.0034805566538125277,-0.019392631947994232,0.01625116355717182,-0.0008135506068356335,-0.01115503441542387
0.025728899985551834,0.003489235881716013,-0.01859622821211815,0.01609499566257,-0.0008129101479426026,-0.011364591307938099
0.026340387761592865,0.003588684368878603,-0.018383879214525223,0.01661188155412674,-0.0008321705390699208,-0.011063466779887676
0.02620110847055912,0.0038539813831448555,-0.01880398765206337,0.016406819224357605,-0.0008542288560420275,-0.01109202578663826
0.025662101805210114,0.004030712880194187,-0.018500076606869698,0.016554035246372223,-0.0007982722599990666,-0.011448003351688385
0.027715688571333885,0.003894527442753315,-0.019089266657829285,0.016661830246448517,-0.0007992268656380475,-0.011218460276722908
0.027205446735024452,0.0037290435284376144,-0.019081247970461845,0.016748731955885887,-0.0007965877302922308,-0.011564793065190315
0.026659442111849785,0.003741269698366523,-0.0183958038687706,0.017308279871940613,-0.000801404588855803,-0.011328167282044888
0.02668989822268486,0.004319412168115377,-0.019171589985489845,0.016782326623797417,-0.0008402866660617292,-0.01130309235304594
0.026595374569296837,0.004102142062038183,-0.019507747143507004,0.01681864634156227,-0.0008503433200530708,-0.01149072963744402
0.026613948866724968,0.004365799017250538,-0.018474556505680084,0.015717675909399986,-0.0007757660350762308,-0.011248442344367504
0.027808118611574173,0.004656010307371616,-0.01850111223757267,0.01610436476767063,-0.0007398392772302032,-0.011465010233223438
0.02764798142015934,0.0043616523034870625,-0.018831873312592506,0.016428349539637566,-0.0007095737964846194,-0.011309097521007061
0.02764798142015934,0.0043616523034870625,-0.018831873312592506,0.016428349539637566,-0.0007095737964846194,-0.011309097521007061
0.02590990997850895,0.004031400196254253,-0.018958499655127525,0.016266366466879845,-0.0006163243670016527,-0.011108249425888062
0.02590990997850895,0.004031400196254253,-0.018958499655127525,0.016266366466879845,-0.0006163243670016527,-0.011108249425888062
0.02684590220451355,0.0039941053837537766,-0.018853288143873215,0.016244256868958473,-0.0005472621414810419,-0.011559128761291504
0.027774590998888016,0.004325005691498518,-0.018562063574790955,0.016300709918141365,-0.0004881758359260857,-0.011433419771492481
0.02727811597287655,0.004540085792541504,-0.01889481581747532,0.01593322865664959,-0.00048277637688443065,-0.011411821469664574
0.02735517919063568,0.0046748449094593525,-0.01912797801196575,0.017021480947732925,-0.0004782896430697292,-0.010964927263557911
0.028228674083948135,0.0047313557006418705,-0.01885656639933586,0.01670142635703087,-0.0004416537412907928,-0.01095535233616829
0.028266509994864464,0.004504075273871422,-0.019099349156022072,0.016973024234175682,-0.0004083885869476944,-0.01098279096186161
0.027973905205726624,0.004565962590277195,-0.018541760742664337,0.016639115288853645,-0.00043849844951182604,-0.011680275201797485
0.02705231122672558,0.004222366027534008,-0.01862628199160099,0.016460733488202095,-0.0004135386843699962,-0.011738122440874577
0.02871859446167946,0.0045942747965455055,-0.019299834966659546,0.015864402055740356,-0.00041704787872731686,-0.01199492160230875
0.02858254313468933,0.005188568960875273,-0.019240185618400574,0.016277126967906952,-0.0003949959937017411,-0.011487599462270737
0.028684375807642937,0.0050730351358652115,-0.019754989072680473,0.016536932438611984,-0.0003602581564337015,-0.011581717990338802
0.028608985245227814,0.0045959134586155415,-0.019011003896594048,0.016635717824101448,-0.00033050309866666794,-0.011641571298241615
0.028315039351582527,0.004370608367025852,-0.01844143308699131,0.017190152779221535,-0.0003076752182096243,-0.01135857030749321
0.02861405350267887,0.004862365312874317,-0.01946399174630642,0.016994468867778778,-0.00028795996331609786,-0.011485984548926353
0.02877005562186241,0.004940396640449762,-0.019671723246574402,0.01725391298532486,-0.00027063238667324185,-0.010947276838123798
0.0288357213139534,0.005341564770787954,-0.020018931478261948,0.016729269176721573,-0.0002552729856688529,-0.011584720574319363
0.02973664179444313,0.005077081266790628,-0.01950777880847454,0.017461717128753662,-0.0002651195682119578,-0.011857924982905388
0.02941894344985485,0.004765693563967943,-0.019027171656489372,0.017830021679401398,-0.0002734871522989124,-0.011808355338871479
0.029623771086335182,0.004616021644324064,-0.019871514290571213,0.017290307208895683,-0.0002616587153170258,-0.011886761523783207
0.02928621880710125,0.00505945784971118,-0.020731257274746895,0.017242979258298874,-0.0002496515226084739,-0.012177066877484322
0.029395846650004387,0.005017156712710857,-0.019859889522194862,0.016516568139195442,-0.00023862284433562309,-0.012328952550888062
0.029398532584309578,0.005324350669980049,-0.019157296046614647,0.017035508528351784,-0.00026152838836424053,-0.011884266510605812
0.030092092230916023,0.0049844649620354176,-0.02024918794631958,0.017158985137939453,-0.000255451537668705,-0.011952207423746586
0.029756290838122368,0.004732454661279917,-0.01951439306139946,0.01676039956510067,-0.0002457795781083405,-0.012663894332945347
0.02969352714717388,0.004327086731791496,-0.01877351477742195,0.017191536724567413,-0.0002615621779114008,-0.012282057665288448
0.029910705983638763,0.004473589826375246,-0.01968568190932274,0.016893746331334114,-0.0002600041916593909,-0.012334562838077545
0.029703617095947266,0.004900101572275162,-0.02049957402050495,0.016887124627828598,-0.00025249848840758204,-0.012717440724372864
0.029703617095947266,0.004900101572275162,-0.02049957402050495,0.016887124627828598,-0.00025249848840758204,-0.012717440724372864
0.030234768986701965,0.005019466392695904,-0.01975983753800392,0.016905829310417175,-0.0002572193625383079,-0.012491801753640175
0.03050408884882927,0.005212585441768169,-0.019588284194469452,0.01682180166244507,-0.0002444932470098138,-0.011924449354410172
0.03033655695617199,0.005237485282123089,-0.019846230745315552,0.016906414180994034,-0.00027212774148210883,-0.011441204696893692
0.030508607625961304,0.004703216720372438,-0.019457770511507988,0.016414809972047806,-0.0002858485095202923,-0.011671612039208412
0.031044581905007362,0.005083833821117878,-0.019735723733901978,0.016902102157473564,-0.0002929000183939934,-0.012174763716757298
0.031403765082359314,0.005363177508115768,-0.020032178610563278,0.016817554831504822,-0.00030079344287514687,-0.011968651786446571
0.03128558024764061,0.005281003192067146,-0.01973363757133484,0.016877377405762672,-0.0003070746606681496,-0.012631482444703579
0.031211944296956062,0.004073243122547865,-0.01950274407863617,0.01700689271092415,-0.0005424244445748627,-0.01289613451808691
0.03148197382688522,0.002230605576187372,-0.020051119849085808,0.016709396615624428,-0.0005929696490056813,-0.013138188980519772
0.032569825649261475,0.0019571352750062943,-0.019805051386356354,0.01688491366803646,-0.0006183970253914595,-0.01311501394957304
0.032065555453300476,0.0018754701595753431,-0.019617484882473946,0.016963358968496323,-0.0006437213160097599,-0.012000098824501038
0.031566210091114044,0.0040605622343719006,-0.020172245800495148,0.017000477761030197,-0.0009070707019418478,-0.012404906563460827
0.03232479467988014,0.0035892396699637175,-0.019555946812033653,0.016854707151651382,-0.0009103696211241186,-0.012766487896442413
0.03152870386838913,0.003165343077853322,-0.0199460219591856,0.01719077117741108,-0.0009092184482142329,-0.013009748421609402
0.032294947654008865,0.002500161062926054,-0.020149793475866318,0.016410229727625847,-0.0009397616377100348,-0.013268868438899517
0.03355095535516739,0.002903994172811508,-0.019361622631549835,0.01696106046438217,-0.0009381535928696394,-0.013152201659977436
0.03261571750044823,0.002835345221683383,-0.020086996257305145,0.016914252191781998,-0.0009509382653050125,-0.013088938780128956
0.03116164170205593,0.0032536869402974844,-0.020211830735206604,0.016506964340806007,-0.0009453218663111329,-0.013020246289670467
0.03205246105790138,0.0030298775527626276,-0.019539816305041313,0.016713159158825874,-0.0009369391482323408,-0.013274538330733776
0.03250162675976753,0.0026750534307211637,-0.019800126552581787,0.01664930209517479,-0.0009332973277196288,-0.013020469807088375
0.03247975558042526,0.0024554317351430655,-0.0202392116189003,0.016999151557683945,-0.0008600188884884119,-0.013366522267460823
0.03286023810505867,0.002479124814271927,-0.020182784646749496,0.01624412275850773,-0.0008361246436834335,-0.013232638128101826
0.03312363475561142,0.002724417019635439,-0.019904054701328278,0.01654236577451229,-0.0008147436892613769,-0.013261061161756516
0.032532185316085815,0.00265747238881886,-0.020243603736162186,0.01652001030743122,-0.0007840105681680143,-0.013190041296184063
0.03271990641951561,0.002808810444548726,-0.020383711904287338,0.01660454086959362,-0.0008059474639594555,-0.013249763287603855
0.03290107101202011,0.002461387310177088,-0.01989123784005642,0.016655508428812027,-0.0007589952438138425,-0.013238703832030296
0.03290107101202011,0.002461387310177088,-0.01989123784005642,0.016655508428812027,-0.0007589952438138425,-0.013238703832030296
0.03274012729525566,0.0023949751630425453,-0.02044796012341976,0.016263747587800026,-0.0007724000606685877,-0.013251563534140587
0.03286956250667572,0.0027021807618439198,-0.020519202575087547,0.017028894275426865,-0.000786158605478704,-0.01385602355003357
0.033017419278621674,0.0030673411674797535,-0.019844993948936462,0.016941901296377182,-0.0007986683631315827,-0.013794527389109135
0.03288456052541733,0.0033068715129047632,-0.02007826417684555,0.016955524682998657,-0.0008225569617934525,-0.013812894001603127
0.03356556221842766,0.003124674316495657,-0.020528066903352737,0.016980836167931557,-0.0007726775947958231,-0.013668229803442955
0.033207789063453674,0.002861100947484374,-0.02026824653148651,0.016803011298179626,-0.000784571748226881,-0.013995842076838017
0.03188519552350044,0.0031564205419272184,-0.020125068724155426,0.016978107392787933,-0.000790364108979702,-0.013992486521601677
0.033656444400548935,0.003428239142522216,-0.02036483772099018,0.016837777569890022,-0.0007230637711472809,-0.01405078824609518
0.034131091088056564,0.0034900635946542025,-0.020587708801031113,0.017179476097226143,-0.0007123855175450444,-0.013870053924620152
0.034621234983205795,0.0036412267945706844,-0.019901873543858528,0.017096055671572685,-0.0007261189166456461,-0.013959863223135471
0.033275969326496124,0.0037421223241835833,-0.0199845340102911,0.017018072307109833,-0.0006658631027676165,-0.013745520263910294
0.034172892570495605,0.00407702662050724,-0.020828096196055412,0.016999587416648865,-0.0006213510641828179,-0.013909082859754562
0.03399840369820595,0.003641254035755992,-0.021006112918257713,0.017009910196065903,-0.0006275339983403683,-0.013826710171997547
0.03408168628811836,0.0035063244868069887,-0.020916268229484558,0.01728225313127041,-0.0005942549905739725,-0.013943091034889221
0.03449102118611336,0.0041172984056174755,-0.02040261961519718,0.01750580407679081,-0.0005927273305132985,-0.014528019353747368
0.03505510091781616,0.004226838704198599,-0.02008836530148983,0.01739610731601715,-0.0005828276625834405,-0.01400215644389391
0.03398190066218376,0.0041123805567622185,-0.020567798987030983,0.0166131854057312,-0.0005676603177562356,-0.013797122985124588
0.03373164311051369,0.0040819235146045685,-0.020950837060809135,0.017056649550795555,-0.0005962324212305248,-0.013812395744025707
0.03427768871188164,0.003998671658337116,-0.02065230906009674,0.017401980236172676,-0.0006225408869795501,-0.014039096422493458
0.034848712384700775,0.0043594143353402615,-0.02054172195494175,0.017606357112526894,-0.0006861881702207029,-0.014331657439470291
0.03486925736069679,0.004075405653566122,-0.021292908117175102,0.018034813925623894,-0.0008045709109865129,-0.014470714144408703
0.03470872715115547,0.004310759715735912,-0.02109723910689354,0.018040919676423073,-0.000823061796836555,-0.01441198494285345
0.03425164893269539,0.004341446328908205,-0.020919794216752052,0.018155653029680252,-0.0008187393541447818,-0.013977641239762306
0.03462721407413483,0.004549024160951376,-0.02079770155251026,0.017349861562252045,-0.0007604627753607929,-0.014293885789811611
0.035296544432640076,0.004307672381401062,-0.021349338814616203,0.016410158947110176,-0.0008574018720537424,-0.01441881898790598
0.035296544432640076,0.004307672381401062,-0.021349338814616203,0.016410158947110176,-0.0008574018720537424,-0.01441881898790598
0.03481912612915039,0.004404502920806408,-0.02059224247932434,0.016664082184433937,-0.0008587123011238873,-0.01450978685170412
0.03473500534892082,0.0044555990025401115,-0.02085931785404682,0.016662491485476494,-0.0007560884114354849,-0.014514976181089878
0.03553915396332741,0.0044829268008470535,-0.020136186853051186,0.017562298104166985,-0.0007665068842470646,-0.014891058206558228
0.034165117889642715,0.004664624109864235,-0.021380610764026642,0.018121205270290375,-0.0007805958739481866,-0.015009095892310143
0.03547436371445656,0.004477337468415499,-0.020764552056789398,0.017682261765003204,-0.0007346568163484335,-0.01491369865834713
0.03567273169755936,0.004514522384852171,-0.020623967051506042,0.01796063967049122,-0.0006583106005564332,-0.014784328639507294
0.035407692193984985,0.005103735718876123,-0.021230900660157204,0.01734631322324276,-0.0006824960582889616,-0.014623249880969524
0.03535456582903862,0.005061838775873184,-0.021120185032486916,0.017906850203871727,-0.0006998013122938573,-0.015034336596727371
0.03576546907424927,0.004406204912811518,-0.020288623869419098,0.018172482028603554,-0.0007258905097842216,-0.014748203568160534
0.035671547055244446,0.0044329301454126835,-0.020634792745113373,0.017562059685587883,-0.0009333159541711211,-0.014819303527474403
0.03587760031223297,0.005062439478933811,-0.020939050242304802,0.01748468540608883,-0.0009544178028590977,-0.014739888720214367
0.03600770980119705,0.005318726412951946,-0.02091166004538536,0.016687752678990364,-0.0011125709861516953,-0.01480658259242773
0.03620094060897827,0.005003785248845816,-0.02160290628671646,0.01704978384077549,-0.0010513452580198646,-0.015023999847471714
0.03652177378535271,0.004834819585084915,-0.021562226116657257,0.016898348927497864,-0.0009485661867074668,-0.014905896969139576
0.03624444827437401,0.005090845283120871,-0.02054974064230919,0.017450809478759766,-0.0009089295053854585,-0.015313386917114258
0.036080293357372284,0.004852296784520149,-0.02072761580348015,0.01737278327345848,-0.0009056596318259835,-0.01681707426905632
0.0365772470831871,0.004695790819823742,-0.020808130502700806,0.01748344860970974,-0.0008291755802929401,-0.015267589129507542
0.03734979405999184,0.005222273524850607,-0.0208258219063282,0.017272332683205605,-0.0007215021178126335,-0.015191970393061638
0.036343708634376526,0.00509192980825901,-0.020892582833766937,0.016536863520741463,-0.0007124569965526462,-0.015598839148879051
0.035046059638261795,0.005206869915127754,-0.020956063643097878,0.017515026032924652,-0.0006535452557727695,-0.015691634267568588
0.03621871396899223,0.004967453423887491,-0.02096427232027054,0.017132239416241646,-0.000674791110213846,-0.015560462139546871
0.03598443791270256,0.005107001401484013,-0.020717693492770195,0.01738743670284748,-0.0006964144995436072,-0.015491398982703686
0.037063125520944595,0.00485965283587575,-0.020800070837140083,0.017051121219992638,-0.0007459946209564805,-0.015066972933709621
0.0370291993021965,0.005621840246021748,-0.02120937965810299,0.017009153962135315,-0.0007724871393293142,-0.015532070770859718
0.035679589956998825,0.005249231122434139,-0.0214035976678133,0.01702006161212921,-0.0007039454649202526,-0.01563476398587227
0.035249918699264526,0.0048234430141747,-0.020764559507369995,0.01692863740026951,-0.0007138824439607561,-0.016265304759144783
0.03674463555216789,0.005143271293491125,-0.020988091826438904,0.017001038417220116,-0.0007202754495665431,-0.016507359221577644
0.03674463555216789,0.005143271293491125,-0.020988091826438904,0.017001038417220116,-0.0007202754495665431,-0.016507359221577644
0.03709825500845909,0.005127092823386192,-0.02113315835595131,0.01687058061361313,-0.0006805059383623302,-0.01624174788594246
0.03617667034268379,0.005400802940130234,-0.02046802267432213,0.016932081431150436,-0.000704752397723496,-0.016033273190259933
0.0371030829846859,0.005569945555180311,-0.02060176059603691,0.017528224736452103,-0.0006166464299894869,-0.016285672783851624
0.03733690083026886,0.005276762414723635,-0.021507158875465393,0.017582906410098076,-0.00062169338343665,-0.016458215191960335
0.03668614476919174,0.005234809126704931,-0.022200975567102432,0.01768801175057888,-0.0005791120929643512,-0.016359630972146988
0.03717116266489029,0.00495820352807641,-0.021237602457404137,0.017702024430036545,-0.0005996276740916073,-0.016846535727381706
0.036799367517232895,0.00487186573445797,-0.020906688645482063,0.017603063955903053,-0.0005568910855799913,-0.016066689044237137
0.03691636398434639,0.005567766260355711,-0.020708231255412102,0.017491312697529793,-0.0005802286323159933,-0.01600612699985504
0.037165336310863495,0.0053474996238946915,-0.02111980691552162,0.016771415248513222,-0.0005410751909948885,-0.01573185808956623
0.037153542041778564,0.004880936350673437,-0.021191710606217384,0.017032312229275703,-0.0005022239056415856,-0.016046971082687378
0.037216026335954666,0.0047812084667384624,-0.02179219387471676,0.01745716668665409,-0.00045321040670387447,-0.016328221186995506
0.03694349527359009,0.0052408440969884396,-0.021434737369418144,0.017501836642622948,-0.0004882271168753505,-0.016476858407258987
0.038630180060863495,0.005124001298099756,-0.021493520587682724,0.017605876550078392,-0.00045229773968458176,-0.016889018937945366
0.036840613931417465,0.00555812194943428,-0.022069932892918587,0.017856480553746223,-0.0005077041569165885,-0.01677694171667099
0.0376502200961113,0.005060735158622265,-0.021550025790929794,0.017881492152810097,-0.0005690879770554602,-0.016236400231719017
0.03742963820695877,0.0051230876706540585,-0.022453555837273598,0.017894018441438675,-0.0006639731582254171,-0.016378523781895638
0.0388365164399147,0.005078020505607128,-0.02172102965414524,0.018239518627524376,-0.000708139268681407,-0.016522012650966644
0.0384051650762558,0.005296278744935989,-0.021034300327301025,0.01772748865187168,-0.0007290894282050431,-0.016213754191994667
0.0373406782746315,0.005501324776560068,-0.021422427147626877,0.017257072031497955,-0.000994996982626617,-0.016220221295952797
0.03721841052174568,0.005548834800720215,-0.022241925820708275,0.016992026939988136,-0.0010175105417147279,-0.01607678271830082
0.0387088768184185,0.0050865234807133675,-0.022173207253217697,0.016697479411959648,-0.0009720689849928021,-0.016800330951809883
0.03836732357740402,0.005297533236443996,-0.021742558106780052,0.01748221181333065,-0.0009292803588323295,-0.016521072015166283
0.03810661658644676,0.00545656681060791,-0.021864717826247215,0.017745934426784515,-0.0008712366106919944,-0.016703268513083458
0.03786492720246315,0.005318462383002043,-0.02191118896007538,0.017687520012259483,-0.0007802528562024236,-0.016514984890818596
0.03801589086651802,0.005808367393910885,-0.02196887880563736,0.017644166946411133,-0.0006915012490935624,-0.016577567905187607
0.038308728486299515,0.00551840104162693,-0.021321585401892662,0.017275676131248474,-0.0007033658912405372,-0.016993265599012375
0.03804595023393631,0.0056392839178442955,-0.022242125123739243,0.01765977032482624,-0.0006345551810227334,-0.016827842220664024
0.03770294412970543,0.005798081401735544,-0.02223166823387146,0.017808405682444572,-0.0006377475801855326,-0.01690240390598774
0.03838442638516426,0.0056314002722501755,-0.021801598370075226,0.017662236467003822,-0.0005984299932606518,-0.016327112913131714
0.03853388875722885,0.005771644413471222,-0.02169177494943142,0.01792607270181179,-0.000585557718295604,-0.01701013371348381
0.03853388875722885,0.005771644413471222,-0.02169177494943142,0.01792607270181179,-0.000585557718295604,-0.01701013371348381
0.038356680423021317,0.005800704937428236,-0.021795455366373062,0.01751769706606865,-0.0005733316647820175,-0.015945415943861008
0.038868144154548645,0.005063513293862343,-0.02156050316989422,0.017531178891658783,-0.0005651835235767066,-0.016316359862685204
0.0386057049036026,0.004588570445775986,-0.021937478333711624,0.017702661454677582,-0.0005146846524439752,-0.016842568293213844
0.03728543594479561,0.004582859110087156,-0.02174202725291252,0.017628341913223267,-0.0005422054673545063,-0.016822000965476036
0.03932628035545349,0.004802228882908821,-0.021550020202994347,0.017960110679268837,-0.000563961744774133,-0.01683218963444233
0.03950384631752968,0.005022667348384857,-0.02196313627064228,0.017840078100562096,-0.0005918973474763334,-0.016511794179677963
0.03908185288310051,0.005403771065175533,-0.022200698032975197,0.018120625987648964,-0.0006912153912708163,-0.01670674979686737
0.038934770971536636,0.005053270608186722,-0.021457362920045853,0.018196165561676025,-0.0007061226642690599,-0.016756458207964897
0.03918621689081192,0.0053138118237257,-0.021685458719730377,0.017664840444922447,-0.0007314626127481461,-0.01699915900826454
0.03953186050057411,0.004908130504190922,-0.021892715245485306,0.01778450608253479,-0.0007238535326905549,-0.01705389842391014
0.039383191615343094,0.005674927961081266,-0.021328840404748917,0.017675958573818207,-0.0006964364438317716,-0.017189431935548782
0.039656516164541245,0.005368413869291544,-0.02165074460208416,0.017762649804353714,-0.0007089955033734441,-0.01692829467356205
0.039351072162389755,0.004915566649287939,-0.022119680419564247,0.017477428540587425,-0.0006369498441927135,-0.01637502759695053
0.04045351967215538,0.005331262014806271,-0.02220913954079151,0.017561614513397217,-0.0006630246061831713,-0.01622646674513817
0.04108239710330963,0.005100702401250601,-0.021740470081567764,0.017529260367155075,-0.0005965594318695366,-0.01618470624089241
0.03853124752640724,0.004727554973214865,-0.021680369973182678,0.017293639481067657,-0.0006206324324011803,-0.01654658652842045
0.03881095349788666,0.0050117941573262215,-0.02179231122136116,0.017913248389959335,-0.0006092098774388433,-0.017033513635396957
0.03951817378401756,0.005285550840198994,-0.022398849949240685,0.017574215307831764,-0.0005948467296548188,-0.017466165125370026
0.04009551182389259,0.004926350433379412,-0.02220083959400654,0.017454441636800766,-0.0005786524270661175,-0.017472390085458755
0.0416228212416172,0.005435741972178221,-0.021643856540322304,0.01791999116539955,-0.0005374731263145804,-0.017163781449198723
0.04031712934374809,0.005346642341464758,-0.021981192752718925,0.01760699413716793,-0.0005520373233594,-0.017300251871347427
0.03857600688934326,0.004999438766390085,-0.022437522187829018,0.01786024309694767,-0.0005204971530474722,-0.017131125554442406
0.040467992424964905,0.005241308361291885,-0.023031895980238914,0.018066678196191788,-0.0005443653790280223,-0.017450617626309395
0.040530119091272354,0.005410633981227875,-0.022274484857916832,0.017994852736592293,-0.0005631775711663067,-0.017572181299328804
0.040777139365673065,0.005525465123355389,-0.02227543666958809,0.01818678341805935,-0.0005382556119002402,-0.01722714677453041
0.04052172601222992,0.005250134039670229,-0.022385701537132263,0.017641831189393997,-0.0006054863915778697,-0.017362814396619797
0.04052172601222992,0.005250134039670229,-0.022385701537132263,0.017641831189393997,-0.0006054863915778697,-0.017362814396619797
0.04045052453875542,0.0057141464203596115,-0.02231421507894993,0.017742332071065903,-0.0006293472251854837,-0.017255371436476707
0.04082395136356354,0.005509713664650917,-0.022155489772558212,0.017786836251616478,-0.0006581329507753253,-0.017306223511695862
0.040380582213401794,0.005759573075920343,-0.022502033039927483,0.01733587123453617,-0.0006933510303497314,-0.017656665295362473
0.04085710644721985,0.005551457405090332,-0.022176001220941544,0.017571531236171722,-0.0007969589787535369,-0.017987173050642014
0.0405438058078289,0.005647823214530945,-0.022638991475105286,0.017779020592570305,-0.0008041764376685023,-0.01786230318248272
0.04078393056988716,0.005609043873846531,-0.023378046229481697,0.01782217249274254,-0.0008179774158634245,-0.01784396916627884
0.041518423706293106,0.005732117686420679,-0.023230280727148056,0.01828661747276783,-0.0007751040975563228,-0.01886570453643799
0.04119163751602173,0.005897156894207001,-0.02276116982102394,0.018114622682332993,-0.000786288408562541,-0.017601218074560165
0.04043884575366974,0.005524180829524994,-0.022591544315218925,0.01756347343325615,-0.0007370414095930755,-0.017560971900820732
0.040521565824747086,0.00588007178157568,-0.022896649315953255,0.017116831615567207,-0.0007620310061611235,-0.017881881445646286
