davideferrari95/blind_handover_controller/data/Test 246 - [2024-02-08 -- 12-37-11]/joint_states_data.csv
shoulder_pan_joint,shoulder_lift_joint,elbow_joint,wrist_1_joint,wrist_2_joint,wrist_3_joint
0.005375968758016825,0.007770814001560211,-0.010884682647883892,0.003193994052708149,-0.00011865142005262896,0.007028721272945404
0.0055517288856208324,0.008400761522352695,-0.010849087499082088,0.0031628767028450966,-0.00011748077668016776,0.006524403113871813
0.0055517288856208324,0.008400761522352695,-0.010849087499082088,0.0031628767028450966,-0.00011748077668016776,0.006524403113871813
0.005278170574456453,0.008395423181355,-0.010694812051951885,0.0030640445183962584,-0.00011539699335116893,0.006121592130511999
0.005316997412592173,0.008010029792785645,-0.010742994956672192,0.0029573359061032534,-0.00011332561552990228,0.006244732066988945
0.005069277249276638,0.00783726666122675,-0.011441951617598534,0.0032400686759501696,-0.00011132340296171606,0.0063326978124678135
0.004843543749302626,0.007796752732247114,-0.010647492483258247,0.0034628999419510365,-0.0001093903774744831,0.0059270490892231464
0.00513639859855175,0.007629482075572014,-0.010071122087538242,0.003377835964784026,-0.00010752346133813262,0.005661907140165567
0.005143023561686277,0.007406965363770723,-0.010966679081320763,0.003131941193714738,-0.00010571904567768797,0.00564177893102169
0.005290726665407419,0.0077380589209496975,-0.010480198077857494,0.0030008256435394287,-0.00010397425648989156,0.006170849781483412
0.005524496082216501,0.008047710172832012,-0.010292544029653072,0.002821039641276002,-0.00010228611063212156,0.006127648055553436
0.005193463526666164,0.008065657690167427,-0.010629179887473583,0.0029824599623680115,-0.00010065197420772165,0.005977382883429527
0.005202604923397303,0.007677285000681877,-0.009732085280120373,0.003035671077668667,-9.906915511237457e-05,0.005923611111938953
0.005022726487368345,0.007792903576046228,-0.009586929343640804,0.00290592759847641,-9.753549238666892e-05,0.006056010257452726
0.005918960552662611,0.0075636194087564945,-0.0101491529494524,0.0028174626640975475,-9.604843944543973e-05,0.006217558402568102
0.005532494280487299,0.008047899231314659,-0.010720891878008842,0.0028489255346357822,-0.00010635556827764958,0.006273068021982908
0.005419977009296417,0.007115491665899754,-0.010265283286571503,0.0031675982754677534,-0.00010640636901371181,0.005777444690465927
0.005590788088738918,0.008081615902483463,-0.009386624209582806,0.0033096838742494583,-0.00010496119648450986,0.005911202635616064
0.005127438344061375,0.00788252055644989,-0.009828020818531513,0.0034521284978836775,-0.00010345982445869595,0.006030553486198187
0.005152962636202574,0.006984913256019354,-0.010290442034602165,0.003285091370344162,-0.00010199466487392783,0.006239954847842455
0.005512000992894173,0.007199394050985575,-0.010555576533079147,0.003118127351626754,-0.00010057011240860447,0.006331202574074268
0.0054931724444031715,0.007640811614692211,-0.009868886321783066,0.00309212738648057,-9.918466821545735e-05,0.006184077356010675
0.00542429881170392,0.008053579367697239,-0.010070919059216976,0.003126716474071145,-9.783687710296363e-05,0.006156402640044689
0.005287268199026585,0.007071758154779673,-0.009946726262569427,0.0028709755279123783,-9.524835331831127e-05,0.005729663651436567
0.005450816359370947,0.008115616627037525,-0.010722647421061993,0.002717959927394986,-9.400479029864073e-05,0.005897126160562038
0.005617321934551001,0.00775752030313015,-0.01010958757251501,0.0029911487363278866,-9.279323421651497e-05,0.005732795223593712
0.005613057874143124,0.007690770085901022,-0.009281858801841736,0.003027224913239479,-9.164727089228109e-05,0.0054975710809230804
0.005613057874143124,0.007690770085901022,-0.009281858801841736,0.003027224913239479,-9.164727089228109e-05,0.0054975710809230804
0.005656779278069735,0.007539493031799793,-0.010875728912651539,0.0026891357265412807,-9.250395669369027e-05,0.005474682431668043
0.005522615741938353,0.007671108469367027,-0.01020513940602541,0.0027299560606479645,-9.081595635507256e-05,0.005569330416619778
0.005560164339840412,0.007721382658928633,-0.009422281756997108,0.0026854651514440775,-8.903101843316108e-05,0.005995415151119232
0.005416722036898136,0.007542702369391918,-0.010378231294453144,0.0026904467958956957,-8.730434637982398e-05,0.006143426056951284
0.0058945463970303535,0.007319806609302759,-0.009609225206077099,0.0025941357016563416,-8.564281597500667e-05,0.005980482324957848
0.005722034722566605,0.007528144400566816,-0.009244476445019245,0.002899033948779106,-8.404330583289266e-05,0.0056794192641973495
0.005543224513530731,0.007295067887753248,-0.009988516569137573,0.002756793051958084,-8.250241808127612e-05,0.005682863760739565
0.005368884187191725,0.007069658488035202,-0.009636113420128822,0.002606285735964775,-8.101705316221341e-05,0.005833957344293594
0.00605291360989213,0.007374823559075594,-0.009257933124899864,0.0025837752036750317,-7.958424248499796e-05,0.006076401565223932
0.006068501155823469,0.007809883449226618,-0.00930552277714014,0.0027336773928254843,-7.820121390977874e-05,0.005653906613588333
0.005783352535218,0.0073113576509058475,-0.010003137402236462,0.0031806007027626038,-8.443377737421542e-05,0.005843739490956068
0.005621761549264193,0.007192735560238361,-0.009546450339257717,0.003328598104417324,-9.01798193808645e-05,0.00568191846832633
0.005171419586986303,0.006951632909476757,-0.009577266871929169,0.0031384476460516453,-8.915831131162122e-05,0.005922582000494003
0.005945643410086632,0.007690285798162222,-0.009558378718793392,0.003056742949411273,-8.774003072176129e-05,0.006385049782693386
0.005586113780736923,0.007446856237947941,-0.00917897094041109,0.0029019159264862537,-8.633913239464164e-05,0.00605803681537509
0.005883943755179644,0.006856598891317844,-0.01009700819849968,0.002764518838375807,-8.498066017637029e-05,0.0058709606528282166
0.005354433320462704,0.007063066121190786,-0.009830588474869728,0.002590868156403303,-8.366403926629573e-05,0.005528081674128771
0.00582174863666296,0.007472364231944084,-0.00917911808937788,0.0026302174665033817,-8.238752343459055e-05,0.00581669807434082
0.005598757416009903,0.007356805261224508,-0.009732065722346306,0.0029604954179376364,-8.114937372738495e-05,0.006053151562809944
0.0057959482073783875,0.0071699293330311775,-0.009532866068184376,0.0030946407932788134,-7.99479748820886e-05,0.006070246919989586
0.005589318927377462,0.007364061661064625,-0.0096767358481884,0.0031234482303261757,-7.878166798036546e-05,0.006069451104849577
0.005589318927377462,0.007364061661064625,-0.0096767358481884,0.0031234482303261757,-7.878166798036546e-05,0.006069451104849577
0.005213373340666294,0.007601800374686718,-0.009602929465472698,0.0027770111337304115,-8.60227519297041e-05,0.005755430553108454
0.005213373340666294,0.007601800374686718,-0.009602929465472698,0.0027770111337304115,-8.60227519297041e-05,0.005755430553108454
0.005813856143504381,0.007253106217831373,-0.009199154563248158,0.002594130579382181,-8.683002670295537e-05,0.005707374773919582
0.005711551755666733,0.007446845527738333,-0.009409306570887566,0.0028653976041823626,-8.56622209539637e-05,0.006098373793065548
0.005247585941106081,0.007130527403205633,-0.009115983732044697,0.002927494468167424,-8.451390021946281e-05,0.00591235002502799
0.00587893882766366,0.007338795345276594,-0.00907950010150671,0.002963888691738248,-8.339532359968871e-05,0.005669087637215853
0.005551561247557402,0.007079738192260265,-0.009475802071392536,0.002778797410428524,-8.230577077483758e-05,0.005684711039066315
0.005942048970609903,0.007945584133267403,-0.00939252506941557,0.0028722838032990694,-8.124439773382619e-05,0.005473283119499683
0.005836712196469307,0.007234637159854174,-0.008939269930124283,0.0029579789843410254,-8.020998211577535e-05,0.00547673087567091
0.006022034212946892,0.007230473216623068,-0.010099979117512703,0.0030610603280365467,-7.920164352981374e-05,0.005491275805979967
0.005841860082000494,0.006722564809024334,-0.009144578129053116,0.003009010571986437,-7.821831241017208e-05,0.005493476986885071
0.005751064047217369,0.007221135776489973,-0.008898889645934105,0.0030246165115386248,-7.725910836597905e-05,0.006095956079661846
0.006136271171271801,0.00743473507463932,-0.009695013053715229,0.0031023449264466763,-7.632312917849049e-05,0.005671317223459482
0.005416438914835453,0.007076913956552744,-0.009536576457321644,0.0029957385268062353,-8.47781848278828e-05,0.005332169588655233
0.005380988121032715,0.007032959721982479,-0.008942043408751488,0.002671946305781603,-8.507132588420063e-05,0.005081469658762217
0.005482340697199106,0.0072865113615989685,-0.009354452602565289,0.0026571727357804775,-8.416150376433507e-05,0.005185362882912159
0.0053191897459328175,0.006955164950340986,-0.009692633524537086,0.002723583485931158,-8.319452899741009e-05,0.005455007776618004
0.0059389458037912846,0.006917338352650404,-0.008851638995110989,0.0028148824349045753,-8.224461635109037e-05,0.005399335641413927
0.006160220131278038,0.007025868631899357,-0.00895781721919775,0.0027705496177077293,-8.131579670589417e-05,0.005350915715098381
0.005441899411380291,0.007439848966896534,-0.009315237402915955,0.0028115275781601667,-8.040769171202555e-05,0.005217163823544979
0.005508353002369404,0.007546578533947468,-0.008886389434337616,0.002897159894928336,-7.951960287755355e-05,0.005107221193611622
0.0055751618929207325,0.006806718651205301,-0.008996113203465939,0.0030560665763914585,-5.192061507841572e-06,0.005248432047665119
0.005508288275450468,0.00710976542904973,-0.00968757551163435,0.0031972969882190228,-3.3900448670465266e-07,0.005573822185397148
0.005508288275450468,0.00710976542904973,-0.00968757551163435,0.0031972969882190228,-3.3900448670465266e-07,0.005573822185397148
0.0058985501527786255,0.007741703651845455,-0.008902067318558693,0.0029773437418043613,-2.2134571509013767e-08,0.005920963827520609
0.005571616347879171,0.007134868763387203,-0.00860089622437954,0.003031509928405285,-1.4452292695921187e-09,0.005528840236365795
0.0057260277681052685,0.006703926250338554,-0.009210207499563694,0.0029518683440983295,-9.436313536115293e-11,0.005686264019459486
0.00528746796771884,0.006787905003875494,-0.009138613939285278,0.0029136561788618565,-6.1612386199894065e-12,0.005515943747013807
0.005968826357275248,0.007349817082285881,-0.009366266429424286,0.0026073267217725515,-2.6266325675898192e-14,0.005325308535248041
0.005881301127374172,0.007104618940502405,-0.009421519935131073,0.0026532700285315514,-1.7150035960526613e-15,0.005111781880259514
0.005931665189564228,0.0071164993569254875,-0.008802300319075584,0.002652009017765522,-1.1197747769433269e-16,0.005387871526181698
0.00545153534039855,0.007598487660288811,-0.00972910039126873,0.002941590966656804,-7.311329493167391e-18,0.005232853349298239
0.005752392113208771,0.00785896461457014,-0.009652143344283104,0.00296608405187726,-4.773775637317163e-19,0.005192159209400415
0.005848339758813381,0.007123889401555061,-0.008932524360716343,0.0028461560141295195,-3.1169341628431557e-20,0.0050852298736572266
0.0061908625066280365,0.007224115543067455,-0.008941954001784325,0.0026219883002340794,-2.0351353216221586e-21,0.005210046656429768
0.005639305803924799,0.0076350499875843525,-0.009289102628827095,0.0025317990221083164,-1.3287978246503644e-22,0.004892418161034584
0.005854194052517414,0.007978596724569798,-0.009127452969551086,0.002601184183731675,-8.676100494899666e-24,0.004696034360677004
0.005405292846262455,0.007087303791195154,-0.009175301529467106,0.0025272092316299677,-5.664874255340635e-25,0.004728306084871292
0.00600085174664855,0.006833285558968782,-0.009219610132277012,0.002659883350133896,-3.698758318957002e-26,0.005082381423562765
0.005992871709167957,0.007131968624889851,-0.009066494181752205,0.0028073852881789207,-2.4150248611822298e-27,0.0051541575230658054
0.005946903955191374,0.007246100809425116,-0.008867481723427773,0.003032692475244403,-1.5768388919331436e-28,0.004759557545185089
0.0060195703990757465,0.00774586433544755,-0.009545202367007732,0.002863158006221056,-1.0295631782806978e-29,0.004406473599374294
0.005824696272611618,0.00723066832870245,-0.009994126856327057,0.003037086920812726,-6.722311298990924e-31,0.00446324935182929
0.006074115633964539,0.006791128311306238,-0.008753335103392601,0.0030445544980466366,-4.389188935984497e-32,0.004715307150036097
0.006411406677216291,0.007182384841144085,-0.010073944926261902,0.0029829940758645535,-2.8658265746299357e-33,0.004776681307703257
0.005819331388920546,0.00739317387342453,-0.009727981872856617,0.002923117484897375,-1.8711800322596156e-34,0.005137114319950342
0.0058789607137441635,0.007178061176091433,-0.009151840582489967,0.0030594756826758385,-1.2217468679833715e-35,0.005438714753836393
0.005653616972267628,0.006950485985726118,-0.009773623198270798,0.003189908806234598,-7.977133428335902e-37,0.004829008597880602
0.006117120385169983,0.007200026419013739,-0.009457903914153576,0.0028431573882699013,-5.208498032956013e-38,0.004602935165166855
0.006117120385169983,0.007200026419013739,-0.009457903914153576,0.0028431573882699013,-5.208498032956013e-38,0.004602935165166855
0.005999946501106024,0.0074560511857271194,-0.009754781611263752,0.0026780329644680023,-3.400777611906755e-39,0.004495133180171251
0.006011697929352522,0.007435019593685865,-0.010095126926898956,0.002666210290044546,-2.2204695205998186e-40,0.004464111290872097
0.005897984839975834,0.007121144328266382,-0.009627227671444416,0.002769718412309885,-5.681820766767487e-05,0.004405193030834198
0.0057486314326524734,0.0074757360853254795,-0.009751470759510994,0.003035951405763626,-5.988924749544822e-05,0.004627622663974762
0.006244963966310024,0.00749954953789711,-0.010198350995779037,0.003148125484585762,-5.8592879213392735e-05,0.004944693297147751
0.0059403614141047,0.007572181057184935,-0.009733740240335464,0.0030330342706292868,-5.784079257864505e-05,0.005003092344850302
0.006155709270387888,0.007703435141593218,-0.010247730650007725,0.002875139005482197,-5.710689219995402e-05,0.004687848500907421
0.005613711662590504,0.00783680472522974,-0.00963931530714035,0.0028030616231262684,-5.639126538881101e-05,0.004467405378818512
0.006062212400138378,0.0070752836763858795,-0.009398379363119602,0.002761829411610961,-5.569335917243734e-05,0.004834706895053387
0.006286107003688812,0.006575556471943855,-0.009971344843506813,0.0029670323710888624,-5.50124968867749e-05,0.005033811554312706
0.006004163529723883,0.006944658234715462,-0.009650600142776966,0.0029686428606510162,-5.4348111007129773e-05,0.004888406489044428
0.006224729120731354,0.007402488496154547,-0.009061295539140701,0.002715917769819498,-5.3699579439125955e-05,0.005036669317632914
0.006395688280463219,0.007058700546622276,-0.01047142781317234,0.0026875727344304323,-5.30663164681755e-05,0.0048905941657722
0.006371621508151293,0.006671486422419548,-0.00970319751650095,0.002975902985781431,-4.727618215838447e-05,0.004546681884676218
0.006353985983878374,0.006886100862175226,-0.00927071925252676,0.003244974184781313,-4.182210977887735e-05,0.004574585240334272
0.006639367435127497,0.0074958535842597485,-0.009852898307144642,0.003435624297708273,-4.102518505533226e-05,0.005069929640740156
0.006048993207514286,0.0070233880542218685,-0.009810751304030418,0.0031818016432225704,-4.054223609273322e-05,0.0049538519233465195
0.006031538359820843,0.007281824946403503,-0.009463814087212086,0.0030320025980472565,-4.0089416870614514e-05,0.004530848935246468
0.006211581639945507,0.006696250289678574,-0.009641972370445728,0.0028083377983421087,-2.0097371816518717e-05,0.004599959589540958
0.006330789998173714,0.007056097500026226,-0.009080552496016026,0.0027721195947378874,-1.3122147493049852e-06,0.004988023079931736
0.006055365316569805,0.007196885999292135,-0.010055881924927235,0.0027696052566170692,-8.567823783778294e-08,0.005011251661926508
0.00593971274793148,0.006722637917846441,-0.009933901019394398,0.002608334179967642,-5.594177121537314e-09,0.004777394235134125
0.006007494404911995,0.007069398649036884,-0.009435037150979042,0.0027159464079886675,-3.652597946324221e-10,0.004867301322519779
0.0064794523641467094,0.007198016159236431,-0.009327850304543972,0.0026019311044365168,-2.384885518236235e-11,0.004396150354295969
0.006521681789308786,0.007496288977563381,-0.009927688166499138,0.0026785111986100674,-1.557159783061035e-12,0.004446877166628838
0.006587469484657049,0.007019320968538523,-0.00972884614020586,0.002852160483598709,-1.0167141109053424e-13,0.00449118297547102
0.005926485173404217,0.007196823600679636,-0.008964167907834053,0.002908079419285059,-6.638417012681764e-15,0.0044233850203454494
0.00644070515409112,0.007015212904661894,-0.008817526511847973,0.0027209396939724684,-1.847827603443939e-18,0.004545990377664566
0.006161264143884182,0.006664625369012356,-0.009105732664465904,0.002816243330016732,-1.2064994043347918e-19,0.0044581154361367226
0.006453213281929493,0.006828038953244686,-0.009317655116319656,0.002942623570561409,-7.877579438847033e-21,0.0042119622230529785
0.006453213281929493,0.006828038953244686,-0.009317655116319656,0.002942623570561409,-7.877579438847033e-21,0.0042119622230529785
0.006453213281929493,0.006828038953244686,-0.009317655116319656,0.002942623570561409,-7.877579438847033e-21,0.0042119622230529785
0.006453213281929493,0.006828038953244686,-0.009317655116319656,0.002942623570561409,-7.877579438847033e-21,0.0042119622230529785
0.006438867188990116,0.006371376570314169,-0.009228551760315895,0.0033192189875990152,-1.4317110524566008e-25,0.004484075587242842
0.006368871778249741,0.006609203293919563,-0.009280385449528694,0.0031409652438014746,-9.348050260303588e-27,0.004700489342212677
0.007156519219279289,0.007177339401096106,-0.009514661505818367,0.003021943150088191,-6.10360999446839e-28,0.004432264715433121
0.0066290306858718395,0.006487672682851553,-0.009512092918157578,0.003051063744351268,-3.985220907773566e-29,0.00443195179104805
0.006228267680853605,0.006439478136599064,-0.009235885925590992,0.003117362502962351,-2.6020643267881207e-30,0.004272274672985077
0.006236989516764879,0.006146100349724293,-0.00947857927531004,0.0031620687805116177,-1.6989620861968512e-31,0.004297397565096617
0.006340101361274719,0.007079020608216524,-0.009067786857485771,0.002844153670594096,-1.109300721091149e-32,0.0041680228896439075
0.006735655944794416,0.0068137189373373985,-0.00892380066215992,0.002807736163958907,-7.242941144883473e-34,0.00428564939647913
0.006697637028992176,0.006189916282892227,-0.010814638808369637,0.0031935086008161306,-4.729123114995676e-35,0.004185225814580917
0.006737599149346352,0.006440381519496441,-0.009994013234972954,0.003431597026064992,-3.0877795063340355e-36,0.004030895885080099
0.006754106841981411,0.006730048917233944,-0.009253702126443386,0.0032136933878064156,-2.016099444199847e-37,0.004430991131812334
0.006412961520254612,0.006701143458485603,-0.009795693680644035,0.0029687625356018543,-1.3163689873885579e-38,0.004225631710141897
0.0065443674102425575,0.006285069044679403,-0.009905703365802765,0.0028436414431780577,-8.594948208844125e-40,0.004345322959125042
0.0065443674102425575,0.006285069044679403,-0.009905703365802765,0.0028436414431780577,-8.594948208844125e-40,0.004345322959125042
0.006805956829339266,0.006449881009757519,-0.009420420043170452,0.0029612791258841753,-5.611920089928027e-41,0.004173573572188616
0.006430359091609716,0.007446739822626114,-0.009899713099002838,0.0028351880609989166,-2.396220373995437e-43,0.0041139498353004456
0.006706533022224903,0.0068488819524645805,-0.009527180343866348,0.002817796543240547,-1.5414283107572988e-44,0.0039899698458611965
0.0069731008261442184,0.00626396993175149,-0.009986032731831074,0.0028811090160161257,-1.401298464324817e-45,0.004326070658862591
0.006705024279654026,0.006617329549044371,-0.010161262936890125,0.0028570021968334913,-0.0,0.004526082891970873
0.00631589163094759,0.006792271509766579,-0.009338472038507462,0.0031126216053962708,-0.0,0.00432944018393755
0.006998591125011444,0.006680503953248262,-0.009424155578017235,0.003042209194973111,-0.0,0.0043557677417993546
0.006743812933564186,0.006303372792899609,-0.009592166170477867,0.002811349229887128,-0.0,0.004187661688774824
0.006742958910763264,0.006543328054249287,-0.009570153430104256,0.0027087144553661346,-0.0,0.004202336072921753
0.006393696181476116,0.006765703205019236,-0.00986529141664505,0.002727205865085125,-0.0,0.004194618668407202
0.00717601552605629,0.006582413800060749,-0.009707238525152206,0.002850271761417389,-0.0,0.004427841864526272
0.007746478077024221,0.006491976324468851,-0.009569277986884117,0.002964442828670144,-1.0036545972980093e-05,0.004216257482767105
0.006796273868530989,0.006546757649630308,-0.009991790167987347,0.003289033891633153,2.712305649765767e-05,0.003952945116907358
0.0065470291301608086,0.006584942806512117,-0.009607246145606041,0.003226728644222021,2.9098146114847623e-05,0.003805124433711171
0.0070380098186433315,0.006212111562490463,-0.009002172388136387,0.0031706909649074078,2.8790342184947804e-05,0.003758834209293127
0.007104020100086927,0.006501346360892057,-0.009652339853346348,0.0031861881725490093,2.8347227271297015e-05,0.0037972519639879465
0.0074229068122804165,0.006249675527215004,-0.009695880115032196,0.0031849222723394632,2.790839243971277e-05,0.0038216288667172194
0.007560368161648512,0.006070885807275772,-0.009583701379597187,0.0034198365174233913,3.4250573662575334e-05,0.003822855418547988
0.007116927765309811,0.006185455713421106,-0.010182616300880909,0.003236094955354929,4.0148268453776836e-05,0.003752306569367647
0.007393830455839634,0.006639753468334675,-0.009581704623997211,0.0033998822327703238,3.9972295780899e-05,0.0036917352117598057
0.007497262209653854,0.006167467217892408,-0.009138204157352448,0.003204681444913149,3.941605245927349e-05,0.0036544399335980415
0.007392121013253927,0.006485019810497761,-0.009857033379375935,0.00327862985432148,3.8850674172863364e-05,0.004113832954317331
0.007615624461323023,0.0065595596097409725,-0.01014170702546835,0.0032456160988658667,4.458965122466907e-05,0.004102288745343685
0.007615624461323023,0.0065595596097409725,-0.01014170702546835,0.0032456160988658667,4.458965122466907e-05,0.004102288745343685
0.00714466068893671,0.006752543617039919,-0.009318138472735882,0.0035001435317099094,4.992914909962565e-05,0.003985692281275988
0.0071318852715194225,0.00681561091914773,-0.009396512061357498,0.003777679754421115,4.9629885324975476e-05,0.0034497191663831472
0.00799146480858326,0.00622523995116353,-0.010532286018133163,0.003165432019159198,4.832422564504668e-05,0.003150597447529435
0.007136704865843058,0.006704192142933607,-0.010043971240520477,0.002817203290760517,5.88165239605587e-05,0.0032735620625317097
0.006975580472499132,0.006517708767205477,-0.009565564803779125,0.0026750145480036736,5.877464354853146e-05,0.0034596454352140427
0.007268161978572607,0.0063064610585570335,-0.009423809126019478,0.002828975673764944,5.806368790217675e-05,0.0036124251782894135
0.007546613924205303,0.00611899746581912,-0.009738865308463573,0.0029410910792648792,0.00014605304750148207,0.0037553971633315086
0.008011015132069588,0.006275857333093882,-0.009719319641590118,0.003249592147767544,0.00022158544743433595,0.0037865005433559418
0.007647818420082331,0.0060022808611392975,-0.009223639033734798,0.003182732267305255,0.00021633852156810462,0.0038483685348182917
0.007458795793354511,0.0063550155609846115,-0.010107018984854221,0.0032418768387287855,0.00024257242330349982,0.0037278751842677593
0.008126525208353996,0.006505710072815418,-0.010204808786511421,0.0032722826581448317,0.0002368658024352044,0.0035289658699184656
0.007930277846753597,0.0060258712619543076,-0.009810316376388073,0.0031106891110539436,0.00022721965797245502,0.0033979362342506647
0.007353898137807846,0.0063062990084290504,-0.009837977588176727,0.003313157008960843,0.00021806325821671635,0.0036220161709934473
0.007249217014759779,0.006092603784054518,-0.009460646659135818,0.00322492653504014,0.00023988400062080473,0.003806851804256439
0.007439825683832169,0.006407908163964748,-0.01007141824811697,0.0034539145417511463,0.0002350904542254284,0.003950783517211676
0.007753609213978052,0.006532792467623949,-0.010313793085515499,0.003650856437161565,0.00025087481481023133,0.003564917715266347
0.007550977170467377,0.00634390814229846,-0.00986746046692133,0.0033803328406065702,0.0002497610403224826,0.00360158272087574
0.007230784744024277,0.006158863659948111,-0.009736353531479836,0.0034386462066322565,0.0002426791616016999,0.0036283396184444427
0.0076906257309019566,0.006563590373843908,-0.010138062760233879,0.004133995156735182,0.0003614058659877628,0.0033536087721586227
0.00795214157551527,0.007193459197878838,-0.009807980619370937,0.00411547627300024,0.00039337712223641574,0.0032532918266952038
0.00746907526627183,0.006861561443656683,-0.009601530618965626,0.003642643801867962,0.00038182278512977064,0.003357582725584507
0.007211967371404171,0.006603030953556299,-0.010963019914925098,0.0031677065417170525,0.0003865550097543746,0.0033845724537968636
0.0075950054451823235,0.006270448211580515,-0.010158645920455456,0.0031969910487532616,0.00038934184703975916,0.0030269171111285686
0.00799829512834549,0.006620642729103565,-0.009346399456262589,0.003290086053311825,0.00036831863690167665,0.002629159949719906
0.008117103017866611,0.006743325851857662,-0.010212752036750317,0.0034495622385293245,0.0003943632182199508,0.0027060620486736298
0.007704977877438068,0.006582068279385567,-0.009837619960308075,0.003604792756959796,0.00037674795021303,0.0030474935192614794
0.007704977877438068,0.006582068279385567,-0.009837619960308075,0.003604792756959796,0.00037674795021303,0.0030474935192614794
0.007944376207888126,0.006130038294941187,-0.00954155158251524,0.004208599682897329,0.0004252923827152699,0.0034285045694559813
0.00773474108427763,0.0069021619856357574,-0.009829480201005936,0.0034792216029018164,0.00044703143066726625,0.0028630385641008615
0.00773474108427763,0.0069021619856357574,-0.009829480201005936,0.0034792216029018164,0.00044703143066726625,0.0028630385641008615
0.008876713924109936,0.006307213567197323,-0.010351046919822693,0.0032195071689784527,0.00045077045797370374,0.0027443550061434507
0.00807405449450016,0.006216167006641626,-0.009846408851444721,0.0033963776659220457,0.0004496586916502565,0.0026841696817427874
0.007504004519432783,0.00676360446959734,-0.00988764502108097,0.003215123899281025,0.0004736413829959929,0.0027926538605242968
0.008100598119199276,0.00680052163079381,-0.010776362381875515,0.0033403150737285614,0.0004511892329901457,0.002827807329595089
0.008043923415243626,0.006448395550251007,-0.010986828245222569,0.003297270741313696,0.0004878723411820829,0.0029111020267009735
0.008367763832211494,0.006170114502310753,-0.01033781562000513,0.0034933420829474926,0.0004940960207022727,0.0028076195158064365
0.007862774655222893,0.006464498583227396,-0.010155337862670422,0.003675928572192788,0.0005259698373265564,0.0028082928620278835
0.008385897614061832,0.006823631003499031,-0.010069618001580238,0.003743132809177041,0.000489038648083806,0.00263535906560719
0.008088610135018826,0.006552345119416714,-0.01015013363212347,0.0037492678966373205,0.0005039259558543563,0.002684198319911957
0.008390162140130997,0.006109559442847967,-0.010758573189377785,0.0035350520629435778,0.0004823722701985389,0.002793207298964262
0.00942240096628666,0.006509320344775915,-0.010051361285150051,0.0033980566076934338,0.0005087361787445843,0.002779725706204772
0.008440707810223103,0.006805078126490116,-0.010802607983350754,0.003638277295976877,0.00047884954256005585,0.0028835609555244446
0.008037063293159008,0.007561785634607077,-0.010302522219717503,0.0034447861835360527,0.0005177018465474248,0.003112363163381815
0.007688995450735092,0.006571608129888773,-0.009775101207196712,0.0038424425292760134,0.0005333677981980145,0.003066741395741701
0.008048991672694683,0.0063236309215426445,-0.010495053604245186,0.004222399555146694,0.0005252066184766591,0.003027956699952483
0.008469009771943092,0.006331825163215399,-0.010918772779405117,0.004515287932008505,0.00048122991574928164,0.002874742029234767
0.00841611996293068,0.006606928072869778,-0.010227014310657978,0.004100112244486809,0.0005055157816968858,0.002918361919000745
0.007772737182676792,0.006781683303415775,-0.010851793922483921,0.003770440584048629,0.00047596218064427376,0.0028510834090411663
0.008541240356862545,0.006454359274357557,-0.01007921900600195,0.00376963266171515,0.000501885951962322,0.0028309279587119818
0.008458836004137993,0.006356110796332359,-0.010006326250731945,0.0035817387979477644,0.00047278913552872837,0.0026538472156971693
0.008409046567976475,0.006435881834477186,-0.010449622757732868,0.003425890812650323,0.0005118055851198733,0.002730749314650893
0.008552621118724346,0.0066589368507266045,-0.009678780101239681,0.0035896706394851208,0.00048105930909514427,0.0028338958509266376
0.009553473442792892,0.006430604495108128,-0.010204234160482883,0.003797509241849184,0.0005168814677745104,0.0027855634689331055
0.008315403014421463,0.006245430558919907,-0.01060949731618166,0.0038808530662208796,0.000545110902749002,0.0028627971187233925
0.008112737908959389,0.006138293072581291,-0.0101173659786582,0.0038228638004511595,0.0005641566822305322,0.0027653865981847048
0.008112737908959389,0.006138293072581291,-0.0101173659786582,0.0038228638004511595,0.0005641566822305322,0.0027653865981847048
0.00877461489289999,0.00630263751372695,-0.010274305939674377,0.004010628908872604,0.0006683614337816834,0.0026693986728787422
0.00885168556123972,0.006901174318045378,-0.010570544749498367,0.004221961367875338,0.0007902916404418647,0.002424671081826091
0.009183657355606556,0.006219957023859024,-0.01025963295251131,0.003526208456605673,0.0008219369337894022,0.002492232248187065
0.009222474880516529,0.006101385224610567,-0.010249041020870209,0.003611978841945529,0.0008991865324787796,0.002731626620516181
0.008532745763659477,0.006766397040337324,-0.010581701062619686,0.0038104152772575617,0.0009910431690514088,0.0024464537855237722
0.008549981750547886,0.006799615919589996,-0.010493150912225246,0.003917126450687647,0.0008765801321715117,0.0022523337975144386
0.008875969797372818,0.006321555469185114,-0.009772984310984612,0.003957847133278847,0.0008730267873033881,0.001976564060896635
0.008944501169025898,0.006248877849429846,-0.009621093049645424,0.00390604161657393,0.0008682844927534461,0.0019216395448893309
0.008509133011102676,0.006775237154215574,-0.010567326098680496,0.003613305278122425,0.0008326774695888162,0.002116951858624816
0.008729962632060051,0.0069960858672857285,-0.011221841908991337,0.0034455202985554934,0.0008515475201420486,0.002484734170138836
0.008775437250733376,0.0064668855629861355,-0.010190279223024845,0.003618379822000861,0.0008271349943242967,0.0025902320630848408
0.00876716710627079,0.006510986015200615,-0.010618514381349087,0.0038341761101037264,0.0008622026070952415,0.002773664891719818
0.009396246634423733,0.0067035420797765255,-0.010595831088721752,0.004418680910021067,0.0008009457378648221,0.002373618306592107
0.00914284959435463,0.006843910552561283,-0.009822557680308819,0.004731699824333191,0.0009347142768092453,0.002095343777909875
0.008687720634043217,0.006563643924891949,-0.010365123860538006,0.004556499887257814,0.0009370321058668196,0.0019023662898689508
0.008790847845375538,0.00624757120385766,-0.010366988368332386,0.004092488903552294,0.0009324981365352869,0.0018325366545468569
0.009299030527472496,0.006590639241039753,-0.010931424796581268,0.0037257352378219366,0.0008854896295815706,0.00219170656055212
0.008677404373884201,0.006786834914237261,-0.011045870371162891,0.003457550425082445,0.0009971383260563016,0.0023801042698323727
0.00866890698671341,0.006743228062987328,-0.00986874382942915,0.003620276926085353,0.0009880820289254189,0.002612740732729435
0.009041257202625275,0.006373789627104998,-0.009927286766469479,0.004055319353938103,0.0009134411811828613,0.0023808199912309647
0.009189000353217125,0.006805432494729757,-0.010159464552998543,0.004225980024784803,0.0009074831614270806,0.002203836105763912
0.00904086884111166,0.006502916105091572,-0.010102910920977592,0.003955667372792959,0.0008562278235331178,0.0019092765869572759
0.009355875663459301,0.007179181557148695,-0.01132658589631319,0.0036820988170802593,0.0008300567860715091,0.001658042659983039
0.009275619871914387,0.0067942095920443535,-0.010516307316720486,0.003599597606807947,0.0008380874060094357,0.0016065251547843218
0.009093117900192738,0.006286100950092077,-0.010509366169571877,0.0036789739970117807,0.0008742448408156633,0.001685432274825871
0.009207147173583508,0.006575401872396469,-0.010958815924823284,0.004219166934490204,0.0009204155066981912,0.0017454620683565736
0.009303453378379345,0.006763905752450228,-0.009889479726552963,0.004510744474828243,0.000983608653768897,0.0022778247948735952
0.008950373157858849,0.0065104765817523,-0.010061003267765045,0.004489492159336805,0.0009747127769514918,0.0023399360943585634
0.00916620995849371,0.006210753228515387,-0.01100791897624731,0.004543904215097427,0.0008738375618122518,0.0025058111641556025
0.00916620995849371,0.006210753228515387,-0.01100791897624731,0.004543904215097427,0.0008738375618122518,0.0025058111641556025
0.009011070244014263,0.00692934263497591,-0.010496783070266247,0.004013936500996351,0.0006854679668322206,0.0019959898199886084
0.009317943826317787,0.006466803140938282,-0.010342404246330261,0.003919897601008415,0.0007000229088589549,0.0017620617290958762
0.009317943826317787,0.006466803140938282,-0.010342404246330261,0.003919897601008415,0.0007000229088589549,0.0017620617290958762
0.008963266387581825,0.0064725386910140514,-0.010062964633107185,0.0041158245876431465,0.0006428099004551768,0.0014869276201352477
0.008958508260548115,0.006808241363614798,-0.010687584988772869,0.004328153096139431,0.000545637623872608,0.00143757916521281
0.009492001496255398,0.007390245795249939,-0.010038657113909721,0.004243338014930487,0.0005071748746559024,0.0014949248870834708
0.009334931150078773,0.006923962850123644,-0.011011905036866665,0.003984981682151556,0.0004386857617646456,0.0017461684765294194
0.008978274650871754,0.006214306689798832,-0.010355416685342789,0.003817804390564561,0.0003724292910192162,0.002078212099149823
0.009571853093802929,0.00666211498901248,-0.009585479274392128,0.0038557436782866716,0.0003421197470743209,0.0019941364880651236
0.009588267654180527,0.006792952306568623,-0.010494532063603401,0.0041957516223192215,0.0003178100159857422,0.0018718617502599955
0.00947842001914978,0.006715966854244471,-0.010048694908618927,0.0042946054600179195,0.0002968247572425753,0.001646172720938921
0.009542295709252357,0.006849371362477541,-0.01026476826518774,0.004518323577940464,0.00031945123919285834,0.0014257148141041398
0.00954800471663475,0.006358229089528322,-0.011056949384510517,0.0046112132258713245,0.00031369843054562807,0.001157507300376892
0.009384123608469963,0.006897754035890102,-0.010333221405744553,0.004627452231943607,0.0002972623042296618,0.001140965730883181
0.009309975430369377,0.00696714548394084,-0.010236373171210289,0.004237096756696701,0.00028179827495478094,0.001139668864198029
0.009823440574109554,0.0065383827313780785,-0.010388617403805256,0.004424403887242079,0.00026782110217027366,0.001326654921285808
0.009307482279837132,0.006227119360119104,-0.01041429303586483,0.004667272791266441,0.0002551621291786432,0.0014269902603700757
0.009467761032283306,0.006215669214725494,-0.010085384361445904,0.004632279276847839,0.0002436465583741665,0.0014676530845463276
0.009585791267454624,0.006061178166419268,-0.010626658797264099,0.00473182974383235,0.0002667925728019327,0.0013992030872032046
0.009410325437784195,0.006386592984199524,-0.010051834397017956,0.004688526503741741,0.0002603830653242767,0.0012991015100851655
0.009980841539800167,0.006841437425464392,-0.010456204414367676,0.00470621045678854,0.0002503365103621036,0.0012189752887934446
0.009824159555137157,0.005894475616514683,-0.010489578358829021,0.004494110122323036,0.00024078640853986144,0.0010464974911883473
0.00934204738587141,0.0060609509237110615,-0.010449671186506748,0.004420164972543716,0.00023192234220914543,0.0009704637341201305
0.010310414247214794,0.006231321021914482,-0.011328920722007751,0.004180519841611385,0.00022368664212990552,0.0010423107305541635
0.00992915965616703,0.006532499101012945,-0.010547208599746227,0.004736631643027067,0.00021601560001727194,0.0011602164013311267
0.00931478664278984,0.006146715022623539,-0.009870648384094238,0.0048697576858103275,0.0002088535693474114,0.0012544747442007065
0.009877524338662624,0.005949654150754213,-0.010571315884590149,0.004627342335879803,0.0002163120952900499,0.0012900952715426683
0.009866757318377495,0.00594615051522851,-0.010252541862428188,0.0046233381144702435,0.0002228857047157362,0.0012891923543065786
0.009573165327310562,0.0061245812103152275,-0.010154396295547485,0.004489704966545105,0.00021703349193558097,0.001212304225191474
0.009861176833510399,0.006448635831475258,-0.010939073748886585,0.004452840890735388,0.00021073730022180825,0.0010674435179680586
0.010236085392534733,0.006170039065182209,-0.010284683667123318,0.004369206726551056,0.00020474787743296474,0.00100364547688514
0.010236085392534733,0.006170039065182209,-0.010284683667123318,0.004369206726551056,0.00020474787743296474,0.00100364547688514
0.00971230398863554,0.006013768725097179,-0.010508420877158642,0.00457758130505681,0.0001990858872886747,0.0008936907397583127
0.010084043256938457,0.006425750907510519,-0.010657125152647495,0.004757000599056482,0.00019372905080672354,0.0008658408187329769
0.010191657580435276,0.006173840723931789,-0.009919139556586742,0.0050502317026257515,0.000188652629731223,0.0007950914441607893
0.010135886259377003,0.005949247162789106,-0.010829675011336803,0.004612358286976814,0.00017925807333085686,0.0006373160285875201
0.009826302528381348,0.005900387652218342,-0.010699107311666012,0.00435326574370265,0.0001749033690430224,0.0006637680344283581
0.009527361951768398,0.005954448599368334,-0.011050957255065441,0.0049314238131046295,0.00017075517098419368,0.0006648182752542198
0.010318645276129246,0.005898450966924429,-0.010189348831772804,0.0051945955492556095,0.0001667992619331926,0.0006454520625993609
0.010295867919921875,0.00648411363363266,-0.010901341214776039,0.005043749697506428,0.00016302254516631365,0.0006858984124846756
0.00983018521219492,0.0065643214620649815,-0.011532620526850224,0.005127294454723597,0.00015941284073051065,0.0006711366586387157
0.010981864295899868,0.00655792374163866,-0.010333271697163582,0.004613277968019247,0.00015621358761563897,0.0006451564840972424
0.010002811439335346,0.006189458072185516,-0.010450072586536407,0.004494863096624613,0.00012665701797232032,0.0006211359286680818
0.009508159942924976,0.006533391308039427,-0.011244187131524086,0.004245702177286148,0.00012158957542851567,0.000559948559384793
0.010336554609239101,0.006376008037477732,-0.010269403457641602,0.004522322211414576,0.00011828580318251625,0.00058029405772686
0.00995305273681879,0.006037259940057993,-0.010631858371198177,0.005098395049571991,0.00011524922592798248,0.0005403807736001909
0.009432123973965645,0.00617563258856535,-0.01052923034876585,0.00532033434137702,0.00011237078433623537,0.0005643960321322083
0.010575348511338234,0.006694155279546976,-0.010148981586098671,0.005438727792352438,0.00010963284148601815,0.0005273850401863456
0.00994939636439085,0.006987629923969507,-0.011177044361829758,0.005240654107183218,0.00010702517465688288,0.00048814102774485946
0.00949607789516449,0.00646462244912982,-0.010836449451744556,0.005018466617912054,0.00010453882714500651,0.0004417019081301987
0.010037935338914394,0.006357830483466387,-0.010518488474190235,0.005729471333324909,0.00010216535156359896,0.00044111552415415645
0.009859403595328331,0.00635292986407876,-0.010784881189465523,0.005556624848395586,9.989720274461433e-05,0.0004403666825965047
0.009462627582252026,0.005980584304779768,-0.009829524904489517,0.0053612361662089825,9.772765770321712e-05,0.00040927802911028266
0.01004309207201004,0.006228883285075426,-0.010698607191443443,0.00541499862447381,9.565037180436775e-05,0.0004395386204123497
0.009575068019330502,0.005871201399713755,-0.011370385996997356,0.004999767988920212,9.36594806262292e-05,0.00045805657282471657
0.009575068019330502,0.005871201399713755,-0.011370385996997356,0.004999767988920212,9.36594806262292e-05,0.00045805657282471657
0.009445070289075375,0.005805658642202616,-0.010848969221115112,0.005106376949697733,9.174984006676823e-05,0.00044367293594405055
0.00995840784162283,0.005977081600576639,-0.012045678682625294,0.005114891566336155,8.991653885459527e-05,0.0004200162657070905
0.010261106304824352,0.00611927779391408,-0.011271342635154724,0.005391365382820368,8.815498586045578e-05,0.00046439567813649774
0.009533481672406197,0.0065573230385780334,-0.01080828346312046,0.005507306195795536,8.646122296340764e-05,0.0004261500434949994
0.010031518526375294,0.005729311611503363,-0.011006452143192291,0.005115643609315157,8.326165698235855e-05,0.0003585466474760324
0.009602864272892475,0.005948598030954599,-0.011633302085101604,0.005200742278248072,8.174900722224265e-05,0.0003320682735648006
0.009971211664378643,0.0062302048318088055,-0.01192454993724823,0.00556300301104784,8.029041055124253e-05,0.00030923326266929507
0.010617933236062527,0.006203395314514637,-0.010779128409922123,0.005333275068551302,7.888289110269397e-05,0.00028933872818015516
0.009340276010334492,0.006086565088480711,-0.011675843968987465,0.005583202466368675,7.752395322313532e-05,0.0002718498872127384
0.009902295656502247,0.005706036929041147,-0.01095525361597538,0.005447570700198412,7.621102122357115e-05,0.0002563565212767571
0.010339410975575447,0.005728412419557571,-0.011106538586318493,0.005358776077628136,7.494181772926822e-05,0.00024253394803963602
0.009596962481737137,0.006159548182040453,-0.012177078053355217,0.005249617155641317,7.371421088464558e-05,0.00023012723249848932
0.009615655988454819,0.006467083469033241,-0.011506393551826477,0.005174513906240463,7.252611976582557e-05,0.00021892691438551992
0.010383518412709236,0.006093800067901611,-0.01163901574909687,0.00516674667596817,7.137577631510794e-05,0.00020876817870885134
0.009449615143239498,0.005934885237365961,-0.011296148411929607,0.005331262480467558,7.026130333542824e-05,0.00019950978457927704
0.010157930664718151,0.005901823751628399,-0.010833709500730038,0.0056657553650438786,6.918116559972987e-05,0.00019103828526567668
0.01007984671741724,0.006280739791691303,-0.011461827903985977,0.005875751376152039,6.813367508584633e-05,0.0001832573616411537
0.009864863939583302,0.00679533276706934,-0.011017825454473495,0.005602248944342136,6.71174784656614e-05,0.00017608476628083736
0.010452145710587502,0.0059057013131678104,-0.011573084630072117,0.005338847171515226,6.613113509956747e-05,0.0001694533129921183
0.008760879747569561,0.006003806367516518,-0.011303666979074478,0.0053599076345562935,6.517335714306682e-05,0.000163302815053612
0.010406158864498138,0.006256102118641138,-0.01193308923393488,0.005532450042665005,6.42428858554922e-05,0.00015758335939608514
0.010619891807436943,0.006307844538241625,-0.01140755508095026,0.0062003289349377155,6.33386880508624e-05,0.00015225145034492016
0.010532744228839874,0.006356085184961557,-0.011023781262338161,0.006379090715199709,6.245956319617108e-05,0.0001198026366182603
0.010143590159714222,0.006100040394812822,-0.011391833424568176,0.006016420666128397,6.160450720926747e-05,0.00011421044473536313
0.010710288770496845,0.00607124250382185,-0.011284601874649525,0.005988864693790674,6.0772523283958435e-05,0.0001105846167774871
0.01030020508915186,0.006103126332163811,-0.010969245806336403,0.005750183016061783,5.996272011543624e-05,0.0001072813684004359
0.010648044757544994,0.006311134900897741,-0.011537821032106876,0.006071839015930891,5.917425005463883e-05,0.00010417631710879505
0.011531711556017399,0.006347665563225746,-0.01122999470680952,0.006236364133656025,5.8406218158779666e-05,7.927444676170126e-05
0.012295952066779137,0.0059624626301229,-0.011173564940690994,0.006099634803831577,5.765785317635164e-05,7.40752657293342e-05
0.011762568727135658,0.005945572163909674,-0.011714779771864414,0.005860989447683096,5.621728632831946e-05,-5.8036228438140824e-05
0.011762568727135658,0.005945572163909674,-0.011714779771864414,0.005860989447683096,5.621728632831946e-05,-5.8036228438140824e-05
0.011762568727135658,0.005945572163909674,-0.011714779771864414,0.005860989447683096,5.621728632831946e-05,-5.8036228438140824e-05
0.011940735392272472,0.006237971130758524,-0.011217235587537289,0.0060396031476557255,5.484689609147608e-05,-8.452604379272088e-05
0.011886993423104286,0.00581617234274745,-0.011346708051860332,0.00604371028020978,5.41864828846883e-05,-0.00010248109174426645
0.012186115607619286,0.0055995965376496315,-0.011407413519918919,0.006093448959290981,5.3541763918474317e-05,-0.00010590408055577427
0.012064791284501553,0.0050532096065580845,-0.010536150075495243,0.0061517320573329926,5.291218985803425e-05,-0.00012737921497318894
0.013190128840506077,0.0049166749231517315,-0.011144204065203667,0.006128645036369562,5.2297284128144383e-05,-0.0003569396794773638
0.012390142306685448,0.00532190827652812,-0.011602197773754597,0.006380715407431126,5.169649011804722e-05,-0.0006026605842635036
0.012710965238511562,0.0050312853418290615,-0.011211451143026352,0.006379357539117336,5.110934944241308e-05,-0.0006225263932719827
0.01256102416664362,0.005275677423924208,-0.012072625569999218,0.00580268818885088,5.053538552601822e-05,-0.0006066827918402851
0.012575438246130943,0.005084650125354528,-0.011290324851870537,0.005876137409359217,4.997418727725744e-05,-0.0006244565593078732
0.01265143882483244,0.005092144478112459,-0.011356628499925137,0.00608444819226861,1.2699123544734903e-05,-0.0005860618548467755
0.012293360196053982,0.005040380172431469,-0.011385451070964336,0.006399764679372311,8.29162104309944e-07,-0.0007092113373801112
0.012500647455453873,0.005365792661905289,-0.010879719629883766,0.006079523824155331,5.413835779677356e-08,-0.0007319954456761479
0.012481928803026676,0.00477889459580183,-0.011813866905868053,0.005639162380248308,3.534847303754418e-09,-0.0007522804080508649
0.012820746749639511,0.004471026826649904,-0.011914453469216824,0.005614869296550751,2.3080028166422295e-10,-0.0007683568401262164
0.012874200008809566,0.0048772781156003475,-0.01197990495711565,0.005968548823148012,1.5069610490026086e-11,-0.0010202809935435653
0.012577753514051437,0.004988729488104582,-0.011511492542922497,0.006052675656974316,9.839378660794762e-13,-0.0010499812196940184
0.012926016934216022,0.005414730403572321,-0.01115524023771286,0.006073856260627508,6.424410835129471e-14,-0.0010578703368082643
0.012576637789607048,0.005455666221678257,-0.011995713226497173,0.006001908797770739,4.194681220073956e-15,-0.0015209304401651025
0.012907649390399456,0.004671107046306133,-0.011624402366578579,0.006042975001037121,2.7388273012941887e-16,-0.0014361698413267732
0.012460690923035145,0.004551612306386232,-0.011783993802964687,0.005820321384817362,1.7882584397851165e-17,-0.0013621804537251592
0.012925646267831326,0.004918696824461222,-0.011632473208010197,0.00604941975325346,1.1676051392880011e-18,-0.0013219857355579734
0.012664802372455597,0.004947825334966183,-0.01106578391045332,0.006173782050609589,7.623628043768578e-20,-0.0012413301737979054
0.013130558654665947,0.0053920685313642025,-0.011698254384100437,0.005771442782133818,4.977684140143937e-21,-0.0012071608798578382
0.013177059590816498,0.005032716318964958,-0.011495316401124,0.005799558013677597,3.250072093412994e-22,-0.0013701741117984056
0.01316741667687893,0.004783688113093376,-0.011223793029785156,0.005992915481328964,2.122064865125834e-23,-0.0013902662321925163
0.013309240341186523,0.0050647021271288395,-0.011596773751080036,0.006196348927915096,1.3855566744367693e-24,-0.0019321780418977141
0.013391354121267796,0.004867329262197018,-0.011812333948910236,0.006757894530892372,5.906846013549107e-27,-0.0022803503088653088
0.013337221927940845,0.0058462838642299175,-0.011402721516788006,0.0063942368142306805,3.8567483804558126e-28,-0.002334227552637458
0.013337221927940845,0.0058462838642299175,-0.011402721516788006,0.0063942368142306805,3.8567483804558126e-28,-0.002334227552637458
0.013539345003664494,0.005375985521823168,-0.01100761815905571,0.006579231470823288,2.5181812379925383e-29,-0.002202653093263507
0.013160044327378273,0.0052192071452736855,-0.011329303495585918,0.006817998364567757,1.6441925365177455e-30,-0.0020077116787433624
0.013602718710899353,0.005435522645711899,-0.010946104303002357,0.006588779389858246,1.0735403168418531e-31,-0.0019483687356114388
0.013344457373023033,0.005046695936471224,-0.012003837153315544,0.006195083726197481,7.009450773434222e-33,-0.0020833387970924377
0.013437261804938316,0.005474865902215242,-0.011482864618301392,0.006547958590090275,4.576670623846456e-34,-0.0019074028823524714
0.013328216969966888,0.005281094461679459,-0.011530067771673203,0.007169416639953852,2.9882389403019075e-35,-0.0018481937004253268
0.013572508469223976,0.005285367369651794,-0.011702882125973701,0.007106065284460783,1.951106638484301e-36,-0.0018418993568047881
0.013151879422366619,0.005028087180107832,-0.011159958317875862,0.006928520742803812,1.2739332137596858e-37,-0.002130806678906083
0.013409383594989777,0.005233552772551775,-0.011458141729235649,0.0072234622202813625,8.317873667388572e-39,-0.0029945785645395517
0.013773593120276928,0.005449534859508276,-0.01177922822535038,0.007658926770091057,5.430984432214407e-40,-0.0035745578352361917
0.013723282143473625,0.005256111733615398,-0.01138665433973074,0.007045262027531862,3.5459857639739496e-41,-0.0036881600972265005
0.014023082330822945,0.0057642157189548016,-0.01173850055783987,0.006907922215759754,2.3149450630645978e-42,-0.0032917095813900232
0.014140655286610126,0.005323471035808325,-0.01143738068640232,0.007095051929354668,1.5134023414708024e-43,-0.0030584565829485655
0.014492877759039402,0.004936709068715572,-0.011978920549154282,0.007924034260213375,9.80908925027372e-45,-0.002980432938784361
0.014450570568442345,0.005339021794497967,-0.01196595560759306,0.007575017400085926,0.0,-0.0031389878131449223
0.01437885221093893,0.005118041764944792,-0.011616288684308529,0.006931824143975973,0.0,-0.003167449263855815
0.014175118878483772,0.0053976429626345634,-0.012096807360649109,0.006837452296167612,0.0,-0.0034707176964730024
0.014579796232283115,0.005623824428766966,-0.011764686554670334,0.006997079122811556,0.0,-0.0032679326832294464
0.014166932553052902,0.005186082329601049,-0.012155931442975998,0.0071444823406636715,0.0,-0.003396944608539343
0.01437405776232481,0.005619874224066734,-0.011955522000789642,0.007035441696643829,0.0,-0.0033079341519623995
0.014284051023423672,0.005247724708169699,-0.011867488734424114,0.007230772636830807,0.0,-0.003331087063997984
0.014868507161736488,0.005451757926493883,-0.012423152104020119,0.0075000859797000885,0.0,-0.0035309353843331337
0.014258300885558128,0.00519779697060585,-0.012157461605966091,0.007180199958384037,0.0,-0.0035775688011199236
0.01457909308373928,0.005571340676397085,-0.012124767526984215,0.007016826421022415,0.0,-0.0033560837619006634
0.01450192928314209,0.0053216819651424885,-0.01286525558680296,0.007604861631989479,0.0,-0.0035575157962739468
0.01483831461519003,0.005395960528403521,-0.012415432371199131,0.007814045995473862,0.0,-0.003732439363375306
0.01483831461519003,0.005395960528403521,-0.012415432371199131,0.007814045995473862,0.0,-0.003732439363375306
0.015323145315051079,0.0054059443064033985,-0.011690900661051273,0.006991477683186531,0.0,-0.0037707651499658823
0.015316852368414402,0.005670911632478237,-0.013289079070091248,0.0066183204762637615,0.0,-0.0036814576014876366
0.01522949617356062,0.00525587797164917,-0.012620564550161362,0.006891991943120956,0.0,-0.0036926509346812963
0.015209798701107502,0.005341524723917246,-0.012780961580574512,0.00724114291369915,0.0,-0.003997043240815401
0.01511849369853735,0.0056149521842598915,-0.012726056389510632,0.007085228804498911,0.0,-0.004127170890569687
0.015568755567073822,0.006007094401866198,-0.013421790674328804,0.0072153047658503056,0.0,-0.004375534597784281
0.014947062358260155,0.005425487644970417,-0.01267459336668253,0.007472252938896418,0.0,-0.004091862589120865
0.014969201758503914,0.005451975390315056,-0.013172253966331482,0.007973924279212952,0.0,-0.003927375189960003
0.014973454177379608,0.0056087905541062355,-0.012740417383611202,0.008046958595514297,0.0,-0.003926179837435484
0.015438848175108433,0.005443330854177475,-0.01256557647138834,0.008037877269089222,0.0,-0.00473030237480998
0.015244847163558006,0.005803436506539583,-0.012619221583008766,0.007386445999145508,0.0,-0.004652644041925669
0.015934035181999207,0.005895268637686968,-0.012332691811025143,0.007249873597174883,0.0,-0.0045324997045099735
0.01533498615026474,0.005802847910672426,-0.012730414047837257,0.008010029792785645,0.0,-0.004493775777518749
0.015602010302245617,0.005315409041941166,-0.012806269340217113,0.007878965698182583,0.0,-0.004217938985675573
0.015571190975606441,0.005861182231456041,-0.013281875289976597,0.007786516100168228,0.0,-0.004375513643026352
0.015796326100826263,0.006269714795053005,-0.012447472661733627,0.0076243639923632145,0.0,-0.004674761556088924
0.015880966559052467,0.006051156669855118,-0.012758816592395306,0.007796938065439463,0.0,-0.004764433950185776
0.015904830768704414,0.006307941861450672,-0.01254312228411436,0.007724831812083721,0.0,-0.004918120335787535
0.01580033078789711,0.005641835741698742,-0.012720740400254726,0.008004962466657162,0.0,-0.004476852249354124
0.0157307181507349,0.005888957995921373,-0.012987802736461163,0.007837560959160328,0.0,-0.004502711817622185
0.016437159851193428,0.005564305931329727,-0.012258662842214108,0.007524588145315647,0.0,-0.0045041050761938095
0.01607024110853672,0.0061232466250658035,-0.013297478668391705,0.007370940409600735,4.249475750839338e-06,-0.004759624600410461
0.016210924834012985,0.0063888803124427795,-0.012968525290489197,0.007980983704328537,2.774603728994407e-07,-0.004846050404012203
0.016209688037633896,0.00552327511832118,-0.013175559230148792,0.008102364838123322,1.8116180555693973e-08,-0.004844537004828453
0.016466550529003143,0.005925856065005064,-0.012909499928355217,0.00772161316126585,1.1828571455652082e-09,-0.00563407177105546
0.016466550529003143,0.005925856065005064,-0.012909499928355217,0.00772161316126585,1.1828571455652082e-09,-0.00563407177105546
0.015963315963745117,0.005967592820525169,-0.012879600748419762,0.00757141038775444,5.042704968871714e-12,-0.005317860282957554
0.016499539837241173,0.005866682156920433,-0.012722514569759369,0.007485227193683386,3.292525757245257e-13,-0.004990826826542616
0.016189422458410263,0.0054050469771027565,-0.012864152900874615,0.0077811796218156815,2.1497840196915176e-14,-0.005217855330556631
0.016654718667268753,0.00507529079914093,-0.01227511279284954,0.00813744030892849,1.403655248707425e-15,-0.005463330075144768
0.01664169877767563,0.005916843190789223,-0.013101247139275074,0.008515526540577412,9.164866049044988e-17,-0.005257172044366598
0.016610020771622658,0.005503888241946697,-0.012871243059635162,0.00847132969647646,5.984003222220914e-18,-0.0050717000849545
0.016832442954182625,0.00599672319367528,-0.013454267755150795,0.00781225087121129,3.9071266188240504e-19,-0.005223608110100031
0.016534626483917236,0.00548163428902626,-0.012478729709982872,0.008128473535180092,2.551074607638548e-20,-0.005414710845798254
0.01689290441572666,0.005719609558582306,-0.01329802069813013,0.008666555397212505,1.665669426275541e-21,-0.006035916972905397
0.01654723659157753,0.005374189466238022,-0.012921676971018314,0.008554356172680855,1.0875631500918203e-22,-0.005772693548351526
0.01691478118300438,0.00600318843498826,-0.013325572945177555,0.007848970592021942,7.101009535576555e-24,-0.005970304366201162
0.016758771613240242,0.0055982801131904125,-0.013342746533453465,0.008062769658863544,4.636452070422106e-25,-0.006119270343333483
0.016999568790197372,0.005951337981969118,-0.012943524867296219,0.008185381069779396,-0.00013530119031202048,-0.0056421332992613316
0.01702873595058918,0.0054238541051745415,-0.013299960643053055,0.00775269465520978,-0.00023882658570073545,-0.005830773618072271
0.01676703616976738,0.005858169868588448,-0.013170963153243065,0.008170005865395069,-0.000233660961384885,-0.005893858149647713
0.017249204218387604,0.005731507204473019,-0.013522138819098473,0.008257807232439518,-0.00022257388627622277,-0.006224228534847498
0.01698099635541439,0.005704433657228947,-0.012727857567369938,0.008117998018860817,-0.00021211076818872243,-0.006165212951600552
0.017265919595956802,0.005889021325856447,-0.013414692133665085,0.008320887573063374,-0.00020256191783118993,-0.005554525181651115
0.017462613061070442,0.006061498075723648,-0.012836373411118984,0.00856378860771656,-0.00022247704328037798,-0.005462752189487219
0.016848677769303322,0.005400608293712139,-0.013351194560527802,0.008543228730559349,-0.00022233306663110852,-0.005691737402230501
0.01727893017232418,0.005827764980494976,-0.01349689718335867,0.008322125300765038,-0.00021410590852610767,-0.006128835957497358
0.01728508248925209,0.006344590336084366,-0.013558568432927132,0.008969709277153015,-0.00023797541507519782,-0.006288428790867329
0.017216352745890617,0.006284749135375023,-0.013322853483259678,0.009343941695988178,-0.00023132569913286716,-0.0062105064280331135
0.018080033361911774,0.006060765590518713,-0.013592967763543129,0.009574144147336483,-0.00023888984287623316,-0.006161998957395554
0.01741917058825493,0.005824328865855932,-0.013519120402634144,0.009445485658943653,-0.00024537162971682847,-0.006069493945688009
0.01792275533080101,0.005810020957142115,-0.013146803714334965,0.009481952525675297,-0.00023831611906643957,-0.006452067289501429
0.01738426275551319,0.006278621032834053,-0.013339015655219555,0.009322697296738625,-0.0003139585314784199,-0.006587757728993893
0.01738426275551319,0.006278621032834053,-0.013339015655219555,0.009322697296738625,-0.0003139585314784199,-0.006587757728993893
0.018131373450160027,0.006180844735354185,-0.013598979450762272,0.009671596810221672,-0.0003350074402987957,-0.006489609833806753
0.018613005056977272,0.00583305349573493,-0.012911444529891014,0.009297925978899002,-0.0003428468480706215,-0.006434294860810041
0.01811661198735237,0.005753687117248774,-0.013709227554500103,0.008700922131538391,-0.00034778518602252007,-0.0067443554289639
0.017962835729122162,0.006170560605823994,-0.013349978253245354,0.009235107339918613,-0.00033106611226685345,-0.006463434547185898
0.01742204651236534,0.006087540183216333,-0.013831841759383678,0.009508063085377216,-0.00035648749326355755,-0.006982959341257811
0.018471794202923775,0.006138256285339594,-0.013155726715922356,0.008981237187981606,-0.000511365884449333,-0.007004851009696722
0.017951736226677895,0.005368622951209545,-0.014156857505440712,0.010012264363467693,-0.0005095058586448431,-0.006710254121571779
0.018060605973005295,0.004885552916675806,-0.013799147680401802,0.00973528902977705,-0.0005464768619276583,-0.006302175112068653
0.018342508003115654,0.004774856846779585,-0.013900279998779297,0.009247575886547565,-0.0005015028291381896,-0.007011336740106344
0.01805734634399414,0.005227790679782629,-0.013692322187125683,0.010359685868024826,-0.0004961893428117037,-0.00708870030939579
0.017829513177275658,0.005511462688446045,-0.013561191037297249,0.010146260261535645,-0.0004911489668302238,-0.007240156643092632
0.018014200031757355,0.005052989814430475,-0.013701071962714195,0.009310618042945862,-0.0004576547653414309,-0.006875013466924429
0.017698880285024643,0.00524516636505723,-0.01357498113065958,0.009156876243650913,-0.0004267758340574801,-0.00669277086853981
0.018469737842679024,0.0050226557068526745,-0.013677183538675308,0.009143206290900707,-0.0003996944287791848,-0.006927843671292067
0.018754901364445686,0.004901801701635122,-0.013906151987612247,0.008806143887341022,-0.0004258006811141968,-0.007196288090199232
0.018089618533849716,0.005684176459908485,-0.01398148201406002,0.009126763790845871,-0.0004050932766404003,-0.007607159670442343
0.018428726121783257,0.0053596412762999535,-0.013874444179236889,0.008920220658183098,-0.0003966736258007586,-0.0072150807827711105
0.018429432064294815,0.004726137965917587,-0.014240453951060772,0.008717700839042664,-0.0004355295968707651,-0.007268974091857672
0.01848512887954712,0.004422907251864672,-0.013589395210146904,0.008904731832444668,-0.0004704540770035237,-0.007788931019604206
0.01845274120569229,0.004848476964980364,-0.014061721973121166,0.00978151522576809,-0.0005006006103940308,-0.007699444890022278
0.01852601207792759,0.004981594625860453,-0.013321594335138798,0.009509533643722534,-0.0004718968993984163,-0.008043626323342323
0.018675873056054115,0.0048610614612698555,-0.014028715901076794,0.009160450659692287,-0.0006907675415277481,-0.008135592564940453
0.018689220771193504,0.0048095062375068665,-0.013894572854042053,0.009607051499187946,-0.0007673142827115953,-0.00795754510909319
0.018798230215907097,0.004676297307014465,-0.014690198935568333,0.009532305411994457,-0.0007023790967650712,-0.00788208283483982
0.018893832340836525,0.00470329262316227,-0.014059886336326599,0.009375429712235928,-0.0007196958176791668,-0.008229227736592293
0.019026989117264748,0.005142020061612129,-0.014777198433876038,0.009857178665697575,-0.0006515991408377886,-0.008574262261390686
0.019146796315908432,0.004946391563862562,-0.014956632629036903,0.009185240603983402,-0.0006066500209271908,-0.008187645114958286
0.019506368786096573,0.005069873295724392,-0.014243877492845058,0.009305591695010662,-0.0005678198649547994,-0.008406044915318489
0.01952749863266945,0.004937584511935711,-0.015445712022483349,0.009626402519643307,-0.0005279997712932527,-0.008895429782569408
0.01952749863266945,0.004937584511935711,-0.015445712022483349,0.009626402519643307,-0.0005279997712932527,-0.008895429782569408
0.019522393122315407,0.004633320961147547,-0.015492385253310204,0.009932340122759342,-0.0004723496094811708,-0.0083187036216259
0.019002210348844528,0.004773491527885199,-0.014825431630015373,0.009824113920331001,-0.00046886614290997386,-0.008331249468028545
0.019002210348844528,0.004773491527885199,-0.014825431630015373,0.009824113920331001,-0.00046886614290997386,-0.008331249468028545
0.019615959376096725,0.004881598986685276,-0.015252047218382359,0.009233638644218445,-0.0004960160586051643,-0.008522962220013142
0.01958112232387066,0.004854025784879923,-0.014995915815234184,0.009942901320755482,-0.0005002612015232444,-0.008259478956460953
0.019210848957300186,0.0047357818111777306,-0.015008551068603992,0.009673936292529106,-0.0004969547735527158,-0.008136843331158161
0.019434111192822456,0.004960258956998587,-0.015296706929802895,0.009290279820561409,-0.0006080168532207608,-0.008411815389990807
0.019649824127554893,0.004891534801572561,-0.01502618845552206,0.01022992841899395,-0.0006255471962504089,-0.008541529066860676
0.020020995289087296,0.004561541136354208,-0.015441164374351501,0.009899887256324291,-0.0005830234731547534,-0.007932472042739391
0.019871696829795837,0.005031205713748932,-0.015115013346076012,0.009582963772118092,-0.0006033254903741181,-0.00798789132386446
0.02006681077182293,0.00503948237746954,-0.015385495498776436,0.010306855663657188,-0.0005600255099125206,-0.008300792425870895
0.01998789981007576,0.00479769567027688,-0.014527002349495888,0.010010594502091408,-0.000514895305968821,-0.008755193091928959
0.01975938305258751,0.004410068038851023,-0.015277964994311333,0.009511099196970463,-0.0005391984595917165,-0.008160221390426159
0.020251961424946785,0.00430600019171834,-0.014904572628438473,0.01016563456505537,-0.0005062593263573945,-0.008098841644823551
0.020133692771196365,0.004955309443175793,-0.015285530127584934,0.010803367011249065,-0.0005076559609733522,-0.00824961718171835
0.01969340071082115,0.004912635311484337,-0.014623329974710941,0.010179439559578896,-0.00045959826093167067,-0.008199052885174751
0.020423131063580513,0.004792946390807629,-0.015089993365108967,0.010179867036640644,-0.0004890383570455015,-0.007866090163588524
0.020213080570101738,0.004907142370939255,-0.014539721421897411,0.010053500533103943,-0.000494274077937007,-0.008122359402477741
0.02008943073451519,0.004796887747943401,-0.015225839801132679,0.0104439752176404,-0.0004900177591480315,-0.008116643875837326
0.020123546943068504,0.004930827766656876,-0.014530944637954235,0.010348645970225334,-0.0005173868266865611,-0.008252252824604511
0.01897132769227028,0.004730381071567535,-0.015418588183820248,0.01028825156390667,-0.00048651546239852905,-0.00827715639024973
0.020327983424067497,0.0048424312844872475,-0.014853392727673054,0.010016363114118576,-0.00045595678966492414,-0.008262258023023605
0.02076682634651661,0.0048200758174061775,-0.015176912769675255,0.010317295789718628,-0.0004985706764273345,-0.007911610417068005
0.020812299102544785,0.00509780365973711,-0.01494619157165289,0.010262709110975266,-0.0004593720368575305,-0.008156757801771164
0.02028666064143181,0.004436593968421221,-0.014769306406378746,0.010622594505548477,-0.00045299745397642255,-0.008196143433451653
0.020875684916973114,0.004460568074136972,-0.015415996313095093,0.010338195599615574,-0.0004221903218422085,-0.00836507510393858
0.020661015063524246,0.005023831967264414,-0.015576248057186604,0.010233760811388493,-0.0003918353177141398,-0.008264684118330479
0.020661015063524246,0.005023831967264414,-0.015576248057186604,0.010233760811388493,-0.0003918353177141398,-0.008264684118330479
0.02020316570997238,0.0046839783899486065,-0.015011441893875599,0.010524440556764603,-0.00042195242713205516,-0.008262231945991516
0.02036517858505249,0.005056249443441629,-0.015116932801902294,0.010039690881967545,-0.0003989168326370418,-0.007518353872001171
0.021154247224330902,0.004953046329319477,-0.015437766909599304,0.010726002976298332,-0.0003753780329134315,-0.007061332929879427
0.020577898249030113,0.004774751141667366,-0.015576856210827827,0.010237809270620346,-0.000401384400902316,-0.007073033135384321
0.020565180107951164,0.004547307267785072,-0.014820139855146408,0.009652169421315193,-0.0003830946807283908,-0.0077604870311915874
0.02129954844713211,0.004850524477660656,-0.015474647283554077,0.010109800845384598,-0.00036392553010955453,-0.007762189023196697
0.02211032435297966,0.0047584702260792255,-0.015347476117312908,0.010439129546284676,-0.00035472988383844495,-0.00767381489276886
0.021186882629990578,0.004726889543235302,-0.015784183517098427,0.010633465833961964,-0.00033083176822401583,-0.00800972618162632
0.02077302522957325,0.004664713982492685,-0.015061717480421066,0.010500544682145119,-0.00035364055656827986,-0.008269980549812317
0.02123492769896984,0.0044970023445785046,-0.015647180378437042,0.010503764264285564,-0.0003451668017078191,-0.007829220965504646
0.02107541449368,0.00455869734287262,-0.01481315866112709,0.010052531957626343,-0.00036522961454465985,-0.00805125292390585
0.021170150488615036,0.0044148163869977,-0.015133442357182503,0.010372460819780827,-0.0003570693079382181,-0.008303082548081875
0.020885230973362923,0.004577612970024347,-0.015275945886969566,0.010150727815926075,-0.00037437185528688133,-0.007855174131691456
0.021658770740032196,0.004466652404516935,-0.015663739293813705,0.010106761939823627,-0.0003665466792881489,-0.008091157302260399
0.021652845665812492,0.004813602659851313,-0.015677016228437424,0.010688282549381256,-0.0004747881612274796,-0.007953410036861897
0.021323220804333687,0.004768872633576393,-0.015266558155417442,0.010703601874411106,-0.000467520032543689,-0.008220002055168152
0.02114062011241913,0.004837176762521267,-0.015258298255503178,0.010949325747787952,-0.0004670772177632898,-0.008206900209188461
0.02161654457449913,0.004544954281300306,-0.01513309683650732,0.011574577540159225,-0.00046424687025137246,-0.0082884905859828
0.021632440388202667,0.0044004181399941444,-0.01556773018091917,0.010793657973408699,-0.0004823068738915026,-0.008354561403393745
0.02123950980603695,0.004902795888483524,-0.015114201232790947,0.011475393548607826,-0.0004632950003724545,-0.008497295901179314
0.02124577946960926,0.00509378407150507,-0.015411806292831898,0.010627992451190948,-0.0004625546862371266,-0.007862847298383713
0.021616889163851738,0.004723464138805866,-0.01481818687170744,0.010727405548095703,-0.0004605616850312799,-0.00797409936785698
0.02222936414182186,0.004425595514476299,-0.01549691241234541,0.01086087990552187,-0.0005263911443762481,-0.008279820904135704
0.021692445501685143,0.004826148971915245,-0.014985962770879269,0.010585379786789417,-0.0005558004486374557,-0.008662422187626362
0.021794479340314865,0.004748527891933918,-0.014981328509747982,0.011036459356546402,-0.0004794231790583581,-0.008507486432790756
0.021675795316696167,0.0049375733360648155,-0.015723777934908867,0.011030122637748718,-0.00044038353371433914,-0.00874901283532381
0.021443694829940796,0.004914163611829281,-0.015316453762352467,0.011469855904579163,-0.0004657225217670202,-0.008306934498250484
0.02174529619514942,0.004729149863123894,-0.015622397884726524,0.010958357714116573,-0.00044108054134994745,-0.008338060230016708
0.02211875654757023,0.0046331617049872875,-0.015324132516980171,0.011113423854112625,-0.0004126926069147885,-0.009019448421895504
0.02211875654757023,0.0046331617049872875,-0.015324132516980171,0.011113423854112625,-0.0004126926069147885,-0.009019448421895504
0.020844558253884315,0.004982404876500368,-0.015523596666753292,0.011210493743419647,-0.00042808536090888083,-0.008733347058296204
0.023004602640867233,0.005030165892094374,-0.01579486019909382,0.0105519387871027,-0.00041607339517213404,-0.00853592250496149
0.022472353652119637,0.004691178444772959,-0.01580549217760563,0.010838248766958714,-0.0004085604741703719,-0.008919448591768742
0.022554151713848114,0.004935898818075657,-0.015661289915442467,0.010883812792599201,-0.00038848936674185097,-0.00917341373860836
0.0224409531801939,0.004837775602936745,-0.015285429544746876,0.010712854564189911,-0.0003585114609450102,-0.009336622431874275
0.02251431718468666,0.004817832726985216,-0.016154896467924118,0.011659822426736355,-0.0003938349836971611,-0.008973955176770687
0.02246163599193096,0.005110463127493858,-0.015976162627339363,0.011452020145952702,-0.00037080919719301164,-0.009475053288042545
0.022161979228258133,0.00490832794457674,-0.016078965738415718,0.011510558426380157,-0.00040104970685206354,-0.008911553770303726
0.023211847990751266,0.004851316101849079,-0.015260719694197178,0.01142173446714878,-0.00040681762038730085,-0.008293521590530872
0.023937178775668144,0.0052942633628845215,-0.015940168872475624,0.01101341936737299,-0.00040836125845089555,-0.010475870221853256
0.023635627701878548,0.005612040404230356,-0.016252128407359123,0.011633426882326603,-0.0004637568781618029,-0.010425293818116188
0.022996895015239716,0.004817939829081297,-0.016184940934181213,0.011420197784900665,-0.0004864754155278206,-0.009384119883179665
0.02155385911464691,0.00492162024602294,-0.01628548465669155,0.011227001436054707,-0.0004432976711541414,-0.00943328533321619
0.02317536622285843,0.00539953401312232,-0.015981126576662064,0.012045657262206078,-0.00047875591553747654,-0.008877180516719818
0.02385370247066021,0.005013434682041407,-0.016731824725866318,0.011346207931637764,-0.0004442525969352573,-0.009220151230692863
0.023590773344039917,0.004992385860532522,-0.016336636617779732,0.011768823489546776,-0.00041075359331443906,-0.009223630651831627
0.023351142182946205,0.005203984212130308,-0.01637215167284012,0.011577684432268143,-0.0004284826572984457,-0.008922767825424671
0.023683911189436913,0.005016905255615711,-0.016346925869584084,0.011257662437856197,-0.0004148174193687737,-0.00909070298075676
0.024040983989834785,0.005382911302149296,-0.01658530905842781,0.012184440158307552,-0.00043825997272506356,-0.010108951479196548
0.024569783359766006,0.0049172816798090935,-0.01677275262773037,0.011602560058236122,-0.00044361723121255636,-0.009538514539599419
0.024569783359766006,0.0049172816798090935,-0.01677275262773037,0.011602560058236122,-0.00044361723121255636,-0.009538514539599419
0.023625720292329788,0.005121137015521526,-0.016759062185883522,0.011309151537716389,-0.00046536658192053437,-0.010378947481513023
0.02360421046614647,0.005061789881438017,-0.016275055706501007,0.01118506770581007,-0.00048150948714464903,-0.00997853372246027
0.024097707122564316,0.005109655205160379,-0.016998058184981346,0.011782648973166943,-0.0005122364964336157,-0.009649701416492462
0.024221030995249748,0.005276960786432028,-0.016875289380550385,0.011291636154055595,-0.0005087137687951326,-0.00953032448887825
0.0242787916213274,0.005001818295568228,-0.01643424481153488,0.011680885218083858,-0.0007064566598273814,-0.00916601438075304
0.02467150241136551,0.005516767501831055,-0.016912618651986122,0.011686978861689568,-0.000702782126609236,-0.009708249010145664
0.02445639669895172,0.005291422829031944,-0.016473785042762756,0.011861133389174938,-0.0006716639618389308,-0.010600068606436253
0.024334069341421127,0.004914895165711641,-0.017099497839808464,0.012450726702809334,-0.0006865807226859033,-0.010198959149420261
0.024366023018956184,0.005250933580100536,-0.01672780141234398,0.011715815402567387,-0.0006731312605552375,-0.010053416714072227
0.024419592693448067,0.005152391269803047,-0.016795096918940544,0.012123354710638523,-0.0006520168390125036,-0.010161072947084904
0.02325255610048771,0.005360954441130161,-0.016791582107543945,0.01225187536329031,-0.0006665053078904748,-0.010206575505435467
0.02512398734688759,0.005722759757190943,-0.016596835106611252,0.011754701845347881,-0.0006931484676897526,-0.010644939728081226
0.025592714548110962,0.005369624122977257,-0.01719234697520733,0.01143476739525795,-0.0007033803267404437,-0.010173117741942406
0.024731691926717758,0.005109188612550497,-0.016301047056913376,0.011259675957262516,-0.0006996156298555434,-0.009453332051634789
0.025206739082932472,0.005006319377571344,-0.016736634075641632,0.012348756194114685,-0.0006760428077541292,-0.009989209473133087
0.024853330105543137,0.005195658188313246,-0.01710132509469986,0.012124309316277504,-0.0007632632041350007,-0.010090598836541176
0.025172892957925797,0.0053131114691495895,-0.017034539952874184,0.012260878458619118,-0.0007983635878190398,-0.009681344963610172
0.025026503950357437,0.005099797155708075,-0.017633993178606033,0.0123602245002985,-0.0007892241701483727,-0.009931202977895737
0.02521597221493721,0.004932903219014406,-0.016315607354044914,0.01177141536027193,-0.0007249001646414399,-0.010759145021438599
0.02558082900941372,0.004659838508814573,-0.016740931198000908,0.012006847187876701,-0.0007316186674870551,-0.010310038924217224
0.02597539685666561,0.0041342186741530895,-0.0168826412409544,0.011963101103901863,-0.0006785322912037373,-0.010708116926252842
0.02562572993338108,0.004425184801220894,-0.01711234077811241,0.012326963245868683,-0.0006704435218125582,-0.01037134975194931
0.02573983743786812,0.004616579972207546,-0.01729767583310604,0.012472478672862053,-0.0006896582781337202,-0.010444624349474907
0.02573983743786812,0.004616579972207546,-0.01729767583310604,0.012472478672862053,-0.0006896582781337202,-0.010444624349474907
0.026041584089398384,0.005097989924252033,-0.016426431015133858,0.012507653795182705,-0.0006738119409419596,-0.010407152585685253
0.02554985135793686,0.005020654294639826,-0.017110498622059822,0.013127357698976994,-0.0006498089642263949,-0.010506550781428814
0.02618253603577614,0.004588801879435778,-0.01724589616060257,0.012546789832413197,-0.0006382465362548828,-0.010780997574329376
0.026488928124308586,0.004826169926673174,-0.016658589243888855,0.013686517253518105,-0.0006535293650813401,-0.010599757544696331
0.02626233547925949,0.004716178402304649,-0.01726529560983181,0.01245646458119154,-0.0006062675383873284,-0.011061708442866802
0.02626233547925949,0.004716178402304649,-0.01726529560983181,0.01245646458119154,-0.0006062675383873284,-0.011061708442866802
0.026778867468237877,0.004707964137196541,-0.016845427453517914,0.011793497949838638,-0.0006310310564003885,-0.011072652414441109
0.02677375078201294,0.004594133701175451,-0.017419906333088875,0.012114024721086025,-0.0006185519159771502,-0.01049880962818861
0.026684505864977837,0.004593954421579838,-0.01752537488937378,0.01214800588786602,-0.0006032137316651642,-0.010552401654422283
0.026698432862758636,0.004701654426753521,-0.01680399477481842,0.013050097040832043,-0.0006150035187602043,-0.010375681333243847
0.02683308534324169,0.0045483848080039024,-0.017674429342150688,0.012827481143176556,-0.0006481733871623874,-0.010444912128150463
0.02739131823182106,0.004889313131570816,-0.017047062516212463,0.012236780487000942,-0.0006774446810595691,-0.010570070706307888
0.028017554432153702,0.004847658798098564,-0.017305433750152588,0.01303592324256897,-0.0006555301370099187,-0.010962526313960552
0.027069035917520523,0.004867506679147482,-0.017900535836815834,0.0134614622220397,-0.0006699852528981864,-0.011452424339950085
0.025581177324056625,0.004620885476469994,-0.017479034140706062,0.013355793431401253,-0.0006222132360562682,-0.01063311006873846
0.027207955718040466,0.004628554452210665,-0.018007081001996994,0.013877219520509243,-0.0007112161838449538,-0.010523094795644283
0.027710314840078354,0.004726416431367397,-0.01740327849984169,0.013726388104259968,-0.0006951279356144369,-0.010922514833509922
0.026689184829592705,0.004456803202629089,-0.017663273960351944,0.013740405440330505,-0.0006644888198934495,-0.010929147712886333
0.027286827564239502,0.004625590052455664,-0.017485881224274635,0.013336047530174255,-0.0006800126284360886,-0.01048632338643074
0.028266921639442444,0.005115705542266369,-0.017093287780880928,0.01288718543946743,-0.0006673313910141587,-0.010538656264543533
0.028018727898597717,0.004952352959662676,-0.018018033355474472,0.01317992340773344,-0.0006469001527875662,-0.010555939748883247
0.027432026341557503,0.004624958615750074,-0.017823075875639915,0.013109693303704262,-0.0006623421795666218,-0.010590138845145702
0.02644035592675209,0.004358834587037563,-0.018071621656417847,0.013316008262336254,-0.0006565938238054514,-0.010831516236066818
0.027308223769068718,0.004251257050782442,-0.01809992454946041,0.012929916381835938,-0.0006321172695606947,-0.010991603136062622
0.02820228412747383,0.00481669744476676,-0.016985604539513588,0.013653970323503017,-0.000656818097922951,-0.011352619156241417
0.02759735658764839,0.005052544176578522,-0.018187453970313072,0.013458016328513622,-0.0006629209965467453,-0.010915327817201614
0.02759735658764839,0.005052544176578522,-0.018187453970313072,0.013458016328513622,-0.0006629209965467453,-0.010915327817201614
0.027663495391607285,0.004867109004408121,-0.018572049215435982,0.013699682429432869,-0.0006291496101766825,-0.010871002450585365
0.027860598638653755,0.004542123060673475,-0.017833078280091286,0.01320809219032526,-0.0006847081240266562,-0.011122151277959347
0.027932733297348022,0.0042825257405638695,-0.01764788292348385,0.013096624985337257,-0.0007153854239732027,-0.01158149540424347
0.027907662093639374,0.004484021570533514,-0.018306592479348183,0.01319920551031828,-0.0006641083164140582,-0.011160444468259811
0.027765434235334396,0.004706477280706167,-0.017883839085698128,0.013071628287434578,-0.0006819656700827181,-0.011625601910054684
0.027883369475603104,0.005073775537312031,-0.017268897965550423,0.013199519366025925,-0.0007208561873994768,-0.011476370505988598
0.028126507997512817,0.0048499153926968575,-0.01831488311290741,0.01363371405750513,-0.0007461061468347907,-0.011233717203140259
0.028189290314912796,0.004237531218677759,-0.018610144034028053,0.013280460610985756,-0.0006826639291830361,-0.011295490898191929
0.028108591213822365,0.003950061742216349,-0.017501981928944588,0.013634566217660904,-0.0007015931187197566,-0.01138339377939701
0.027978356927633286,0.0043570492416620255,-0.01796620711684227,0.013798673637211323,-0.0006806565215811133,-0.010515560396015644
0.028088249266147614,0.004495592322200537,-0.01792842522263527,0.014253441244363785,-0.0006582704372704029,-0.011145714670419693
0.0284393560141325,0.004613369237631559,-0.01762453094124794,0.013758733868598938,-0.000605482142418623,-0.011335747316479683
0.027982419356703758,0.004727224353700876,-0.01769294962286949,0.014064619317650795,-0.000563238572794944,-0.01144325640052557
0.02653294801712036,0.004577279556542635,-0.017537767067551613,0.013484993018209934,-0.000532100850250572,-0.011810878291726112
0.029049182310700417,0.00430098082870245,-0.018259849399328232,0.013822074048221111,-0.0005476534715853631,-0.011970923282206059
0.02955140732228756,0.004034257028251886,-0.018140321597456932,0.013334842398762703,-0.0005167865310795605,-0.012103511951863766
0.029624655842781067,0.004203794524073601,-0.017711155116558075,0.013712307438254356,-0.000510979094542563,-0.011483815498650074
0.028796399012207985,0.004612946882843971,-0.01837916113436222,0.013675231486558914,-0.0005046882433816791,-0.01165089663118124
0.02821323275566101,0.004858482163399458,-0.017794284969568253,0.014276394620537758,-0.00046933884732425213,-0.01240103505551815
0.028863543644547462,0.004817419219762087,-0.017973678186535835,0.014163026586174965,-0.0004369158123154193,-0.012286214157938957
0.030110254883766174,0.0044862050563097,-0.018243471160531044,0.01482955738902092,-0.00040857295971363783,-0.012283566407859325
0.029484033584594727,0.004177361726760864,-0.018023977056145668,0.01477788481861353,-0.0004310682415962219,-0.012494344264268875
0.029927043244242668,0.004780808929353952,-0.018437135964632034,0.014922880567610264,-0.00041282185702584684,-0.012080086395144463
0.030062010511755943,0.004500567447394133,-0.018623244017362595,0.01460613589733839,-0.0003908287617377937,-0.012031786143779755
0.030062010511755943,0.004500567447394133,-0.018623244017362595,0.01460613589733839,-0.0003908287617377937,-0.012031786143779755
0.03056197613477707,0.004502332303673029,-0.018163688480854034,0.015263184905052185,-0.000372065172996372,-0.012482020072638988
0.02980312891304493,0.0046212803572416306,-0.017910737544298172,0.014786403626203537,-0.00032249174546450377,-0.012446139007806778
0.030253589153289795,0.004519532434642315,-0.018400050699710846,0.013971798121929169,-0.0003569017571862787,-0.012321094051003456
0.03010120429098606,0.004107338842004538,-0.01878177747130394,0.01453010831028223,-0.00033819206873886287,-0.012174626812338829
0.030290495604276657,0.004353876691311598,-0.018174484372138977,0.01402210257947445,-0.00036438400275073946,-0.012519307434558868
0.03044724650681019,0.0043797800317406654,-0.018377816304564476,0.014486921951174736,-0.0003504038031678647,-0.012287595309317112
0.03037615306675434,0.0043339915573596954,-0.01867898367345333,0.014085151255130768,-0.00033232462010346353,-0.012476873584091663
0.030078986659646034,0.0049245934933424,-0.01820005476474762,0.014908932149410248,-0.0003156936727464199,-0.012729750014841557
0.03046313300728798,0.004477092530578375,-0.018651125952601433,0.014391908422112465,-0.000337818986736238,-0.01303367130458355
0.03034239448606968,0.004508769605308771,-0.018511412665247917,0.014476207084953785,-0.00032754545100033283,-0.01281250361353159
0.030143823474645615,0.0043525914661586285,-0.018042810261249542,0.013721187599003315,-0.000313608325086534,-0.012815882451832294
0.030697563663125038,0.004316717851907015,-0.018752118572592735,0.014587940648198128,-0.00033528413041494787,-0.012819711118936539
0.030712012201547623,0.0043927268125116825,-0.018598007038235664,0.014308575540781021,-0.00034335991949774325,-0.012621669098734856
0.03130153939127922,0.0046262494288384914,-0.018228743225336075,0.014898632653057575,-0.000368275010259822,-0.012486363761126995
0.030036896467208862,0.004791283048689365,-0.018640968948602676,0.014644547365605831,-0.00040275813080370426,-0.012844693847000599
0.031153107061982155,0.004675313364714384,-0.0185462087392807,0.014695405960083008,-0.0004197339294478297,-0.012890081852674484
0.03143497556447983,0.0047168550081551075,-0.019035089761018753,0.014413599856197834,-0.00042130702058784664,-0.012662140652537346
0.03131146356463432,0.004760118201375008,-0.019220679998397827,0.014843765646219254,-0.0006359294638969004,-0.012836068868637085
0.03093884326517582,0.004427516832947731,-0.018505198881030083,0.013874636963009834,-0.000732892076484859,-0.01287338137626648
0.03133385628461838,0.004483087453991175,-0.018567711114883423,0.014559498056769371,-0.0006625390378758311,-0.013020673766732216
0.03179797902703285,0.00470553245395422,-0.018779559060931206,0.014881850220263004,-0.0005911680054850876,-0.012811264023184776
0.03163386508822441,0.005152465309947729,-0.01848253794014454,0.01554645411670208,-0.0006092413095757365,-0.012492595240473747
0.03169297054409981,0.004888501018285751,-0.019427498802542686,0.015490910038352013,-0.0005649312515743077,-0.012775219045579433
0.032035160809755325,0.004459305200725794,-0.019166819751262665,0.01572255976498127,-0.0005548959597945213,-0.013012470677495003
0.032035160809755325,0.004459305200725794,-0.019166819751262665,0.01572255976498127,-0.0005548959597945213,-0.013012470677495003
0.03187177702784538,0.004297982435673475,-0.01839379034936428,0.015846816822886467,-0.0005455334903672338,-0.013478852808475494
0.03224092721939087,0.004313462879508734,-0.018974853679537773,0.016002485528588295,-0.0005090826889500022,-0.013315974734723568
0.03238331899046898,0.0050493162125349045,-0.019353114068508148,0.01590787060558796,-0.00047076147166080773,-0.013827625662088394
0.03210417181253433,0.004684437066316605,-0.019185148179531097,0.01622834987938404,-0.0004675145319197327,-0.013835977762937546
0.0319255068898201,0.004869367927312851,-0.019135640934109688,0.015794076025485992,-0.0004325041372794658,-0.013475816696882248
0.032129645347595215,0.0050143287517130375,-0.018394840881228447,0.016290437430143356,-0.0004626089066732675,-0.013178315944969654
0.03315887972712517,0.004833280108869076,-0.019059674814343452,0.015843883156776428,-0.00043472906691022217,-0.013312071561813354
0.03268958628177643,0.004260126035660505,-0.019477523863315582,0.015321660786867142,-0.00044967938447371125,-0.013392162509262562
0.03128573298454285,0.004367616027593613,-0.01925925724208355,0.014975043013691902,-0.00043581839418038726,-0.01377095002681017
0.03234685957431793,0.00492924964055419,-0.0191904716193676,0.015486392192542553,-0.00046419381396844983,-0.013637247495353222
0.032902732491493225,0.004456150345504284,-0.019638927653431892,0.01575269177556038,-0.0004677498363889754,-0.013377276249229908
0.032736826688051224,0.004471037071198225,-0.01912331022322178,0.015586813911795616,-0.0005059952381998301,-0.012969846837222576
0.03361520171165466,0.0045016733929514885,-0.01972818560898304,0.015516892075538635,-0.0005247042863629758,-0.012641999870538712
0.03223244100809097,0.004689824301749468,-0.019954638555645943,0.015297958627343178,-0.0005009921151213348,-0.013017874211072922
0.03168090805411339,0.004702510312199593,-0.019242500886321068,0.01536747720092535,-0.0005139841232448816,-0.012674802914261818
0.03165431693196297,0.004870342556387186,-0.019356198608875275,0.015048994682729244,-0.0004939638311043382,-0.013162048533558846
0.03287370502948761,0.004338272847235203,-0.02029823325574398,0.015417758375406265,-0.00046499428572133183,-0.013286984525620937
0.03332125395536423,0.00429287925362587,-0.018484387546777725,0.0149762574583292,-0.0005477143567986786,-0.013537419028580189
0.03230344504117966,0.0046012247912585735,-0.018948812037706375,0.0156767126172781,-0.0005689453682862222,-0.013876348733901978
0.0334865003824234,0.0047746882773935795,-0.020553404465317726,0.01545854564756155,-0.0005353373708203435,-0.014312452636659145
0.032937582582235336,0.004836854990571737,-0.01984206959605217,0.01568286493420601,-0.0005584984901361167,-0.013796678744256496
0.03231653943657875,0.004597114864736795,-0.019282693043351173,0.01570115052163601,-0.0005218309233896434,-0.013615003786981106
0.03259451687335968,0.004556392319500446,-0.019779542461037636,0.016129931434988976,-0.0005330791464075446,-0.013599608093500137
0.03347727283835411,0.0044663092121481895,-0.019662346690893173,0.016197673976421356,-0.0005109886405989528,-0.0141746299341321
0.03287976235151291,0.004099367186427116,-0.019353177398443222,0.016125105321407318,-0.0004780727031175047,-0.014143823646008968
0.03287976235151291,0.004099367186427116,-0.019353177398443222,0.016125105321407318,-0.0004780727031175047,-0.014143823646008968
0.03332864120602608,0.004692913964390755,-0.0194956436753273,0.01558762975037098,-0.0004528376448433846,-0.014285534620285034
0.03332864120602608,0.004692913964390755,-0.0194956436753273,0.01558762975037098,-0.0004528376448433846,-0.014285534620285034
0.033051468431949615,0.004285445902496576,-0.01959707960486412,0.016140321269631386,-0.0004525692784227431,-0.01434023305773735
0.03287505730986595,0.004151275381445885,-0.019754333421587944,0.016557445749640465,-0.0004847888194490224,-0.014483108185231686
0.03438590466976166,0.004356697667390108,-0.01983456499874592,0.016324888914823532,-0.0005102822906337678,-0.014353622682392597
0.034992605447769165,0.004116629716008902,-0.02001369372010231,0.01629718206822872,-0.0006110538961365819,-0.014517365954816341
0.03288591653108597,0.004357283469289541,-0.01997140794992447,0.016460955142974854,-0.0007374237175099552,-0.014734351076185703
0.03308375924825668,0.004269700963050127,-0.019631320610642433,0.016411056742072105,-0.0007353455293923616,-0.01477755606174469
0.03448110446333885,0.004438037984073162,-0.019730402156710625,0.01677621901035309,-0.0007039225311018527,-0.014684553258121014
0.03364550694823265,0.0040938351303339005,-0.019927291199564934,0.01654757559299469,-0.0007204013527370989,-0.014666941948235035
0.034943971782922745,0.004139321856200695,-0.019576048478484154,0.0169517882168293,-0.0006600196356885135,-0.014630267396569252
0.03501152619719505,0.0039427997544407845,-0.01990579441189766,0.01659211702644825,-0.000685816106852144,-0.015154444612562656
0.034695107489824295,0.0037872677203267813,-0.02034309320151806,0.01627252995967865,-0.0006809196202084422,-0.015139552764594555
0.03298453614115715,0.004381374455988407,-0.019990036264061928,0.016467485576868057,-0.0006530017708428204,-0.015529923141002655
0.03389525040984154,0.00470038503408432,-0.019804179668426514,0.016516687348484993,-0.0005856626085005701,-0.015100188553333282
0.0349644236266613,0.004402786958962679,-0.019999735057353973,0.01724550500512123,-0.0005709183169528842,-0.014867591671645641
0.034578707069158554,0.004108155146241188,-0.019981447607278824,0.016781628131866455,-0.0005585797480307519,-0.014731158502399921
0.034615498036146164,0.003910677041858435,-0.019632399082183838,0.016868460923433304,-0.0005153627716936171,-0.015127722173929214
0.034198395907878876,0.004320536740124226,-0.020297560840845108,0.016495555639266968,-0.0005265070358291268,-0.014779028482735157
0.03455173224210739,0.0041330852545797825,-0.021040234714746475,0.016393644735217094,-0.0005050977342762053,-0.01496876124292612
0.034651897847652435,0.003969499841332436,-0.019876878708600998,0.01697547920048237,-0.0004766054917126894,-0.014943798072636127
0.034761108458042145,0.004051429219543934,-0.020073089748620987,0.016929656267166138,-0.0005133535014465451,-0.015335914678871632
0.03486365079879761,0.004084520973265171,-0.020477712154388428,0.017544927075505257,-0.000541768386028707,-0.015240428037941456
0.03499772399663925,0.003989274147897959,-0.020622925832867622,0.01751789078116417,-0.0005609818617813289,-0.015247968956828117
0.035039860755205154,0.004381363280117512,-0.020817644894123077,0.017371397465467453,-0.000730541069060564,-0.015366965904831886
0.03560533747076988,0.004094905219972134,-0.020978741347789764,0.017027441412210464,-0.0008979389094747603,-0.0153605155646801
0.03556472808122635,0.004365729168057442,-0.020358538255095482,0.01602679118514061,-0.000809533812571317,-0.015283044427633286
0.03535662218928337,0.00410846434533596,-0.01957818493247032,0.016953203827142715,-0.0008153492235578597,-0.015410802327096462
0.03519893437623978,0.004406879656016827,-0.02026398666203022,0.017076214775443077,-0.00077815045369789,-0.01576908491551876
0.03519893437623978,0.004406879656016827,-0.02026398666203022,0.017076214775443077,-0.00077815045369789,-0.01576908491551876
0.0366358608007431,0.00397937186062336,-0.020545100793242455,0.017653176560997963,-0.0006216735928319395,-0.016230329871177673
0.0366358608007431,0.00397937186062336,-0.020545100793242455,0.017653176560997963,-0.0006216735928319395,-0.016230329871177673
0.035837963223457336,0.004274287261068821,-0.020689576864242554,0.018543917685747147,-0.0005479807732626796,-0.015900980681180954
0.03626985475420952,0.00437986571341753,-0.021345945075154305,0.018744653090834618,-0.0005724746733903885,-0.015524719841778278
0.03662369027733803,0.004163689445704222,-0.0211249478161335,0.01889875903725624,-0.0005922804120928049,-0.015110728330910206
0.03670163452625275,0.004038102924823761,-0.020645378157496452,0.01886930875480175,-0.0006189655978232622,-0.01526501402258873
0.03681948035955429,0.004090629983693361,-0.021805331110954285,0.01836055889725685,-0.000700869713909924,-0.01565581187605858
0.036881547421216965,0.004088396672159433,-0.021054666489362717,0.017857631668448448,-0.0007539610378444195,-0.01587214507162571
0.0366942435503006,0.003960414789617062,-0.02024121768772602,0.01792115531861782,-0.000759260612539947,-0.016109460964798927
0.03663588687777519,0.0043809181079268456,-0.02085149474442005,0.017405031248927116,-0.0007741681183688343,-0.016252031549811363
0.03670911118388176,0.004182619508355856,-0.02158122882246971,0.017814574763178825,-0.0008635596022941172,-0.01597009412944317
0.03792860358953476,0.003926689270883799,-0.020775089040398598,0.01820526272058487,-0.000843401241581887,-0.016158612444996834
0.03769007325172424,0.0038944894913583994,-0.02109883539378643,0.01812528446316719,-0.0008504086872562766,-0.016439877450466156
0.03610679507255554,0.003926151432096958,-0.021349245682358742,0.018332110717892647,-0.0008014837512746453,-0.017119787633419037
0.036837849766016006,0.004007493145763874,-0.021404573693871498,0.018163319677114487,-0.0007576972129754722,-0.016879750415682793
0.03707430511713028,0.0036124351900070906,-0.020933622494339943,0.0178550872951746,-0.0007627757149748504,-0.01614909991621971
0.03771652653813362,0.004074307158589363,-0.02068915404379368,0.01833912916481495,-0.0007000567275099456,-0.01593315601348877
0.038998086005449295,0.004164444748312235,-0.021610094234347343,0.017980515956878662,-0.0006366363959386945,-0.015891995280981064
0.03801542520523071,0.004055382683873177,-0.02181398682296276,0.01816476881504059,-0.0006422246806323528,-0.01636553928256035
0.03616132587194443,0.003952909726649523,-0.02059987187385559,0.01816682331264019,-0.0006441876757889986,-0.016307469457387924
0.03765520080924034,0.003930757287889719,-0.021376952528953552,0.017757978290319443,-0.0006248122663237154,-0.016474269330501556
0.03832811117172241,0.003954221028834581,-0.02181001380085945,0.018248016014695168,-0.0006467959610745311,-0.016538118943572044
0.03767386078834534,0.003487115725874901,-0.0210883729159832,0.018306007608771324,-0.000697369163390249,-0.015856243669986725
0.0378129705786705,0.003548696171492338,-0.020755751058459282,0.018390322104096413,-0.0006863809539936483,-0.016282368451356888
0.038149118423461914,0.00370663870126009,-0.021764010190963745,0.018487997353076935,-0.0007120553636923432,-0.016350263729691505
0.03766981512308121,0.0037610442377626896,-0.02145165205001831,0.018191510811448097,-0.0007847779197618365,-0.016949111595749855
0.038130518049001694,0.003694812534376979,-0.02092975191771984,0.018561432138085365,-0.0007559460354968905,-0.016649944707751274
0.038130518049001694,0.003694812534376979,-0.02092975191771984,0.018561432138085365,-0.0007559460354968905,-0.016649944707751274
0.03786391392350197,0.003632934298366308,-0.020718250423669815,0.01874462701380253,-0.000851681747008115,-0.01645313948392868
0.03792012482881546,0.0037502918858081102,-0.02122463658452034,0.018348127603530884,-0.000834672711789608,-0.01663840003311634
0.03777805715799332,0.0033407837618142366,-0.021673642098903656,0.01816600002348423,-0.0007511176518164575,-0.016945337876677513
0.03807543218135834,0.0034897425211966038,-0.02122952602803707,0.017944898456335068,-0.0007631199550814927,-0.017084993422031403
0.03850743919610977,0.004180331248790026,-0.021555418148636818,0.01874421164393425,-0.0007091762381605804,-0.01734437420964241
0.037347350269556046,0.004057619720697403,-0.021432887762784958,0.018580837175250053,-0.0006615782040171325,-0.017429227009415627
0.0382026769220829,0.003861489240080118,-0.020759856328368187,0.018599437549710274,-0.0006872185622341931,-0.01727878861129284
0.03774608299136162,0.003425267292186618,-0.02106500416994095,0.018769722431898117,-0.0007041995413601398,-0.01764245331287384
0.03890253230929375,0.0034020477905869484,-0.021562082692980766,0.018440837040543556,-0.0006888502975925803,-0.017697438597679138
0.039278578013181686,0.004209357313811779,-0.021399950608611107,0.018353348597884178,-0.0006658579222857952,-0.017455607652664185
0.037099506705999374,0.004192398861050606,-0.021031908690929413,0.018785733729600906,-0.0007225918816402555,-0.017219876870512962
0.03715432062745094,0.003910425119102001,-0.021154139190912247,0.018840504810214043,-0.0007702355505898595,-0.017321687191724777
0.038996972143650055,0.0037882192991673946,-0.021664096042513847,0.01871500350534916,-0.0007883046055212617,-0.017383811995387077
0.03862898796796799,0.004361811093986034,-0.021561579778790474,0.01846330426633358,-0.0008010791498236358,-0.017280863597989082
0.038681525737047195,0.0041702622547745705,-0.020862285047769547,0.01838284358382225,-0.0008595712133683264,-0.017456699162721634
0.038573965430259705,0.003928406164050102,-0.021387988701462746,0.01898573897778988,-0.0009432384977117181,-0.017856035381555557
0.0386488139629364,0.0038704429753124714,-0.021918073296546936,0.019962115213274956,-0.0008400882361456752,-0.017634818330407143
0.039181362837553024,0.0039380392991006374,-0.022593393921852112,0.019176697358489037,-0.0008416114142164588,-0.01747557893395424
0.03941000625491142,0.003956376109272242,-0.02184528112411499,0.019137609750032425,-0.0008268844685517251,-0.017447151243686676
0.03867300599813461,0.0038659481797367334,-0.02185206674039364,0.018955424427986145,-0.0008024570415727794,-0.017713496461510658
0.039405420422554016,0.00379946012981236,-0.021822433918714523,0.01863853447139263,-0.0007202192791737616,-0.017406979575753212
0.03929318115115166,0.004295898135751486,-0.021529875695705414,0.019471731036901474,-0.0007384915370494127,-0.017524832859635353
0.039824631065130234,0.004126682877540588,-0.021709183230996132,0.01995396427810192,-0.0007502150256186724,-0.018275950103998184
0.03970920294523239,0.003472349140793085,-0.02310703694820404,0.019286829978227615,-0.000753300148062408,-0.018337389454245567
0.04006261005997658,0.003885536454617977,-0.022794123739004135,0.018923979252576828,-0.0007815964636392891,-0.018016375601291656
0.040651679039001465,0.004193988163024187,-0.022546961903572083,0.019993923604488373,-0.0008421240490861237,-0.017794201150536537
0.040170665830373764,0.00431817164644599,-0.022614629939198494,0.020319173112511635,-0.0008214490371756256,-0.018057027831673622
0.04040871560573578,0.0040235742926597595,-0.022866878658533096,0.020666731521487236,-0.0007760424632579088,-0.01811155490577221
0.04085692763328552,0.0038139764219522476,-0.022550107911229134,0.0202395748347044,-0.0007860042387619615,-0.018183013424277306
0.040990106761455536,0.0037448995281010866,-0.022730378434062004,0.019233450293540955,-0.0008262060000561178,-0.01811155676841736
