davideferrari95/blind_handover_controller/data/Test 47 - [2024-02-07 -- 15-09-24]/joint_states_data.csv
shoulder_pan_joint,shoulder_lift_joint,elbow_joint,wrist_1_joint,wrist_2_joint,wrist_3_joint
0.009169443510472775,-0.0017921027028933167,-0.011599156074225903,0.014415329322218895,7.350314490395249e-08,0.008628729730844498
0.009477606043219566,-0.002143597463145852,-0.011590362526476383,0.014467869885265827,4.799230346463901e-09,0.007350153289735317
0.009477606043219566,-0.002143597463145852,-0.011590362526476383,0.014467869885265827,4.799230346463901e-09,0.007350153289735317
0.009533744305372238,-0.0024957084096968174,-0.01183117926120758,0.013903219252824783,3.13355424941264e-10,0.007144631817936897
0.009353182278573513,-0.0024035475216805935,-0.011454508639872074,0.014006177894771099,2.0459871644118444e-11,0.007628948427736759
0.009419940412044525,-0.0022486611269414425,-0.01146878581494093,0.014431384392082691,8.722363787185342e-14,0.008007473312318325
0.00902819074690342,-0.0023364778608083725,-0.010897664353251457,0.014385438524186611,5.695080654489386e-15,0.008234269917011261
0.00902819074690342,-0.0023364778608083725,-0.010897664353251457,0.014385438524186611,5.695080654489386e-15,0.008234269917011261
0.009249558672308922,-0.00227070483379066,-0.01168119441717863,0.013349129818379879,2.427902318221347e-17,0.007787639740854502
0.008824239484965801,-0.002763241296634078,-0.011502256616950035,0.013661371544003487,1.5852467694096465e-18,0.007783006876707077
0.008824239484965801,-0.002763241296634078,-0.011502256616950035,0.013661371544003487,1.5852467694096465e-18,0.007783006876707077
0.009073345921933651,-0.0028891561087220907,-0.011852961964905262,0.013449047692120075,1.0350528453217081e-19,0.008061074651777744
0.00981675274670124,-0.0027856072410941124,-0.011128086596727371,0.013186969794332981,6.758155269644167e-21,0.008277235552668571
0.009257657453417778,-0.0025425765197724104,-0.011936349794268608,0.013569310307502747,4.412592554283425e-22,0.008336531929671764
0.008622470311820507,-0.002618551254272461,-0.01163711678236723,0.013532262295484543,2.8811074592182156e-23,0.007889557629823685
0.00898903887718916,-0.003143375739455223,-0.011361201293766499,0.013785853050649166,1.881157354850512e-24,0.007655548397451639
0.009791484102606773,-0.0031632608734071255,-0.011782350949943066,0.013680602423846722,1.2282612365502566e-25,0.007901623845100403
0.008598072454333305,-0.003465360263362527,-0.011353282257914543,0.014388391748070717,8.01966858492567e-27,0.008084574714303017
0.009270230308175087,-0.003049453254789114,-0.011953809298574924,0.014077925123274326,5.236270332908515e-28,0.00828679371625185
0.008841020055115223,-0.0030787738505750895,-0.011613825336098671,0.01443998608738184,3.4189099344965597e-29,0.00847558118402958
0.008613158948719501,-0.003453980665653944,-0.01137056015431881,0.013996410183608532,2.232303833059e-30,0.007686688099056482
0.009207053110003471,-0.003286571241915226,-0.011480697430670261,0.014577290043234825,1.457534942194742e-31,0.0073214322328567505
0.009168500080704689,-0.003241341793909669,-0.011002584360539913,0.013887174427509308,-1.7012611351674423e-05,0.007768822368234396
0.008431905880570412,-0.003301414893940091,-0.011307483538985252,0.014348327182233334,-3.6803598050028086e-05,0.007644034922122955
0.00868076179176569,-0.0029930127784609795,-0.011522766202688217,0.013765914365649223,-3.664296673377976e-05,0.007448094896972179
0.009368404746055603,-0.003038002410903573,-0.010890668258070946,0.013996990397572517,-3.52932584064547e-05,0.007417547982186079
0.00884388480335474,-0.003336501307785511,-0.011571663431823254,0.013748613186180592,-3.396675310796127e-05,0.008036022074520588
0.008409488014876842,-0.003277002600952983,-0.010819042101502419,0.014214017428457737,-3.273158654337749e-05,0.008199834264814854
0.009146885946393013,-0.003569746855646372,-0.01083260029554367,0.013866927474737167,-3.158285835525021e-05,0.00816303864121437
0.00868128053843975,-0.003521922742947936,-0.011079924181103706,0.01442811544984579,-3.051202293136157e-05,0.007947815582156181
0.008248427882790565,-0.003471540054306388,-0.010710733011364937,0.013826245442032814,-2.9511395041481592e-05,0.007868297398090363
0.008389221504330635,-0.00364431319758296,-0.011401860974729061,0.014332854188978672,-2.857430445146747e-05,0.007697845343500376
0.008471651002764702,-0.003308034734800458,-0.011332815513014793,0.014276333153247833,-2.6868052373174578e-05,0.007597822230309248
0.008471651002764702,-0.003308034734800458,-0.011332815513014793,0.014276333153247833,-2.6868052373174578e-05,0.007597822230309248
0.008212144486606121,-0.0034039306920021772,-0.011330093257129192,0.014066044241189957,-2.6089130187756382e-05,0.008116851560771465
0.008378969505429268,-0.0034883529879152775,-0.011105269193649292,0.014219782315194607,-2.5354103854624555e-05,0.008305933326482773
0.008665187284350395,-0.003446596907451749,-0.011342482641339302,0.013700176030397415,-2.465936995577067e-05,0.008455950766801834
0.007950793020427227,-0.0032013237942010164,-0.010906083509325981,0.014100848697125912,-2.4001703422982246e-05,0.007847625762224197
0.00896206870675087,-0.0034689551685005426,-0.010934442281723022,0.013761380687355995,-2.337820660613943e-05,0.007991419173777103
0.008490032516419888,-0.0036758938804268837,-0.011807677336037159,0.01407160609960556,-2.278627835039515e-05,0.008022457361221313
0.008670271374285221,-0.0042750840075314045,-0.011044731363654137,0.013580216094851494,-2.222357943537645e-05,0.007608356885612011
0.008879056200385094,-0.0038466881960630417,-0.011187724769115448,0.013601869344711304,-2.1688021661248058e-05,0.007592877373099327
0.008539139293134212,-0.0035368038807064295,-0.011057381518185139,0.013979191891849041,-2.117764415743295e-05,0.008253516629338264
0.008671991527080536,-0.0031622496899217367,-0.010680201463401318,0.013932726345956326,-2.069075526378583e-05,0.008402913808822632
0.008427138440310955,-0.0034690520260483027,-0.01124887727200985,0.013849398121237755,-2.0225757907610387e-05,0.007968920283019543
0.008361736312508583,-0.0037193074822425842,-0.011159198358654976,0.013891112990677357,-1.9781204173341393e-05,0.008123328909277916
0.008231091313064098,-0.004216788336634636,-0.010994244366884232,0.013558530248701572,-1.935574437084142e-05,0.008322931826114655
0.008167058229446411,-0.004235999193042517,-0.011153345927596092,0.013108265586197376,-1.894823981274385e-05,0.00839044339954853
0.008322253823280334,-0.004097091965377331,-0.01071842946112156,0.013914898037910461,-1.855752634583041e-05,0.008559095673263073
0.008318040519952774,-0.0035229867789894342,-0.011434956453740597,0.013661970384418964,-1.8182599887950346e-05,0.007962618954479694
0.008164819329977036,-0.003579195123165846,-0.01155452337116003,0.01382517907768488,-1.782251456461381e-05,0.00790332444012165
0.008112764917314053,-0.004101013299077749,-0.0116044906899333,0.01322429720312357,-1.7476431821705773e-05,0.007842185907065868
0.008503391407430172,-0.004236580338329077,-0.011494068428874016,0.013437249697744846,-1.7143516743090004e-05,0.007844255305826664
0.008272061124444008,-0.0039862971752882,-0.01082438975572586,0.013144566677510738,-1.6823069017846137e-05,0.00886114314198494
0.008047683164477348,-0.003926225006580353,-0.01131604053080082,0.014048178680241108,-1.6514359231223352e-05,0.008326269686222076
0.007815097458660603,-0.0038381300400942564,-0.011437375098466873,0.013588239438831806,-1.6216790754697286e-05,0.008055036887526512
0.008295271545648575,-0.004295263439416885,-0.010973187163472176,0.013788372278213501,-1.5929757864796557e-05,0.008198071271181107
0.008026056922972202,-0.0038963148836046457,-0.011670785024762154,0.01366383396089077,-1.5385130609502085e-05,0.00812598131597042
0.009251384064555168,-0.003761927131563425,-0.011521660722792149,0.013590874150395393,-1.5126548532862216e-05,0.00803768914192915
0.008052884601056576,-0.003715667175129056,-0.011408166959881783,0.014195878058671951,-1.4876506611471996e-05,0.00858941487967968
0.008149711415171623,-0.003848304273560643,-0.011211580596864223,0.01385242398828268,-1.4634607396146748e-05,0.008541934192180634
0.008149711415171623,-0.003848304273560643,-0.011211580596864223,0.01385242398828268,-1.4634607396146748e-05,0.008541934192180634
0.008469494059681892,-0.004013658035546541,-0.011851009912788868,0.013954021036624908,-1.4400449799722992e-05,0.008456251583993435
0.008907322771847248,-0.003927664365619421,-0.011641066521406174,0.014028282836079597,-1.4173652743920684e-05,0.008176758885383606
0.008753377012908459,-0.0037274120841175318,-0.012277478352189064,0.014249206520617008,-1.3953899724583607e-05,0.008630570955574512
0.008392484858632088,-0.0035839304327964783,-0.011895284056663513,0.014192196540534496,-1.3740853319177404e-05,0.009109845384955406
0.0078224902972579,-0.0034869785886257887,-0.011477972380816936,0.013570603914558887,-1.3534227036871016e-05,0.008526706136763096
0.008180351927876472,-0.0033908572513610125,-0.012041647918522358,0.013518529012799263,-1.3333713468455244e-05,0.008650864474475384
0.007932296954095364,-0.0031760812271386385,-0.011913576163351536,0.013239903375506401,-1.313905249844538e-05,0.00838220864534378
0.007460449822247028,-0.0035514994524419308,-0.011701477691531181,0.013919356279075146,-1.2949992196809035e-05,0.008254327811300755
0.008917641825973988,-0.0038569457828998566,-0.011920479126274586,0.013533791527152061,-1.2766307008860167e-05,0.00828693900257349
0.008071294985711575,-0.0038671912625432014,-0.01145448163151741,0.013645960949361324,-1.2587755918502808e-05,0.008106713183224201
0.007937666028738022,-0.004233792424201965,-0.0117813004180789,0.01323416642844677,-1.2414121556503233e-05,0.008158789947628975
0.007682351861149073,-0.003604109399020672,-0.0115295285359025,0.013493300415575504,-1.2245222023921087e-05,0.007963702082633972
0.008684491738677025,-0.003590286709368229,-0.012014592997729778,0.01318813394755125,-1.2080844498996157e-05,0.00816329661756754
0.008638237603008747,-0.0037566754035651684,-0.01161070354282856,0.014019401744008064,-1.192083436762914e-05,0.008267165161669254
0.007721315138041973,-0.0033896665554493666,-0.011650045402348042,0.013656462542712688,-1.1765006092900876e-05,0.009151856414973736
0.008062319830060005,-0.003524309955537319,-0.012374537996947765,0.01407240517437458,-1.1613191418291535e-05,0.008973978459835052
0.008291561156511307,-0.0038218225818127394,-0.011814186349511147,0.01376980822533369,-1.1465249372122344e-05,0.008100397884845734
0.008411257527768612,-0.0034161130897700787,-0.012624690309166908,0.014009152539074421,-1.132103079726221e-05,0.008309640921652317
0.008507122285664082,-0.003513157367706299,-0.011583691462874413,0.013443583622574806,-1.1180396541021764e-05,0.008853524923324585
0.008275224827229977,-0.003634427208453417,-0.011424127034842968,0.014166154898703098,-1.104321017919574e-05,0.008881857618689537
0.008571155369281769,-0.004174496978521347,-0.01159595511853695,0.013601645827293396,-1.0909349839494098e-05,0.008665526285767555
0.008427499793469906,-0.004146553575992584,-0.011071823537349701,0.013302602805197239,-1.0778696378110908e-05,0.00872769858688116
0.008439029566943645,-0.003413817612454295,-0.012723246589303017,0.013909762725234032,-1.0651138836692553e-05,0.008407617919147015
0.008616730570793152,-0.003120968583971262,-0.011709731072187424,0.012884672731161118,-1.0526566256885417e-05,0.008542039431631565
0.008504045195877552,-0.0035296345595270395,-0.011884886771440506,0.014694133773446083,-1.0285952157573774e-05,0.00852722954005003
0.008364818058907986,-0.003817627439275384,-0.011434745974838734,0.014586507342755795,-1.0169723282160703e-05,0.008647290989756584
0.008364818058907986,-0.003817627439275384,-0.011434745974838734,0.014586507342755795,-1.0169723282160703e-05,0.008647290989756584
0.00855922233313322,-0.0038206884637475014,-0.011922872625291348,0.013863308355212212,-1.0056096471089404e-05,0.008436823263764381
0.008148090913891792,-0.003336953930556774,-0.01158227026462555,0.01411201898008585,-9.944973498932086e-06,0.008724014274775982
0.008201662451028824,-0.0030366273131221533,-0.010328784584999084,0.013982994481921196,-6.493357886938611e-07,0.008501450531184673
0.00829109363257885,-0.003030847990885377,-0.012346016243100166,0.014143534004688263,-4.239698725427843e-08,0.008546832017600536
0.008784028701484203,-0.003225133288651705,-0.011708949692547321,0.01336799655109644,-2.7682205416823535e-09,0.008893397636711597
0.008592282421886921,-0.0031365682370960712,-0.01189487986266613,0.013817825354635715,-1.807450300539415e-10,0.008846106007695198
0.008282211609184742,-0.0029250034131109715,-0.011622745543718338,0.013528276234865189,-1.1801358501539738e-11,0.00881546176970005
0.008504376746714115,-0.002785405842587352,-0.011699279770255089,0.014032319188117981,-7.705444355493585e-13,0.008613796904683113
0.008312775753438473,-0.002939939498901367,-0.012175804004073143,0.013360805809497833,-5.031104317334244e-14,0.008451842702925205
0.008352192118763924,-0.0029614989180117846,-0.011524143628776073,0.013699105009436607,-3.284951529338603e-15,0.008883245289325714
0.008532886393368244,-0.0031994262244552374,-0.011673509143292904,0.013325788080692291,-2.1448386972383122e-16,0.00851357076317072
0.009072141721844673,-0.003123324131593108,-0.011250903829932213,0.014055035077035427,-1.4004263723473815e-17,0.008142066188156605
0.008796469308435917,-0.0030832954216748476,-0.011059563606977463,0.01339513249695301,-9.14378373813188e-19,0.008585281670093536
0.009271159768104553,-0.0030586866196244955,-0.011881708167493343,0.01369872223585844,-5.970237463412565e-20,0.00884117092937231
0.008887084200978279,-0.003152247052639723,-0.011315232142806053,0.013654639944434166,-3.89813831596051e-21,0.008654835633933544
0.00858173705637455,-0.0030608254019171,-0.011757425963878632,0.013412241823971272,-2.54520581571855e-22,0.008796182461082935
0.009196622297167778,-0.003008487168699503,-0.011293940246105194,0.013842795975506306,-1.661837575449197e-23,0.008632929064333439
0.009147883392870426,-0.002899558749049902,-0.011205916292965412,0.014250950887799263,-1.0850612146220395e-24,0.008388074114918709
0.008495760150253773,-0.003070974024012685,-0.011269168928265572,0.014207510277628899,-7.084674124425981e-26,0.008201670832931995
0.008699414320290089,-0.003212724346667528,-0.011194711551070213,0.014278008602559566,-4.6257855924627494e-27,0.008645553141832352
0.009495851583778858,-0.0035188726615160704,-0.011675763875246048,0.013949797488749027,-3.020307616699957e-28,0.008606242015957832
0.008941540494561195,-0.003361818613484502,-0.011607373133301735,0.013758713379502296,-1.972045133199373e-29,0.008508955128490925
0.008982568979263306,-0.0033444450236856937,-0.011675390414893627,0.013441042974591255,-8.407137360322526e-32,0.0087867621332407
0.009185930714011192,-0.003211884293705225,-0.011075032874941826,0.013663268648087978,-5.4892603366485615e-33,0.00903600174933672
0.00906165037304163,-0.0031233460176736116,-0.011317168362438679,0.013333712704479694,-3.584094673449136e-34,0.008693968877196312
0.009290309622883797,-0.0031548638362437487,-0.011441333219408989,0.013691108673810959,-2.3401577093234792e-35,0.008953782729804516
0.009396576322615147,-0.0030793286859989166,-0.011178871616721153,0.01306150946766138,-1.5279559358511994e-36,0.008928272873163223
0.008586801588535309,-0.003462431486696005,-0.011989117600023746,0.013264725916087627,-9.976460338852676e-38,0.008440577425062656
0.008586801588535309,-0.003462431486696005,-0.011989117600023746,0.013264725916087627,-9.976460338852676e-38,0.008440577425062656
0.009245118126273155,-0.0032897931523621082,-0.01146763190627098,0.012735149823129177,-6.513916293235412e-39,0.008815965615212917
0.008816012181341648,-0.00306801893748343,-0.011562616564333439,0.013228765688836575,-4.253123008026182e-40,0.008766877464950085
0.00867461133748293,-0.0030100708827376366,-0.01169105339795351,0.013399742543697357,-2.77695316675249e-41,0.008359665051102638
0.009280488826334476,-0.002529350807890296,-0.010887843556702137,0.013815922662615776,-1.8132802128363133e-42,0.008220464922487736
0.008766491897404194,-0.00229332665912807,-0.011379052884876728,0.013493828475475311,-1.1770907100328463e-43,0.009076441638171673
0.009164998307824135,-0.001885164761915803,-0.011926927603781223,0.013183599337935448,-8.407790785948902e-45,0.008423924446105957
0.008714648894965649,-0.0018571155378594995,-0.01168775837868452,0.013082582503557205,-0.0,0.008430393412709236
0.009125917218625546,-0.002159327967092395,-0.011382090859115124,0.013209819793701172,-0.0,0.00852162018418312
0.009257838129997253,-0.002287088893353939,-0.01036060694605112,0.013522948138415813,-0.0,0.00857500173151493
0.008599591441452503,-0.002465338446199894,-0.011013582348823547,0.013394669629633427,-0.0,0.008872541598975658
0.008873640559613705,-0.0023489033337682486,-0.010971210896968842,0.013669004663825035,-0.0,0.008989828638732433
0.008941205218434334,-0.002194985980167985,-0.011382565833628178,0.012853609398007393,-0.0,0.00894851703196764
0.009239411912858486,-0.0020348713733255863,-0.011930642649531364,0.013163384050130844,-0.0,0.00946653913706541
0.008808922953903675,-0.001972106285393238,-0.011228875257074833,0.013219382613897324,-0.0,0.009185755625367165
0.00901102926582098,-0.0019671085756272078,-0.012080268934369087,0.014064677990972996,-0.0,0.009410051628947258
0.008910891599953175,-0.0019346673507243395,-0.011423198506236076,0.013324287720024586,-0.0,0.008754424750804901
0.008856752887368202,-0.001970858545973897,-0.011370428837835789,0.013821951113641262,-0.0,0.00882644671946764
0.00933485385030508,-0.0020060031674802303,-0.01148234587162733,0.013330528512597084,-0.0,0.00893102865666151
0.008805437944829464,-0.002038783859461546,-0.011520528234541416,0.013576114550232887,-0.0,0.008856061846017838
0.009076397866010666,-0.0019801980815827847,-0.011759307235479355,0.013490772806107998,-0.0,0.008973606862127781
0.009281164035201073,-0.0018634069710969925,-0.011685003526508808,0.013815133832395077,-0.0,0.009087109006941319
0.009106548503041267,-0.0018510285299271345,-0.011016754433512688,0.014044607058167458,-0.0,0.009117517620325089
0.008891231380403042,-0.0018990591634064913,-0.011263484135270119,0.0139090521261096,-0.0,0.010168557055294514
0.008891231380403042,-0.0018990591634064913,-0.011263484135270119,0.0139090521261096,-0.0,0.010168557055294514
0.008686300367116928,-0.0020413200836628675,-0.01185336709022522,0.013881801627576351,-0.0,0.008035612292587757
0.008887197822332382,-0.002043452812358737,-0.01190717238932848,0.014004667289555073,-0.0,0.008456374518573284
0.00915991049259901,-0.0019165690755471587,-0.011884884908795357,0.014092082157731056,-0.0,0.009469724260270596
0.009098269045352936,-0.0018751471070572734,-0.011169944889843464,0.013374797999858856,-0.0,0.009525728411972523
0.009098269045352936,-0.0018751471070572734,-0.011169944889843464,0.013374797999858856,-0.0,0.009525728411972523
0.008613179437816143,-0.001866422942839563,-0.01167671661823988,0.01370430551469326,-0.0,0.008910655044019222
0.009455417282879353,-0.0020382667426019907,-0.01171958539634943,0.012865767814218998,-0.0,0.009362170472741127
0.009423973970115185,-0.002062272746115923,-0.011544992215931416,0.012821088545024395,-0.0,0.009415611624717712
0.008544470183551311,-0.002396021969616413,-0.011755001731216908,0.012432004325091839,-0.0,0.009254193864762783
0.009122041054069996,-0.0022910824045538902,-0.011052267625927925,0.013094709254801273,-0.0,0.008853922598063946
0.009752321988344193,-0.0022015876602381468,-0.011432160623371601,0.013474490493535995,-0.0,0.009000379592180252
0.008771182037889957,-0.0022454948630183935,-0.011433044448494911,0.013819800689816475,-0.0,0.009259547106921673
0.009640802629292011,-0.0021420663688331842,-0.010831359773874283,0.014289883896708488,-0.0,0.00963630061596632
0.009052259847521782,-0.002209319965913892,-0.011880171485245228,0.014350049197673798,-0.0,0.009304764680564404
0.008609260432422161,-0.0021141853649169207,-0.011643238365650177,0.012985781766474247,-0.0,0.009509717114269733
0.009039051830768585,-0.002037287224084139,-0.012010100297629833,0.013048667460680008,-0.0,0.00908420979976654
0.00961955077946186,-0.002033533761277795,-0.011888508684933186,0.013784880749881268,-0.0,0.009348125196993351
0.009414087049663067,-0.0021427564788609743,-0.011396806687116623,0.013506707735359669,-0.0,0.008975877426564693
0.009041093289852142,-0.0020967244636267424,-0.012064197100698948,0.01419239491224289,-0.0,0.009404673241078854
0.00935402512550354,-0.0020817643962800503,-0.011796180158853531,0.013450291939079762,-0.0,0.00974096730351448
0.009580467827618122,-0.0022611760068684816,-0.012578586116433144,0.013911490328609943,-0.0,0.00944750290364027
0.009143073111772537,-0.0022573452442884445,-0.012424178421497345,0.013395318761467934,-0.0,0.009140954352915287
0.009184182621538639,-0.0022344649769365788,-0.0117738526314497,0.013898739591240883,-0.0,0.00910454336553812
0.009356868453323841,-0.0021890525240451097,-0.012458381243050098,0.012986589223146439,-0.0,0.008976762183010578
0.009026835672557354,-0.0021960234735161066,-0.01159606035798788,0.013350640423595905,-0.0,0.009125529788434505
0.009271472692489624,-0.0021202564239501953,-0.012527430430054665,0.01316364947706461,-0.0,0.009525823406875134
0.009771683253347874,-0.0026020442601293325,-0.011995667591691017,0.013282612897455692,-0.0,0.009547783993184566
0.009469384327530861,-0.0027267837431281805,-0.011945486068725586,0.013312038034200668,-0.0,0.009231336414813995
0.009486429393291473,-0.0025647294241935015,-0.011376803740859032,0.013551762327551842,-0.0,0.009344198741018772
0.009345369413495064,-0.0025922118220478296,-0.012101897969841957,0.013608423992991447,-0.0,0.009299594908952713
0.009345369413495064,-0.0025922118220478296,-0.012101897969841957,0.013608423992991447,-0.0,0.009299594908952713
0.00984925590455532,-0.002620452782139182,-0.011983916163444519,0.013641704805195332,-0.0,0.009383469820022583
0.009778134524822235,-0.002465107711032033,-0.01244696881622076,0.013012690469622612,-0.0,0.009531600400805473
0.00941489078104496,-0.0025622141547501087,-0.011849476955831051,0.013362258672714233,-0.0,0.009067368693649769
0.010042025707662106,-0.0027151431422680616,-0.01181954424828291,0.013088403269648552,-0.0,0.00979185663163662
0.010288268327713013,-0.0026211983058601618,-0.012335428036749363,0.013532930985093117,-0.0,0.009878617711365223
0.009974135085940361,-0.002940721344202757,-0.01190562266856432,0.013359899632632732,-0.0,0.009696981869637966
0.011001157574355602,-0.0030082599259912968,-0.011784208938479424,0.013700095936655998,-0.0,0.009974142536520958
0.010298879817128181,-0.0029128824826329947,-0.011595087125897408,0.013167040422558784,-0.0,0.009969985112547874
0.009933720342814922,-0.002667804481461644,-0.011933849193155766,0.013022706843912601,-0.0,0.009883656166493893
0.010559365153312683,-0.0025659806560724974,-0.012161356396973133,0.013100368902087212,-0.0,0.009643652476370335
0.010227172635495663,-0.0029666663613170385,-0.011980513110756874,0.013370516709983349,-0.0,0.009647519327700138
0.01123811025172472,-0.0030600305180996656,-0.012938359752297401,0.013311546295881271,-0.0,0.009292811155319214
0.010252078995108604,-0.002791742794215679,-0.01176862046122551,0.013213028199970722,-0.0,0.009920419193804264
0.009648256935179234,-0.0027728534769266844,-0.012098935432732105,0.013437544927001,-0.0,0.009774756617844105
0.010036715306341648,-0.0026839356869459152,-0.011918713338673115,0.013469082303345203,-0.0,0.009440445341169834
0.010651694610714912,-0.0025100253988057375,-0.01175635401159525,0.013739418238401413,-0.0,0.009190691635012627
0.010468617081642151,-0.0025657902006059885,-0.01219532173126936,0.013055357150733471,-0.0,0.00935107097029686
0.011133459396660328,-0.002598006511107087,-0.011930739507079124,0.013377991504967213,-0.0,0.009379657916724682
0.011507595889270306,-0.0025144813116639853,-0.012181718833744526,0.013048799708485603,-0.0,0.008916373364627361
0.010393486358225346,-0.0025211211759597063,-0.011678805574774742,0.01350063644349575,-0.0,0.009415220469236374
0.010771905072033405,-0.002477995352819562,-0.011576004326343536,0.013330834917724133,-0.0,0.009680566377937794
0.010636307299137115,-0.002393994014710188,-0.011848635971546173,0.013652333058416843,-0.0,0.009719064459204674
0.01050048042088747,-0.002765486715361476,-0.011386235244572163,0.013327443040907383,-0.0,0.01031077466905117
0.010600444860756397,-0.0026299236342310905,-0.012247147038578987,0.013076168484985828,-0.0,0.009766112081706524
0.010371808893978596,-0.0026433183811604977,-0.012069914489984512,0.0135405994951725,-0.0,0.01003125961869955
0.010801293887197971,-0.002693382790312171,-0.011928310617804527,0.013752416707575321,-0.0,0.00913018174469471
0.010333829559385777,-0.0024965449701994658,-0.011419723741710186,0.013551348820328712,-0.0,0.009367969818413258
0.010333829559385777,-0.0024965449701994658,-0.011419723741710186,0.013551348820328712,-0.0,0.009367969818413258
0.010710622183978558,-0.0026516802608966827,-0.012660668231546879,0.013416962698101997,-0.0,0.009442324750125408
0.011186632327735424,-0.0027146541979163885,-0.011422938667237759,0.012741884216666222,-0.0,0.009587571024894714
0.010193373076617718,-0.002776924055069685,-0.011894652619957924,0.012830838561058044,-0.0,0.009331999346613884
0.010226069949567318,-0.0026003001257777214,-0.011909284628927708,0.013005552813410759,-0.0,0.009508088231086731
0.010729948990046978,-0.002766623394563794,-0.011428780853748322,0.01364324800670147,-0.0,0.009304890409111977
0.010469771921634674,-0.0026609499473124743,-0.011931409128010273,0.013121562078595161,-0.0,0.009403347037732601
0.010657110251486301,-0.0026428743731230497,-0.011467586271464825,0.0129618551582098,-0.0,0.009953963570296764
0.010114837437868118,-0.0026702650357037783,-0.011668956838548183,0.012973488308489323,-0.0,0.01056445948779583
0.010883666574954987,-0.002774236723780632,-0.011667750775814056,0.012924060225486755,-0.0,0.010134439915418625
0.011446145363152027,-0.002767110476270318,-0.011847073212265968,0.013215718790888786,-0.0,0.01002118643373251
0.010322663001716137,-0.002575385384261608,-0.011745431460440159,0.013032174669206142,-0.0,0.010367518290877342
0.010338351130485535,-0.00290301232598722,-0.011476169340312481,0.01330029871314764,-0.0,0.010029987432062626
0.010633626952767372,-0.003039779607206583,-0.011793011799454689,0.01367632020264864,-0.0,0.010584786534309387
0.010382943786680698,-0.003072923980653286,-0.012367963790893555,0.013964980840682983,-0.0,0.010201772674918175
0.010491172783076763,-0.002786537166684866,-0.011494998820126057,0.013223305344581604,-0.0,0.010124827735126019
0.010384493507444859,-0.002755511784926057,-0.011494898237287998,0.01342969760298729,-0.0,0.01055191271007061
0.010607981123030186,-0.0028187413699924946,-0.011036288924515247,0.012940655462443829,-0.0,0.010077913291752338
0.01124300342053175,-0.0026456997729837894,-0.01142312865704298,0.013875867240130901,-0.0,0.01043778844177723
0.011370280757546425,-0.002703240606933832,-0.011657250113785267,0.012831809930503368,-0.0,0.011099300347268581
0.010411243885755539,-0.0028045938815921545,-0.011286197230219841,0.012410502880811691,-0.0,0.010606384836137295
0.010641723871231079,-0.002524261362850666,-0.011968286707997322,0.012662410736083984,-0.0,0.010551178827881813
0.010638147592544556,-0.0024007768370211124,-0.011476182378828526,0.013901441358029842,-0.0,0.010161045007407665
0.010638147592544556,-0.0024007768370211124,-0.011476182378828526,0.013901441358029842,-0.0,0.010161045007407665
0.010879798792302608,-0.002270665718242526,-0.011323187500238419,0.014204952865839005,-0.0,0.010324261151254177
0.010222970508038998,-0.0023289744276553392,-0.011039203964173794,0.014144589193165302,-0.0,0.010053453966975212
0.010493285953998566,-0.0024772409815341234,-0.01192265935242176,0.013793482445180416,-0.0,0.009874858893454075
0.010806075297296047,-0.0023383430670946836,-0.011819407343864441,0.013998907059431076,-0.0,0.010309833101928234
0.010598821565508842,-0.0022659164387732744,-0.011572733521461487,0.013894007541239262,-0.0,0.010744000785052776
0.011342807672917843,-0.0022452021948993206,-0.011731486767530441,0.014732997864484787,-0.0,0.010558580048382282
0.010699077509343624,-0.0025654896162450314,-0.011320043355226517,0.01426402386277914,-0.0,0.010666565038263798
0.010517960414290428,-0.002509014680981636,-0.011882840655744076,0.014037888497114182,-0.0,0.010568433441221714
0.010863499715924263,-0.0023330114781856537,-0.011091968975961208,0.01321743056178093,-0.0,0.010739952325820923
0.010433581657707691,-0.0023299783933907747,-0.011082799173891544,0.013718614354729652,-0.0,0.010995045304298401
0.010828990489244461,-0.0022012032568454742,-0.011877959594130516,0.012919249013066292,-0.0,0.010449836030602455
0.011014549992978573,-0.0023366501554846764,-0.011233141645789146,0.013026328757405281,-0.0,0.010455545037984848
0.01104643102735281,-0.0023135377559810877,-0.011707834899425507,0.012837320566177368,-0.0,0.010300010442733765
0.011327249929308891,-0.002185713965445757,-0.011296514421701431,0.013519254513084888,-0.0,0.010417001321911812
0.0103883882984519,-0.0023231133818626404,-0.011044139973819256,0.013498947955667973,-0.0,0.010684630833566189
0.010127893649041653,-0.002214160282164812,-0.011890281923115253,0.013898845762014389,-0.0,0.010085583664476871
0.010344462469220161,-0.00234351959079504,-0.01172776147723198,0.013757944107055664,-0.0,0.00995974987745285
0.01052792277187109,-0.0022671539336442947,-0.011809304356575012,0.013108562678098679,-0.0,0.010553832165896893
0.010909048840403557,-0.0022169228177517653,-0.011687848716974258,0.012759371660649776,-0.0,0.010182651691138744
0.011259684339165688,-0.002387023763731122,-0.011446366086602211,0.012365425936877728,-0.0,0.009953915141522884
0.011199588887393475,-0.0022633105982095003,-0.01182970218360424,0.0124643100425601,-0.0,0.010257470421493053
0.010512296110391617,-0.002370605943724513,-0.01153490599244833,0.01235775463283062,-0.0,0.009870795533061028
0.010895821265876293,-0.0023777405731379986,-0.01227483805269003,0.01286496501415968,-0.0,0.010063211433589458
0.010931425727903843,-0.002251461846753955,-0.011945802718400955,0.01283028069883585,-0.0,0.011404906399548054
0.011752094142138958,-0.002323305467143655,-0.012113062664866447,0.013384218327701092,-0.0,0.010811910033226013
0.011174620129168034,-0.002497331937775016,-0.012491857632994652,0.013392660766839981,-0.0,0.010130533948540688
0.011002294719219208,-0.002407437888905406,-0.012062760069966316,0.01319860853254795,-0.0,0.009971666149795055
0.011127427220344543,-0.0026671544183045626,-0.011890718713402748,0.013346710242331028,-0.0,0.010704897344112396
0.011127427220344543,-0.0026671544183045626,-0.011890718713402748,0.013346710242331028,-0.0,0.010704897344112396
0.011427211575210094,-0.0024758740328252316,-0.012896205298602581,0.013364116661250591,-1.7974105048779165e-06,0.010717448778450489
0.01243935339152813,-0.0022079269401729107,-0.012123712338507175,0.013064732775092125,-1.1735806282331396e-07,0.010734607465565205
0.011874129064381123,-0.0021889368072152138,-0.011989627964794636,0.013442776165902615,-7.66264296458985e-09,0.011493533849716187
0.011650876142084599,-0.0022528953850269318,-0.012375893071293831,0.012995824217796326,-5.003157887983889e-10,0.011106193996965885
0.011357961222529411,-0.001926759141497314,-0.011997775174677372,0.013593168929219246,-3.266704962090472e-11,0.010473651811480522
0.011974814347922802,-0.0014765893574804068,-0.012412706390023232,0.013009260408580303,-2.1329249130785932e-12,0.010814662091434002
0.01179975550621748,-0.0013308227062225342,-0.012162955477833748,0.013275709934532642,-1.3926475261622634e-13,0.011015561409294605
0.011664594523608685,-0.001400188310071826,-0.012252387590706348,0.013134626671671867,-9.092993556465007e-15,0.010860808193683624
0.011946332640945911,-0.0013645320432260633,-0.01207480113953352,0.01327288057655096,-5.937075214662861e-16,0.010704560205340385
0.011479453183710575,-0.0012704452965408564,-0.012045124545693398,0.013911934569478035,-3.876485326034218e-17,0.010454097762703896
0.011785419657826424,-0.001835256814956665,-0.012328743934631348,0.013579711318016052,-2.5310680360647767e-18,0.01081754919141531
0.011909838765859604,-0.0019506177632138133,-0.011902770958840847,0.013295328244566917,-1.6526068267256187e-19,0.010989847593009472
0.011909838765859604,-0.0019506177632138133,-0.011902770958840847,0.013295328244566917,-1.6526068267256187e-19,0.010989847593009472
0.012136813253164291,-0.0014685794012621045,-0.01193212065845728,0.013270024210214615,-7.045322550545119e-22,0.011271572671830654
0.011746927164494991,-0.0010836153523996472,-0.012569252401590347,0.012927334755659103,-4.6000924852243384e-23,0.011355534195899963
0.01215299777686596,-0.001025210483931005,-0.012105987407267094,0.013372138142585754,-3.0035316902895055e-24,0.012104109860956669
0.011526722460985184,-0.0011020569363608956,-0.01132201123982668,0.013227132149040699,-1.9610916936042323e-25,0.011387065052986145
0.012049471959471703,-0.0012340941466391087,-0.012151256203651428,0.013891329057514668,-1.2804526746331071e-26,0.011017917655408382
0.01230892539024353,-0.0013210659381002188,-0.012140290811657906,0.013623631559312344,-8.360440703355603e-28,0.011309477500617504
0.011785524897277355,-0.001284540630877018,-0.012363490648567677,0.01416036393493414,-5.458770973083007e-29,0.01127270795404911
0.012045979499816895,-0.001282699522562325,-0.01229432038962841,0.013413271866738796,-3.5641872688683576e-30,0.010834195651113987
0.011780357919633389,-0.0012153363786637783,-0.011756597086787224,0.012756193988025188,-2.327159550362446e-31,0.010605101473629475
0.012277704663574696,-0.0011570501374080777,-0.012174399569630623,0.012953807599842548,-1.5194689771278438e-32,0.010696564801037312
0.01211624313145876,-0.0010086892871186137,-0.012153223156929016,0.014011350460350513,-6.477733811761512e-35,0.011464076116681099
0.01211624313145876,-0.0010086892871186137,-0.012153223156929016,0.014011350460350513,-6.477733811761512e-35,0.011464076116681099
0.012508613988757133,-0.001096351770684123,-0.011739661917090416,0.012954138219356537,-4.229497407387746e-36,0.011578256264328957
0.012179948389530182,-0.0011107681784778833,-0.011591067537665367,0.013003518804907799,-2.761559510758312e-37,0.01140349730849266
0.013046243228018284,-0.0012215010356158018,-0.011826734989881516,0.01295294426381588,-1.8031011807914578e-38,0.011552399955689907
0.012361014261841774,-0.0012869298225268722,-0.011859698221087456,0.013702970929443836,-1.1772967009071021e-39,0.011576050892472267
0.012696328572928905,-0.0012202428188174963,-0.012426230125129223,0.013462738133966923,-7.686962855900217e-41,0.011288907378911972
0.012147675268352032,-0.0010866208467632532,-0.011936839669942856,0.01379452832043171,-5.019451099211495e-42,0.011246870271861553
0.012216256000101566,-0.000967164000030607,-0.012034079059958458,0.01319097075611353,-3.279038406520072e-43,0.011741518042981625
0.01270238682627678,-0.0010564763797447085,-0.011729730293154716,0.013485285453498363,-2.1019476964872256e-44,0.011896971613168716
0.012200845405459404,-0.0010654182406142354,-0.01165660098195076,0.013273517601191998,-1.401298464324817e-45,0.011776963248848915
0.012755628675222397,-0.001076522166840732,-0.012691776268184185,0.013439398258924484,-0.00010030775592895225,0.01206972822546959
0.012605596333742142,-0.0010970485163852572,-0.011736609973013401,0.013161420822143555,-0.00012509991938713938,0.011850278824567795
0.01252379734069109,-0.0012229201383888721,-0.012398001737892628,0.013516874983906746,-0.00012028600758640096,0.01162303052842617
0.01252379734069109,-0.0012229201383888721,-0.012398001737892628,0.013516874983906746,-0.00012028600758640096,0.01162303052842617
0.012934326194226742,-0.0012292416067793965,-0.012244860641658306,0.013195527717471123,-0.00011716168955899775,0.012857615016400814
0.013000809587538242,-0.0011686302023008466,-0.012382996268570423,0.013688127510249615,-0.00011418914800742641,0.01167857926338911
0.01270604133605957,-0.0011262318585067987,-0.011591325514018536,0.013655412010848522,-0.00011136295506730676,0.010854079388082027
0.013055180199444294,-0.0010288371704518795,-0.012252023443579674,0.014264708384871483,-0.00010867345554288477,0.01130606234073639
0.012756512500345707,-0.0010207087034359574,-0.01223847921937704,0.013574169017374516,-0.00012591401173267514,0.011998592875897884
0.01332162506878376,-0.0010015105362981558,-0.012128248810768127,0.013650307431817055,-0.00012430692731868476,0.012065717950463295
0.012811603024601936,-0.0009874484967440367,-0.012111448682844639,0.013415714725852013,-0.0001215921001858078,0.011899372562766075
0.012753411196172237,-0.0010228774044662714,-0.01179853267967701,0.013947397470474243,-0.00011891980830114335,0.011417319998145103
0.01270231418311596,-0.0010058425832539797,-0.012152553535997868,0.013820136897265911,-0.00011635767441475764,0.011688044294714928
0.012658548541367054,-0.0009891093941405416,-0.01178358681499958,0.014270015060901642,-0.00011390329746063799,0.011824360117316246
0.012770379893481731,-0.0009768782183527946,-0.012312600389122963,0.013967225328087807,-0.0001115503691835329,0.011935053393244743
0.013529148884117603,-0.0009523850167170167,-0.011895802803337574,0.013844466768205166,-0.00012482242891564965,0.011726705357432365
0.012715811841189861,-0.0009444042225368321,-0.012159179896116257,0.013853522017598152,-0.00012253709428478032,0.011916269548237324
0.013218721374869347,-0.0009290586458519101,-0.011684400960803032,0.013325151056051254,-0.00012020824215142056,0.012136431410908699
0.013218721374869347,-0.0009290586458519101,-0.011684400960803032,0.013325151056051254,-0.00012020824215142056,0.012136431410908699
0.012714007869362831,-0.0009037204436026514,-0.012448427267372608,0.01364267710596323,-0.00011795816681114957,0.01194601971656084
0.012497145682573318,-0.0009230735013261437,-0.011889480985701084,0.013400399126112461,-0.00011579009878914803,0.011971218511462212
0.01294280868023634,-0.0008893837803043425,-0.012235214933753014,0.01323807705193758,-0.0001137004146585241,0.012007798068225384
0.013123716227710247,-0.0008904407732188702,-0.012130683287978172,0.013159762136638165,-0.00012352608609944582,0.012152671813964844
0.013377591967582703,-0.0008246254874393344,-0.01184952724725008,0.012969895265996456,-0.00012514767877291888,0.011943641118705273
0.013045659288764,-0.0008655645651742816,-0.012233002111315727,0.013871438801288605,-0.00012325144780334085,0.012120555154979229
0.01350092887878418,-0.0008753089350648224,-0.011849054135382175,0.013455810025334358,-0.0001211931012221612,0.01190442405641079
0.013375131413340569,-0.000878711580298841,-0.012712650932371616,0.013360651209950447,-0.00011918777454411611,0.012011582031846046
0.013719812035560608,-0.0008812546730041504,-0.01224795076996088,0.012575832195580006,-0.00011724691285053268,0.01209584716707468
0.01327161118388176,-0.0009194310987368226,-0.01217417512089014,0.01336198765784502,-0.00011536844249349087,0.011712159030139446
0.01382411364465952,-0.0009208464762195945,-0.012728489004075527,0.013458296656608582,-0.00011354889284120873,0.011876520700752735
0.013706495985388756,-0.0009177442407235503,-0.01206271629780531,0.013689770363271236,-0.0001117858846555464,0.011894049122929573
0.013821373693645,-0.0009121666662395,-0.012538588605821133,0.013991132378578186,-0.000110076907731127,0.012373032048344612
0.013421980664134026,-0.0009270305745303631,-0.012363213114440441,0.013824498280882835,-0.00013097518240101635,0.012343388050794601
0.013656377792358398,-0.0009337232331745327,-0.012843561358749866,0.013473139144480228,-0.00013441294140648097,0.012012690305709839
0.013561984524130821,-0.0009180277120321989,-0.012755834497511387,0.013705844059586525,-0.0001309811632381752,0.012091553770005703
0.013761189766228199,-0.0009155921288765967,-0.013165514916181564,0.013772091828286648,-0.00012730644084513187,0.01208485197275877
0.013728335499763489,-0.0009524335619062185,-0.012770595028996468,0.013136074878275394,-0.00012380581756588072,0.012572403997182846
0.014481164515018463,-0.0009838755941018462,-0.012316296808421612,0.013326694257557392,-0.00012049084762111306,0.012355929240584373
0.014403697103261948,-0.0009713201434351504,-0.013098029419779778,0.013504439033567905,-0.00011734839790733531,0.012455222196877003
0.014508794993162155,-0.0009616731549613178,-0.012278838083148003,0.013461398892104626,-0.0001143659683293663,0.012349761091172695
0.01394021138548851,-0.0009644629899412394,-0.012838796712458134,0.013171650469303131,-0.00011153132072649896,0.012310969643294811
0.014056400395929813,-0.0009875133400782943,-0.012389742769300938,0.013766731135547161,-0.00010883377399295568,0.01255664974451065
0.014016743749380112,-0.0009418171248398721,-0.012864429503679276,0.013523630797863007,-0.00012202059588162228,0.012631419114768505
0.014016743749380112,-0.0009418171248398721,-0.012864429503679276,0.013523630797863007,-0.00012202059588162228,0.012631419114768505
0.014133254997432232,-0.0008635352132841945,-0.012744169682264328,0.01373632438480854,-0.00012174186122138053,0.012896079570055008
0.014306504279375076,-0.0009803205030038953,-0.012903721071779728,0.014228621497750282,-0.00011907841690117493,0.013168608769774437
0.014473579823970795,-0.0008748756372369826,-0.013116811402142048,0.014093875885009766,-0.00011651061504380777,0.012309402227401733
0.014627356082201004,-0.0008770094136707485,-0.013178734108805656,0.0136649115011096,-0.000114050017145928,0.012356876395642757
0.014038422144949436,-0.0008797432528808713,-0.012707988731563091,0.01325525064021349,-0.0001278635609196499,0.012692094780504704
0.014472144655883312,-0.0008999311248771846,-0.01373555138707161,0.013807964511215687,-0.0001275060640182346,0.012644737027585506
0.01466354075819254,-0.0009097876609303057,-0.013270038180053234,0.013758307322859764,-0.00012511920067481697,0.013183553703129292
0.014684933237731457,-0.0008979097474366426,-0.013857271522283554,0.014238957315683365,-0.0001379220630042255,0.012897107750177383
0.014965992420911789,-0.0007981249946169555,-0.013572453521192074,0.014023242518305779,-0.00013739145651925355,0.013201041147112846
0.014810222201049328,-0.0008081765845417976,-0.014130163006484509,0.014055115170776844,-0.00013495353050529957,0.013019023463129997
0.014945181086659431,-0.0007911017746664584,-0.01379573903977871,0.01368656288832426,-0.00018205257947556674,0.013022481463849545
0.015451119281351566,-0.0008117026300169528,-0.01389579102396965,0.014024946838617325,-0.00019048531248699874,0.013258025050163269
0.01419917680323124,-0.0008138445555232465,-0.013625464402139187,0.013919021002948284,-0.00018376095977146178,0.013061625882983208
0.014561602845788002,-0.0007999418303370476,-0.013674601912498474,0.013791096396744251,-0.00017661620222497731,0.0134122334420681
0.014862225390970707,-0.0007491522701457143,-0.013749713078141212,0.013783563859760761,-0.00016994941688608378,0.013350451365113258
0.015032527036964893,-0.0008061246480792761,-0.014253904111683369,0.013507596217095852,-0.00016376402345485985,0.01335532870143652
0.014802196063101292,-0.0008210368687286973,-0.013987145386636257,0.013958781957626343,-0.0001580126117914915,0.013053713366389275
0.01552286371588707,-0.0007946257246658206,-0.013796352781355381,0.013931773602962494,-0.00015265218098647892,0.013345137238502502
0.015012373216450214,-0.0007380652241408825,-0.014017658308148384,0.014294832944869995,-0.00014764264051336795,0.013420384377241135
0.01524729747325182,-0.0007514696335420012,-0.01371813751757145,0.014156381599605083,-0.0001677593681961298,0.01317173894494772
0.014670339412987232,-0.0006939584272913635,-0.013875064440071583,0.014072819612920284,-0.00016601344395894557,0.012887494638562202
0.015353377908468246,-0.0006722804391756654,-0.013490207493305206,0.013736901804804802,-0.0001612778432900086,0.013347840867936611
0.01474896539002657,-0.0007011485286056995,-0.014156983233988285,0.014165181666612625,-0.0001694246311672032,0.013517361134290695
0.015260490588843822,-0.0007240055128931999,-0.013607880100607872,0.013792122714221478,-0.00017669951193965971,0.013723855838179588
0.014729376882314682,-0.0007395738502964377,-0.01411955151706934,0.014276115223765373,-0.0001726430346025154,0.013508071191608906
0.015480185858905315,-0.0008660095045343041,-0.01387183926999569,0.01428205706179142,-0.00016372273967135698,0.01326670404523611
0.015450923703610897,-0.0008419965161010623,-0.013135840184986591,0.013976963236927986,-0.0001764720509527251,0.013396629132330418
0.015450923703610897,-0.0008419965161010623,-0.013135840184986591,0.013976963236927986,-0.0001764720509527251,0.013396629132330418
0.015136203728616238,-0.000776823959313333,-0.013995222747325897,0.014078386127948761,-0.00017748175014276057,0.013588359579443932
0.015647409483790398,-0.0007865715306252241,-0.013119128532707691,0.013478548265993595,-0.00017355331510771066,0.013307672925293446
0.01570454053580761,-0.0007147142896428704,-0.013548718765377998,0.013896788470447063,-0.00016949047858361155,0.013635432347655296
0.015801792964339256,-0.0006956041906960309,-0.013272500596940517,0.013590487651526928,-0.00016559376672375947,0.013563665561378002
0.015876328572630882,-0.0007188764284364879,-0.013655586168169975,0.014036779291927814,-0.00018126312352251261,0.01364770159125328
0.01556618232280016,-0.0007074821041896939,-0.013641834259033203,0.013637096621096134,-0.00019209375022910535,0.013539367355406284
0.015822293236851692,-0.0006655945326201618,-0.01380313839763403,0.014084378257393837,-0.00018539279699325562,0.013885115273296833
0.015361802652478218,-0.0006847616168670356,-0.013464124873280525,0.013580926693975925,-0.00019556787447072566,0.013479762710630894
0.016056792810559273,-0.0007411355036310852,-0.013208825141191483,0.013866814784705639,-0.00020443573885131627,0.013705333694815636
0.016022851690649986,-0.0007753071840852499,-0.013810214586555958,0.013222536072134972,-0.00019800302106887102,0.014355664141476154
0.016241053119301796,-0.0007820899481885135,-0.01385402213782072,0.013286701403558254,-0.0001910655846586451,0.013103683479130268
0.01584036462008953,-0.0007722423761151731,-0.013889530673623085,0.013377534225583076,-0.00020730012329295278,0.013247883878648281
0.015634167939424515,-0.0007257998804561794,-0.013002859428524971,0.013549278490245342,-0.00020765900262631476,0.013508835807442665
0.015677211806178093,-0.0007695481763221323,-0.013476883992552757,0.013640773482620716,-0.0002014873462030664,0.014251338317990303
0.015357263386249542,-0.0007061903597787023,-0.013737429864704609,0.01349566224962473,-0.00020895576744806021,0.014786269515752792
0.01603689044713974,-0.0007179970270954072,-0.014369155280292034,0.013903082348406315,-0.0002155324473278597,0.014559613540768623
0.015884222462773323,-0.0006452745874412358,-0.013256784528493881,0.013311942107975483,-0.00021008180920034647,0.015070941299200058
0.01629098504781723,-0.0006711596506647766,-0.013872601091861725,0.013078780844807625,-0.0002694972790777683,0.014964996837079525
0.01553618535399437,-0.000664191204123199,-0.01368449255824089,0.012696601450443268,-0.00031266489531844854,0.015095684677362442
0.016223864629864693,-0.0006329768220894039,-0.014422559179365635,0.01315004751086235,-0.000296136480756104,0.014960262924432755
0.016146071255207062,-0.0006235104519873857,-0.01394557487219572,0.012854382395744324,-0.0003190463175997138,0.014498215168714523
0.016177255660295486,-0.0006500951130874455,-0.014121555723249912,0.01345957163721323,-0.00031334281084127724,0.01427404209971428
0.016101449728012085,-0.0006549710524268448,-0.013450798578560352,0.013392964377999306,-0.00029694379190914333,0.014498257078230381
0.015979420393705368,-0.0006788945174776018,-0.014193316921591759,0.013972034677863121,-0.0002815127663780004,0.014586597681045532
0.015785586088895798,-0.0007902474026195705,-0.013883188366889954,0.013739364221692085,-0.000297025078907609,0.01519293338060379
0.016253506764769554,-0.0008139098063111305,-0.01349385641515255,0.013171174563467503,-0.0002839793742168695,0.014760329388082027
0.016112247481942177,-0.0008252315456047654,-0.013913365080952644,0.014072529040277004,-0.0003053896070923656,0.014190470799803734
0.01637626253068447,-0.0008309323457069695,-0.013807428069412708,0.013043658807873726,-0.0002973896043840796,0.014812341891229153
0.016346484422683716,-0.0007571718888357282,-0.013965240679681301,0.012121669948101044,-0.0003274878254160285,0.014522685669362545
0.016493216156959534,-0.0007698380504734814,-0.013806500472128391,0.01267806626856327,-0.00034255385980941355,0.014627362601459026
0.016722895205020905,-0.0007848711684346199,-0.013960394077003002,0.012954638339579105,-0.000320748018566519,0.01473491732031107
0.016722895205020905,-0.0007848711684346199,-0.013960394077003002,0.012954638339579105,-0.000320748018566519,0.01473491732031107
0.01621771790087223,-0.0006895686383359134,-0.013771763071417809,0.014020310714840889,-0.00035527694853954017,0.015065387822687626
0.01663600094616413,-0.0007118595531210303,-0.013517864979803562,0.014314410276710987,-0.0003367573954164982,0.014921986497938633
0.01640697568655014,-0.0007211429765447974,-0.014034658670425415,0.014918247237801552,-0.00036640840698964894,0.015049025416374207
0.016573693603277206,-0.000664549064822495,-0.013866878114640713,0.014765508472919464,-0.0003493102267384529,0.014695188961923122
0.016519324854016304,-0.0006270077428780496,-0.013880432583391666,0.015278018079698086,-0.00033115319092758,0.01447785459458828
0.01660238578915596,-0.0005599527503363788,-0.01336746383458376,0.01408406626433134,-0.00033655931474640965,0.014607283286750317
0.016478458419442177,-0.0005854754126630723,-0.013940852135419846,0.014028490521013737,-0.00034096132731065154,0.014925739727914333
0.01652081497013569,-0.000537939602509141,-0.013348575681447983,0.01378222368657589,-0.0003268117434345186,0.015013353899121284
0.016529716551303864,-0.000560973712708801,-0.01385774277150631,0.014136465266346931,-0.000377883407054469,0.015271282754838467
0.016240771859884262,-0.0005232907715253532,-0.013490474782884121,0.013871308416128159,-0.00036905426532030106,0.014960919506847858
0.0169864222407341,-0.0005439798114821315,-0.014361667446792126,0.013863806612789631,-0.0003424076712690294,0.015627535060048103
0.016966933384537697,-0.000512830913066864,-0.013502995483577251,0.013743646442890167,-0.0003774490614887327,0.014088612981140614
0.016773203387856483,-0.0004788205260410905,-0.014039820991456509,0.014246491715312004,-0.00035639290581457317,0.014320436865091324
0.017009371891617775,-0.0004813597770407796,-0.01321358047425747,0.013993589207530022,-0.00033455522498115897,0.014513248577713966
0.01682431437075138,-0.00043941938201896846,-0.01385229267179966,0.014188483357429504,-0.0003639087954070419,0.015224738046526909
0.017587022855877876,-0.00047073932364583015,-0.014030162245035172,0.01393458154052496,-0.00034704594872891903,0.015644481405615807
0.016805389896035194,-0.0004410525434650481,-0.014493540860712528,0.01389547623693943,-0.0003698149521369487,0.015646249055862427
0.0168266911059618,-0.00040784827433526516,-0.01368437148630619,0.014043687842786312,-0.00035705717164091766,0.015463660471141338
0.01705707237124443,-0.0003378964029252529,-0.01420845091342926,0.014374087564647198,-0.00034052960108965635,0.01533320639282465
0.016848890110850334,-0.00029555862420238554,-0.013856730423867702,0.01430057268589735,-0.00032517066574655473,0.015681834891438484
0.017349110916256905,-0.00031317726825363934,-0.014246314764022827,0.01386081613600254,-0.00033619601163081825,0.015805404633283615
0.0173906572163105,-0.0002960345591418445,-0.014687582850456238,0.013617553748190403,-0.00035931842285208404,0.015215691179037094
0.017116328701376915,-0.0002806477714329958,-0.014012958854436874,0.013731257990002632,-0.0003503762709442526,0.015547964721918106
0.017117366194725037,-0.00026678130961954594,-0.014689376577734947,0.013427240774035454,-0.0003774504002649337,0.015512112528085709
0.01755687966942787,-0.0002542209404055029,-0.014216531999409199,0.013900662772357464,-0.00036229900433681905,0.015523795038461685
0.01744610071182251,-0.00024279076023958623,-0.01461633387953043,0.013718734495341778,-0.00038861652137711644,0.015154958702623844
0.01744610071182251,-0.00024279076023958623,-0.01461633387953043,0.013718734495341778,-0.00038861652137711644,0.015154958702623844
0.01752324588596821,-0.00023234292166307569,-0.014119052328169346,0.014216914772987366,-0.00037155862082727253,0.015273289754986763
0.017535464838147163,-0.00022275843366514891,-0.014784255065023899,0.013930898159742355,-0.0004334010009188205,0.015468432568013668
0.01705910637974739,-0.00021393291535787284,-0.014759520068764687,0.014208109118044376,-0.00046474707778543234,0.01545047014951706
0.017840880900621414,-0.00020578001567628235,-0.014851079322397709,0.01397367287427187,-0.00048810409498400986,0.01556792575865984
0.017892558127641678,-0.0001982260582735762,-0.014144809916615486,0.014655262231826782,-0.000465558550786227,0.015538406558334827
0.01761246658861637,-0.00019120720389764756,-0.014725384302437305,0.014223531819880009,-0.00042976203258149326,0.015599938109517097
0.017921386286616325,-0.00018466789333615452,-0.01423474308103323,0.01465897262096405,-0.0004303094174247235,0.015507908537983894
0.017717447131872177,-0.00017856131307780743,-0.015045706182718277,0.014069604687392712,-0.0004303472815081477,0.015995996072888374
0.01791059784591198,-0.00017284590285271406,-0.014697195030748844,0.01418742910027504,-0.0004046255489811301,0.015715014189481735
0.017901217564940453,-0.00016748470079619437,-0.014973057433962822,0.013649393804371357,-0.00038031311123631895,0.0159593652933836
0.017847102135419846,-0.00013574659533333033,-0.014331688173115253,0.014094633981585503,-0.00040298234671354294,0.016016211360692978
0.0181947760283947,-0.00013142362877260894,-0.015000761486589909,0.013985524885356426,-0.0003873591485898942,0.01627153716981411
0.0177870262414217,-0.00012768941815011203,-0.014392233453691006,0.014312262646853924,-0.0003679536748677492,0.01583641767501831
0.017948942258954048,-0.00012416619574651122,-0.01483522355556488,0.01363568939268589,-0.00036504684248939157,0.015357931144535542
0.018092650920152664,-0.00012083238834748045,-0.014337413012981415,0.014087218791246414,-0.00034317956306040287,0.015576022677123547
0.018019119277596474,-0.00011767262913053855,-0.014704598113894463,0.013843376189470291,-0.0003192113363184035,0.016359442844986916
0.01843387633562088,-0.000114673915959429,-0.01464531198143959,0.01439837459474802,-0.0003495888668112457,0.015951255336403847
0.018567347899079323,-0.00011182427260791883,-0.014838511124253273,0.01393235195428133,-0.00033493409864604473,0.01628863997757435
0.017967984080314636,-0.0001091129015549086,-0.01412525400519371,0.014468811452388763,-0.0003414293460082263,0.016372134909033775
0.01851721480488777,-0.00010652987839421257,-0.01469865906983614,0.01393859926611185,-0.00034633721224963665,0.0157166700810194
0.018529292196035385,-0.00010406633373349905,-0.014002668671309948,0.01411131490021944,-0.00036451249616220593,0.01636725291609764
0.01809816248714924,-0.0001017140966723673,-0.014890135265886784,0.014443895779550076,-0.00035741543979384005,0.01643630489706993
0.018710147589445114,-9.94659640127793e-05,-0.01445787400007248,0.01416817307472229,-0.0004557474749162793,0.017240718007087708
0.01851240172982216,-9.73150017671287e-05,-0.015121189877390862,0.013298530131578445,-0.0004927600966766477,0.016986319795250893
0.01895858533680439,-9.328054875368252e-05,-0.014680253341794014,0.013838781975209713,-0.00048700484330765903,0.0167987160384655
0.01883341185748577,-9.138632594840601e-05,-0.014500163495540619,0.014072968624532223,-0.0004674029187299311,0.016226043924689293
0.018471945077180862,-8.956733654486015e-05,-0.01489184144884348,0.01391859445720911,-0.0004361140890978277,0.016087180003523827
0.01881363056600094,-8.781938231550157e-05,-0.01430589146912098,0.013867153786122799,-0.0004079280770383775,0.0162862166762352
0.01881363056600094,-8.781938231550157e-05,-0.01430589146912098,0.013867153786122799,-0.0004079280770383775,0.0162862166762352
0.018905475735664368,-6.784758443245664e-05,-0.01474206056445837,0.014152899384498596,-0.0004124864935874939,0.01739802211523056
0.019070010632276535,-6.637308979406953e-05,-0.014775059185922146,0.014499139972031116,-0.0003926728677470237,0.017393378540873528
0.019070010632276535,-6.637308979406953e-05,-0.014775059185922146,0.014499139972031116,-0.0003926728677470237,0.017393378540873528
0.019426917657256126,-6.516856956295669e-05,-0.0146798612549901,0.014461017213761806,-0.0004168593150097877,0.017420941963791847
0.01977265067398548,-6.400985148502514e-05,-0.01487743016332388,0.014598286710679531,-0.0003851325309369713,0.01722637191414833
0.019802657887339592,-6.289162411121652e-05,-0.014868165366351604,0.014717508107423782,-0.0004162350087426603,0.016998479142785072
0.019036410376429558,-6.18118210695684e-05,-0.01512067299336195,0.014645245857536793,-0.0003941938339266926,0.01698167808353901
0.018719397485256195,-6.0768419643864036e-05,-0.014430963434278965,0.014875739812850952,-0.0004248919431120157,0.016905177384614944
0.019237622618675232,-5.9759742725873366e-05,-0.014720630832016468,0.014585374854505062,-0.00040155331953428686,0.01720285601913929
0.018988564610481262,-5.8783891290659085e-05,-0.014563250355422497,0.014652732759714127,-0.0004243746807333082,0.017202595248818398
0.019697681069374084,-5.78394829062745e-05,-0.014735698699951172,0.014342553913593292,-0.0004067849658895284,0.017132706940174103
0.019766902551054955,-5.692492050002329e-05,-0.014858238399028778,0.013971274718642235,-0.00038542068796232343,0.017312780022621155
0.01979433372616768,-5.603923273156397e-05,-0.014364124275743961,0.013766068033874035,-0.00042661032057367265,0.017275439575314522
0.020227132365107536,-5.518029138329439e-05,-0.015026533044874668,0.013960265554487705,-0.0004090254660695791,0.017336685210466385
0.020696919411420822,-4.130190791329369e-05,-0.014905109070241451,0.014358718879520893,-0.0004313820390962064,0.017264649271965027
0.02023949660360813,-4.016158345621079e-05,-0.0149507662281394,0.014714359305799007,-0.0004153683257754892,0.017250889912247658
0.019880715757608414,-3.956598084187135e-05,-0.01496086735278368,0.014961332082748413,-0.0004180078103672713,0.01875540241599083
0.0205454770475626,-3.899449438904412e-05,-0.015259561128914356,0.014758655801415443,-0.0004189267347101122,0.017014257609844208
0.019999751821160316,-3.843935701297596e-05,-0.014922039583325386,0.014348520897328854,-0.00042198310256935656,0.016918951645493507
0.019359435886144638,-3.7899790186202154e-05,-0.014893928542733192,0.014297054149210453,-0.0004225803422741592,0.017240753397345543
0.019893135875463486,-3.7375197280198336e-05,-0.014443272724747658,0.014628039672970772,-0.0004635296936612576,0.01764521561563015
0.020885849371552467,-3.686488344101235e-05,-0.014979250729084015,0.014613059349358082,-0.0004760717274621129,0.017722321674227715
0.020398784428834915,2.4947072233771905e-05,-0.014595817774534225,0.01481307577341795,-0.00043414701940491796,0.01755373552441597
0.020468687638640404,2.7044668968301266e-05,-0.015279578976333141,0.014626202173531055,-0.0004542013630270958,0.017335178330540657
0.020916305482387543,2.6677065761759877e-05,-0.014847967773675919,0.014392505399882793,-0.00043551495764404535,0.017348172143101692
0.02064642496407032,2.5909532268997282e-05,-0.014826355502009392,0.014362373389303684,-0.0004375017888378352,0.017651664093136787
0.020966464653611183,2.5541883587720804e-05,-0.015891334041953087,0.014076955616474152,-0.00041002564830705523,0.017877792939543724
0.0208390261977911,2.518454311939422e-05,-0.015121730975806713,0.014564059674739838,-0.00043257619836367667,0.017898790538311005
0.02033250220119953,3.3014057407854125e-05,-0.01518228929489851,0.01478426530957222,-0.00041515432531014085,0.01789473369717598
0.02033250220119953,3.3014057407854125e-05,-0.01518228929489851,0.01478426530957222,-0.00041515432531014085,0.01789473369717598
0.021093595772981644,3.625428871600889e-05,-0.015827208757400513,0.015169288963079453,-0.0004779849841725081,0.018089300021529198
0.021093595772981644,3.625428871600889e-05,-0.015827208757400513,0.015169288963079453,-0.0004779849841725081,0.018089300021529198
0.021001040935516357,3.577472671167925e-05,-0.015573527663946152,0.015124191530048847,-0.0005030097090639174,0.017860395833849907
0.020969849079847336,3.530692629283294e-05,-0.01586283929646015,0.015204344876110554,-0.0005328550469130278,0.0181377325206995
0.021010639145970345,3.485118577373214e-05,-0.015996333211660385,0.014943948946893215,-0.0005119742127135396,0.018228881061077118
0.021426578983664513,3.4407097700750455e-05,-0.015226234681904316,0.015499732457101345,-0.0007479071500711143,0.017952362075448036
0.021217063069343567,4.14323149016127e-05,-0.015704147517681122,0.01514981035143137,-0.0007724816678091884,0.018127838149666786
0.020769571885466576,4.468408224056475e-05,-0.015647100284695625,0.01476289052516222,-0.0006902000750415027,0.01814565807580948
0.02161814458668232,4.418624303070828e-05,-0.016422534361481667,0.01384153962135315,-0.0007005259394645691,0.017967840656638145
0.021317845210433006,4.3651129089994356e-05,-0.015301739796996117,0.014522514306008816,-0.0006410959176719189,0.01821296103298664
0.021327009424567223,4.312822056817822e-05,-0.015571392141282558,0.014512895606458187,-0.0006541985785588622,0.01843847893178463
0.021159319207072258,4.261768845026381e-05,-0.01570354960858822,0.015488375909626484,-0.0006086381035856903,0.018540291115641594
0.021458934992551804,5.1421975513221696e-05,-0.01656128652393818,0.014615761116147041,-0.0005725208320654929,0.018345970660448074
0.02144632861018181,5.202355168876238e-05,-0.015348901972174644,0.014790504239499569,-0.0005146731273271143,0.018235402181744576
0.021391531452536583,5.144489841768518e-05,-0.014845605008304119,0.014166130684316158,-0.00046223041135817766,0.01848672889173031
0.021239427849650383,5.086365854367614e-05,-0.015895316377282143,0.014728189446032047,-0.0004595817008521408,0.018805531784892082
0.0216609425842762,5.0295191613258794e-05,-0.015688544139266014,0.014902112074196339,-0.00045724271330982447,0.02013465017080307
0.021889692172408104,4.979513323633e-05,-0.015727758407592773,0.014490130357444286,-0.00042374106124043465,0.018429286777973175
0.021166007965803146,0.00016703744768165052,-0.01538379117846489,0.014084136113524437,-0.0003930320090148598,0.018148088827729225
0.021392827853560448,0.00016260090342257172,-0.015825610607862473,0.014687162823975086,-0.0003960150934290141,0.018416492268443108
0.021767262369394302,0.00015695160254836082,-0.015190464444458485,0.014610232785344124,-0.0003981972695328295,0.018785184249281883
0.021897630766034126,0.00017592069343663752,-0.015187683515250683,0.014167899265885353,-0.00040402484592050314,0.018950071185827255
0.021897630766034126,0.00017592069343663752,-0.015187683515250683,0.014167899265885353,-0.00040402484592050314,0.018950071185827255
0.02183879166841507,0.00017049962480086833,-0.01577915996313095,0.014543705619871616,-0.0003840540593955666,0.019239213317632675
0.021542169153690338,0.00018958922009915113,-0.015539093874394894,0.014330453239381313,-0.00036512137739919126,0.019338272511959076
0.02164919301867485,0.0001870596024673432,-0.015588878653943539,0.01468192134052515,-0.00033936125691980124,0.019063062965869904
0.022860290482640266,0.00020461276290006936,-0.015591595321893692,0.014245656318962574,-0.00036206928780302405,0.018505729734897614
0.02238289639353752,0.00020180207502562553,-0.01566733978688717,0.014694459736347198,-0.0003528609813656658,0.018691344186663628
0.021736623719334602,0.0001963650283869356,-0.01615310274064541,0.014145229943096638,-0.0003320978139527142,0.01886693574488163
0.02267688885331154,0.0003715487546287477,-0.01570594497025013,0.014559045433998108,-0.0003580152988433838,0.019239451736211777
0.02224653773009777,0.0003455897094681859,-0.016173042356967926,0.014589215628802776,-0.0003446017508395016,0.019526531919836998
0.022434156388044357,0.000320970342727378,-0.015475112944841385,0.014897696673870087,-0.000327106099575758,0.018764998763799667
0.022487951442599297,0.00035865482641384006,-0.015794675797224045,0.014712736010551453,-0.0003437675768509507,0.019038595259189606
0.022466693073511124,0.0003370587364770472,-0.015401743352413177,0.015060259960591793,-0.0003379249828867614,0.019280871376395226
0.021816996857523918,0.00036382925463840365,-0.01590503379702568,0.01418144442141056,-0.00032341695623472333,0.019522638991475105
0.022086989134550095,0.0003495137789286673,-0.015651697292923927,0.014619359746575356,-0.00030955186230130494,0.019639959558844566
0.022711435332894325,0.0003622089570853859,-0.01602085679769516,0.014435573481023312,-0.0002967925393022597,0.019414888694882393
0.02284698188304901,0.0003594068984966725,-0.015892785042524338,0.0147501640021801,-0.0003122158523183316,0.018968237563967705
0.022908389568328857,0.00034251323086209595,-0.015616778284311295,0.014620448462665081,-0.0003163791261613369,0.019029105082154274
0.022792430594563484,0.0004097174678463489,-0.016055643558502197,0.015270890668034554,-0.0002971859648823738,0.019032180309295654
0.022424915805459023,0.00042840163223445415,-0.01605795882642269,0.014781994745135307,-0.0002788719430100173,0.018978921696543694
0.02228810451924801,0.0004191248444840312,-0.016433529555797577,0.014959869906306267,-0.000301292457152158,0.02003408595919609
0.02296999655663967,0.0004463057848624885,-0.01545686088502407,0.015165871940553188,-0.00029683366301469505,0.020093999803066254
0.023305566981434822,0.00042346754344180226,-0.015913302078843117,0.015072768554091454,-0.00028211274184286594,0.019509494304656982
0.022937944158911705,0.0004467960970941931,-0.015338489785790443,0.015324035659432411,-0.0002681514306459576,0.01972384937107563
0.022896476089954376,0.00042660313192754984,-0.016052646562457085,0.015118686482310295,-0.0002951245114672929,0.019877992570400238
0.023301780223846436,0.000564259709790349,-0.016287770122289658,0.015374784357845783,-0.00028438580920919776,0.019683754071593285
0.02314971759915352,0.0005881521501578391,-0.016032345592975616,0.015533756464719772,-0.0003009994688909501,0.020349204540252686
0.023267004638910294,0.0005596432602033019,-0.0160660482943058,0.015997497364878654,-0.00029761274345219135,0.0192699171602726
0.023636190220713615,0.0005884594866074622,-0.015530440025031567,0.015290502458810806,-0.00028636676142923534,0.019129477441310883
0.02268470637500286,0.0005685063078999519,-0.0156085304915905,0.014308039098978043,-0.00031441886676475406,0.01933317631483078
0.023449638858437538,0.0006727149011567235,-0.016217857599258423,0.014491208828985691,-0.000295705976895988,0.019314192235469818
0.023449638858437538,0.0006727149011567235,-0.016217857599258423,0.014491208828985691,-0.000295705976895988,0.019314192235469818
0.023803947493433952,0.0007176146027632058,-0.015974292531609535,0.013998919166624546,-0.0002775834291242063,0.01969798468053341
0.023525549098849297,0.0007393467822112143,-0.015934977680444717,0.01464779581874609,-0.0002614559489302337,0.01988706924021244
0.023611873388290405,0.0007563111139461398,-0.01567268930375576,0.01502692699432373,-0.00027118014986626804,0.019808432087302208
0.02403908409178257,0.0009426215547136962,-0.016147293150424957,0.01602252386510372,-0.0002794195315800607,0.019910873845219612
0.023276520892977715,0.0009628681000322104,-0.01633533462882042,0.015908267349004745,-0.0002670545654837042,0.02006147801876068
0.02374499849975109,0.0009535856661386788,-0.01573861762881279,0.015921493992209435,-0.0002545576135162264,0.020227042958140373
0.024422721937298775,0.0009464611066505313,-0.01627844013273716,0.015616651624441147,-0.0002629006339702755,0.020668288692831993
0.024393251165747643,0.00099659594707191,-0.015844624489545822,0.01534508727490902,-0.0002700451004784554,0.0205546747893095
0.02407185174524784,0.001090603182092309,-0.01641256920993328,0.015249683521687984,-0.00026009828434325755,0.020609743893146515
0.024170884862542152,0.001094641163945198,-0.015996573492884636,0.015143543481826782,-0.00024985900381579995,0.02032759226858616
0.02420724183320999,0.0011685501085594296,-0.01631951332092285,0.015237048268318176,-0.0002723342040553689,0.02028595097362995
0.024367952719330788,0.001261327532120049,-0.01624646596610546,0.01485681626945734,-0.00026441781665198505,0.020330235362052917
0.02441488392651081,0.0012364867143332958,-0.01648247428238392,0.015228359960019588,-0.00025600436492823064,0.02107389084994793
0.023151280358433723,0.0014358747284859419,-0.016648845747113228,0.015062263235449791,-0.0002771754516288638,0.021017257124185562
0.02439473569393158,0.0013747746124863625,-0.01648024469614029,0.015290074050426483,-0.0003021998854819685,0.020880213007330894
0.025013746693730354,0.0013024896616116166,-0.017275800928473473,0.01479214709252119,-0.00029783518402837217,0.019947245717048645
0.025275345891714096,0.001381854061037302,-0.01655028760433197,0.015252330340445042,-0.00028302622376941144,0.019728761166334152
0.02466745115816593,0.001346756936982274,-0.01670936867594719,0.014853504486382008,-0.00030779000371694565,0.020017851144075394
0.024900153279304504,0.0015144209610298276,-0.017073776572942734,0.015466995537281036,-0.00029852407169528306,0.020418725907802582
0.024204542860388756,0.0016204278217628598,-0.016549378633499146,0.016129057854413986,-0.00030526798218488693,0.021157950162887573
0.024239296093583107,0.0015361435944214463,-0.016969606280326843,0.014831925742328167,-0.00031064165523275733,0.020803989842534065
0.025126861408352852,0.0016016298905014992,-0.016271153464913368,0.01435121800750494,-0.00044629478361457586,0.020402371883392334
0.02451520413160324,0.0015431885840371251,-0.01672276481986046,0.014946036972105503,-0.0004829942772630602,0.020714925602078438
0.02470836229622364,0.0016481704078614712,-0.0167241208255291,0.01527129765599966,-0.00045236421283334494,0.020670998841524124
0.02470836229622364,0.0016481704078614712,-0.0167241208255291,0.01527129765599966,-0.00045236421283334494,0.020670998841524124
0.025919711217284203,0.001761482679285109,-0.01738414168357849,0.014767036773264408,-0.00047808088129386306,0.02048867754638195
0.02528233639895916,0.001863638637587428,-0.016913583502173424,0.015132163651287556,-0.0005078251706436276,0.019859984517097473
0.025581352412700653,0.0018784846179187298,-0.017527179792523384,0.015252640470862389,-0.0005846776766702533,0.021533392369747162
0.024848397821187973,0.0019270577467978,-0.01717781461775303,0.015369552187621593,-0.0006645451649092138,0.020078856498003006
0.024857616052031517,0.0021497406996786594,-0.01713949628174305,0.015415952540934086,-0.0006954023847356439,0.020376238971948624
0.024982936680316925,0.0021212759893387556,-0.017186250537633896,0.015281974337995052,-0.0006712514441460371,0.02092002145946026
0.0255462396889925,0.002126263454556465,-0.01643652655184269,0.015238026157021523,-0.0006903362809680402,0.021296165883541107
0.02505291998386383,0.002121293218806386,-0.018121792003512383,0.014872095547616482,-0.0006395403761416674,0.020856106653809547
0.02530529908835888,0.0020750537514686584,-0.016495421528816223,0.015202097594738007,-0.0007344611221924424,0.020636823028326035
0.02544732205569744,0.002061902778223157,-0.01665869541466236,0.01483032014220953,-0.0008227432263083756,0.020881827920675278
0.025914961472153664,0.0021644718945026398,-0.017645055428147316,0.015396526083350182,-0.0007830144604668021,0.021322164684534073
0.025637565180659294,0.002127330284565687,-0.016762174665927887,0.015406346879899502,-0.0007926931139081717,0.021328166127204895
0.025511762127280235,0.002301445696502924,-0.01713222824037075,0.015979565680027008,-0.0008813086897134781,0.021019821986556053
0.02551746554672718,0.002335527678951621,-0.017122728750109673,0.015646861866116524,-0.0009021280566230416,0.021240975707769394
0.025529364123940468,0.0022915813606232405,-0.017559008672833443,0.015754204243421555,-0.0008768290281295776,0.021416807547211647
0.02539735659956932,0.002567050978541374,-0.017536595463752747,0.015722952783107758,-0.0007953009335324168,0.02174452319741249
0.025688650086522102,0.002798504661768675,-0.01674526557326317,0.015811296179890633,-0.0007945812540128827,0.02151857316493988
0.025494471192359924,0.0025720770936459303,-0.016937261447310448,0.015903951600193977,-0.0007262139697559178,0.021860448643565178
0.025813838467001915,0.0026161016430705786,-0.016645420342683792,0.01614673249423504,-0.0006686095730401576,0.021644601598381996
0.0260325875133276,0.002661576960235834,-0.017810925841331482,0.01601111702620983,-0.0006471880478784442,0.021694794297218323
0.024049853906035423,0.0028320581186562777,-0.017917219549417496,0.015597828663885593,-0.0006231401348486543,0.021897537633776665
0.026881303638219833,0.0026606302708387375,-0.017211342230439186,0.015889883041381836,-0.000561585882678628,0.02214885875582695
0.026881303638219833,0.0026606302708387375,-0.017211342230439186,0.015889883041381836,-0.000561585882678628,0.02214885875582695
0.026550736278295517,0.0030220274347811937,-0.01777750253677368,0.015895850956439972,-0.0005708773387596011,0.021852759644389153
0.025688419118523598,0.0035062446258962154,-0.01720132865011692,0.01591840386390686,-0.0005608630599454045,0.021961607038974762
0.026107391342520714,0.00324764521792531,-0.017508160322904587,0.016327805817127228,-0.0005281632766127586,0.021953245624899864
0.025763165205717087,0.0035296580754220486,-0.017230477184057236,0.01632724329829216,-0.0005369834252633154,0.0222670566290617
0.026970036327838898,0.0033238816540688276,-0.017952462658286095,0.016189955174922943,-0.0004874468722846359,0.022628765553236008
0.027306389063596725,0.0031234933994710445,-0.017712082713842392,0.016342012211680412,-0.0004402624035719782,0.0225530993193388
0.027081796899437904,0.003145783208310604,-0.01770986244082451,0.015938695520162582,-0.0004701119032688439,0.02248997800052166
0.025980668142437935,0.003648304147645831,-0.017428772523999214,0.016500642523169518,-0.00044108269503340125,0.02207258902490139
0.02643674425780773,0.003960715141147375,-0.017074929550290108,0.01620086096227169,-0.0004083196399733424,0.022464152425527573
0.027114471420645714,0.0034974173177033663,-0.01754056289792061,0.01630776934325695,-0.00043846023618243635,0.022883757948875427
0.02740829810500145,0.003576041432097554,-0.017422836273908615,0.016138896346092224,-0.00041350829997099936,0.022828634828329086
0.02720659039914608,0.00377379497513175,-0.017889192327857018,0.016256088390946388,-0.0003882620658259839,0.022984443232417107
0.027392476797103882,0.0039229318499565125,-0.017912505194544792,0.015943652018904686,-0.00040422487654723227,0.023025689646601677
0.027755236253142357,0.004006489180028439,-0.017358707264065742,0.016176387667655945,-0.00039413728518411517,0.022757265716791153
0.027669589966535568,0.004012405406683683,-0.017667585983872414,0.01659555174410343,-0.0003744211862795055,0.023106787353754044
0.026808341965079308,0.004029590170830488,-0.017280321568250656,0.016173193231225014,-0.0003572695713955909,0.022930482402443886
0.02691287361085415,0.003982859198004007,-0.017696410417556763,0.016628550365567207,-0.000364190258551389,0.02298979088664055
0.027366260066628456,0.004561545792967081,-0.018131764605641365,0.016253618523478508,-0.0003688412834890187,0.02313939668238163
0.0279147457331419,0.004799017682671547,-0.01727733016014099,0.01673744060099125,-0.00034705991856753826,0.02324073202908039
0.02761094644665718,0.004348553251475096,-0.01776183769106865,0.01636091060936451,-0.00032621194259263575,0.022560125216841698
0.027828043326735497,0.004132456611841917,-0.018094073981046677,0.015955865383148193,-0.00030762754613533616,0.022811586037278175
0.027854565531015396,0.004193497356027365,-0.01757499761879444,0.016396602615714073,-0.00033619976602494717,0.023994673043489456
0.027718544006347656,0.004526862874627113,-0.018178340047597885,0.01624125987291336,-0.0003219592908862978,0.02428712509572506
0.027919840067625046,0.0046821520663797855,-0.01748417317867279,0.01707114651799202,-0.00032786140218377113,0.02327740006148815
0.026827646419405937,0.004786068107932806,-0.018140433356165886,0.016659284010529518,-0.00033256507595069706,0.02259012497961521
0.02846292406320572,0.004692362621426582,-0.01727939583361149,0.016346102580428123,-0.0003625678364187479,0.02404303289949894
0.02843140996992588,0.004734628833830357,-0.01784275658428669,0.016216501593589783,-0.0003533189883455634,0.02349882386624813
0.02869267575442791,0.00478123826906085,-0.017688574269413948,0.016646020114421844,-0.000328751775668934,0.02341819554567337
0.02869267575442791,0.00478123826906085,-0.017688574269413948,0.016646020114421844,-0.000328751775668934,0.02341819554567337
0.028308212757110596,0.0044789062812924385,-0.017816558480262756,0.0163585152477026,-0.0003634248278103769,0.024170830845832825
0.02848675847053528,0.004456287249922752,-0.01817954331636429,0.01680232770740986,-0.0003439875436015427,0.025283975526690483
0.0287186186760664,0.00527878338471055,-0.017828695476055145,0.016316384077072144,-0.00036333405296318233,0.024450214579701424
0.029015952721238136,0.005069881211966276,-0.018404433503746986,0.016153868287801743,-0.00035527709405869246,0.02326226234436035
0.02860982157289982,0.004604790825396776,-0.018912194296717644,0.01665794663131237,-0.0003725920687429607,0.022866427898406982
0.028648322448134422,0.004980690777301788,-0.01840820163488388,0.016039064154028893,-0.00036488997284322977,0.02384115383028984
0.028908949345350266,0.005351105704903603,-0.017982512712478638,0.016108913347125053,-0.0004382216720841825,0.02495710924267769
0.0287676639854908,0.004751414991915226,-0.0183571707457304,0.01597289741039276,-0.0004900912754237652,0.024931246414780617
0.029121410101652145,0.005053096450865269,-0.017895713448524475,0.01666799560189247,-0.0005068006576038897,0.02466798946261406
0.029354995116591454,0.0052505130879580975,-0.018388178199529648,0.015775904059410095,-0.000502197362948209,0.02433190494775772
0.02945488691329956,0.005095404107123613,-0.018461260944604874,0.015824461355805397,-0.0005163302412256598,0.02435954660177231
0.029543159529566765,0.00532538304105401,-0.018474552780389786,0.015873201191425323,-0.000496138003654778,0.0244287122040987
0.029527777805924416,0.005175834055989981,-0.01915096305310726,0.016458837315440178,-0.0006695002666674554,0.024495378136634827
0.029762571677565575,0.004711885936558247,-0.01829240284860134,0.016654783859848976,-0.0007156165083870292,0.024987688288092613
0.03001631423830986,0.005464673042297363,-0.018287694081664085,0.016378263011574745,-0.0006461417069658637,0.024883322417736053
0.029905635863542557,0.005293923895806074,-0.018690533936023712,0.016753127798438072,-0.0006672307499684393,0.02469913475215435
0.03026951476931572,0.004911218769848347,-0.01817738451063633,0.01634960062801838,-0.0006893161917105317,0.0248356144875288
0.030735071748495102,0.005100284703075886,-0.01913832686841488,0.0164033230394125,-0.0006368307513184845,0.0249406136572361
0.0314679816365242,0.005096201319247484,-0.01906774193048477,0.016317861154675484,-0.0006762687116861343,0.024821193888783455
0.030222874134778976,0.004885976202785969,-0.01803838089108467,0.01648324728012085,-0.0007058223709464073,0.02492496371269226
0.029417255893349648,0.005275174044072628,-0.01874169334769249,0.017107674852013588,-0.0007077058544382453,0.02471550926566124
0.03107086941599846,0.0050819688476622105,-0.018482869490981102,0.016656911000609398,-0.000726527301594615,0.024798527359962463
0.03098083660006523,0.005280583165585995,-0.01763176918029785,0.016916343942284584,-0.0007909558480605483,0.02496802993118763
0.031439945101737976,0.004700202960520983,-0.018822334706783295,0.017185019329190254,-0.0007858298486098647,0.024789730086922646
0.0318208709359169,0.0030861699488013983,-0.018431121483445168,0.017155321314930916,-0.0007963025709614158,0.02480839192867279
0.0318208709359169,0.0030861699488013983,-0.018431121483445168,0.017155321314930916,-0.0007963025709614158,0.02480839192867279
0.031185919418931007,0.0023025718983262777,-0.018452098593115807,0.016774816438555717,-0.0008077274542301893,0.024503864347934723
0.029900463297963142,0.0017528411699458957,-0.018149277195334435,0.017766084522008896,-0.0009269153815694153,0.025005007162690163
0.030973108485341072,0.0018790678586810827,-0.018313702195882797,0.017347361892461777,-0.0009387219324707985,0.025851229205727577
0.0316031277179718,0.0029052873142063618,-0.01832452416419983,0.016870252788066864,-0.0009344954742118716,0.026086539030075073
0.03138923645019531,0.0038213280495256186,-0.017739934846758842,0.017094125971198082,-0.00087765883654356,0.025270216166973114
0.03148934990167618,0.0036469639744609594,-0.018831497058272362,0.016742995008826256,-0.0008975063683465123,0.024528201669454575
0.031813573092222214,0.003162768203765154,-0.01899406686425209,0.01756560429930687,-0.0008972359355539083,0.024124588817358017
0.031966038048267365,0.002911859191954136,-0.01787167228758335,0.016924576833844185,-0.0008643317269161344,0.025197654962539673
0.03218822553753853,0.002709189895540476,-0.01847863383591175,0.01710166409611702,-0.0008111720671877265,0.025615442544221878
0.031925611197948456,0.0030401283875107765,-0.018172919750213623,0.016503632068634033,-0.0007971057784743607,0.025712251663208008
0.031646620482206345,0.0033357194624841213,-0.017994781956076622,0.015997089445590973,-0.0007705528987571597,0.025952471420168877
0.031618911772966385,0.003154139732941985,-0.01862736977636814,0.015859685838222504,-0.0006926192436367273,0.02597764879465103
0.03216645121574402,0.0029924302361905575,-0.018224865198135376,0.01611294597387314,-0.0006598121835850179,0.025813529267907143
0.03191249072551727,0.0028149643912911415,-0.01875384710729122,0.01665939949452877,-0.0006333864876069129,0.02522682212293148
0.03220281004905701,0.002844130387529731,-0.019066177308559418,0.01625813916325569,-0.0006578841130249202,0.024771718308329582
0.032337769865989685,0.002890260424464941,-0.0186028890311718,0.016303176060318947,-0.0006638948107138276,0.02548268251121044
0.03247230499982834,0.00335382460616529,-0.01872471161186695,0.016511593014001846,-0.0006259105866774917,0.02664407342672348
0.03235495463013649,0.003272230038419366,-0.018926888704299927,0.016849299892783165,-0.0005821594968438148,0.026789003983139992
0.03324916958808899,0.0030791759490966797,-0.018480712547898293,0.017002172768115997,-0.0005571154761128128,0.02654745988547802
0.03370160609483719,0.003025347599759698,-0.018934372812509537,0.016815651208162308,-0.0004984131082892418,0.02645954117178917
0.03298274800181389,0.0030946522019803524,-0.01926492154598236,0.01689581759274006,-0.0005144465831108391,0.02649913914501667
0.03179994970560074,0.0034910193644464016,-0.01873030886054039,0.016461480408906937,-0.00048812507884576917,0.026875628158450127
0.032879576086997986,0.0033390133175998926,-0.01883840747177601,0.017015326768159866,-0.0005133537924848497,0.026587821543216705
0.033786527812480927,0.003213742980733514,-0.018790818750858307,0.01689501293003559,-0.0005163197638466954,0.026360725983977318
0.03338683769106865,0.0033005771692842245,-0.018594125285744667,0.01650710217654705,-0.0005108196055516601,0.02660035341978073
0.03376798331737518,0.003862663870677352,-0.019828427582979202,0.016706956550478935,-0.0004923987435176969,0.02679244428873062
0.03299708664417267,0.003946170210838318,-0.018770210444927216,0.01788998767733574,-0.00045117823174223304,0.026687774807214737
0.03299708664417267,0.003946170210838318,-0.018770210444927216,0.01788998767733574,-0.00045117823174223304,0.026687774807214737
0.03338140621781349,0.003409631084650755,-0.019218822941184044,0.01794920489192009,-0.00047063000965863466,0.02643466554582119
0.03415048122406006,0.003430855693295598,-0.019369978457689285,0.01741211675107479,-0.00044998983503319323,0.026810159906744957
0.03366414085030556,0.0036405446007847786,-0.018440205603837967,0.017134428024291992,-0.00047638386604376137,0.026114704087376595
0.03367949649691582,0.003756025107577443,-0.01873374916613102,0.016204388812184334,-0.0004505405086092651,0.026753578335046768
0.03379090875387192,0.0037487545050680637,-0.019125286489725113,0.01629648543894291,-0.00045017729280516505,0.026891568675637245
0.03324168175458908,0.0036360356025397778,-0.019205836579203606,0.015984421595931053,-0.00044896567123942077,0.02701294980943203
0.03384148329496384,0.0035443142987787724,-0.01915401592850685,0.016468681395053864,-0.00042425928404554725,0.027075428515672684
0.03414185345172882,0.0036978479474782944,-0.018963854759931564,0.01715417578816414,-0.0004616438818629831,0.02711002342402935
0.03394041582942009,0.004255416337400675,-0.019223136827349663,0.017402730882167816,-0.0004278262204024941,0.027253462001681328
0.03382689505815506,0.004046749789267778,-0.01992141641676426,0.017677804455161095,-0.00045869595487602055,0.02701716311275959
0.033964984118938446,0.00379878468811512,-0.019347894936800003,0.01702006347477436,-0.0004312579403631389,0.027241434901952744
0.034229669719934464,0.0036289943382143974,-0.019110871478915215,0.017104914411902428,-0.0004618547100108117,0.02696816250681877
0.03270966559648514,0.003604494035243988,-0.01982630416750908,0.017104366794228554,-0.00043409591307863593,0.027116185054183006
0.03486267104744911,0.00374068901874125,-0.019073162227869034,0.01656801626086235,-0.0004565214039757848,0.027019886299967766
0.034421756863594055,0.00382619327865541,-0.01863883063197136,0.0166869405657053,-0.0004357494181022048,0.027104025706648827
0.034218646585941315,0.004289369098842144,-0.01914266310632229,0.01658833771944046,-0.0005019643576815724,0.027239421382546425
0.03399123623967171,0.0042326729744672775,-0.019535155966877937,0.01679910160601139,-0.0005093658110126853,0.027228180319070816
0.03439540043473244,0.004468858707696199,-0.019092027097940445,0.016568733379244804,-0.000503150571603328,0.02763918600976467
0.03475566953420639,0.004194130189716816,-0.019629303365945816,0.016988640651106834,-0.0005292085115797818,0.028256604447960854
0.03490925952792168,0.003904899815097451,-0.019579799845814705,0.017951859161257744,-0.0004966859705746174,0.027877826243638992
0.034875884652137756,0.0040040877647697926,-0.01946219988167286,0.017690924927592278,-0.0005177726270630956,0.026744958013296127
0.034725114703178406,0.0042150807566940784,-0.020476430654525757,0.01795198954641819,-0.0004928868147544563,0.02671433985233307
0.035124100744724274,0.004397604614496231,-0.020628338679671288,0.017811348661780357,-0.0005713573191314936,0.027694471180438995
0.03539694473147392,0.004517637193202972,-0.02000296302139759,0.017689073458313942,-0.0005646430072374642,0.028086800128221512
0.03501441329717636,0.004670100752264261,-0.02020728774368763,0.01841936632990837,-0.0005517746321856976,0.027567129582166672
0.03501441329717636,0.004670100752264261,-0.02020728774368763,0.01841936632990837,-0.0005517746321856976,0.027567129582166672
0.034959446638822556,0.004642506130039692,-0.02036300115287304,0.01834121346473694,-0.0005755059537477791,0.02869049832224846
0.03652425855398178,0.004379256162792444,-0.01994788460433483,0.018338758498430252,-0.0005606425693258643,0.028289275243878365
0.03652425855398178,0.004379256162792444,-0.01994788460433483,0.018338758498430252,-0.0005606425693258643,0.028289275243878365
0.03425951302051544,0.0048378524370491505,-0.02034042775630951,0.017748679965734482,-0.0006204107194207609,0.028000708669424057
0.035179197788238525,0.004607912618666887,-0.01988878659904003,0.01796569488942623,-0.0006519483868032694,0.028940455988049507
0.03637078404426575,0.004953470546752214,-0.020365186035633087,0.017726492136716843,-0.0006771190674044192,0.02893483266234398
0.036079585552215576,0.004780848044902086,-0.020646940916776657,0.018406836315989494,-0.0008628247305750847,0.028470240533351898
0.036691270768642426,0.004314457532018423,-0.02004772610962391,0.01845538429915905,-0.0010412721894681454,0.028382865712046623
0.036082636564970016,0.004034656099975109,-0.02022993005812168,0.01821916177868843,-0.0009718771907500923,0.028432827442884445
0.03568859025835991,0.004412636626511812,-0.020838525146245956,0.019093884155154228,-0.0008972766809165478,0.028670480474829674
0.03533272445201874,0.004581292625516653,-0.02038542367517948,0.01776808872818947,-0.0008932216442190111,0.0284383837133646
0.036715272814035416,0.004696239717304707,-0.019883543252944946,0.0179874449968338,-0.0008681173203513026,0.02835122123360634
0.035196881741285324,0.004656363278627396,-0.02046833373606205,0.01799125410616398,-0.0008776075555942953,0.028574438765645027
0.037199798971414566,0.004587093368172646,-0.020420048385858536,0.01788618229329586,-0.0008555696695111692,0.028699524700641632
0.03694252669811249,0.004160902928560972,-0.02043970488011837,0.01826770231127739,-0.000778329384047538,0.028994174674153328
0.035980574786663055,0.004215809982270002,-0.020424332469701767,0.01772080734372139,-0.0007795120473019779,0.029340233653783798
0.03663687780499458,0.004627063870429993,-0.02038668654859066,0.01771833561360836,-0.0007785701309330761,0.029092662036418915
0.037135377526283264,0.004730524029582739,-0.020217755809426308,0.018039261922240257,-0.0007924751262180507,0.029088666662573814
0.03669989854097366,0.004971162416040897,-0.020435625687241554,0.017505263909697533,-0.0007909339619800448,0.029727142304182053
0.03725843504071236,0.004810167942196131,-0.020734841004014015,0.017583375796675682,-0.0007267027976922691,0.029512420296669006
0.0375678651034832,0.0048321932554244995,-0.02064376510679722,0.017961425706744194,-0.000733281543944031,0.029927410185337067
0.03709649667143822,0.004667326342314482,-0.020458273589611053,0.01813732646405697,-0.0006754147470928729,0.029901763424277306
0.03669699281454086,0.0042678965255618095,-0.020902154967188835,0.018284784629940987,-0.0006793367210775614,0.029918836429715157
0.03845487907528877,0.004468001890927553,-0.02163996547460556,0.017797008156776428,-0.0007118640351109207,0.02931472659111023
0.03863438963890076,0.004512072540819645,-0.02149852178990841,0.017932886257767677,-0.0007270226487889886,0.029479365795850754
0.03638850525021553,0.005305757746100426,-0.021049480885267258,0.018172405660152435,-0.0007325279293581843,0.030917484313249588
0.037385500967502594,0.005216569174081087,-0.02035755291581154,0.0175004992634058,-0.0006849095807410777,0.03050214983522892
0.037955254316329956,0.004683086648583412,-0.020714079961180687,0.017633726820349693,-0.0007389430538751185,0.029420483857393265
0.03816257789731026,0.004272934049367905,-0.021001353859901428,0.01772633194923401,-0.0007674599764868617,0.028659537434577942
0.03905718773603439,0.0049454583786427975,-0.02168652042746544,0.0178837887942791,-0.0007000186596997082,0.02981087751686573
0.03705098479986191,0.005088211968541145,-0.02137252688407898,0.018423130735754967,-0.0006434398237615824,0.02990405634045601
0.038734953850507736,0.005371784791350365,-0.021241381764411926,0.018583709374070168,-0.0006613494479097426,0.031154435127973557
0.03927377238869667,0.005270092748105526,-0.021936360746622086,0.01833846978843212,-0.0006197329494170845,0.031012756749987602
0.038037076592445374,0.004960506223142147,-0.02150309644639492,0.01757991872727871,-0.0006039285217411816,0.03045806847512722
0.038953766226768494,0.005195555742830038,-0.021327722817659378,0.017809856683015823,-0.0005876654759049416,0.02969208173453808
0.038953766226768494,0.005195555742830038,-0.021327722817659378,0.017809856683015823,-0.0005876654759049416,0.02969208173453808
0.0387214720249176,0.005544234998524189,-0.021321872249245644,0.017982952296733856,-0.0005941037670709193,0.031803976744413376
0.0387214720249176,0.005544234998524189,-0.021321872249245644,0.017982952296733856,-0.0005941037670709193,0.031803976744413376
0.03910243511199951,0.005293861031532288,-0.021303536370396614,0.018016358837485313,-0.0006101965554989874,0.03134094551205635
0.038988400250673294,0.005155404098331928,-0.022230127826333046,0.01787145622074604,-0.0005798430065624416,0.030454883351922035
0.038701996207237244,0.004833655897527933,-0.021956004202365875,0.01857888326048851,-0.0006395371747203171,0.03054524026811123
0.039360761642456055,0.00482078455388546,-0.021494615823030472,0.019619863480329514,-0.0006733338814228773,0.03048611618578434
0.039335768669843674,0.005684730596840382,-0.021883690729737282,0.019401520490646362,-0.0006919820443727076,0.0306521225720644
0.0394781231880188,0.005553030874580145,-0.02182004041969776,0.019287172704935074,-0.000712535111233592,0.030969461426138878
0.03983565419912338,0.005722476169466972,-0.0218911524862051,0.01927841827273369,-0.0008570941281504929,0.031231021508574486
0.03936813026666641,0.005186938215047121,-0.021993638947606087,0.018422851338982582,-0.0008926833397708833,0.03126329183578491
0.03991764783859253,0.005282583646476269,-0.021850690245628357,0.0181605014950037,-0.0007989953155629337,0.03121115453541279
0.040506135672330856,0.005427391733974218,-0.022239679470658302,0.018184449523687363,-0.0008056348306126893,0.031007234007120132
0.039779167622327805,0.005800388287752867,-0.021597106009721756,0.018373500555753708,-0.0007956246845424175,0.03161120042204857
0.040324777364730835,0.005952866747975349,-0.021618427708745003,0.01941448450088501,-0.0007441993802785873,0.031875934451818466
0.040021032094955444,0.005853729788213968,-0.022315194830298424,0.019883641973137856,-0.0007751699304208159,0.031697701662778854
0.04015195369720459,0.005591962020844221,-0.02228846400976181,0.019593121483922005,-0.0008235641871578991,0.03194831311702728
0.040042147040367126,0.004900152795016766,-0.022133294492959976,0.01951545663177967,-0.0008490091422572732,0.03192339465022087
0.03994448855519295,0.005167327355593443,-0.021719543263316154,0.019121577963232994,-0.0010279604466632009,0.031749825924634933
0.040083177387714386,0.005310763139277697,-0.022097446024417877,0.01823888160288334,-0.00106636097189039,0.031631484627723694
0.03981449455022812,0.005358027294278145,-0.02264152653515339,0.01827046275138855,-0.0010223679710179567,0.03149186447262764
0.04099244996905327,0.005473196040838957,-0.022613460198044777,0.018202370032668114,-0.0010036041494458914,0.03179819881916046
0.041322872042655945,0.00551581522449851,-0.021721670404076576,0.018159933388233185,-0.0009081783937290311,0.03145711496472359
0.03899894654750824,0.005209607537835836,-0.02202237956225872,0.018512045964598656,-0.0008226618519984186,0.0320904366672039
0.03996460884809494,0.005337046924978495,-0.02260233834385872,0.01810297556221485,-0.000781862298026681,0.03308083862066269
0.040607381612062454,0.005696104373782873,-0.022243952378630638,0.018441740423440933,-0.0007938170456327498,0.03325653076171875
0.041872549802064896,0.005413323175162077,-0.021811597049236298,0.018330994993448257,-0.0007591719622723758,0.032016340643167496
0.04025336354970932,0.005082265939563513,-0.02242332696914673,0.018488770350813866,-0.0007515645702369511,0.031324632465839386
0.039261989295482635,0.005099967122077942,-0.0226165559142828,0.018009699881076813,-0.0007632653578184545,0.032044555991888046
0.039261989295482635,0.005099967122077942,-0.0226165559142828,0.018009699881076813,-0.0007632653578184545,0.032044555991888046
0.040968138724565506,0.005490372888743877,-0.022237785160541534,0.017783163115382195,-0.0007513566524721682,0.032634187489748
0.04105129837989807,0.0054153320379555225,-0.02178662084043026,0.019077086821198463,-0.000766503915656358,0.03286033868789673
0.04053677245974541,0.005380608607083559,-0.022015810012817383,0.019863134250044823,-0.0007356964633800089,0.0335923470556736
0.040552135556936264,0.005573280155658722,-0.02247038297355175,0.019628560170531273,-0.0008137314580380917,0.03329791873693466
0.0403798371553421,0.005115844309329987,-0.022622380405664444,0.019264934584498405,-0.000832432706374675,0.03209351748228073
0.04101511090993881,0.00535043329000473,-0.02270987629890442,0.01818533055484295,-0.0007366861100308597,0.03162292391061783
0.04056944325566292,0.005500314757227898,-0.022879192605614662,0.01797306351363659,-0.0007492825970984995,0.03291938453912735
0.040336497128009796,0.0052428822964429855,-0.023168450221419334,0.019015416502952576,-0.0007459375192411244,0.033133555203676224
0.04014262184500694,0.005277031101286411,-0.023094745352864265,0.019403871148824692,-0.0007396219880320132,0.03279174864292145
0.0402478352189064,0.00542935635894537,-0.022786283865571022,0.01919211633503437,-0.0007429707329720259,0.032604288309812546
0.041307006031274796,0.005503057036548853,-0.02205684408545494,0.01909993402659893,-0.000791924714576453,0.032600946724414825
0.04047054424881935,0.005465410649776459,-0.02247668243944645,0.01893383450806141,-0.0007803465123288333,0.03240996599197388
0.03922351822257042,0.0056116594932973385,-0.025132641196250916,0.01898522488772869,-0.0007462039939127862,0.0327097550034523
0.040017712861299515,0.005390195641666651,-0.022463222965598106,0.019703682512044907,-0.0008251909166574478,0.032631903886795044
0.04020968824625015,0.005820679944008589,-0.02205570600926876,0.019723523408174515,-0.0008686559740453959,0.03249479457736015
0.04152834415435791,0.005448703188449144,-0.02309073507785797,0.019623495638370514,-0.0008751815184950829,0.032762136310338974
0.0408247709274292,0.006361931096762419,-0.02403762936592102,0.019883224740624428,-0.0008638465660624206,0.03314359858632088
0.039350371807813644,0.005968041718006134,-0.022784294560551643,0.019016224890947342,-0.0008855339838191867,0.03326449170708656
0.040708933025598526,0.005902924574911594,-0.023389166221022606,0.018825523555278778,-0.000954839342739433,0.032935477793216705
0.041529230773448944,0.005669921170920134,-0.02315753512084484,0.019442224875092506,-0.0009325959836132824,0.034248627722263336
0.04093954339623451,0.005798570811748505,-0.022273264825344086,0.019910285249352455,-0.000943061662837863,0.033730845898389816
0.04064993932843208,0.0060434057377278805,-0.022881729528307915,0.019642284139990807,-0.000992528977803886,0.03371012583374977
0.04075402393937111,0.005974259227514267,-0.02351691946387291,0.01978730969130993,-0.00100628100335598,0.03361666947603226
0.041428904980421066,0.006064471788704395,-0.023286834359169006,0.019812487065792084,-0.0009911834495142102,0.03403564915060997
0.040879882872104645,0.005862853489816189,-0.023210817947983742,0.020128296688199043,-0.0008739721379242837,0.03352208808064461
0.041122689843177795,0.006472156848758459,-0.023099908605217934,0.020573696121573448,-0.0008145688916556537,0.03492826968431473
0.041301287710666656,0.005882746540009975,-0.023060718551278114,0.019684722647070885,-0.0008056273800320923,0.03462005406618118
0.04223958030343056,0.005888826679438353,-0.023103803396224976,0.01955926977097988,-0.0007866461528465152,0.03289763256907463
0.04223958030343056,0.005888826679438353,-0.023103803396224976,0.01955926977097988,-0.0007866461528465152,0.03289763256907463
0.04173390194773674,0.006223546806722879,-0.023485440760850906,0.01986466720700264,-0.0007467793766409159,0.03320437669754028
0.042130693793296814,0.006072346121072769,-0.023065835237503052,0.02021910436451435,-0.0007595264469273388,0.03403337299823761
0.04216526076197624,0.006352516822516918,-0.022880474105477333,0.020233314484357834,-0.000877208833117038,0.03420800343155861
0.0421815924346447,0.006442551966756582,-0.02335016243159771,0.020226910710334778,-0.0008962907013483346,0.035470567643642426
0.04230743646621704,0.005744464695453644,-0.02338467538356781,0.02013656683266163,-0.0008979329140856862,0.03474876284599304
0.04257779195904732,0.005926566664129496,-0.023506898432970047,0.019939787685871124,-0.00084733497351408,0.03365292027592659
0.04247453808784485,0.006042888388037682,-0.023294905200600624,0.019985387101769447,-0.0009371000924147666,0.033112842589616776
0.04276719316840172,0.006237339228391647,-0.023053104057908058,0.01974969170987606,-0.0009386034798808396,0.03452536091208458
0.04293782636523247,0.006018604151904583,-0.023093705996870995,0.019478406757116318,-0.0009153871797025204,0.03462715819478035
