davideferrari95/blind_handover_controller/data/Test 93 - [2024-02-07 -- 16-12-31]/joint_states_data.csv
shoulder_pan_joint,shoulder_lift_joint,elbow_joint,wrist_1_joint,wrist_2_joint,wrist_3_joint
0.0034249608870595694,0.004786358214914799,-0.006905295420438051,0.00280076265335083,-0.0001232058129971847,0.0033178613521158695
0.0036770279984921217,0.004758521448820829,-0.005792400799691677,0.0029842080548405647,-0.00018498838471714407,0.0031946974340826273
0.0036770279984921217,0.004758521448820829,-0.005792400799691677,0.0029842080548405647,-0.00018498838471714407,0.0031946974340826273
0.0036461241543293,0.004707954823970795,-0.005907728336751461,0.002997225383296609,-0.00017983312136493623,0.0034835750702768564
0.003580336458981037,0.004478879272937775,-0.006912206299602985,0.002880960935726762,-0.00017306208610534668,0.004136897157877684
0.0036375178024172783,0.004980637226253748,-0.006680440157651901,0.0028207609429955482,-0.00018858439580071718,0.003468209644779563
0.0036375178024172783,0.004980637226253748,-0.006680440157651901,0.0028207609429955482,-0.00018858439580071718,0.003468209644779563
0.00378314102999866,0.005001423880457878,-0.00622049905359745,0.0029045178089290857,-0.00018592164269648492,0.0033563938923180103
0.00378314102999866,0.005001423880457878,-0.00622049905359745,0.0029045178089290857,-0.00018592164269648492,0.0033563938923180103
0.003867130959406495,0.004537385888397694,-0.00628982437774539,0.003250626614317298,-0.00017997468239627779,0.0033060330897569656
0.003588831052184105,0.0044409362599253654,-0.007122554816305637,0.0031327020842581987,-0.0001741851301630959,0.003532158210873604
0.003503759391605854,0.004487792961299419,-0.006267048418521881,0.003100327681750059,-0.0001687424664851278,0.004009440075606108
0.0036365233827382326,0.00454282620921731,-0.0059267682954669,0.0026425551623106003,-0.00016362890892196447,0.004002946894615889
0.0039008082821965218,0.0046786172315478325,-0.006559527944773436,0.0024894829839468002,-0.0001718049607006833,0.0037500651087611914
0.00398289505392313,0.0047688232734799385,-0.007051476277410984,0.0026056852657347918,-0.00017911111353896558,0.0036069450434297323
0.0034201687667518854,0.0049004945904016495,-0.006528041325509548,0.0029516902286559343,-0.0001749338989611715,0.003449459560215473
0.0034852016251534224,0.004719672258943319,-0.006023748312145472,0.0031819355208426714,-0.00017025812121573836,0.0033030291087925434
0.0036838685628026724,0.004371513146907091,-0.005848268512636423,0.003120249370113015,-0.0001657809189055115,0.0034591767471283674
0.003782130079343915,0.003995480947196484,-0.005859915632754564,0.0030552619136869907,-0.00016153031901922077,0.0036833398044109344
0.003778059035539627,0.004327901639044285,-0.006836588028818369,0.003025998594239354,-0.00015749195881653577,0.0034125098027288914
0.003697866341099143,0.00414026714861393,-0.006343137007206678,0.00292829773388803,-0.00017271268006879836,0.003522394923493266
0.0037428198847919703,0.004289492964744568,-0.006011136807501316,0.002862494206055999,-0.0001712313387542963,0.0037613266613334417
0.003879064926877618,0.00397917116060853,-0.0059760320000350475,0.0027504432946443558,-0.00016742107982281595,0.0039245374500751495
0.00351734203286469,0.0036691478453576565,-0.005767787806689739,0.0028197714127600193,-0.00016362742462661117,0.003961105830967426
0.0033437367528676987,0.004238603636622429,-0.006343042477965355,0.003106169169768691,-0.00018932762031909078,0.0034057232551276684
0.0033437367528676987,0.004238603636622429,-0.006343042477965355,0.003106169169768691,-0.00018932762031909078,0.0034057232551276684
0.003335679415613413,0.004059432540088892,-0.005998562090098858,0.003012075088918209,-0.0001863071956904605,0.003220242913812399
0.003529197769239545,0.0042785960249602795,-0.0061751375906169415,0.0028107936959713697,-0.0001792019756976515,0.0034004277549684048
0.0037052277475595474,0.004043453838676214,-0.00639916630461812,0.0032263468019664288,-0.00018225931853521615,0.0037053374107927084
0.0037052277475595474,0.004043453838676214,-0.00639916630461812,0.0032263468019664288,-0.00018225931853521615,0.0037053374107927084
0.0037118021864444017,0.004182788543403149,-0.006282276473939419,0.003334588371217251,-0.0001910060236696154,0.003511797171086073
0.0033535053953528404,0.004246036987751722,-0.006382324267178774,0.003118186956271529,-0.00018543904297985137,0.003603906836360693
0.003314398927614093,0.004028766881674528,-0.006166632287204266,0.0028275419026613235,-0.00017934455536305904,0.003919451497495174
0.003417009487748146,0.003915098030120134,-0.00660836324095726,0.0027418413665145636,-0.00017358287004753947,0.004203686490654945
0.003417009487748146,0.003915098030120134,-0.00660836324095726,0.0027418413665145636,-0.00017358287004753947,0.004203686490654945
0.003680629190057516,0.003897543530911207,-0.005887389648705721,0.0026320195756852627,-0.0001630967453820631,0.0035429424606263638
0.0036768324207514524,0.00401609530672431,-0.005727495066821575,0.0029294751584529877,-0.00015831462224014103,0.003237438155338168
0.0035869001876562834,0.004300947766751051,-0.006116149947047234,0.003143508918583393,-0.00017771607963368297,0.0030315672047436237
0.003650222672149539,0.004383557941764593,-0.007269570138305426,0.0030473063234239817,-0.00017435697373002768,0.003189978888258338
0.00380576285533607,0.004235273692756891,-0.006723572500050068,0.002682482823729515,-0.00016976015467662364,0.0032475613988935947
0.003444969654083252,0.00450011296197772,-0.006370206829160452,0.0026552921626716852,-0.0001653120416449383,0.003503387561067939
0.0033555757254362106,0.0042320177890360355,-0.006062859203666449,0.002758792834356427,-0.0001610854669706896,0.00400978047400713
0.003410937963053584,0.003954128362238407,-0.0058342763222754,0.0031684834975749254,-0.000176553861820139,0.003991587553173304
0.0035989449825137854,0.0042022401466965675,-0.00644999323412776,0.003153277561068535,-0.0001749479561112821,0.0035952990874648094
0.003694778075441718,0.004467315506190062,-0.00675158528611064,0.002888289513066411,-0.00017096895317081362,0.0032316239085048437
0.0035945114213973284,0.003925941418856382,-0.005695810541510582,0.0023552710190415382,-0.00016322857118211687,0.003593652043491602
0.0035945114213973284,0.003925941418856382,-0.005695810541510582,0.0023552710190415382,-0.00016322857118211687,0.003593652043491602
0.003768469439819455,0.004475332330912352,-0.0068345447070896626,0.002521150978282094,-0.00015960993187036365,0.003838104661554098
0.0037933506537228823,0.004206102807074785,-0.006923816166818142,0.0027170355897396803,-0.0001561483950354159,0.003872634842991829
0.0034020375460386276,0.004358603153377771,-0.005904689896851778,0.0031375419348478317,-0.0001744746696203947,0.0038781636394560337
0.003461954416707158,0.004216332919895649,-0.005762106738984585,0.003124815644696355,-0.00017493679479230195,0.003863466205075383
0.0033987199421972036,0.004048885777592659,-0.006373314652591944,0.0029801856726408005,-0.0001688457268755883,0.0037816232070326805
0.0034421104937791824,0.003893529763445258,-0.006972664035856724,0.002995803253725171,-0.00016276822134386748,0.003719757776707411
0.0034421104937791824,0.003893529763445258,-0.006972664035856724,0.002995803253725171,-0.00016276822134386748,0.003719757776707411
0.0035763164050877094,0.004415230359882116,-0.005999589338898659,0.0027441666461527348,-0.0001723132882034406,0.003177017206326127
0.0035763164050877094,0.004415230359882116,-0.005999589338898659,0.0027441666461527348,-0.0001723132882034406,0.003177017206326127
0.0033734031021595,0.004004527814686298,-0.007063993252813816,0.002736463909968734,-0.0001653897197684273,0.0034213520120829344
0.0033734031021595,0.004004527814686298,-0.007063993252813816,0.002736463909968734,-0.0001653897197684273,0.0034213520120829344
0.0033892823848873377,0.003929492551833391,-0.006580525077879429,0.002584927249699831,-0.000160488867550157,0.003800910897552967
0.003457790007814765,0.004379878751933575,-0.006321478169411421,0.0025479216128587723,-0.00015585740038659424,0.003951537888497114
0.0036219721660017967,0.0041218893602490425,-0.006626131013035774,0.0027614422142505646,-0.00015148484089877456,0.0037456019781529903
0.0036435844376683235,0.004258712753653526,-0.006449843756854534,0.0029281447641551495,-0.00016652648628223687,0.003209552960470319
0.0035097103100270033,0.004041194450110197,-0.006517860107123852,0.0030981579329818487,-0.00016295928799081594,0.0033966817427426577
0.0035097103100270033,0.004041194450110197,-0.006517860107123852,0.0030981579329818487,-0.00016295928799081594,0.0033966817427426577
0.0035097103100270033,0.004041194450110197,-0.006517860107123852,0.0030981579329818487,-0.00016295928799081594,0.0033966817427426577
0.003561935154721141,0.00402925256639719,-0.0066476259380578995,0.002691426081582904,-0.00015499086293857545,0.0033294912427663803
0.003693565260618925,0.003941450268030167,-0.007260807789862156,0.002763043623417616,-0.00015126953076105565,0.0035881369840353727
0.003685980336740613,0.004270324017852545,-0.0066142152063548565,0.0028056325390934944,-0.00014772247232031077,0.003510440234094858
0.0038804346695542336,0.0040794480592012405,-0.005995621904730797,0.002704969374462962,-0.00014433785690926015,0.003458914114162326
0.0036035883240401745,0.004484981764107943,-0.0062652635388076305,0.0025638798251748085,-0.00014110484335105866,0.0035017451737076044
0.0036584180779755116,0.004364080727100372,-0.007623801939189434,0.0025484850630164146,-0.00013505482638720423,0.0033362300600856543
0.0036584180779755116,0.004364080727100372,-0.007623801939189434,0.0025484850630164146,-0.00013505482638720423,0.0033362300600856543
0.0039585609920322895,0.004283804912120104,-0.006442365236580372,0.0024970986414700747,-0.0001322203315794468,0.0035221255384385586
0.003679875750094652,0.004233557265251875,-0.006290752906352282,0.0028239446692168713,-0.00012950232485309243,0.003487434471026063
0.0035616944078356028,0.004435676150023937,-0.006862856447696686,0.0033631769474595785,-0.00012689379218500108,0.003434940706938505
0.0032568161841481924,0.004164373502135277,-0.006905264221131802,0.003247042652219534,-0.0001243883598363027,0.003602192737162113
0.0036324304528534412,0.00432289345189929,-0.006359728053212166,0.0030685286037623882,-0.0001219798723468557,0.0037576023023575544
0.003860622877255082,0.0047889151610434055,-0.006396996323019266,0.002920566126704216,-0.00011966296005994081,0.003723180154338479
0.004387408960610628,0.004378641489893198,-0.006680838763713837,0.0028488733805716038,-0.00011743232607841492,0.003687916323542595
0.0037888793740421534,0.0043988716788589954,-0.006678275763988495,0.002564042806625366,-0.00011528346658451483,0.003622537711635232
0.003523745108395815,0.004561877343803644,-0.006961733568459749,0.0024386069271713495,-0.00011321175406919792,0.0036928739864379168
0.003600387368351221,0.0041669378988444805,-0.006432780064642429,0.002559815999120474,-0.00011121325223939493,0.003322188276797533
0.004249807447195053,0.004332833923399448,-0.006113975774496794,0.0027620382606983185,-0.00010928402480203658,0.0031902086921036243
0.0041185528971254826,0.004270548466593027,-0.007138935849070549,0.002883363515138626,-0.00010742058657342568,0.003238108241930604
0.0035351687110960484,0.0045167370699346066,-0.007819020189344883,0.0027957716956734657,-0.00010561968520050868,0.0034599793143570423
0.003606742015108466,0.004202716518193483,-0.006688075605779886,0.0029645010363310575,-0.00010387809743406251,0.00368852773681283
0.0043105012737214565,0.003988693933933973,-0.006439652293920517,0.0029578835237771273,-0.00010219308751402423,0.003696177853271365
0.004225081764161587,0.004090705420821905,-0.006716536823660135,0.002974423347041011,-0.00010056189057650045,0.0035863283555954695
0.00398798193782568,0.003927823156118393,-0.006840849760919809,0.0027693503070622683,-0.00010948015551548451,0.0035440288484096527
0.0038913500029593706,0.003811378963291645,-0.007274426985532045,0.0028641708195209503,-0.0001111345409299247,0.0033778550568968058
0.0039861430414021015,0.004347628448158503,-0.0065541574731469154,0.0027635605074465275,-0.00010966035915771499,0.003058004891499877
0.003559477161616087,0.004607852548360825,-0.006460350472480059,0.0026173540391027927,-0.00010802923497976735,0.0032322790939360857
0.0035565022844821215,0.004378737881779671,-0.006723193917423487,0.002422673860564828,-0.00010643316636560485,0.003231057431548834
0.0040107904933393,0.004064694046974182,-0.007373936474323273,0.0024025023449212313,-0.00010488281986908987,0.0034120059572160244
0.004322624299675226,0.004325829911977053,-0.006968633737415075,0.002362804254516959,-0.00010337694402551278,0.0033329385332763195
0.00423834566026926,0.004213772248476744,-0.006352698430418968,0.002773720072582364,-0.00010191366891376674,0.003258790820837021
0.0038726814091205597,0.004216753412038088,-0.007048737723380327,0.0031999042257666588,-9.910800872603431e-05,0.0030689905397593975
0.0038726814091205597,0.004216753412038088,-0.007048737723380327,0.0031999042257666588,-9.910800872603431e-05,0.0030689905397593975
0.0036884404253214598,0.004438015632331371,-0.00740141561254859,0.0029510543681681156,-9.776234219316393e-05,0.0029041513334959745
0.003658563829958439,0.004221620503813028,-0.006830593105405569,0.0027639009058475494,-9.645266982261091e-05,0.0028147248085588217
0.003805286716669798,0.004558346699923277,-0.006330849137157202,0.0027481603901833296,-9.51776237343438e-05,0.0029512636829167604
0.004454365000128746,0.004751001484692097,-0.006233898922801018,0.00287795253098011,-9.393590880790725e-05,0.003188122995197773
0.00416048988699913,0.004303387366235256,-0.006873406004160643,0.0029162485152482986,-9.272616443922743e-05,0.003517984179779887
0.003996906336396933,0.0039885747246444225,-0.006966403219848871,0.002900470048189163,-9.154715371550992e-05,0.0033144664485007524
0.003924731630831957,0.003937918692827225,-0.006792919244617224,0.0025916045997291803,-9.039779979502782e-05,0.0031176882330328226
0.0038683891762048006,0.0040825046598911285,-0.0063314191065728664,0.0024662858340889215,-8.927689486881718e-05,0.0032919656950980425
0.004312808159738779,0.004225470125675201,-0.006712506525218487,0.0026650188956409693,-8.818345668260008e-05,0.0030880970880389214
0.004194391891360283,0.004256409127265215,-0.006626144517213106,0.0028415315318852663,-8.711646660231054e-05,0.0030297681223601103
0.004057175014168024,0.004518191330134869,-0.006557667627930641,0.002863192232325673,-8.607503696111962e-05,0.0028883316554129124
0.0040710968896746635,0.004512355662882328,-0.00633400259539485,0.0028048742096871138,-8.505820733262226e-05,0.00289238803088665
0.003968918230384588,0.0043199933134019375,-0.006903532892465591,0.0027640347834676504,-8.406507549807429e-05,0.0032904306426644325
0.0038856996688991785,0.004112374037504196,-0.006793783977627754,0.00277877040207386,-8.309490658575669e-05,0.0031374457757920027
0.004312249831855297,0.00405880669131875,-0.006137686315923929,0.002822990994900465,-8.214683475671336e-05,0.003357896115630865
0.004221690818667412,0.004433102905750275,-0.0058081080205738544,0.0024298906791955233,-7.140378875192255e-05,0.0033305841498076916
0.0042189909145236015,0.004278859123587608,-0.0061665973626077175,0.002315998775884509,-6.89764492562972e-05,0.0030653588473796844
0.0039955792017281055,0.0043029822409152985,-0.006948309950530529,0.002535152016207576,-6.784938159398735e-05,0.0029625531751662493
0.003911391831934452,0.004101925063878298,-0.007261048536747694,0.002632188843563199,-6.683598621748388e-05,0.002891998505219817
0.004379965364933014,0.003780884202569723,-0.006929775699973106,0.0027789915911853313,-6.58574717817828e-05,0.0030295890755951405
0.004527925979346037,0.0036389916203916073,-0.005971226841211319,0.0028038627933710814,-6.490748637588695e-05,0.003184145549312234
0.004310380667448044,0.00369102880358696,-0.006392812822014093,0.0028256215155124664,-6.398459663614631e-05,0.002866460010409355
0.004468644503504038,0.0038112644106149673,-0.006782150361686945,0.0028939933981746435,-6.308755837380886e-05,0.0027396029327064753
0.0041916463524103165,0.0043295337818562984,-0.0063245357014238834,0.002949948888272047,-6.221537478268147e-05,0.0028260936960577965
0.00421891687437892,0.004538877867162228,-0.006814674474298954,0.002446005353704095,-6.054136247257702e-05,0.0031151515431702137
0.00421891687437892,0.004538877867162228,-0.006814674474298954,0.002446005353704095,-6.054136247257702e-05,0.0031151515431702137
0.00421891687437892,0.004538877867162228,-0.006814674474298954,0.002446005353704095,-6.054136247257702e-05,0.0031151515431702137
0.0042246608063578606,0.00392447505146265,-0.006660196930170059,0.0028183525428175926,-5.8955014537787065e-05,0.002658055629581213
0.0045433626510202885,0.0038923744577914476,-0.006085435394197702,0.003145303577184677,-5.8192654250888154e-05,0.0026091921608895063
0.004738971125334501,0.004063648637384176,-0.005991016514599323,0.003090385114774108,-5.744973896071315e-05,0.0024881071876734495
0.0043100230395793915,0.004159821197390556,-0.0064078583382070065,0.0030288188718259335,-5.672553015756421e-05,0.0026859629433602095
0.004217437002807856,0.0040578702464699745,-0.006763468962162733,0.0030803484842181206,-5.601935845334083e-05,0.0028767832554876804
0.004820304922759533,0.004314844962209463,-0.006352910306304693,0.0029722610488533974,-5.5330565373878926e-05,0.002878332743421197
0.004801981151103973,0.00437305448576808,-0.006184839177876711,0.0031290873885154724,-6.277979991864413e-05,0.00277092307806015
0.004783382639288902,0.004035839810967445,-0.00556079251691699,0.003057959722355008,-6.461963494075462e-05,0.0028270133771002293
0.0045132325030863285,0.00395823223516345,-0.006380211096256971,0.002879556966945529,-6.402267899829894e-05,0.0030379306990653276
0.004430112428963184,0.00381587166339159,-0.006856178864836693,0.0029866942204535007,-6.328342715278268e-05,0.003125573508441448
0.004187584854662418,0.003738418687134981,-0.006526498589664698,0.0027143782936036587,-6.255113112274557e-05,0.003051318693906069
0.004332075826823711,0.0035589600447565317,-0.0061699082143604755,0.0025646244175732136,-6.183491495903581e-05,0.0029263892211019993
0.004602780565619469,0.0038582959678024054,-0.006077495403587818,0.00255432422272861,-6.113487324910238e-05,0.0027885064482688904
0.0046057067811489105,0.004116430878639221,-0.006226623430848122,0.002722635632380843,-6.045052577974275e-05,0.0027590557001531124
0.00426260894164443,0.004346098750829697,-0.006328089628368616,0.0030654813162982464,-5.978131957817823e-05,0.0025486957747489214
0.00444005336612463,0.004013244528323412,-0.006484723184257746,0.0029225521720945835,-7.700527021370362e-06,0.0026755144353955984
0.004507072269916534,0.0033876991365104914,-0.006621409673243761,0.0028281116392463446,-5.027894189879589e-07,0.0026778182946145535
0.00465288246050477,0.0033619836904108524,-0.006384651176631451,0.0027101198211312294,-3.282855587372069e-08,0.0028820026200264692
0.00475554633885622,0.0035993033088743687,-0.006507641635835171,0.002766443882137537,-2.1434702901501623e-09,0.0031109044793993235
0.004361517261713743,0.003651237115263939,-0.006476311478763819,0.0026460299268364906,-1.3995328507210303e-10,0.002930765738710761
0.00439045112580061,0.0036248695105314255,-0.006589651107788086,0.0029117499943822622,-9.137949077975271e-12,0.0030536085832864046
0.004472162574529648,0.003681821282953024,-0.006293470971286297,0.003002661047503352,-5.966426896812649e-13,0.0027843306306749582
0.004540538415312767,0.0036601421888917685,-0.006666766945272684,0.0029929394368082285,-3.895650891715813e-14,0.00261871749535203
0.004614492412656546,0.0034337197430431843,-0.0069757429882884026,0.002819312969222665,-2.5435814953313034e-15,0.002488710219040513
0.005602668039500713,0.0036680763587355614,-0.006014786195009947,0.0029857216868549585,-1.0843686839428114e-17,0.0023566079325973988
0.004669372458010912,0.003786826506257057,-0.00625099241733551,0.0033889126498252153,-7.080153191474134e-19,0.0027447869069874287
0.004669372458010912,0.003786826506257057,-0.00625099241733551,0.0033889126498252153,-7.080153191474134e-19,0.0027447869069874287
0.004186737816780806,0.0034292363561689854,-0.006653276272118092,0.0032519069500267506,-4.6228339163369886e-20,0.0026898582000285387
0.004541002679616213,0.0034478099551051855,-0.007155794184654951,0.0029175737872719765,-3.0183802376704724e-21,0.0024640436749905348
0.005096124485135078,0.0032516461797058582,-0.006312962155789137,0.002623915672302246,-1.970786587053411e-22,0.0023621609434485435
0.005033609922975302,0.003481562715023756,-0.006356194615364075,0.0026089204475283623,-1.286782887734458e-23,0.0022150343284010887
0.004930312745273113,0.0036256678868085146,-0.006706738378852606,0.0025754235684871674,-8.40177194574157e-25,0.0023576312232762575
0.005113072227686644,0.003650555619969964,-0.006522709969431162,0.0029991299379616976,-5.4857566075368e-26,0.0026364787481725216
0.0049714334309101105,0.0036468636244535446,-0.006373621057718992,0.0032872757874429226,-3.581806762344471e-27,0.0024948683567345142
0.004926828667521477,0.0032160556875169277,-0.006800009869039059,0.0036366439890116453,-2.338663953706712e-28,0.002563563408330083
0.005104731768369675,0.003186010755598545,-0.006918637081980705,0.0033829035237431526,-1.5269804777181576e-29,0.002300271298736334
0.0053085265681147575,0.0032885526306927204,-0.006558972876518965,0.0031441531609743834,-9.970090753448446e-31,0.002155882539227605
0.005167435389012098,0.0036210305988788605,-0.006562839262187481,0.0029433395247906446,-6.509756647233712e-32,0.0021501369774341583
0.005397679749876261,0.003889590734615922,-0.006557665765285492,0.0029128643218427896,-7.381172326859087e-05,0.002165496116504073
0.005090616177767515,0.0036587007343769073,-0.006031839642673731,0.0032433171290904284,-8.604502363596112e-05,0.0023478821385651827
0.004934626165777445,0.003505043452605605,-0.006303847301751375,0.0031814309768378735,-8.530496415914968e-05,0.002129291882738471
0.005143630784004927,0.0031784549355506897,-0.006869042757898569,0.0029960651881992817,-8.377502672374249e-05,0.0021788617596030235
0.004953144118189812,0.0034194733016192913,-0.006761787924915552,0.0028575316537171602,-8.224762132158503e-05,0.0021421420387923717
0.005165347829461098,0.0037145335227251053,-0.006651643663644791,0.0027797080110758543,-8.07715259725228e-05,0.0021876997780054808
0.0053011332638561726,0.0034117253962904215,-0.005953060928732157,0.0027848139870911837,-7.93473154772073e-05,0.0026341048069298267
0.004773609805852175,0.0032682442106306553,-0.00639604264870286,0.0033474068623036146,-7.797242869855836e-05,0.0026608812622725964
0.0050547136925160885,0.0031992376316338778,-0.006681961007416248,0.003280490403994918,-7.664434087928385e-05,0.002448206301778555
0.005307538900524378,0.0034653625916689634,-0.006397487595677376,0.0030235571321099997,-7.536083285231143e-05,0.0021370172034949064
0.0051155611872673035,0.003812456503510475,-0.006185762584209442,0.0029205114115029573,-7.411955448333174e-05,0.0020338688045740128
0.005420106463134289,0.0038573502097278833,-0.006500180345028639,0.0028782046865671873,-7.291843212442473e-05,0.0020680688321590424
0.005424525588750839,0.0035852105356752872,-0.006807362660765648,0.0029042966198176146,-7.175574137363583e-05,0.001957602333277464
0.005587789695709944,0.0031907418742775917,-0.006671382114291191,0.002885681577026844,-7.06295104464516e-05,0.0021008539479225874
0.005208616144955158,0.0033978126011788845,-0.006210075691342354,0.0029239696450531483,-6.953808042453602e-05,0.0020959428511559963
0.0053483652882277966,0.00395347410812974,-0.006718507036566734,0.0032284283079206944,-6.745335122104734e-05,0.0022267443127930164
0.0053483652882277966,0.00395347410812974,-0.006718507036566734,0.0032284283079206944,-6.745335122104734e-05,0.0022267443127930164
0.005343378055840731,0.004053657408803701,-0.007200940977782011,0.0035166158340871334,-6.645717803621665e-05,0.0021429555490612984
0.0059565105475485325,0.0035665235482156277,-0.0066173565573990345,0.0032830822747200727,-6.54900140943937e-05,0.0020536279771476984
0.005417977459728718,0.0036019382532685995,-0.005982404109090567,0.003122928086668253,-7.413796265609562e-05,0.0020718539599329233
0.004965091589838266,0.003674902254715562,-0.005547459702938795,0.0031042960472404957,-7.614830246893689e-05,0.002314985729753971
0.0053184377029538155,0.004255239386111498,-0.006296624429523945,0.002989159431308508,-7.528623245889321e-05,0.0023360280320048332
0.005603322759270668,0.0041688489727675915,-0.006794145796447992,0.002910482930019498,-7.42639385862276e-05,0.002456076443195343
0.005567003041505814,0.003506937762722373,-0.006697022821754217,0.002800567541271448,-7.325731712626293e-05,0.0022838148288428783
0.005204503424465656,0.0035268848296254873,-0.0060726674273610115,0.002916098339483142,-7.227680907817557e-05,0.0021528492216020823
0.005822751671075821,0.003752466756850481,-0.006317149382084608,0.0033039406407624483,-7.132216705940664e-05,0.0018481566803529859
0.005399538204073906,0.003799148602411151,-0.0068692611530423164,0.0036467069294303656,-7.039246702333912e-05,0.0018012108048424125
0.005019159987568855,0.003853854024782777,-0.006712545175105333,0.0035614760126918554,-6.948669033590704e-05,0.001768227550201118
0.005274962168186903,0.0035815511364489794,-0.006522774696350098,0.0035332506522536278,-6.860388384666294e-05,0.0018318301299586892
0.005480439402163029,0.0036374174524098635,-0.006364353932440281,0.0033022223506122828,-6.77432690281421e-05,0.0017221858724951744
0.005483114626258612,0.003854744601994753,-0.006716400850564241,0.0034583352971822023,-6.69039654894732e-05,0.0018156536389142275
0.005346189718693495,0.003976070787757635,-0.00671806326135993,0.003295085160061717,-6.608520197914913e-05,0.0016861475305631757
0.005528679117560387,0.0034516763407737017,-0.006767531856894493,0.0034537671599537134,-6.528623634949327e-05,0.001615346991457045
0.005390595644712448,0.003486853325739503,-0.005948088131844997,0.0032380542252212763,-6.450633372878656e-05,0.0015444643795490265
0.00595961045473814,0.004228133242577314,-0.006591487675905228,0.0033075332175940275,-6.374486110871658e-05,0.0015617180615663528
0.00557313347235322,0.004196179565042257,-0.008122647181153297,0.003424895228818059,-6.300118548097089e-05,0.001692011021077633
0.005751124117523432,0.004022627603262663,-0.006752331741154194,0.0033809903543442488,-6.227465200936422e-05,0.0017823308007791638
0.005270934198051691,0.003961064387112856,-0.006007373798638582,0.0035543376579880714,-6.156468589324504e-05,0.0019220515387132764
0.005859160330146551,0.004025897942483425,-0.006505257450044155,0.003693074220791459,-6.0870705056004226e-05,0.0021922322921454906
0.0055423304438591,0.004054573364555836,-0.007536359131336212,0.0037133819423615932,-6.0192218370502815e-05,0.002017217455431819
0.005917717702686787,0.004033228382468224,-0.007140778470784426,0.003355613676831126,-3.017500785063021e-05,0.001832720940001309
0.005361814517527819,0.004086378961801529,-0.0071649556048214436,0.0031281986739486456,-1.9702122244780185e-06,0.0017473372863605618
0.005278293043375015,0.004082602448761463,-0.0065333605743944645,0.0029874779284000397,-1.2864079224073066e-07,0.0016282295109704137
0.005278293043375015,0.004082602448761463,-0.0065333605743944645,0.0029874779284000397,-1.2864079224073066e-07,0.0016282295109704137
0.006217081565409899,0.003792502684518695,-0.006966725457459688,0.003474714234471321,-5.48415757251064e-10,0.0015187372919172049
0.005528249312192202,0.004104013089090586,-0.006731555797159672,0.0036835200153291225,-3.58076311657296e-11,0.001542628975585103
0.005899349227547646,0.004197374917566776,-0.006700737867504358,0.0035044639371335506,-2.337982455205556e-12,0.0016066019888967276
0.005520668346434832,0.003565560793504119,-0.007295162416994572,0.0035535928327590227,-1.5265355169172268e-13,0.0015303262043744326
0.005839308723807335,0.0035491674207150936,-0.007661125622689724,0.0033467223402112722,-9.967186615173016e-15,0.0014249105006456375
0.005897001828998327,0.004150319844484329,-0.0068386755883693695,0.003090093145146966,-6.50786107166438e-16,0.0013371803797781467
0.0061161634512245655,0.004352359566837549,-0.006406222470104694,0.003269576234742999,-4.2491685731697794e-17,0.0013356992276385427
0.00591244688257575,0.00405074842274189,-0.006845136638730764,0.0030728064011782408,-2.7744032723771042e-18,0.0012508091749623418
0.005815185606479645,0.00381711358204484,-0.007508084177970886,0.003268089611083269,-1.8114870258938586e-19,0.001206312677823007
0.006136432755738497,0.003768932307139039,-0.007170288823544979,0.003301952499896288,-1.1827715022815094e-20,0.001241859863512218
0.006045527756214142,0.004116630647331476,-0.006623833440244198,0.0035397291649132967,-7.722652912590791e-22,0.0013097628252580762
0.006329623982310295,0.0042965225875377655,-0.00652069877833128,0.0037915417924523354,-5.042340530465721e-23,0.0014322919305413961
0.0058884043246507645,0.004094534087926149,-0.00711700227111578,0.0038790800608694553,-3.292287913758415e-24,0.0013844416243955493
0.0059204548597335815,0.003937526606023312,-0.008102832362055779,0.0034355875104665756,-2.1496287103949555e-25,0.0016005862271413207
0.006180892698466778,0.003829408437013626,-0.007064383942633867,0.003494676435366273,-1.4035539566696594e-26,0.0015724764671176672
0.0060686394572257996,0.00402387510985136,-0.006375705823302269,0.003291986882686615,-9.164204454486283e-28,0.0014462328981608152
0.006131580099463463,0.003995413426309824,-0.0071297092363238335,0.0034988645929843187,-5.983570031041515e-29,0.0013582329265773296
0.006465944927185774,0.0038954641204327345,-0.007815848104655743,0.0032738547306507826,-3.9068440602121505e-30,0.0012666654074564576
0.006091265939176083,0.004266912117600441,-0.0069391438737511635,0.003345201723277569,-2.550889979561231e-31,0.001204131287522614
0.006168178282678127,0.004561258014291525,-0.00675318855792284,0.0034451507963240147,-1.6655488355988803e-32,0.001220530248247087
0.006601258181035519,0.004733141511678696,-0.0071496786549687386,0.0033925867173820734,-1.0874845377632459e-33,0.001187449088320136
0.006140324752777815,0.004331375937908888,-0.007809738162904978,0.003590688342228532,-7.100497287885846e-35,0.0013519051717594266
0.006283489987254143,0.003937594126909971,-0.007300519850105047,0.003788470523431897,-4.6361173619800025e-36,0.0015876677352935076
0.0060738613829016685,0.0040266914293169975,-0.007099995389580727,0.0034474253188818693,-3.0270533293411147e-37,0.0017171705840155482
0.005925644654780626,0.0039739166386425495,-0.007296756841242313,0.003583852667361498,-1.976449648099838e-38,0.0018653174629434943
0.006095356307923794,0.004259518347680569,-0.00696385744959116,0.0035050984006375074,-8.425867536138693e-41,0.0014055840438231826
0.006095356307923794,0.004259518347680569,-0.00696385744959116,0.0035050984006375074,-8.425867536138693e-41,0.0014055840438231826
0.006084105931222439,0.004077704157680273,-0.007201274856925011,0.003534250892698765,-5.501497770939232e-42,0.0011793349403887987
0.006232444196939468,0.004367402754724026,-0.007648324593901634,0.0036591216921806335,-3.587324068671532e-43,0.0010364082409068942
0.005705243442207575,0.004259093664586544,-0.008135467767715454,0.0034101547207683325,-2.382207389352189e-44,0.000997855793684721
0.006338875275105238,0.003948367200791836,-0.00748114287853241,0.0032766826916486025,-1.401298464324817e-45,0.0009830435737967491
0.006804355885833502,0.004246629308909178,-0.0069083464331924915,0.003336552996188402,-0.0,0.0007945749093778431
0.006325688678771257,0.004182723350822926,-0.0072295283898711205,0.0034671013709157705,-0.0,0.0008420691010542214
0.006329444237053394,0.004044443368911743,-0.007994531653821468,0.0036077897530049086,-0.0,0.0008975423988886178
0.006037198007106781,0.003439864842221141,-0.007625630125403404,0.003696993924677372,-0.0,0.0016316843684762716
0.006368778180330992,0.0035326345823705196,-0.007061073090881109,0.0037914644926786423,-0.0,0.0015812937635928392
0.006396629847586155,0.0037669383455067873,-0.007226076442748308,0.0038458439521491528,-0.0,0.0015096488641574979
0.00652708113193512,0.0039228759706020355,-0.007598455995321274,0.003911332692950964,-0.0,0.001362950773909688
0.005720791406929493,0.00397215923294425,-0.0073856329545378685,0.0035069617442786694,-0.0,0.0012660215143114328
0.00597141170874238,0.003495501819998026,-0.007195108570158482,0.003573722206056118,-0.0,0.0011634452966973186
0.006307749543339014,0.003554810769855976,-0.007363687735050917,0.003524630330502987,-0.0,0.0010649028699845076
0.006118366029113531,0.004097210243344307,-0.007473386358469725,0.0034420171286910772,-0.0,0.0009402578580193222
0.006366621237248182,0.004226778633892536,-0.007345109712332487,0.0036171830724924803,-0.0,0.0009276241180486977
0.0061384085565805435,0.004058619495481253,-0.007580607198178768,0.0038252118974924088,-0.0,0.0009234904428012669
0.0061905100010335445,0.003592661116272211,-0.007768737152218819,0.0039434912614524364,-0.0,0.0009974997956305742
0.00653564790263772,0.003474539378657937,-0.007576096802949905,0.00350319966673851,-0.0,0.0010599526576697826
0.006628598086535931,0.003605765290558338,-0.007184355519711971,0.003493686206638813,-0.0,0.0010584158590063453
0.006199749186635017,0.0041113984771072865,-0.008103873580694199,0.0036329468712210655,-0.0,0.001036768313497305
0.0062537724152207375,0.003836339106783271,-0.008014834485948086,0.003728546667844057,-0.0,0.00104255392216146
0.0065367273055016994,0.0035812801215797663,-0.007510456722229719,0.0041656787507236,-0.0,0.0010379115119576454
0.006475760135799646,0.00361885828897357,-0.007440803572535515,0.004073172342032194,-0.0,0.0009970786049962044
0.0064355796203017235,0.003997668623924255,-0.007805323228240013,0.004043053835630417,-0.0,0.0008625474292784929
0.006402304396033287,0.004008148796856403,-0.007448870223015547,0.003988427575677633,-0.0,0.0007924024248495698
0.0063744825311005116,0.003969416953623295,-0.007413748651742935,0.0035695116966962814,-0.0,0.0007152105099521577
0.0063744825311005116,0.003969416953623295,-0.007413748651742935,0.0035695116966962814,-0.0,0.0007152105099521577
0.006437036208808422,0.003444315865635872,-0.006886598654091358,0.004027119837701321,-0.0,0.0006253857864066958
0.00683525949716568,0.003471050411462784,-0.007130227982997894,0.004124125465750694,-0.0,0.0005346157704479992
0.00651484914124012,0.003606659360229969,-0.007400969974696636,0.0043264515697956085,-0.0,0.0005225971690379083
0.0071989623829722404,0.0036261354107409716,-0.00803588330745697,0.004331559408456087,-0.0,0.0005139333079569042
0.006806395016610622,0.0035544068086892366,-0.006993810646235943,0.004623278509825468,-0.0,0.0005447238800115883
0.0067761545069515705,0.0035614040680229664,-0.007172415964305401,0.004537761677056551,-0.0,0.0005408981814980507
0.006541551556438208,0.003569359891116619,-0.007524394895881414,0.004241363611072302,-0.0,0.0005330656422302127
0.006827560253441334,0.0034386231563985348,-0.008068438619375229,0.0039747622795403,-0.0,0.0005626673228107393
0.007252251263707876,0.0037149982526898384,-0.00685512088239193,0.00420466298237443,-0.0,0.0005572305526584387
0.007420303765684366,0.003923394717276096,-0.007171763107180595,0.004547817166894674,-0.0,0.000592145835980773
0.0070234243758022785,0.0037223256658762693,-0.007473527919501066,0.004195773508399725,-0.0,0.000539271451998502
0.006487884558737278,0.0034663730766624212,-0.007243609521538019,0.004263382870703936,-0.0,0.0005610654479824007
0.007217635400593281,0.003196410369127989,-0.007079064380377531,0.004216213710606098,-0.0,0.0005239659803919494
0.006912589073181152,0.0034801282454282045,-0.007676974404603243,0.0040167951956391335,-0.0,0.0004842831986024976
0.0069150421768426895,0.003696887753903866,-0.00770018994808197,0.003857057075947523,-0.0,0.0004497283371165395
0.0070509519428014755,0.0037055127322673798,-0.007369427476078272,0.004099586047232151,-0.0,0.0004197475500404835
0.007443415466696024,0.00372943258844316,-0.007204230409115553,0.004411144647747278,-0.0,0.00039351414307020605
0.007539792452007532,0.003731138538569212,-0.007328950334340334,0.004261653404682875,-0.0,0.00037036807043477893
0.007572399452328682,0.003784178989008069,-0.008028737269341946,0.004427516367286444,-0.0,0.000349795154761523
0.007037410046905279,0.0033703146036714315,-0.007592868525534868,0.004513809457421303,-0.0,0.0003313885536044836
0.007334716618061066,0.003500821767374873,-0.007409490179270506,0.004413434769958258,-0.0,0.00031482294434681535
0.007446072530001402,0.003256339579820633,-0.0083326306194067,0.004370843525975943,-0.0,0.00033693015575408936
0.007304915226995945,0.0033799130469560623,-0.007930390536785126,0.004112599417567253,-0.0,0.00032672189990989864
0.007254084572196007,0.003453556215390563,-0.007527289912104607,0.0039169639348983765,-0.0,0.0003128547396045178
0.008052146062254906,0.00340386014431715,-0.007701251655817032,0.004697763826698065,-0.0,0.00028785582981072366
0.007726325653493404,0.0035702777095139027,-0.007777628488838673,0.0050524030812084675,-0.0,0.0002767881378531456
0.007726325653493404,0.0035702777095139027,-0.007777628488838673,0.0050524030812084675,-0.0,0.0002767881378531456
0.007586728315800428,0.0036791968159377575,-0.007035695016384125,0.004907132592052221,-0.0,0.0002665399806573987
0.007754826452583075,0.003656497923657298,-0.00724424235522747,0.00471047917380929,-0.0,0.000257023551966995
0.007507081143558025,0.003629416460171342,-0.007728284690529108,0.004676791839301586,-0.0,0.00024816315271891654
0.007596207316964865,0.003719672793522477,-0.007884597405791283,0.004727350082248449,-0.0,0.0002398937795078382
0.007591408211737871,0.0034723656717687845,-0.00735689140856266,0.004581614397466183,-0.0,0.00023215760302264243
0.007498696446418762,0.0035118458326905966,-0.006926973816007376,0.004860621877014637,-0.0,0.00022490495757665485
0.007524843793362379,0.003737841732800007,-0.0073816850781440735,0.005498665384948254,-0.0,0.00021809169265907258
0.007360575255006552,0.003940155729651451,-0.007799128536134958,0.005263577681034803,-0.0,0.0002116794348694384
0.007292637601494789,0.003908797632902861,-0.007247135043144226,0.0047721704468131065,-0.0,0.00020563318685162812
0.0076567139476537704,0.0037805926986038685,-0.0072898417711257935,0.0044737388379871845,-0.0,0.00019992289890069515
0.008128069341182709,0.0037361271679401398,-0.0077347178012132645,0.004764160141348839,-0.0,0.00019452121341601014
0.00824998039752245,0.0037583743687719107,-0.007419223431497812,0.005024105776101351,-0.0,0.0001894038578029722
0.00781650748103857,0.0038398634642362595,-0.007245585322380066,0.0051766373217105865,-0.0,0.0001845488150138408
0.00785323791205883,0.00340462988242507,-0.00741987768560648,0.004883036948740482,-0.0,0.00017993635265156627
0.00766269164159894,0.0031439890153706074,-0.007725885137915611,0.004631335381418467,-0.0,0.0001755489211063832
0.00813388079404831,0.00321644963696599,-0.007662899326533079,0.0046212151646614075,-0.0,0.00017137039685621858
0.0077748107723891735,0.003587428480386734,-0.007067112717777491,0.004769339691847563,-0.0,0.00016738614067435265
0.007596035022288561,0.004267166368663311,-0.007132130209356546,0.004898360464721918,-0.0,0.00016358314314857125
0.007841421291232109,0.004024969879537821,-0.008056661114096642,0.005618513096123934,-0.0,0.00015994886052794755
0.007447975222021341,0.0034643791150301695,-0.00827580876648426,0.005190431606024504,-0.0,0.0001564728154335171
0.008164003491401672,0.003353369189426303,-0.0072966949082911015,0.004657838959246874,-0.0,0.0001531444868305698
0.008991222828626633,0.003402634058147669,-0.007047530263662338,0.004923427011817694,-0.0,0.00014995477977208793
0.008046681061387062,0.003493712982162833,-0.00820933561772108,0.004954587202519178,-0.0,0.00014689522504340857
0.00761623727157712,0.003436272731050849,-0.008206216618418694,0.00482847448438406,-0.0,0.00014395813923329115
0.009179270826280117,0.0035836100578308105,-0.007565183099359274,0.005173788405954838,-0.0,0.00014113624638412148
0.009487350471317768,0.0037710913456976414,-0.007424206007272005,0.0054110633209347725,-0.0,0.00013842276530340314
0.008881173096597195,0.003991398029029369,-0.007810717914253473,0.00529103958979249,-0.0,0.0001358117297058925
0.010275623761117458,0.0034758932888507843,-0.008018250577151775,0.005074598360806704,-0.0,0.00011665724741760641
0.009035889059305191,0.0031966818496584892,-0.008254734799265862,0.005242757499217987,-0.0,0.00011261052713962272
0.009035889059305191,0.0031966818496584892,-0.008254734799265862,0.005242757499217987,-0.0,0.00011261052713962272
0.009906149469316006,0.0034578992053866386,-0.0081392303109169,0.005606307182461023,-0.0,0.00011050698958570138
0.009684848599135876,0.0037450361996889114,-0.0076054297387599945,0.005209238734096289,-0.0,0.00010859377653105184
0.00924272183328867,0.003791067050769925,-0.007592349778860807,0.005257710348814726,-0.0,0.00010675313387764618
0.009667115285992622,0.0038052143063396215,-0.008650964125990868,0.005028530023992062,-0.0,0.00010497420589672402
0.0103457598015666,0.003765589790418744,-0.00833774171769619,0.004626581445336342,-0.0,4.246065145707689e-05
0.009517180733382702,0.003686912590637803,-0.007606468163430691,0.004915289580821991,-0.0,3.329222454340197e-05
0.01075807400047779,0.0033753083553165197,-0.008278257213532925,0.005312802270054817,-0.0,3.214982643839903e-05
0.009506306611001492,0.0033831484615802765,-0.008257826790213585,0.00507356459274888,-0.0,3.155050580971874e-05
0.009603770449757576,0.003090104553848505,-0.00800767820328474,0.004770670086145401,-0.0,1.7531059711473063e-05
0.009942514821887016,0.0031528680119663477,-0.007905678823590279,0.004717517178505659,-0.0,1.5372239431599155e-05
0.010689642280340195,0.0032635268289595842,-0.008431518450379372,0.004935897886753082,-0.0,1.4994650882727001e-05
0.009687740355730057,0.0031734704971313477,-0.00843610055744648,0.005052519962191582,-0.0,1.4741128325113095e-05
0.010173915885388851,0.003428736003115773,-0.00818475242704153,0.0051453798078000546,-0.0,7.3610403887869325e-06
0.00998398382216692,0.003688045311719179,-0.008153564296662807,0.00498343538492918,-0.0,4.806233846466057e-07
0.009798773564398289,0.0038194225635379553,-0.008616176433861256,0.005213922820985317,-0.0,3.1381269138819334e-08
0.01004057377576828,0.0039528715424239635,-0.008437994867563248,0.005354082211852074,-0.0,2.0489727692307724e-09
0.010274210944771767,0.0035689393989741802,-0.008139947429299355,0.0050293984822928905,-0.0,1.3378327612389995e-10
0.009722434915602207,0.0034187831915915012,-0.008999397978186607,0.0054940832778811455,-0.0,8.735091643063964e-12
0.010090179741382599,0.0032062288373708725,-0.008588680997490883,0.00537067698314786,-0.0,5.703390776150286e-13
0.01053017470985651,0.0032270727679133415,-0.008150866255164146,0.005331495776772499,-0.0,-0.00022617433569394052
0.010084524750709534,0.003392220940440893,-0.008268540725111961,0.005444864742457867,-0.0,-0.0010473218280822039
0.010494467802345753,0.0035223739687353373,-0.009067187085747719,0.00508648157119751,-0.0,-0.0009523931075818837
0.010515245608985424,0.0034916927106678486,-0.0084233982488513,0.005199246108531952,-0.0,-0.0009396201348863542
0.010945510119199753,0.0035624986048787832,-0.00878989603370428,0.005212428513914347,-0.0,-0.0008248906815424562
0.010438844561576843,0.0033825733698904514,-0.008961633779108524,0.005421411246061325,-0.0,-0.0007437232998199761
0.010170561261475086,0.003436691127717495,-0.008963427506387234,0.005235654767602682,-0.0,-0.0007121979142539203
0.010170561261475086,0.003436691127717495,-0.008963427506387234,0.005235654767602682,-0.0,-0.0007121979142539203
0.01066128071397543,0.0032329170498996973,-0.008437690325081348,0.005389540921896696,-0.0,-0.0007598979864269495
0.010273194871842861,0.003447095863521099,-0.008664299733936787,0.005226412788033485,-0.0,-0.0011978992260992527
0.010490325279533863,0.0032060379162430763,-0.008992527611553669,0.005164431873708963,-7.640360308869276e-06,-0.0016515033785253763
0.010704545304179192,0.003290125634521246,-0.008318076841533184,0.005534149706363678,-4.988609134670696e-07,-0.0018166761146858335
0.010240386240184307,0.003518348326906562,-0.00955920945852995,0.005459980573505163,-3.257205349882497e-08,-0.0017505706055089831
0.010801199823617935,0.0036462610587477684,-0.009076161310076714,0.00547094875946641,-2.126722353779087e-09,-0.0015664973761886358
0.010714076459407806,0.0036621801555156708,-0.008668276481330395,0.005467159207910299,-1.3885977090399848e-10,-0.0014200512086972594
0.01008647121489048,0.003602496115490794,-0.008931698277592659,0.006007425952702761,-9.066551329151018e-12,-0.0011276447912678123
0.01081978902220726,0.003441084176301956,-0.009112984873354435,0.005850291345268488,-5.919809998103376e-13,-0.00113081990275532
0.010842516086995602,0.003477897960692644,-0.00911490898579359,0.0055245645344257355,-3.865213270975998e-14,-0.0011768380645662546
0.01056693121790886,0.0032555791549384594,-0.008877145126461983,0.005381637252867222,-2.5237077730481125e-15,-0.0017666795756667852
0.010842867195606232,0.0035671149380505085,-0.00977378524839878,0.005734962411224842,-1.6478009549295708e-16,-0.0021466524340212345
0.010534605011343956,0.003866290906444192,-0.008945237845182419,0.005603375844657421,-1.075896286518737e-17,-0.0023358380421996117
0.01107035018503666,0.0036610953975468874,-0.009938950650393963,0.005823035258799791,-7.024834454033885e-19,-0.002278216416016221
0.011263325810432434,0.0035435932222753763,-0.009526723995804787,0.0055890451185405254,-4.5867148810194046e-20,-0.0021526406053453684
0.010595295578241348,0.003613861510530114,-0.009449725970625877,0.005814488511532545,-2.994797108380258e-21,-0.0016742333536967635
0.01093657873570919,0.003645703662186861,-0.009372636675834656,0.005660801660269499,-1.9553884008367313e-22,-0.0016261026030406356
0.010672792792320251,0.0036888245958834887,-0.010123733431100845,0.0061194258742034435,-1.2767289343835067e-23,-0.0015585286309942603
0.010488398373126984,0.003217331599444151,-0.009729152545332909,0.006603564135730267,-8.336126885513603e-25,-0.0017280637985095382
0.010853305459022522,0.0032394714653491974,-0.008823471143841743,0.006603374145925045,-5.442895575884847e-26,-0.0018431501230224967
0.010418269783258438,0.0033435237128287554,-0.00949761550873518,0.006257330998778343,-3.553821844694558e-27,-0.0019894682336598635
0.010713650844991207,0.003620180767029524,-0.009524863213300705,0.00624537467956543,-1.7412266970495693e-05,-0.0021352129988372326
0.010835368186235428,0.0038865862879902124,-0.009340967051684856,0.00607426930218935,-0.00020921981194987893,-0.002353192074224353
0.011241227388381958,0.00393703393638134,-0.010280844755470753,0.006387612782418728,-0.00020318455062806606,-0.003529641777276993
0.011422262527048588,0.003908667713403702,-0.008821533061563969,0.005954218562692404,-0.0002231897960882634,-0.003568285144865513
0.010449063964188099,0.003466965164989233,-0.010001125745475292,0.006151869893074036,-0.0002230200043413788,-0.0032001498620957136
0.010449063964188099,0.003466965164989233,-0.010001125745475292,0.006151869893074036,-0.0002230200043413788,-0.0032001498620957136
0.010828220285475254,0.0036086183972656727,-0.009692643769085407,0.0066643995232880116,-0.00021474168170243502,-0.002776211826130748
0.010672034695744514,0.0038349537644535303,-0.009240020997822285,0.006717253476381302,-0.00020656456763390452,-0.002658516401425004
0.010843443684279919,0.0034466779325157404,-0.010131996124982834,0.006440440192818642,-0.00022770899522583932,-0.0027844510041177273
0.011115589179098606,0.003521851496770978,-0.009782902896404266,0.006079440005123615,-0.0002235775755252689,-0.0032419466879218817
0.010402349755167961,0.004379978869110346,-0.009612048976123333,0.005738737992942333,-0.00023901731765363365,-0.003681580536067486
0.011034098453819752,0.004207451827824116,-0.010083094239234924,0.007280911318957806,-0.0002383422979619354,-0.0033651075791567564
0.011281601153314114,0.0038638445548713207,-0.010391950607299805,0.007091700565069914,-0.00023116226657293737,-0.003215278033167124
0.010614350438117981,0.003690231591463089,-0.009213106706738472,0.006513840053230524,-0.0003167746472172439,-0.0029365478549152613
0.010112633928656578,0.0037399937864392996,-0.00981850828975439,0.006126123014837503,-0.00032440919312648475,-0.0029231435619294643
0.010322477668523788,0.003514630952849984,-0.010662326589226723,0.006491697859019041,-0.0003340369730722159,-0.003106434131041169
0.010451752692461014,0.003477394348010421,-0.009511968120932579,0.005971778649836779,-0.00034027837682515383,-0.003313324647024274
0.010664325207471848,0.003628185484558344,-0.010185712948441505,0.005660071037709713,-0.00032178175752051175,-0.0033348514698445797
0.010926883667707443,0.004389086738228798,-0.010028515942394733,0.005529929883778095,-0.0003411068464629352,-0.003599436255171895
0.011525130830705166,0.004208298400044441,-0.00978495366871357,0.00589422881603241,-0.00033467556932009757,-0.003571904031559825
0.010747406631708145,0.003871683729812503,-0.010368493385612965,0.0062470389530062675,-0.00035791390109807253,-0.003454427933320403
0.010625935159623623,0.003752379911020398,-0.009686294011771679,0.006132114678621292,-0.00034614987089298666,-0.003234053496271372
0.010874509811401367,0.0033385115675628185,-0.01014538761228323,0.00608048215508461,-0.0003306072612758726,-0.003206878202036023
0.010756280273199081,0.003475964767858386,-0.010009787045419216,0.006313943769782782,-0.0004207592864986509,-0.00349777122028172
0.010156232863664627,0.003689435077831149,-0.009459600783884525,0.006337071303278208,-0.00039936270331963897,-0.003822826547548175
0.010644047521054745,0.003755721030756831,-0.009114454500377178,0.006636924110352993,-0.00042170874075964093,-0.0038627758622169495
0.010581934824585915,0.003845825092867017,-0.010386243462562561,0.006649247370660305,-0.0004067276604473591,-0.0037085674703121185
0.010785494931042194,0.0038685267791152,-0.00953211635351181,0.006041511427611113,-0.0003792458737734705,-0.00359242781996727
0.011641647666692734,0.0037824162282049656,-0.00898093730211258,0.005855762865394354,-0.00038311639218591154,-0.003591148881241679
0.01108361966907978,0.0036838857922703028,-0.009801234118640423,0.006559997331351042,-0.0003860238066408783,-0.0037213799078017473
0.01112409122288227,0.0031231080647557974,-0.009395078755915165,0.006544796749949455,-0.0003881283337250352,-0.004053266253322363
0.01087663508951664,0.0031087775714695454,-0.009928420186042786,0.006174856331199408,-0.0003738217055797577,-0.00436302600428462
0.01087663508951664,0.0031087775714695454,-0.009928420186042786,0.006174856331199408,-0.0003738217055797577,-0.00436302600428462
0.011719787493348122,0.0030228784307837486,-0.009410306811332703,0.007212646305561066,-0.0003888976643793285,-0.0043790447525680065
0.011719787493348122,0.0030228784307837486,-0.009410306811332703,0.007212646305561066,-0.0003888976643793285,-0.0043790447525680065
0.011824147775769234,0.0033686282113194466,-0.010627522133290768,0.006993693299591541,-0.0004257562104612589,-0.0041200388222932816
0.011455722153186798,0.003721522865816951,-0.009875941090285778,0.0064186472445726395,-0.00039873161586001515,-0.0039495485834777355
0.011108286678791046,0.0038127435836941004,-0.01003140490502119,0.006494272965937853,-0.0004016377206426114,-0.003970330115407705
0.011580520309507847,0.003310487372800708,-0.010140219703316689,0.006685130763798952,-0.0004035109013784677,-0.00400738837197423
0.011737139895558357,0.003093193983659148,-0.01034174021333456,0.007462932262569666,-0.00038091177702881396,-0.004256362095475197
0.011946015059947968,0.003302902216091752,-0.010022389702498913,0.0068892547860741615,-0.00035929656587541103,-0.004758497700095177
0.01186581514775753,0.003287561936303973,-0.0092976875603199,0.006482675671577454,-0.0003851180663332343,-0.004830567631870508
0.011481880210340023,0.0035461769439280033,-0.010456429794430733,0.00653753662481904,-0.00036835766513831913,-0.004383479245007038
0.011798272840678692,0.0032748072408139706,-0.011309916153550148,0.006761954631656408,-0.000350607733707875,-0.00433935085311532
0.011728560552001,0.0030315311159938574,-0.010993987321853638,0.007354005239903927,-0.0003896778216585517,-0.004219737835228443
0.012075761333107948,0.0030549573712050915,-0.009851362556219101,0.006996000185608864,-0.00036676900344900787,-0.0040750885382294655
0.012065146118402481,0.0033847810700535774,-0.010133834555745125,0.006452652625739574,-0.0003396468819119036,-0.004329272545874119
0.011808506213128567,0.0034705898724496365,-0.010004429146647453,0.006501504685729742,-0.00031582938390783966,-0.00459750322625041
0.01221863366663456,0.0035909274592995644,-0.00980184692889452,0.007092359010130167,-0.0002951069618575275,-0.00501393573358655
0.011716516688466072,0.003326313104480505,-0.010605277493596077,0.007367332465946674,-0.00032846935209818184,-0.004600505344569683
0.01209114957600832,0.0030922149308025837,-0.010713228955864906,0.006967573892325163,-0.0003127960371784866,-0.0043450105004012585
0.012311075814068317,0.0028046611696481705,-0.009899440221488476,0.007106530945748091,-0.0002958707045763731,-0.004192780703306198
0.012225504033267498,0.0030013707000762224,-0.01062927395105362,0.006834649946540594,-0.00028051037224940956,-0.004755957517772913
0.01237632054835558,0.003035027999430895,-0.010055218823254108,0.0072177378460764885,-0.0002994526585098356,-0.004808968398720026
0.01241675578057766,0.003375936532393098,-0.00959421694278717,0.007345927879214287,-0.0002956937241833657,-0.004554742481559515
0.014059079810976982,0.0032032497692853212,-0.01055108942091465,0.007200251799076796,-0.00028307834872975945,-0.004925656598061323
0.013814877718687057,0.003485064022243023,-0.00999353639781475,0.007303474470973015,-0.0002709450200200081,-0.004915562458336353
0.013918055221438408,0.003187969559803605,-0.009861805476248264,0.007299626246094704,-0.0002597736020106822,-0.004774207714945078
0.013837513513863087,0.00318531203083694,-0.01057105977088213,0.007360067684203386,-0.00024948405916802585,-0.004664916545152664
0.013602707535028458,0.003139155451208353,-0.010293479077517986,0.007341386284679174,-0.0002640443854033947,-0.0050817918963730335
0.013602707535028458,0.003139155451208353,-0.010293479077517986,0.007341386284679174,-0.0002640443854033947,-0.0050817918963730335
0.013906615786254406,0.003180392784997821,-0.010255983099341393,0.007335313595831394,-0.0002548343036323786,-0.005321421194821596
0.01392326969653368,0.0032861793879419565,-0.009686431847512722,0.007260998710989952,-0.00024223454238381237,-0.005643981974571943
0.014584597200155258,0.003024060744792223,-0.010657071135938168,0.006969104986637831,-0.00022914337750989944,-0.005302133038640022
0.014181824401021004,0.003139246255159378,-0.011205779388546944,0.0071519650518894196,-0.0002179902367061004,-0.00537979556247592
0.014734454452991486,0.003283412428572774,-0.009993525221943855,0.007096495945006609,-0.00020791208953596652,-0.005409669131040573
0.014434396289288998,0.00364190642721951,-0.009988457895815372,0.007027189247310162,-0.00019872808479703963,-0.005505590233951807
0.01472951378673315,0.003353395266458392,-0.010119333863258362,0.006944429595023394,-0.00019032102136407048,-0.0052907755598425865
0.014352366328239441,0.003159628016874194,-0.00971926562488079,0.0069410838186740875,-0.00018259705393575132,-0.005560583434998989
0.014894402585923672,0.0028597787022590637,-0.01027199998497963,0.0072206612676382065,-0.00017547495372127742,-0.005391452461481094
0.014420808292925358,0.002904469147324562,-0.010292096063494682,0.0075095356442034245,-0.00016888843674678355,-0.005158156622201204
0.014736254699528217,0.003096628235653043,-0.00988735631108284,0.007457603234797716,-0.00016277814575005323,-0.005142478737980127
0.014704473316669464,0.003440514672547579,-0.010027281008660793,0.008039492182433605,-0.000157094924361445,-0.0053865984082221985
0.014668688178062439,0.0037224222905933857,-0.010409106500446796,0.008243292570114136,-0.00015179498586803675,-0.005534736439585686
0.014247131533920765,0.003401439404115081,-0.00977399479597807,0.007727017626166344,-0.00014684099005535245,-0.005327374674379826
0.014743437059223652,0.0035879977513104677,-0.010155650787055492,0.007271572016179562,-0.0001422003988409415,-0.0054924641735851765
0.01472313143312931,0.0033579994924366474,-0.010618210770189762,0.007403792347759008,-0.00013784418115392327,-0.005817021243274212
0.015053058974444866,0.003611468942835927,-0.009470922872424126,0.007895444519817829,-0.0001337468420388177,-0.005547426640987396
0.014343450777232647,0.003748819697648287,-0.01020380575209856,0.007553135510534048,-0.00012988598609808832,-0.005546649917960167
0.015007293783128262,0.003728116862475872,-0.010087107308208942,0.007386480458080769,-0.00012624176451936364,-0.005426881369203329
0.014800921082496643,0.003307741368189454,-0.009676511399447918,0.007699755020439625,-0.00012279668590053916,-0.00578153133392334
0.015157305635511875,0.0030514532700181007,-0.010120682418346405,0.00852671917527914,-0.00011953456851188093,-0.006365691311657429
0.01495253574103117,0.0032517912331968546,-0.010061569511890411,0.008062278851866722,-0.00011644130427157506,-0.006575229112058878
0.015601127408444881,0.0036930269561707973,-0.010133190080523491,0.007700595073401928,-0.00011350402928655967,-0.0059006973169744015
0.015062747523188591,0.003836056450381875,-0.010867931880056858,0.0078107696026563644,-0.0001299397408729419,-0.005785322282463312
0.015154413878917694,0.0035426593385636806,-0.010006070137023926,0.00853060744702816,-0.00012947333743795753,-0.0058304485864937305
0.01506064273416996,0.003446928458288312,-0.009606806561350822,0.008474101312458515,-0.00012661049549933523,-0.006163451354950666
0.01566304638981819,0.00335926772095263,-0.01062155980616808,0.008177495561540127,-0.00012095054262317717,-0.0063140615820884705
0.01566304638981819,0.00335926772095263,-0.01062155980616808,0.008177495561540127,-0.00012095054262317717,-0.0063140615820884705
0.01566304638981819,0.00335926772095263,-0.01062155980616808,0.008177495561540127,-0.00012095054262317717,-0.0063140615820884705
0.015508974902331829,0.003289584768936038,-0.010329757817089558,0.008103236556053162,-0.0001157644292106852,-0.005895610898733139
0.015447107143700123,0.003372368635609746,-0.009661476127803326,0.008916929364204407,-0.00011333463771734387,-0.006235005334019661
0.015546318143606186,0.0034494823776185513,-0.010206473059952259,0.008377781137824059,-0.00011100485426140949,-0.006496387999504805
0.015602769330143929,0.0034518383909016848,-0.010791364125907421,0.008363447152078152,-0.00010876887972699478,-0.006498650647699833
0.01635187678039074,0.003399049397557974,-0.010071852244436741,0.008574990555644035,-0.00010662122076610103,-0.006107842084020376
0.015823932364583015,0.003601342672482133,-0.01089548971503973,0.008663450367748737,-0.00010455676965648308,-0.006648174021393061
0.01574930176138878,0.003948673605918884,-0.010626090690493584,0.008417545817792416,-0.00011525546869961545,-0.006880505941808224
0.015883082523941994,0.003912993706762791,-0.01133547443896532,0.008311434648931026,-0.00011714726861100644,-0.006896905601024628
0.0156022347509861,0.003598736133426428,-0.012214797548949718,0.009106657467782497,-0.00011526723392307758,-0.006218723952770233
0.015818312764167786,0.0035202750004827976,-0.011474067345261574,0.00850420817732811,-0.00011321310012135655,-0.006067712791264057
0.016102435067296028,0.0037030037492513657,-0.01157316379249096,0.008584573864936829,-0.00011121566785732284,-0.006768904160708189
0.01638582907617092,0.003933414816856384,-0.01167256012558937,0.008359589613974094,-0.00010928638221230358,-0.006970054470002651
0.01624840870499611,0.003479779465124011,-0.011468416079878807,0.00846919696778059,-0.00010742298036348075,-0.007240836042910814
0.0162657517939806,0.0040713413618505,-0.012297717854380608,0.008739132434129715,-0.00010562191891949624,-0.006990982219576836
0.015591127797961235,0.004174444358795881,-0.011638028547167778,0.008033649064600468,-0.000103880294773262,-0.006544257048517466
0.01649630442261696,0.004028880503028631,-0.01194301899522543,0.008597508072853088,-0.00011582551815081388,-0.006545017473399639
0.016463786363601685,0.0039054190274327993,-0.011879307217895985,0.00821081642061472,-0.00011486684525152668,-0.006882864516228437
0.01711723580956459,0.0034670315217226744,-0.012537776492536068,0.008093569427728653,-0.00011312026617815718,-0.006710706744343042
0.016517911106348038,0.003912694752216339,-0.012437270022928715,0.008314683102071285,-0.00011137430556118488,-0.007247688248753548
0.016431082040071487,0.004158730618655682,-0.012039439752697945,0.008774416521191597,-0.00010976505291182548,-0.007039221934974194
0.017350798472762108,0.0037185694091022015,-0.01222863420844078,0.008433639071881771,-9.382497955812141e-05,-0.0070213694125413895
0.01603495143353939,0.003482735948637128,-0.011746284551918507,0.008790140971541405,-9.103478805627674e-05,-0.007147702854126692
0.01658920757472515,0.0036409953609108925,-0.012471465393900871,0.009149088524281979,-8.917257218854502e-05,-0.006792007014155388
0.016840176656842232,0.003781610867008567,-0.012496423907577991,0.008872653357684612,-0.00010375881538493559,-0.00706730131059885
0.01684059202671051,0.004233307670801878,-0.011831401847302914,0.00881179329007864,-0.00010284709424013272,-0.007410555612295866
0.01746394671499729,0.004172281362116337,-0.012700279243290424,0.00925956480205059,-0.00011562080180738121,-0.007335823494940996
0.01700240932404995,0.0035477138590067625,-0.012011351063847542,0.009133687242865562,-0.0001277857954846695,-0.007012652233242989
0.017480339854955673,0.0035649833735078573,-0.012399386614561081,0.008824726566672325,-0.0003402793372515589,-0.007243156433105469
0.01733323372900486,0.003527180990204215,-0.011889434419572353,0.008897732011973858,-0.0006320065003819764,-0.008185197599232197
0.01733323372900486,0.003527180990204215,-0.011889434419572353,0.008897732011973858,-0.0006320065003819764,-0.008185197599232197
0.017290910705924034,0.004283416550606489,-0.012215737253427505,0.00883366446942091,-0.0006523628835566342,-0.0074068293906748295
0.01676781289279461,0.00419760262593627,-0.011703216470777988,0.008832147344946861,-0.0006100638420321047,-0.006823851261287928
0.017580755054950714,0.0035772761330008507,-0.0127056073397398,0.010022579692304134,-0.0008388986461795866,-0.007089184131473303
0.01708020269870758,0.0034470369573682547,-0.01224654819816351,0.008876420557498932,-0.0007949403370730579,-0.007047352381050587
0.017415259033441544,0.0036580031737685204,-0.012781801633536816,0.00854562222957611,-0.0007464794907718897,-0.006647732108831406
0.01732012815773487,0.0037721560802310705,-0.012534438632428646,0.009274201467633247,-0.0007118078065104783,-0.006637602113187313
0.017270402982831,0.004281261935830116,-0.011967896483838558,0.009183118119835854,-0.000681810372043401,-0.006896930281072855
0.018053201958537102,0.003635820234194398,-0.012311520054936409,0.008801628835499287,-0.000617947313003242,-0.00804856140166521
0.01769973337650299,0.003581341588869691,-0.012260321527719498,0.009278488345444202,-0.0005628713988699019,-0.007889456115663052
0.017667489126324654,0.003655839478597045,-0.01274129655212164,0.009139384143054485,-0.0005803207750432193,-0.007650522980839014
0.017783500254154205,0.004243331961333752,-0.012802180834114552,0.008552026934921741,-0.0005450276075862348,-0.007570302579551935
0.01766219735145569,0.00417548231780529,-0.012008101679384708,0.00933719053864479,-0.0005071770865470171,-0.007593696471303701
0.01820092462003231,0.0035337377339601517,-0.012348400428891182,0.00967457052320242,-0.0004738169664051384,-0.007827376015484333
0.018141860142350197,0.003520964179188013,-0.012310056015849113,0.009170047007501125,-0.0004445475642569363,-0.006599097047001123
0.017446644604206085,0.0037273247726261616,-0.012791149318218231,0.009249372407793999,-0.00041868528933264315,-0.005913281347602606
0.01803247258067131,0.003943236079066992,-0.01167348213493824,0.009848255664110184,-0.00039707685937173665,-0.006305716000497341
0.017834365367889404,0.004003364127129316,-0.012077156454324722,0.010154877789318562,-0.0003079424786847085,-0.0069306381046772
0.018339136615395546,0.003908503334969282,-0.011848741210997105,0.00941972341388464,-0.00028439759626053274,-0.007290014065802097
0.018253758549690247,0.003795393044129014,-0.011608428321778774,0.009901189245283604,-0.00030659977346658707,-0.007362977135926485
0.018002131953835487,0.0038253269158303738,-0.012171106413006783,0.010314671322703362,-0.00030175733263604343,-0.007384775672107935
0.01837465912103653,0.0038445538375526667,-0.011983534321188927,0.009976057335734367,-0.0002865447022486478,-0.00729706697165966
0.018273573368787766,0.0037680212408304214,-0.012569170445203781,0.009994902648031712,-0.000294284283882007,-0.007266351021826267
0.01812046393752098,0.0036417192313820124,-0.011679763905704021,0.009613743983209133,-0.00030075819813646376,-0.007406918331980705
0.018502511084079742,0.003696913132444024,-0.012181481346487999,0.009651042520999908,-0.0003084638447035104,-0.007015882059931755
0.018510974943637848,0.003756691934540868,-0.012431050650775433,0.009982065297663212,-0.00031381958979181945,-0.007115427404642105
0.01841321960091591,0.003791363211348653,-0.012316561304032803,0.009565522894263268,-0.0003018885909114033,-0.007396850269287825
0.0191442109644413,0.0037654016632586718,-0.012896563857793808,0.00953017920255661,-0.00037910015089437366,-0.007901587523519993
0.01882212609052658,0.003832930466160178,-0.011954208835959435,0.009690885432064533,-0.00037697015795856714,-0.008202708326280117
0.018588755279779434,0.003921964205801487,-0.012757319957017899,0.009827197529375553,-0.00040095896110869944,-0.00792490504682064
0.018588755279779434,0.003921964205801487,-0.012757319957017899,0.009827197529375553,-0.00040095896110869944,-0.00792490504682064
0.018649276345968246,0.0035217462573200464,-0.012421331368386745,0.010228893719613552,-0.0004194241773802787,-0.008041237480938435
0.019105110317468643,0.004203527234494686,-0.012914481572806835,0.009707723744213581,-0.0003967406810261309,-0.007783542387187481
0.019491158425807953,0.0040589929558336735,-0.012522213160991669,0.010280123911798,-0.0004127584688831121,-0.007468932308256626
0.018982963636517525,0.003881478449329734,-0.012655867263674736,0.010066917166113853,-0.0004020123742520809,-0.007508403155952692
0.01892983540892601,0.0038130921311676502,-0.012125053443014622,0.009695260785520077,-0.0005109111662022769,-0.007994221523404121
0.018525293096899986,0.0038545019924640656,-0.012456906028091908,0.010377991013228893,-0.00047684230958111584,-0.008523747324943542
0.018399450927972794,0.003818731987848878,-0.01225067675113678,0.010009014047682285,-0.0005067370948381722,-0.008132873103022575
0.01911289617419243,0.0042936005629599094,-0.01282951608300209,0.009597030468285084,-0.0004725499893538654,-0.008257401175796986
0.019182570278644562,0.0035915179178118706,-0.012506122700870037,0.010214826092123985,-0.0004351067473180592,-0.007979382760822773
0.018905656412243843,0.0035221208818256855,-0.012049608863890171,0.009591897018253803,-0.000465055723907426,-0.008368965238332748
0.018574655055999756,0.003688142402097583,-0.012481160461902618,0.009474178776144981,-0.00043686130084097385,-0.00799448974430561
0.018787221983075142,0.003790374845266342,-0.01182402204722166,0.010582256130874157,-0.00045174031401984394,-0.008147280663251877
0.01912699267268181,0.0037681018002331257,-0.01274697296321392,0.011364960111677647,-0.00043769500916823745,-0.008315593004226685
0.01946496032178402,0.0037593552842736244,-0.01221263688057661,0.010507111437618732,-0.00045243234490044415,-0.007812969386577606
0.018997570499777794,0.0043470123782753944,-0.012743566185235977,0.01057390682399273,-0.0004244908632244915,-0.007724085822701454
0.01912498287856579,0.004197247326374054,-0.012678076513111591,0.010237530805170536,-0.0003887502825818956,-0.008462189696729183
0.019244574010372162,0.0035516892094165087,-0.01204313151538372,0.010059623047709465,-0.00042436449439264834,-0.009022245183587074
0.01881573721766472,0.003555755130946636,-0.012439215555787086,0.009733614511787891,-0.0004296013212297112,-0.008172182366251945
0.01922845095396042,0.0037068866658955812,-0.011718753725290298,0.010503942146897316,-0.00042997082346118987,-0.008185895159840584
0.019366368651390076,0.0043291933834552765,-0.012703382410109043,0.010659406892955303,-0.0004542481037788093,-0.008791717700660229
0.019671645015478134,0.0041550626046955585,-0.012000715360045433,0.010346516966819763,-0.0005164614995010197,-0.008533790707588196
0.01935691013932228,0.0035552859771996737,-0.013156598433852196,0.010259627364575863,-0.0005342139047570527,-0.008638140745460987
0.020049918442964554,0.0035823869984596968,-0.012950065545737743,0.010107125155627728,-0.0005650656530633569,-0.008615214377641678
0.019667254760861397,0.003155509475618601,-0.012621888890862465,0.010209468193352222,-0.000521973124705255,-0.008736416697502136
0.019304269924759865,0.0030094326939433813,-0.012714739888906479,0.009864673018455505,-0.0005450635799206793,-0.008618411608040333
0.01933078095316887,0.0030617578886449337,-0.012637203559279442,0.00964849442243576,-0.000510243815369904,-0.008761914446949959
0.01933078095316887,0.0030617578886449337,-0.012637203559279442,0.00964849442243576,-0.000510243815369904,-0.008761914446949959
0.019804466515779495,0.0030864584259688854,-0.013217726722359657,0.010063931345939636,-0.00047255403478629887,-0.009211528114974499
0.019848927855491638,0.0035175837110728025,-0.012524285353720188,0.010294714011251926,-0.00043959752656519413,-0.009023300372064114
0.020283814519643784,0.003310243133455515,-0.013230574317276478,0.01084375474601984,-0.00041090912418439984,-0.008689973503351212
0.021181371062994003,0.0029630535282194614,-0.013731707818806171,0.01039819698780775,-0.0004017316095996648,-0.008472568355500698
0.020922742784023285,0.00326885306276381,-0.013779543340206146,0.010325472801923752,-0.0003918364236596972,-0.008467510342597961
0.020820731297135353,0.003245521802455187,-0.01371977012604475,0.01010794099420309,-0.00037234925548546016,-0.008931002579629421
0.021468328312039375,0.0035501273814588785,-0.0133609464392066,0.01026917714625597,-0.0003540833422448486,-0.009024652652442455
0.021134311333298683,0.003284978214651346,-0.014080280438065529,0.010980535298585892,-0.0003374846710357815,-0.008722980506718159
0.02120320312678814,0.002976595191285014,-0.01407327875494957,0.01062905415892601,-0.00032269046641886234,-0.009340086951851845
0.021606534719467163,0.0030039846897125244,-0.01417415402829647,0.010676315054297447,-0.000280084932455793,-0.009008225984871387
0.021298125386238098,0.003337636822834611,-0.014738818630576134,0.010374673642218113,-0.0002622760075610131,-0.008458465337753296
0.02107536606490612,0.003290771273896098,-0.014555421657860279,0.010269936174154282,-0.00024773486074991524,-0.00873718410730362
0.021039120852947235,0.0031359766144305468,-0.013988381251692772,0.010467061772942543,-0.00026943490956909955,-0.009220386855304241
0.02170240320265293,0.0030133742839097977,-0.013954353518784046,0.010817598551511765,-0.0002669747918844223,-0.009314283728599548
0.021615177392959595,0.0030979125294834375,-0.014328873716294765,0.010300339199602604,-0.0002550717326812446,-0.009083316661417484
0.021442729979753494,0.003180909901857376,-0.013665237464010715,0.010483495891094208,-0.00027359469095245004,-0.009081770665943623
0.021674972027540207,0.0030486364848911762,-0.014196549542248249,0.010791627690196037,-0.0002712489804252982,-0.00922536849975586
0.02171242982149124,0.002901238389313221,-0.013839947059750557,0.010967422276735306,-0.0002881650871131569,-0.009249629452824593
0.02202361635863781,0.003181289415806532,-0.014080556109547615,0.011293632909655571,-0.0002854502818081528,-0.008965986780822277
0.022044701501727104,0.0029260495211929083,-0.014391995035111904,0.01134189497679472,-0.00039628022932447493,-0.009446533396840096
0.021892506629228592,0.003106506774201989,-0.01414500642567873,0.011478596366941929,-0.0004367425572127104,-0.009120791219174862
0.022261613979935646,0.003416056977584958,-0.014614952728152275,0.01201642770320177,-0.00042119069257751107,-0.00951221864670515
0.022574152797460556,0.00324442982673645,-0.014643398113548756,0.011534206569194794,-0.0004525421536527574,-0.010357052087783813
0.022253258153796196,0.0035286492202430964,-0.014032680541276932,0.011688457801938057,-0.0004826010263059288,-0.009509280323982239
0.02204643189907074,0.0038196598179638386,-0.014474990777671337,0.011682757176458836,-0.0006967723020352423,-0.009455271065235138
0.022266827523708344,0.003398885251954198,-0.014484082348644733,0.010992566123604774,-0.0007366891368292272,-0.009799852967262268
0.022858744487166405,0.0035742928739637136,-0.014543554745614529,0.010874991305172443,-0.0007025928352959454,-0.009729438461363316
0.022858744487166405,0.0035742928739637136,-0.014543554745614529,0.010874991305172443,-0.0007025928352959454,-0.009729438461363316
0.022985262796282768,0.0033228450920432806,-0.014091488905251026,0.010692482814192772,-0.0007011509733274579,-0.009822235442698002
0.023117495700716972,0.0033788937143981457,-0.014539149589836597,0.01151488721370697,-0.0006520148599520326,-0.010556994937360287
0.022635120898485184,0.0034636741038411856,-0.014450592920184135,0.012124976143240929,-0.0006707092979922891,-0.010074276477098465
0.022816462442278862,0.003527883207425475,-0.014608452096581459,0.012543899938464165,-0.0006896453560329974,-0.009409775026142597
0.023288564756512642,0.003476969199255109,-0.014666887931525707,0.012288491241633892,-0.0006867300253361464,-0.00953616201877594
0.022948453202843666,0.003814260009676218,-0.014273613691329956,0.012301924638450146,-0.000661814003251493,-0.009790844283998013
0.022388488054275513,0.0036164489574730396,-0.014779478311538696,0.012247733771800995,-0.0006814225926063955,-0.010549455881118774
0.02334047481417656,0.0035581893753260374,-0.014674574136734009,0.01202433928847313,-0.0007028610561974347,-0.010074534453451633
0.02378312684595585,0.0032569642644375563,-0.014715105295181274,0.011936199851334095,-0.0006749616586603224,-0.009691508486866951
0.02379917912185192,0.00349793815985322,-0.014545419253408909,0.011508150026202202,-0.0006771711632609367,-0.00991876795887947
0.023607473820447922,0.0037313734646886587,-0.01498573087155819,0.012605282478034496,-0.0006752568879164755,-0.009886913932859898
0.023243039846420288,0.0037790967617183924,-0.015120458789169788,0.012353654019534588,-0.0006518573500216007,-0.0100504569709301
0.02288668043911457,0.0038276829291135073,-0.0148678719997406,0.01244533620774746,-0.0006664638640359044,-0.010385170578956604
0.02322044037282467,0.0038496721535921097,-0.015077952295541763,0.012231677770614624,-0.0006756986258551478,-0.010207239538431168
0.024145005270838737,0.003411782905459404,-0.014784631319344044,0.012084814719855785,-0.0007300540455617011,-0.01042051613330841
0.023961789906024933,0.0035733787808567286,-0.014865185134112835,0.0131436912342906,-0.0007528610294684768,-0.009994275867938995
0.02397695928812027,0.0038350557442754507,-0.01499930676072836,0.011975403875112534,-0.0007693568477407098,-0.010543248616158962
0.02403579093515873,0.003938131034374237,-0.015327232889831066,0.01247385423630476,-0.000718519848305732,-0.010379592888057232
0.024090204387903214,0.003922768868505955,-0.015057405456900597,0.011920979246497154,-0.0008515568915754557,-0.010168179869651794
0.02401626668870449,0.0038842670619487762,-0.015461918897926807,0.012196317315101624,-0.0008658796432428062,-0.01034882664680481
0.024523762986063957,0.004325642716139555,-0.014629990793764591,0.01235833391547203,-0.0008145286119543016,-0.010218084789812565
0.024241894483566284,0.00440178532153368,-0.015233493410050869,0.01252069417387247,-0.0007685643504373729,-0.010146535001695156
0.02416444942355156,0.004023488145321608,-0.015088226646184921,0.012661912478506565,-0.0006880222936160862,-0.010394714772701263
0.024278894066810608,0.003801444312557578,-0.015594467520713806,0.011822509579360485,-0.0006203936063684523,-0.010881442576646805
0.024556417018175125,0.0037795635871589184,-0.014989130198955536,0.011923238635063171,-0.0006396137760020792,-0.011204177513718605
0.024829328060150146,0.004318875726312399,-0.0157063826918602,0.012014269828796387,-0.0005918755196034908,-0.010576202534139156
0.024970266968011856,0.004223093390464783,-0.015122567303478718,0.012570681050419807,-0.0005153007223270833,-0.010508816689252853
0.024847187101840973,0.003984450362622738,-0.015064805746078491,0.012957037426531315,-0.0004603144188877195,-0.010392052121460438
0.025079922750592232,0.003987546544522047,-0.015366969630122185,0.012679546140134335,-0.00045685720397159457,-0.01169643085449934
0.025141680613160133,0.003898788010701537,-0.014976443722844124,0.012292427942156792,-0.00045643208432011306,-0.011437661945819855
0.025141680613160133,0.003898788010701537,-0.014976443722844124,0.012292427942156792,-0.00045643208432011306,-0.011437661945819855
0.02499982714653015,0.0034173682797700167,-0.015031947754323483,0.012865958735346794,-0.00045467523159459233,-0.011510945856571198
0.02529916726052761,0.0035110758617520332,-0.015227173455059528,0.012803479097783566,-0.00047073361929506063,-0.010703195817768574
0.025255391374230385,0.004182157572358847,-0.015289263799786568,0.013220278546214104,-0.00045506044989451766,-0.010782052762806416
0.02560984343290329,0.004115873947739601,-0.015714524313807487,0.012785239145159721,-0.0005112374201416969,-0.010826720856130123
0.025405628606677055,0.0039587668143212795,-0.015344902873039246,0.012969227507710457,-0.0004711485526058823,-0.010875506326556206
0.02561767026782036,0.0035239416174590588,-0.015940286219120026,0.013007450848817825,-0.00042724364902824163,-0.010916326195001602
0.02486618235707283,0.004133632872253656,-0.015423675999045372,0.012627200223505497,-0.0004626722657121718,-0.011166581884026527
0.02520001493394375,0.004133392591029406,-0.01557451393455267,0.013175633735954762,-0.00043049390660598874,-0.011286686174571514
0.025914723053574562,0.003932702820748091,-0.015021204948425293,0.012844768352806568,-0.00044782471377402544,-0.011584228835999966
0.02598101831972599,0.003444845322519541,-0.016197966411709785,0.013235199265182018,-0.0004322920285630971,-0.011361869983375072
0.025996314361691475,0.0036203330382704735,-0.015591730363667011,0.012539295479655266,-0.00040545378578826785,-0.011042814701795578
0.02519678883254528,0.004327933769673109,-0.015907397493720055,0.012980032712221146,-0.00038098584627732635,-0.01082544308155775
0.025458792224526405,0.004103776067495346,-0.01587403379380703,0.012681491672992706,-0.00035925523843616247,-0.011078132316470146
0.02628241665661335,0.0041191671043634415,-0.016229204833507538,0.012942696921527386,-0.00038188148755580187,-0.011290295049548149
0.026032472029328346,0.003973099403083324,-0.016489358618855476,0.012836801819503307,-0.0003681040834635496,-0.01147359237074852
0.025943679735064507,0.003753446042537689,-0.016059808433055878,0.012857937254011631,-0.0003505525237414986,-0.011741886846721172
0.026119988411664963,0.003657817840576172,-0.016606004908680916,0.012925580143928528,-0.00033045769669115543,-0.011673065833747387
0.02616393193602562,0.003644475946202874,-0.01585693284869194,0.013009120710194111,-0.0003063791955355555,-0.01159641332924366
0.026225576177239418,0.003690239740535617,-0.01674775592982769,0.013296373188495636,-0.0003146265516988933,-0.01149809081107378
0.025611065328121185,0.003716015489771962,-0.01657247357070446,0.012986867688596249,-0.0003215376636944711,-0.010906648822128773
0.025244932621717453,0.0037244404666125774,-0.016551170498132706,0.013500518165528774,-0.0003523887717165053,-0.010836233384907246
0.025998594239354134,0.0038507976569235325,-0.016558866947889328,0.012977463193237782,-0.00038156317896209657,-0.011287432163953781
0.026707949116826057,0.004389089997857809,-0.016296053305268288,0.01323696132749319,-0.0005423621041700244,-0.01089637540280819
0.02653586119413376,0.004137910436838865,-0.017161473631858826,0.013515113852918148,-0.0006297744112089276,-0.011234337463974953
0.026637934148311615,0.003841198980808258,-0.017428666353225708,0.0136878015473485,-0.0006659668288193643,-0.011372716166079044
0.026637934148311615,0.003841198980808258,-0.017428666353225708,0.0136878015473485,-0.0006659668288193643,-0.011372716166079044
0.026530928909778595,0.004300015512853861,-0.017290882766246796,0.01380253117531538,-0.0006723986589349806,-0.011948616243898869
0.026831883937120438,0.004330866504460573,-0.01650540716946125,0.013852824456989765,-0.000648420536890626,-0.011808301322162151
0.026607777923345566,0.004310520365834236,-0.01684647984802723,0.013838731683790684,-0.0005994436796754599,-0.011973684653639793
0.02684667520225048,0.0044224145822227,-0.016236064955592155,0.013875404372811317,-0.0006180571508593857,-0.011894882656633854
0.026985201984643936,0.004594187252223492,-0.017382008954882622,0.013488031923770905,-0.0006068999646231532,-0.011924607679247856
0.02660910040140152,0.0041317567229270935,-0.017194878309965134,0.013822430744767189,-0.0005887192091904581,-0.01215832494199276
0.027170997112989426,0.003859135787934065,-0.017282759770751,0.013896850869059563,-0.0006161617347970605,-0.011822068132460117
0.027200326323509216,0.004193058703094721,-0.017335930839180946,0.013971347361803055,-0.0006360625848174095,-0.011804101057350636
0.02713707834482193,0.004283937159925699,-0.015999097377061844,0.0133360018953681,-0.0007304897299036384,-0.01167477946728468
0.02720966376364231,0.004613516852259636,-0.016971811652183533,0.013984759338200092,-0.0007688242476433516,-0.012225531041622162
0.027435163035988808,0.004369580652564764,-0.017671409994363785,0.013576500117778778,-0.0007576448260806501,-0.012371223419904709
0.02744564414024353,0.004403830040246248,-0.017948906868696213,0.013388275168836117,-0.0007225258741527796,-0.012533069588243961
0.027789004147052765,0.004502572119235992,-0.017568940296769142,0.01330199558287859,-0.0007374370470643044,-0.01210478600114584
0.027923546731472015,0.004102723207324743,-0.016870513558387756,0.014554847963154316,-0.0008121234131976962,-0.011883500963449478
0.02729729190468788,0.004325410351157188,-0.017441067844629288,0.013868508860468864,-0.0007093709427863359,-0.012589000165462494
0.027544233947992325,0.004260390531271696,-0.01624246872961521,0.014041791670024395,-0.0007275028619915247,-0.011940262280404568
0.028330016881227493,0.004530062898993492,-0.016449548304080963,0.013604390434920788,-0.0006993395509198308,-0.01184995099902153
0.0280609130859375,0.0046114264987409115,-0.017558591440320015,0.013875996693968773,-0.000671361805871129,-0.012559388764202595
0.028249775990843773,0.004466558340936899,-0.017685623839497566,0.013707276433706284,-0.0006901996093802154,-0.012557373382151127
0.028283191844820976,0.0036074283998459578,-0.017970215529203415,0.01412334106862545,-0.0006709194858558476,-0.012730717658996582
0.027879104018211365,0.003347832942381501,-0.016848651692271233,0.014146949164569378,-0.000597841979470104,-0.01230275072157383
0.02828841470181942,0.003518444951623678,-0.017427006736397743,0.014914777129888535,-0.0006264360854402184,-0.012411454692482948
0.02804313786327839,0.003295506350696087,-0.017538363113999367,0.01446929108351469,-0.0006361085688695312,-0.012500123120844364
0.029223257675766945,0.0035324878990650177,-0.01678517833352089,0.014467079192399979,-0.0006386356544680893,-0.012669461779296398
0.029161222279071808,0.005072933621704578,-0.017613191157579422,0.014281640760600567,-0.0006227435660548508,-0.012507883831858635
0.028529133647680283,0.00298992358148098,-0.01774427853524685,0.013906716369092464,-0.0007803188054822385,-0.013361942954361439
0.028529133647680283,0.00298992358148098,-0.01774427853524685,0.013906716369092464,-0.0007803188054822385,-0.013361942954361439
0.02758214995265007,0.003862702054902911,-0.017988283187150955,0.01435778383165598,-0.0008217131835408509,-0.012361710891127586
0.028088128194212914,0.004684091079980135,-0.017054542899131775,0.014371085911989212,-0.0007712742080911994,-0.012402541935443878
0.029004281386733055,0.004376318771392107,-0.017641471698880196,0.014905470423400402,-0.0009222282678820193,-0.01237764023244381
0.028310464695096016,0.0034324354492127895,-0.018242735415697098,0.014200744219124317,-0.0009155928273685277,-0.012817617505788803
0.029616503044962883,0.0034358554985374212,-0.01825902797281742,0.014380705542862415,-0.0007990228477865458,-0.01297882478684187
0.029680917039513588,0.0041377488523721695,-0.018300753086805344,0.014231134206056595,-0.0006968847592361271,-0.012721407227218151
0.029101205989718437,0.004240768030285835,-0.017852289602160454,0.0143111078068614,-0.0006171377608552575,-0.01309052761644125
0.02895830199122429,0.004469844978302717,-0.017983751371502876,0.013915618881583214,-0.0006211705622263253,-0.013085294514894485
0.028715357184410095,0.003610445186495781,-0.017866671085357666,0.013723263517022133,-0.0005842475802637637,-0.013284777291119099
0.029202166944742203,0.003559728851541877,-0.017281005159020424,0.014124172739684582,-0.0005358646158128977,-0.012830451130867004
0.029852336272597313,0.0036732270382344723,-0.018226802349090576,0.014298359863460064,-0.0005594605463556945,-0.012968429364264011
0.02954973094165325,0.0037688175216317177,-0.01828119158744812,0.014357466250658035,-0.000523075636010617,-0.013279380276799202
0.029345624148845673,0.003808107925578952,-0.017579449340701103,0.014164341613650322,-0.0004878883482888341,-0.013031573966145515
0.029970400035381317,0.004129056818783283,-0.018391678109765053,0.014248136430978775,-0.0004569257143884897,-0.013088120147585869
0.029850639402866364,0.0037246535066515207,-0.01811043731868267,0.014354148879647255,-0.000357664015609771,-0.01312931813299656
0.029792841523885727,0.0035910140722990036,-0.018072299659252167,0.014519765041768551,-0.00032284826738759875,-0.013284352608025074
0.030150743201375008,0.003650310914963484,-0.01861177571117878,0.01429937407374382,-0.0003565788792911917,-0.013529744930565357
0.029746776446700096,0.004198447335511446,-0.017833102494478226,0.014731953851878643,-0.00037935501313768327,-0.013751188293099403
0.02941983751952648,0.004143637605011463,-0.01855533756315708,0.014073527418076992,-0.0003702486283145845,-0.013280205428600311
0.029511187225580215,0.0035203283187001944,-0.018699878826737404,0.014091357588768005,-0.00039712421130388975,-0.013060323894023895
0.029788276180624962,0.0038639360573142767,-0.018020132556557655,0.014767099171876907,-0.00037929328391328454,-0.013081992976367474
0.02989163249731064,0.004191972315311432,-0.01842510886490345,0.01530941016972065,-0.0005275025614537299,-0.013507415540516376
0.02950352057814598,0.004031275864690542,-0.018255632370710373,0.014264009892940521,-0.0005215851706452668,-0.013603816740214825
0.03107985109090805,0.004005239810794592,-0.018540799617767334,0.01439693197607994,-0.0005515796365216374,-0.013617560267448425
0.03107985109090805,0.004005239810794592,-0.018540799617767334,0.01439693197607994,-0.0005515796365216374,-0.013617560267448425
0.029873281717300415,0.004339961800724268,-0.01909334398806095,0.014944341033697128,-0.0005355775356292725,-0.013323427177965641
0.029873281717300415,0.004339961800724268,-0.01909334398806095,0.014944341033697128,-0.0005355775356292725,-0.013323427177965641
0.0298695657402277,0.004114384297281504,-0.019832687452435493,0.015651561319828033,-0.0005284843500703573,-0.013606246560811996
0.031285203993320465,0.003960373345762491,-0.01911645382642746,0.016246609389781952,-0.0005774965975433588,-0.013820978812873363
0.031365372240543365,0.004356272052973509,-0.01875770464539528,0.01601836085319519,-0.0006165406084619462,-0.013718635775148869
0.031125616282224655,0.004130326211452484,-0.01960352621972561,0.016436751931905746,-0.0005766279646195471,-0.013795621693134308
0.029646005481481552,0.0042704809457063675,-0.019043276086449623,0.016205232590436935,-0.0006032765377312899,-0.014140033163130283
0.03071005456149578,0.004342752508819103,-0.01882117986679077,0.01613583415746689,-0.0006291455356404185,-0.013883608393371105
0.0316445417702198,0.004056636709719896,-0.01936614327132702,0.015792731195688248,-0.0006903333705849946,-0.012990731745958328
0.03136753290891647,0.0037875764537602663,-0.01943325251340866,0.015625491738319397,-0.0006876613479107618,-0.013543978333473206
0.032304830849170685,0.003945512231439352,-0.019173752516508102,0.015652818605303764,-0.0007054762681946158,-0.013754143379628658
0.032054200768470764,0.004063864704221487,-0.01958954520523548,0.015520546585321426,-0.0006874577957205474,-0.014139673672616482
0.031692538410425186,0.003869670443236828,-0.019681371748447418,0.01607370190322399,-0.0006616013706661761,-0.014109107665717602
0.0307793989777565,0.0037160073406994343,-0.019409941509366035,0.015715433284640312,-0.0006754056084901094,-0.01418481208384037
0.03129113093018532,0.00427880696952343,-0.01984027400612831,0.016125284135341644,-0.0006975184660404921,-0.014395867474377155
0.032221633940935135,0.004163408651947975,-0.019599812105298042,0.01614736020565033,-0.0007357592112384737,-0.014229652471840382
0.03180452808737755,0.004483659751713276,-0.019151292741298676,0.01646515540778637,-0.0007146806456148624,-0.014063898473978043
0.032284583896398544,0.004165153484791517,-0.019786691293120384,0.01617390103638172,-0.0007323056925088167,-0.014307419769465923
0.032255254685878754,0.003948296420276165,-0.019826961681246758,0.016083266586065292,-0.000713324174284935,-0.01503749843686819
0.03229381889104843,0.004196781199425459,-0.019653093069791794,0.015809234231710434,-0.0009324103593826294,-0.013926470652222633
0.03226859122514725,0.0043162330985069275,-0.019875209778547287,0.015639806166291237,-0.0009583385544829071,-0.01361662708222866
0.032390348613262177,0.004064879380166531,-0.01986493542790413,0.016367251053452492,-0.0009524858323857188,-0.014193258248269558
0.03282862529158592,0.004125270061194897,-0.019076032564044,0.015975112095475197,-0.0009745514253154397,-0.014419344253838062
0.0327795185148716,0.0040767742320895195,-0.01984446682035923,0.016209399327635765,-0.0009015799150802195,-0.014743193984031677
0.032435715198516846,0.004435730632394552,-0.020486334338784218,0.015720568597316742,-0.0008666729554533958,-0.014780500903725624
0.03296629339456558,0.004195971414446831,-0.019909169524908066,0.015954311937093735,-0.0007752887322567403,-0.014878660440444946
0.033362455666065216,0.004450267646461725,-0.01994248479604721,0.01592295989394188,-0.0007845042273402214,-0.014711217023432255
0.03347261622548103,0.004185346886515617,-0.020461391657590866,0.01595759205520153,-0.0007901412900537252,-0.01486845500767231
0.03347261622548103,0.004185346886515617,-0.020461391657590866,0.01595759205520153,-0.0007901412900537252,-0.01486845500767231
0.03277074545621872,0.0043032472021877766,-0.01948336511850357,0.016582777723670006,-0.0006366805173456669,-0.014780021272599697
0.0335594080388546,0.0043279509991407394,-0.019936008378863335,0.017047980800271034,-0.0006109868991188705,-0.014765340834856033
0.03351813182234764,0.0040810382924973965,-0.020222485065460205,0.016802215948700905,-0.000591470452491194,-0.01515977829694748
0.03413665294647217,0.0038953558541834354,-0.01987464353442192,0.017263485118746758,-0.0006011485238559544,-0.015060549601912498
0.0339779295027256,0.004253517370671034,-0.020138734951615334,0.017525384202599525,-0.0005672887782566249,-0.01503684651106596
0.03422887250781059,0.00415440509095788,-0.020082585513591766,0.017308108508586884,-0.0005762694636359811,-0.014783497899770737
0.03429190069437027,0.0040252674371004105,-0.01969083398580551,0.01784663088619709,-0.0005493018543347716,-0.01477687619626522
0.035018421709537506,0.003956752363592386,-0.02011045441031456,0.017231836915016174,-0.0005113780498504639,-0.014868197031319141
0.03499963879585266,0.004263175185769796,-0.02005073055624962,0.016854682937264442,-0.0005046501173637807,-0.01554399635642767
0.0343739278614521,0.004220424219965935,-0.020091896876692772,0.01651495136320591,-0.0004644972214009613,-0.015473793260753155
0.0346018522977829,0.004040002357214689,-0.020015673711895943,0.016097193583846092,-0.00048343249363824725,-0.015105821192264557
0.03634301573038101,0.0039045438170433044,-0.020134808495640755,0.01685824804008007,-0.00046121698687784374,-0.015176749788224697
0.03549916297197342,0.0038021483924239874,-0.019828470423817635,0.016639243811368942,-0.00048732146387919784,-0.015314972959458828
0.034216396510601044,0.004078234080225229,-0.019681250676512718,0.017140353098511696,-0.0004601366526912898,-0.015324092470109463
0.03562050312757492,0.004194776993244886,-0.01989351399242878,0.016650879755616188,-0.0004863494832534343,-0.015133913606405258
0.035294994711875916,0.004080218728631735,-0.01999794691801071,0.016157355159521103,-0.0005338474293239415,-0.015464648604393005
0.03572016954421997,0.003917539492249489,-0.01997952349483967,0.01655038446187973,-0.000593354634474963,-0.015599415637552738
0.036943547427654266,0.0038522519171237946,-0.020696531981229782,0.016848044469952583,-0.0005808635614812374,-0.015853043645620346
0.0361657440662384,0.004086327273398638,-0.020512014627456665,0.017107272520661354,-0.0006031268858350813,-0.015567431226372719
0.03476819768548012,0.004047120921313763,-0.020091965794563293,0.01672924868762493,-0.0006186515674926341,-0.015699150040745735
0.0360596589744091,0.003721129149198532,-0.020906539633870125,0.01688040979206562,-0.0005870118038728833,-0.015399790368974209
0.03693144768476486,0.0036100069992244244,-0.021322276443243027,0.01704605296254158,-0.0006709184381179512,-0.016034066677093506
0.03682906925678253,0.0037416608538478613,-0.02083660289645195,0.016763752326369286,-0.0006222311058081686,-0.01619616709649563
0.036681439727544785,0.0038820416666567326,-0.018247295171022415,0.016548672690987587,-0.000650753325317055,-0.016272833570837975
0.03636637702584267,0.00392143102362752,-0.021417612209916115,0.016202079132199287,-0.000586776586715132,-0.01623309776186943
0.03656402602791786,0.004180812742561102,-0.021781565621495247,0.017730433493852615,-0.0006314690108411014,-0.015488553792238235
0.03631279617547989,0.0038571576587855816,-0.02132243663072586,0.018046000972390175,-0.0006353208445943892,-0.015610268339514732
0.03631279617547989,0.0038571576587855816,-0.02132243663072586,0.018046000972390175,-0.0006353208445943892,-0.015610268339514732
0.036636047065258026,0.00376916048116982,-0.021057022735476494,0.01864609122276306,-0.0006855096435174346,-0.016275351867079735
0.03643188253045082,0.0038850929122418165,-0.02055787481367588,0.018162185326218605,-0.0007118968642316759,-0.016375932842493057
0.0364547036588192,0.003948715049773455,-0.02061985433101654,0.018146615475416183,-0.0006625583046115935,-0.0166458897292614
0.037025757133960724,0.003876550355926156,-0.020902864634990692,0.017959777265787125,-0.0006748752784915268,-0.016569454222917557
0.03725053742527962,0.004134729504585266,-0.021807961165905,0.017600804567337036,-0.0007370764506049454,-0.01687108725309372
0.03665506839752197,0.004232190549373627,-0.021646864712238312,0.018405750393867493,-0.000795305531937629,-0.01698926091194153
0.03832930326461792,0.0040396349504590034,-0.021281946450471878,0.018703190609812737,-0.0007521884981542826,-0.016447223722934723
0.03884541988372803,0.003780196188017726,-0.021468358114361763,0.018038369715213776,-0.0007589447777718306,-0.01656806282699108
0.03646276891231537,0.0036993210669606924,-0.02218656800687313,0.018163859844207764,-0.00076087232446298,-0.016481494531035423
0.03670300543308258,0.003867353545501828,-0.022175632417201996,0.017945976927876472,-0.0007814685814082623,-0.016883855685591698
0.03847605735063553,0.004329383373260498,-0.021146630868315697,0.01776937209069729,-0.0007993506151251495,-0.016986221075057983
0.03799816966056824,0.00436451006680727,-0.020750055089592934,0.01750997081398964,-0.0007533744792453945,-0.016816526651382446
0.03871138393878937,0.00405039032921195,-0.021457919850945473,0.01732216402888298,-0.0007454350125044584,-0.017051292583346367
0.038485098630189896,0.0038730488158762455,-0.021850762888789177,0.01758330501616001,-0.0006887325434945524,-0.0163950826972723
0.03716105595231056,0.004107894375920296,-0.02179708145558834,0.0172100979834795,-0.0006987498491071165,-0.017054453492164612
0.0368783064186573,0.0040092384442687035,-0.02181199938058853,0.01769215799868107,-0.000653015507850796,-0.01707310974597931
0.03768840804696083,0.003757482161745429,-0.02193223312497139,0.018153229728341103,-0.0006276124040596187,-0.0176069438457489
0.03804221749305725,0.00362870073877275,-0.021870333701372147,0.01781563088297844,-0.0006496334099210799,-0.01770354062318802
0.037743158638477325,0.0036583980545401573,-0.02149585634469986,0.017894137650728226,-0.0006389346672222018,-0.016985975205898285
0.03737059235572815,0.0037324768491089344,-0.02184954471886158,0.017809173092246056,-0.000619455415289849,-0.017023330554366112
0.03792627900838852,0.004308508709073067,-0.022258561104536057,0.01782495155930519,-0.0006416983087547123,-0.016854241490364075
0.03817027062177658,0.004222825635224581,-0.02197672612965107,0.0183340422809124,-0.0006634057499468327,-0.01647004298865795
0.03802836686372757,0.00391246797516942,-0.02190341427922249,0.018069779500365257,-0.0007023432990536094,-0.016863618046045303
0.03852745145559311,0.0037647418212145567,-0.021975647658109665,0.018340738490223885,-0.0006736177601851523,-0.017141088843345642
0.03852745145559311,0.0037647418212145567,-0.021975647658109665,0.018340738490223885,-0.0006736177601851523,-0.017141088843345642
0.03756491467356682,0.0032735485583543777,-0.02193678542971611,0.0182967409491539,-0.0007155882776714861,-0.01771000772714615
0.03913157060742378,0.0036491439677774906,-0.021994685754179955,0.018473537638783455,-0.0010017815511673689,-0.018481511622667313
0.0384436696767807,0.0036566806957125664,-0.02228523977100849,0.017869066447019577,-0.00099172571208328,-0.017231203615665436
0.0384436696767807,0.0036566806957125664,-0.02228523977100849,0.017869066447019577,-0.00099172571208328,-0.017231203615665436
0.038660526275634766,0.0036580627784132957,-0.022155096754431725,0.01837123930454254,-0.0009045471088029444,-0.01736670918762684
0.03905465826392174,0.003690117271617055,-0.02214154601097107,0.018696608021855354,-0.0009524182532913983,-0.017519598826766014
0.038852933794260025,0.0036447206512093544,-0.021913684904575348,0.018615655601024628,-0.0009349065367132425,-0.0174393467605114
0.03944746404886246,0.003443885361775756,-0.021922674030065536,0.01923391781747341,-0.0009290149318985641,-0.01713092066347599
0.039079420268535614,0.0034953367430716753,-0.022506089881062508,0.018982674926519394,-0.000909782072994858,-0.01691807433962822
0.03965383023023605,0.003697780193760991,-0.022334353998303413,0.01885506883263588,-0.0008317086612805724,-0.017399340867996216
0.03980594128370285,0.0038019076455384493,-0.022457970306277275,0.019495436921715736,-0.0007591313915327191,-0.017572008073329926
0.03933624178171158,0.004048123024404049,-0.022531092166900635,0.019455134868621826,-0.000657727534417063,-0.017570534721016884
0.03923856467008591,0.004071059171110392,-0.022814981639385223,0.019305381923913956,-0.0006804640288464725,-0.01765408366918564
0.03976335749030113,0.004327519331127405,-0.022936584427952766,0.019627943634986877,-0.0006846474716439843,-0.0177619569003582
0.0411868654191494,0.004027818329632282,-0.022512398660182953,0.019154148176312447,-0.0007052270811982453,-0.017737267538905144
0.03969724103808403,0.0038177091628313065,-0.02198793925344944,0.01887541078031063,-0.0007771554519422352,-0.017404889687895775
0.03837648406624794,0.0043046786449849606,-0.022676309570670128,0.019283367320895195,-0.0008212648681364954,-0.01713460125029087
0.040369968861341476,0.004136258270591497,-0.023394225165247917,0.019797518849372864,-0.0008419125806540251,-0.01759985461831093
0.04043692722916603,0.004289793316274881,-0.023084772750735283,0.019115516915917397,-0.0008609157521277666,-0.01749330386519432
