davideferrari95/blind_handover_controller/data/Test 20 - [2024-02-07 -- 14-17-23]/joint_states_data.csv
shoulder_pan_joint,shoulder_lift_joint,elbow_joint,wrist_1_joint,wrist_2_joint,wrist_3_joint
0.008086490444839,0.009182126261293888,-0.010279729962348938,0.003845648607239127,0.0,0.00986398197710514
0.008086490444839,0.009182126261293888,-0.010279729962348938,0.003845648607239127,0.0,0.00986398197710514
0.00744202034547925,0.008656445890665054,-0.010812369175255299,0.003376410808414221,0.0,0.009190728887915611
0.007917806506156921,0.007895966060459614,-0.010373106226325035,0.0027769303414970636,2.1744642708654283e-06,0.009749535471200943
0.007620791904628277,0.008108439855277538,-0.010362687520682812,0.0027252868749201298,1.419769830590667e-07,0.009662835858762264
0.007620791904628277,0.008108439855277538,-0.010362687520682812,0.0027252868749201298,1.419769830590667e-07,0.009662835858762264
0.007802126929163933,0.0081605464220047,-0.009438108652830124,0.0026755963917821646,9.270083367596271e-09,0.00930019561201334
0.007432655431330204,0.008097569458186626,-0.010534623637795448,0.003121115267276764,6.05270222830967e-10,0.008947685360908508
0.007411039900034666,0.007727094925940037,-0.010348370298743248,0.003170091425999999,3.9519824912570556e-11,0.009344048798084259
0.007346245460212231,0.008312017656862736,-0.009688813239336014,0.003407554468140006,2.5803619223968566e-12,0.009384214878082275
0.008102374151349068,0.00809407513588667,-0.00989945512264967,0.0030635849107056856,1.6847919001757028e-13,0.009541635401546955
0.007758177351206541,0.007659922819584608,-0.010466095991432667,0.0030562500469386578,1.1000488036759168e-14,0.009508085437119007
0.007677288725972176,0.00787729024887085,-0.009732656180858612,0.003014847869053483,7.182532872668679e-16,0.009395627304911613
0.008117731660604477,0.008570699952542782,-0.009774014353752136,0.0030382575932890177,4.689680630534689e-17,0.009662755765020847
0.007712710183113813,0.007928501814603806,-0.010278548114001751,0.0029281231109052896,3.0620263790709802e-18,0.009801137261092663
0.007815294899046421,0.007720550522208214,-0.009091367945075035,0.0030671206768602133,1.9992844253011867e-19,0.009565268643200397
0.008135993033647537,0.007903581485152245,-0.009969260543584824,0.0030327728018164635,1.3053898805412719e-20,0.009413043968379498
0.00791925098747015,0.00777713255956769,-0.00992662739008665,0.003155653364956379,8.523263175243037e-22,0.008873467333614826
0.008666894398629665,0.007442204747349024,-0.009527776390314102,0.003073924919590354,5.565081733665321e-23,0.0087360218167305
0.008026150986552238,0.007577124983072281,-0.010368529707193375,0.0029601086862385273,3.633601008961543e-24,0.009094822220504284
0.007931281812489033,0.007689942140132189,-0.009756868705153465,0.0031631735619157553,2.3724816696008584e-25,0.00914065446704626
0.007866781204938889,0.007610484026372433,-0.009277185425162315,0.0032484899275004864,1.549061045456026e-26,0.009343115612864494
0.007966439239680767,0.007351275533437729,-0.009726949967443943,0.0030732497107237577,1.011426280715759e-27,0.008849856443703175
0.008952457457780838,0.008159938268363476,-0.0099899647757411,0.0029805037193000317,6.603891001269877e-29,0.008719231933355331
0.0081728994846344,0.0078729884698987,-0.009393301792442799,0.0027766539715230465,4.31186938446594e-30,0.008814232423901558
0.008769151754677296,0.007438094820827246,-0.00957286823540926,0.0028944213408976793,1.8382174946647538e-32,0.009078719653189182
0.008504050783813,0.007501017302274704,-0.00981873832643032,0.002953836927190423,1.2002246397471768e-33,0.009053075686097145
0.008159182965755463,0.007496465463191271,-0.009925639256834984,0.002884848276153207,7.836609873086884e-35,0.00938429869711399
0.008159182965755463,0.007496465463191271,-0.009925639256834984,0.002884848276153207,7.836609873086884e-35,0.00938429869711399
0.008592256344854832,0.007689558435231447,-0.009544617496430874,0.0031705268193036318,3.340869972583203e-37,0.00888398103415966
0.008383065462112427,0.007009177003055811,-0.009715833701193333,0.003182718763127923,2.1813493312414163e-38,0.008918676525354385
0.008067198097705841,0.007403543218970299,-0.009914730675518513,0.0034654836636036634,1.4242657461551008e-39,0.009035133756697178
0.008067198097705841,0.007403543218970299,-0.009914730675518513,0.0034654836636036634,1.4242657461551008e-39,0.009035133756697178
0.008297240361571312,0.008218073286116123,-0.009748783893883228,0.0029693518299609423,9.299436998798784e-41,0.008778470568358898
0.008571362122893333,0.0075831059366464615,-0.009612750262022018,0.0026705737691372633,3.965674654039232e-43,0.009062878787517548
0.008571362122893333,0.0075831059366464615,-0.009612750262022018,0.0026705737691372633,3.965674654039232e-43,0.009062878787517548
0.008314856328070164,0.007783802226185799,-0.00906131137162447,0.002754576737061143,2.5223372357846707e-44,0.00888560526072979
0.008951852098107338,0.007595869712531567,-0.01011306419968605,0.002762923249974847,1.401298464324817e-45,0.009026660583913326
0.008569886907935143,0.007675930857658386,-0.011416793800890446,0.0029484452679753304,0.0,0.008708980865776539
0.008323566988110542,0.007629449013620615,-0.010581295005977154,0.002939526690170169,0.0,0.008728813380002975
0.0091579370200634,0.0077275983057916164,-0.010616426356136799,0.0031147203408181667,0.0,0.009176096878945827
0.00870554894208908,0.008129829540848732,-0.010437444783747196,0.0034083593636751175,0.0,0.008482078090310097
0.00870554894208908,0.008129829540848732,-0.010437444783747196,0.0034083593636751175,0.0,0.008482078090310097
0.008809532038867474,0.007774001453071833,-0.010847545228898525,0.003441578708589077,0.0,0.008485163561999798
0.008576767519116402,0.007822479121387005,-0.010653158649802208,0.0030188418459147215,0.0,0.00860078539699316
0.008692589588463306,0.007545013912022114,-0.010745666921138763,0.002709819469600916,0.0,0.00879944022744894
0.008686935529112816,0.007637156173586845,-0.011138730682432652,0.0026233771350234747,0.0,0.008796905167400837
0.008848395198583603,0.007318498101085424,-0.010678396560251713,0.0025140854995697737,0.0,0.0089672040194273
0.009523918852210045,0.007627083454281092,-0.010634363628923893,0.0029373480938374996,0.0,0.008704676292836666
0.008729379624128342,0.007478041108697653,-0.010843569412827492,0.0032228620257228613,0.0,0.008472382090985775
0.008456188254058361,0.00735651096329093,-0.010865824297070503,0.002918864134699106,0.0,0.008526108227670193
0.009440137073397636,0.007360765244811773,-0.011544743552803993,0.0027116562705487013,0.0,0.008641091175377369
0.009313865564763546,0.007543022278696299,-0.010976672172546387,0.002777185756713152,0.0,0.008984752930700779
0.008368425071239471,0.0076024592854082584,-0.010552354156970978,0.0028937687166035175,0.0,0.009269692935049534
0.009252078831195831,0.006854792591184378,-0.010544785298407078,0.002969462424516678,0.0,0.008446463383734226
0.008804170414805412,0.007355926092714071,-0.010842900723218918,0.002977993804961443,0.0,0.008436484262347221
0.009218358434736729,0.007154312916100025,-0.010754559189081192,0.002913889242336154,0.0,0.00857560895383358
0.009730705060064793,0.0070164864882826805,-0.010634741745889187,0.0028757660184055567,0.0,0.008399678394198418
0.009730705060064793,0.0070164864882826805,-0.010634741745889187,0.0028757660184055567,0.0,0.008399678394198418
0.008941618725657463,0.007349875755608082,-0.011000477708876133,0.003079543123021722,0.0,0.008723198436200619
0.009362190961837769,0.007207658141851425,-0.010792700573801994,0.003238316159695387,0.0,0.008682815358042717
0.009362190961837769,0.007207658141851425,-0.010792700573801994,0.003238316159695387,0.0,0.008682815358042717
0.00925190094858408,0.007382481824606657,-0.011116152629256248,0.0032893477473407984,0.0,0.008097508922219276
0.009275030344724655,0.006927013862878084,-0.010414235293865204,0.003230895148590207,0.0,0.008655423298478127
0.009475496597588062,0.007036359515041113,-0.010950665920972824,0.0030292621813714504,0.0,0.008385663852095604
0.009228910319507122,0.007234332617372274,-0.010908104479312897,0.0031340280547738075,0.0,0.00829949788749218
0.009149429388344288,0.007130000740289688,-0.011000584810972214,0.0029547824524343014,0.0,0.007917646318674088
0.009674414992332458,0.007310778368264437,-0.011411341838538647,0.003104568226262927,0.0,0.008199364878237247
0.009679899550974369,0.00825517438352108,-0.010456547141075134,0.003000415163114667,0.0,0.008296669460833073
0.00939963012933731,0.007158360909670591,-0.010429682210087776,0.0030000912956893444,0.0,0.00814918614923954
0.009648368693888187,0.006824526935815811,-0.011133318766951561,0.0032025091350078583,0.0,0.008084128610789776
0.009753549471497536,0.006974732503294945,-0.010612593963742256,0.0032551500480622053,0.0,0.008332447148859501
0.009743415750563145,0.0071471016854047775,-0.010168364271521568,0.0032412034925073385,0.0,0.008400993421673775
0.009742445312440395,0.007575920317322016,-0.010451790876686573,0.003249264555051923,0.0,0.007832267321646214
0.009997421875596046,0.0074006072245538235,-0.010079131461679935,0.0031637537758797407,0.0,0.00798937026411295
0.008806307800114155,0.0070069595240056515,-0.010150161571800709,0.0032182266004383564,0.0,0.008068442344665527
0.009324035607278347,0.007451034616678953,-0.010914728976786137,0.002794563537463546,0.0,0.007840150967240334
0.010531716980040073,0.007683854084461927,-0.010441484861075878,0.0027876736130565405,0.0,0.007492549251765013
0.009433125145733356,0.00700925849378109,-0.010983549989759922,0.002685856306925416,0.0,0.008222769945859909
0.009836270473897457,0.007061234209686518,-0.010459004901349545,0.002873803488910198,0.0,0.00852894876152277
0.009472527541220188,0.007339255418628454,-0.01007360965013504,0.003134099068120122,0.0,0.007937485352158546
0.009269855916500092,0.007217467296868563,-0.010764648206532001,0.003239906160160899,0.0,0.007635151036083698
0.010128632187843323,0.006925832014530897,-0.010383247397840023,0.003183555556461215,0.0,0.007135038264095783
0.009211004711687565,0.0074274493381381035,-0.010513893328607082,0.002871258184313774,0.0,0.007509785238653421
0.009833225980401039,0.007821327075362206,-0.009733992628753185,0.0030709027778357267,0.0,0.007530228700488806
0.010345786809921265,0.007029667962342501,-0.009958624839782715,0.0031864093616604805,0.0,0.007801053114235401
0.009352294728159904,0.007155954372137785,-0.01039916556328535,0.0031960085034370422,0.0,0.007629393134266138
0.009857919998466969,0.007709441240876913,-0.009849057532846928,0.0031580068171024323,0.0,0.007535489276051521
0.009857919998466969,0.007709441240876913,-0.009849057532846928,0.0031580068171024323,0.0,0.007535489276051521
0.009653908200562,0.007351113948971033,-0.010356412269175053,0.0034245930146425962,0.0,0.00748469727113843
0.009653908200562,0.007351113948971033,-0.010356412269175053,0.0034245930146425962,0.0,0.00748469727113843
0.009896986186504364,0.007333989720791578,-0.010018031112849712,0.0032997054513543844,0.0,0.007435718551278114
0.009960293769836426,0.008135623298585415,-0.010639837011694908,0.003180503146722913,0.0,0.007650039158761501
0.010817231610417366,0.007996274158358574,-0.010143544524908066,0.0029824022203683853,0.0,0.007046367973089218
0.010113907046616077,0.0074765789322555065,-0.009630759246647358,0.0028131550643593073,0.0,0.007004190236330032
0.009437297470867634,0.00740822684019804,-0.01043759100139141,0.002821527421474457,0.0,0.006928246933966875
0.0088127376511693,0.0075845117680728436,-0.010122692212462425,0.0031986678950488567,0.0,0.007202598266303539
0.009362906217575073,0.007549399044364691,-0.00982711836695671,0.003051943611353636,0.0,0.007816209457814693
0.009343038313090801,0.007327207829803228,-0.009948992170393467,0.0030877047684043646,0.0,0.007727284450083971
0.008844371885061264,0.007305935025215149,-0.010131236165761948,0.002921778941527009,0.0,0.007162754889577627
0.009244431741535664,0.007435240317136049,-0.009962242096662521,0.0029638917185366154,0.0,0.007314280606806278
0.009376196190714836,0.007917001843452454,-0.010229341685771942,0.0032950444146990776,0.0,0.007438745815306902
0.009763946756720543,0.007478391285985708,-0.010178114287555218,0.0035862030927091837,0.0,0.007160673849284649
0.009280379861593246,0.007182911038398743,-0.009519695304334164,0.003263186663389206,0.0,0.006931474432349205
0.009533360600471497,0.007252631708979607,-0.00936172716319561,0.0033382088877260685,0.0,0.006693930830806494
0.009533360600471497,0.007252631708979607,-0.00936172716319561,0.0033382088877260685,0.0,0.006693930830806494
0.009112464264035225,0.007230399642139673,-0.009249272756278515,0.0033976356498897076,0.0,0.006709152366966009
0.00929439440369606,0.007810672745108604,-0.009402823634445667,0.003206456545740366,0.0,0.0068632327020168304
0.00952177681028843,0.0073076095432043076,-0.009893584065139294,0.0031505185179412365,0.0,0.007343405392020941
0.00919902790337801,0.006959374528378248,-0.00968102551996708,0.0032685627229511738,0.0,0.0067677805200219154
0.009000587277114391,0.007347009144723415,-0.009655033238232136,0.0033765234984457493,0.0,0.0064472779631614685
0.009000587277114391,0.007347009144723415,-0.009655033238232136,0.0033765234984457493,0.0,0.0064472779631614685
0.010053661651909351,0.007649603299796581,-0.009816616773605347,0.0031752444338053465,0.0,0.006624813191592693
0.00914978701621294,0.007505166810005903,-0.009493826888501644,0.0030343420803546906,0.0,0.006630974821746349
0.009098551236093044,0.006948860362172127,-0.0090903639793396,0.003343793097883463,0.0,0.006563795730471611
0.009425976313650608,0.007430113386362791,-0.009433235041797161,0.00326291611418128,0.0,0.006538005545735359
0.009565548971295357,0.007902197539806366,-0.009329954162240028,0.0032265116460621357,0.0,0.007615699432790279
0.009303790517151356,0.006951010320335627,-0.009225793182849884,0.0032310658134520054,0.0,0.006538921035826206
0.009354500100016594,0.007093091029673815,-0.009807082824409008,0.003135155886411667,0.0,0.005580286029726267
0.009535830467939377,0.007319875061511993,-0.009808054193854332,0.0030971600208431482,0.0,0.00593334948644042
0.009033316746354103,0.007610928732901812,-0.009492868557572365,0.0030277506448328495,0.0,0.006338770966976881
0.0101206935942173,0.0071924664080142975,-0.010113985277712345,0.003058238187804818,0.0,0.006546437740325928
0.009780880995094776,0.007005274761468172,-0.010399090126156807,0.003198140300810337,0.0,0.006571650505065918
0.009206367656588554,0.0065879239700734615,-0.009120971895754337,0.003461735788732767,0.0,0.006802112329751253
0.009783579967916012,0.007102557923644781,-0.01001881342381239,0.0033020253758877516,0.0,0.006666721776127815
0.009671388193964958,0.0070070531219244,-0.009982766583561897,0.003113128710538149,0.0,0.005855336785316467
0.009452677331864834,0.006657976191490889,-0.00954978447407484,0.0028806517366319895,0.0,0.005924717057496309
0.009982778690755367,0.006462303921580315,-0.010124430060386658,0.0029453979805111885,0.0,0.006088352296501398
0.010191157460212708,0.006647441536188126,-0.010417643934488297,0.003271636785939336,0.0,0.0062337229028344154
0.010463638231158257,0.006857927422970533,-0.010008119978010654,0.003803999163210392,0.0,0.005760776344686747
0.010135495103895664,0.006850577425211668,-0.010235834866762161,0.0039170836098492146,0.0,0.00560138002038002
0.009492628276348114,0.0063841622322797775,-0.009781536646187305,0.003475000848993659,0.0,0.005422363057732582
0.010224577970802784,0.006391786504536867,-0.010607345029711723,0.0032864667009562254,0.0,0.0059251319617033005
0.009930816479027271,0.006566824857145548,-0.010297504253685474,0.0033030833583325148,0.0,0.00589416641741991
0.009610740467905998,0.006723891943693161,-0.009804364293813705,0.003133573802188039,0.0,0.005986235570162535
0.009610740467905998,0.006723891943693161,-0.009804364293813705,0.003133573802188039,0.0,0.005986235570162535
0.01021890714764595,0.007249240763485432,-0.010397794656455517,0.0033008677419275045,0.0,0.005424806382507086
0.010198552161455154,0.006658854428678751,-0.01000127661973238,0.003543999046087265,0.0,0.005652944557368755
0.009560612961649895,0.0065161557868123055,-0.009965987876057625,0.003420825581997633,0.0,0.00585497310385108
0.009927026927471161,0.0066072456538677216,-0.010716917924582958,0.0030155074782669544,0.0,0.005956865847110748
0.009734250605106354,0.006746585015207529,-0.01032506488263607,0.0028266441076993942,0.0,0.00601089745759964
0.010597212240099907,0.006571246776729822,-0.009924817830324173,0.0027746735140681267,0.0,0.0054345643147826195
0.01011658925563097,0.006289174780249596,-0.01092410460114479,0.0031331859063357115,0.0,0.005225257016718388
0.009624146856367588,0.005948113743215799,-0.01072260644286871,0.003546834923326969,0.0,0.00533822737634182
0.009999235160648823,0.0058578504249453545,-0.01103669498115778,0.0035577258095145226,0.0,0.005334741901606321
0.011257307603955269,0.006127086468040943,-0.010285292752087116,0.0033782741520553827,0.0,0.0052656373009085655
0.010312442667782307,0.006808802485466003,-0.009666386991739273,0.0033772788010537624,0.0,0.00531033705919981
0.009820573031902313,0.006260731257498264,-0.010566151700913906,0.0032385634258389473,0.0,0.005562900099903345
0.010127759538590908,0.00595996156334877,-0.010596156120300293,0.0035188186448067427,0.0,0.0053231422789394855
0.010188133455812931,0.006135214120149612,-0.01012440212070942,0.003324843943119049,0.0,0.005278309807181358
0.009693561121821404,0.006100947968661785,-0.01124129444360733,0.0035080001689493656,0.0,0.005349814426153898
0.010245575569570065,0.0063282158225774765,-0.010246533900499344,0.0038256344851106405,0.0,0.004678516183048487
0.009760516695678234,0.006560462526977062,-0.009749326854944229,0.003977729007601738,0.0,0.004405862186104059
0.01052562054246664,0.006068108603358269,-0.010882903821766376,0.0038701719604432583,0.0,0.004510432947427034
0.010175365023314953,0.00597554724663496,-0.010081491433084011,0.004046467132866383,0.0,0.0046373214572668076
0.010098787024617195,0.006828524637967348,-0.0110864182934165,0.004029956646263599,0.0,0.004864063113927841
0.010174628347158432,0.005784717388451099,-0.009924748912453651,0.0038686206098645926,0.0,0.004434340167790651
0.01033781562000513,0.005894859321415424,-0.009610675275325775,0.00378594477660954,0.0,0.0043194168247282505
0.01051298901438713,0.005884591955691576,-0.010422546416521072,0.0037712985649704933,0.0,0.0040507931262254715
0.010283810086548328,0.0063731311820447445,-0.010019111447036266,0.0037779726553708315,0.0,0.0042287069372832775
0.010283810086548328,0.0063731311820447445,-0.010019111447036266,0.0037779726553708315,0.0,0.0042287069372832775
0.009858125820755959,0.006772162858396769,-0.010366709902882576,0.0038058338686823845,0.0,0.004276416264474392
0.010826335288584232,0.006186103448271751,-0.01023867353796959,0.0038897579070180655,0.0,0.004460891243070364
0.010333928279578686,0.00575711065903306,-0.009773331694304943,0.004204168915748596,0.0,0.004286569077521563
0.009992525912821293,0.005601275712251663,-0.010589255020022392,0.0042845034040510654,0.0,0.0040791891515254974
0.010364028625190258,0.006182633340358734,-0.010178172029554844,0.004069098737090826,0.0,0.003963340539485216
0.010187435895204544,0.006603785790503025,-0.009761840105056763,0.003894580528140068,0.0,0.004035824444144964
0.010427991859614849,0.00626923143863678,-0.010235321708023548,0.0038600133266299963,0.0,0.004059862811118364
0.011008599773049355,0.00583389587700367,-0.010178654454648495,0.0038695449475198984,0.0,0.004015262238681316
0.010303622111678123,0.005855810362845659,-0.009642363525927067,0.004147103056311607,0.0,0.00414550444111228
0.010587730444967747,0.005851422436535358,-0.009907014667987823,0.004542480688542128,0.0,0.0040282695554196835
0.010654411278665066,0.006172186229377985,-0.010280906222760677,0.004275834653526545,0.0,0.0038697109557688236
0.009985754266381264,0.005965725984424353,-0.009282698854804039,0.0040055857971310616,0.0,0.0037710017058998346
0.011618630960583687,0.0059109944850206375,-0.010181935504078865,0.003890404012054205,0.0,0.003554979804903269
0.010099831037223339,0.005541493184864521,-0.010104307904839516,0.003577830735594034,0.0,0.003515934105962515
0.009604228660464287,0.005934841465204954,-0.00954398326575756,0.003557048738002777,0.0,0.00327086029574275
0.010786427184939384,0.006694253534078598,-0.009952174499630928,0.004120193421840668,0.0,0.0034327057655900717
0.010273721069097519,0.006278961431235075,-0.009989753365516663,0.0046363817527890205,0.0,0.0040578111074864864
0.010141429491341114,0.006248298101127148,-0.009616430848836899,0.0046423813328146935,0.0,0.004185245372354984
0.010615600273013115,0.005734411999583244,-0.01042291522026062,0.004261774476617575,0.0,0.003965285606682301
0.01045755110681057,0.005994425155222416,-0.010149960406124592,0.004173727240413427,0.0,0.003358757821843028
0.01067084725946188,0.006349766626954079,-0.009687347337603569,0.003967480268329382,2.0927197965647792e-06,0.0030237482860684395
0.010365387424826622,0.006273122038692236,-0.010625192895531654,0.0038452951703220606,1.366396418234217e-07,0.002861801302060485
0.010365833528339863,0.006064057815819979,-0.009918944910168648,0.003825795603916049,8.921592353772212e-09,0.002996983239427209
0.01071525551378727,0.006040616892278194,-0.010257771238684654,0.003988390322774649,3.8034148747145835e-11,0.003569983644410968
0.010356024838984013,0.006555035710334778,-0.010383297689259052,0.004275227896869183,2.483358137184144e-12,0.0033810334280133247
0.010364019311964512,0.006290890276432037,-0.009783019311726093,0.004028813447803259,1.6214552487139877e-13,0.0031421459279954433
0.01052834466099739,0.006025020964443684,-0.010625659488141537,0.004323518835008144,1.0586943682020043e-14,0.0027887544129043818
0.010055171325802803,0.006061518099159002,-0.009899204596877098,0.004167038016021252,6.912516768534137e-16,0.0025973685551434755
0.010604491457343102,0.006262962240725756,-0.010032149963080883,0.0035677440464496613,4.513379325242077e-17,0.002381917554885149
0.01058710366487503,0.006206112448126078,-0.010218938812613487,0.003567042062059045,2.9469140638717227e-18,0.0024227919057011604
0.01058710366487503,0.006206112448126078,-0.010218938812613487,0.003567042062059045,2.9469140638717227e-18,0.0024227919057011604
0.01024316344410181,0.006303098052740097,-0.009937670081853867,0.003910975530743599,1.256315694335073e-20,0.0022835428826510906
0.01024316344410181,0.006303098052740097,-0.009937670081853867,0.003910975530743599,1.256315694335073e-20,0.0022835428826510906
0.0104773985221982,0.005654613487422466,-0.010200348682701588,0.004216412547975779,8.202843778978111e-22,0.0025858727749437094
0.009878442622721195,0.006400431506335735,-0.010290219448506832,0.0047786603681743145,5.355870772890916e-23,0.0024483196903020144
0.010347581468522549,0.006272736005485058,-0.010086038149893284,0.004419133998453617,3.497000671322115e-24,0.002376947784796357
0.009777979925274849,0.005813379306346178,-0.010581324808299541,0.004276513587683439,2.2832915765423735e-25,0.002397394273430109
0.010224471800029278,0.005463979206979275,-0.009773120284080505,0.003949734382331371,1.4908261624672048e-26,0.002283757785335183
0.01008624117821455,0.0056672715581953526,-0.009883775375783443,0.003845786675810814,-1.1311171874694992e-05,0.0023882887326180935
0.010002263821661472,0.006055809091776609,-0.009869029745459557,0.003904457204043865,-0.00022116607578936964,0.0023522786796092987
0.010198185220360756,0.005947303492575884,-0.009704685769975185,0.004310153890401125,-0.00022389068908523768,0.0022295236121863127
0.010248656384646893,0.006052437238395214,-0.01035015843808651,0.004573014564812183,-0.0002540351706556976,0.001801731763407588
0.010561692528426647,0.005593329202383757,-0.00987378042191267,0.004195151850581169,-0.00024516068515367806,0.0016776268603280187
0.010051460936665535,0.00587520282715559,-0.00955913681536913,0.003966496326029301,-0.00026357543538324535,0.0015604968648403883
0.010204614140093327,0.006503426935523748,-0.010797401890158653,0.004257834050804377,-0.00026173103833571076,0.001423579640686512
0.010186249390244484,0.006022516638040543,-0.010147256776690483,0.004255963955074549,-0.0002518611145205796,0.0013602104736492038
0.01024421863257885,0.006368924397975206,-0.00963553972542286,0.0043688565492630005,-0.0002722150820773095,0.001300522591918707
0.010867578908801079,0.005750174634158611,-0.011105423793196678,0.00453764945268631,-0.00038160686381161213,0.0014686936046928167
0.010013725608587265,0.005858329124748707,-0.010151266120374203,0.00428696209564805,-0.0005187882925383747,0.0013994504697620869
0.010129141621291637,0.006497369147837162,-0.009368009865283966,0.004390374291688204,-0.0005705516668967903,0.0013218135572969913
0.010139855556190014,0.00641887541860342,-0.010449584573507309,0.0041643669828772545,-0.0005996133550070226,0.0011881627142429352
0.010036880150437355,0.005777301266789436,-0.009591488167643547,0.003856060327962041,-0.0010614824714139104,0.0010582872200757265
0.0104554807767272,0.005895382259041071,-0.010266623459756374,0.004377875477075577,-0.0010080535430461168,0.0010332436067983508
0.009828196838498116,0.006518705282360315,-0.01051208283752203,0.004449899308383465,-0.0008976359968073666,0.0009440400754101574
0.009977949783205986,0.006168965250253677,-0.009675872512161732,0.004325761925429106,-0.0007873823633417487,0.0008793307351879776
0.010618559084832668,0.005756590515375137,-0.009890425018966198,0.004046983551234007,-0.0007857526652514935,0.0008139751735143363
0.009983872063457966,0.005995656363666058,-0.010165959596633911,0.004211003426462412,-0.000718842726200819,0.0008206298225559294
0.010108008049428463,0.005489288363605738,-0.009663408622145653,0.004054310731589794,-0.0006246680277399719,0.0007826994406059384
0.010162225924432278,0.005530888680368662,-0.010109617374837399,0.003910265862941742,-0.0005758667248301208,0.0007467708201147616
0.01001058705151081,0.005668445024639368,-0.008694794960319996,0.004185244906693697,-0.0005592982051894069,0.0006792159983888268
0.01001058705151081,0.005668445024639368,-0.008694794960319996,0.004185244906693697,-0.0005592982051894069,0.0006792159983888268
0.010046151466667652,0.005497687961906195,-0.010512827895581722,0.004658092278987169,-0.0006229234859347343,0.0005714782746508718
0.010046151466667652,0.005497687961906195,-0.010512827895581722,0.004658092278987169,-0.0006229234859347343,0.0005714782746508718
0.010059311985969543,0.005272181238979101,-0.009716864675283432,0.004428233951330185,-0.0009611364221200347,0.0005294216680340469
0.010363034904003143,0.0058594634756445885,-0.009597883559763432,0.004427868407219648,-0.000989738735370338,0.00047046778490766883
0.009881257079541683,0.006350484676659107,-0.01071508601307869,0.004548236727714539,-0.0009883372113108635,0.00040942098712548614
0.010958123952150345,0.00597349600866437,-0.010037449188530445,0.004449579864740372,-0.0008766723913140595,0.00037414542748592794
0.01037211250513792,0.005522348918020725,-0.0098751001060009,0.004365683067589998,-0.000781871029175818,0.00034533021971583366
0.009867602027952671,0.005648656282573938,-0.010103733278810978,0.004070937167853117,-0.0007459082989953458,0.0003206956316716969
0.010352076962590218,0.005971845239400864,-0.010330598801374435,0.00417457427829504,-0.0006481486489064991,0.0002993483212776482
0.010329343378543854,0.006019591819494963,-0.009850063361227512,0.004576106555759907,-0.0005669252714142203,0.0002806682314258069
0.010490571148693562,0.005834285635501146,-0.00996003020554781,0.00427525769919157,-0.0005898860399611294,0.00026418286142870784
0.010170874185860157,0.00545255932956934,-0.00997677631676197,0.0044170888140797615,-0.0005422909744083881,0.0002495268709026277
0.010194004513323307,0.005528851877897978,-0.010026436299085617,0.004166553728282452,-0.0005536670796573162,0.00023641348525416106
0.010178107768297195,0.005307602230459452,-0.010486562736332417,0.0043904767371714115,-0.0005624902551062405,0.00022460907348431647
0.010476483032107353,0.005759136285632849,-0.01026441901922226,0.005039177369326353,-0.0005161419394426048,0.0002042176784016192
0.011131605133414268,0.005856669042259455,-0.010417270474135876,0.004981455858796835,-0.0004674211668316275,0.00019534965394996107
0.010433213785290718,0.005329310894012451,-0.010630980134010315,0.004669250454753637,-0.0004212854546494782,0.00018722095410339534
0.010002506896853447,0.005372478161007166,-0.011509629897773266,0.004443387500941753,-0.00045654986752197146,0.000148579289088957
0.010163240134716034,0.005125075113028288,-0.010439657606184483,0.004833252634853125,-0.00047728983918204904,0.0001385816722176969
0.010309422388672829,0.006022812332957983,-0.009622366167604923,0.005042482167482376,-0.0004908485570922494,0.00013317477714736015
0.010309422388672829,0.006022812332957983,-0.009622366167604923,0.005042482167482376,-0.0004908485570922494,0.00013317477714736015
0.010192029178142548,0.00574113242328167,-0.010283056646585464,0.0046696909703314304,-0.0007509736460633576,0.00012398154649417847
0.010843783617019653,0.005185462534427643,-0.009797444567084312,0.004498859401792288,-0.000726303260307759,0.0001198534228024073
0.010539019480347633,0.005287415813654661,-0.010838858783245087,0.004297180566936731,-0.0007440146873705089,0.00010177015792578459
0.010310993529856205,0.005525307264178991,-0.010730971582233906,0.004277646075934172,-0.0007604217971675098,8.524282748112455e-05
0.010310993529856205,0.005525307264178991,-0.010730971582233906,0.004277646075934172,-0.0007604217971675098,8.524282748112455e-05
0.01048407144844532,0.005514451302587986,-0.010237705893814564,0.0046122195199131966,-0.0008741763303987682,8.178959978977218e-05
0.010112318210303783,0.005732764024287462,-0.010415355674922466,0.0050060865469276905,-0.0009711676393635571,-3.4654149203561246e-05
0.011418178677558899,0.005343552213162184,-0.010171436704695225,0.004818955436348915,-0.0009996393928304315,-6.916520942468196e-05
0.01181751862168312,0.005235578864812851,-0.010820241644978523,0.004630965180695057,-0.0013274179073050618,-9.43830527830869e-05
0.011360198259353638,0.005001157987862825,-0.010842396877706051,0.004669212270528078,-0.0013589520240202546,-9.9122931715101e-05
0.011668508872389793,0.005982354283332825,-0.010355855338275433,0.00501517066732049,-0.0013023939682170749,-0.00012393192446324974
0.01099602784961462,0.005768285598605871,-0.010773303918540478,0.005073122680187225,-0.001432857010513544,-0.00014643969188909978
0.01183459535241127,0.005748665425926447,-0.010741002857685089,0.004746448714286089,-0.0013577744830399752,-0.0004136042553000152
0.011591854505240917,0.004543737042695284,-0.011174662038683891,0.004868977703154087,-0.0012885918840765953,-0.0006850682548247278
0.011611118912696838,0.004467501305043697,-0.010646759532392025,0.004845910705626011,-0.0011641194578260183,-0.0007387385121546686
0.012619530782103539,0.004666981752961874,-0.010582043789327145,0.00479079456999898,-0.0010991146555170417,-0.0010591542813926935
0.011551124043762684,0.005722395144402981,-0.010411462746560574,0.004832203034311533,-0.0009313347982242703,-0.001444726251065731
0.011657179333269596,0.005201939959079027,-0.011196084320545197,0.004970340058207512,-0.0009175342856906354,-0.0017270671669393778
0.011945787817239761,0.004879216197878122,-0.010305140167474747,0.004976977594196796,-0.000807720294687897,-0.0018973256228491664
0.012470577843487263,0.004784013144671917,-0.010698220692574978,0.004995796829462051,-0.0007330735679715872,-0.0018136415164917707
0.011628693901002407,0.005139146000146866,-0.010117938742041588,0.005020975600928068,-0.0006051797536201775,-0.0017102737911045551
0.012251126579940319,0.0055493684485554695,-0.011054202914237976,0.00480210967361927,-0.0006071630050428212,-0.0017253282712772489
0.01188496220856905,0.005112604238092899,-0.010603501461446285,0.004772897809743881,-0.0006232565501704812,-0.0016795602859929204
0.011993884108960629,0.004946274217218161,-0.010834728367626667,0.005151291843503714,-0.0006482297321781516,-0.0019904489163309336
0.012067871168255806,0.004918892402201891,-0.010902300477027893,0.005247873719781637,-0.0010306737385690212,-0.003361395327374339
0.012067871168255806,0.004918892402201891,-0.010902300477027893,0.005247873719781637,-0.0010306737385690212,-0.003361395327374339
0.012193129397928715,0.004817189183086157,-0.010274171829223633,0.0052379220724105835,-0.001095621264539659,-0.0043069361709058285
0.013066348619759083,0.004507558885961771,-0.010982774198055267,0.005039130803197622,-0.0009707210119813681,-0.004597737453877926
0.012164968065917492,0.004858445376157761,-0.011121978983283043,0.0047386218793690205,-0.0009547515073791146,-0.004013363737612963
0.012564053758978844,0.004782753996551037,-0.01065770722925663,0.004502481780946255,-0.0009450656361877918,-0.0036996430717408657
0.012074083089828491,0.004687889013439417,-0.010938312858343124,0.005188339855521917,-0.0009636528557166457,-0.003560317913070321
0.012440413236618042,0.004736855626106262,-0.010888745076954365,0.005413656122982502,-0.0009554490097798407,-0.004165263380855322
0.012646421790122986,0.005067253485321999,-0.011152179911732674,0.0055382209829986095,-0.0008944214205257595,-0.0041048345156013966
0.013761542737483978,0.0049271597526967525,-0.011335394345223904,0.0051560732536017895,-0.0008409712463617325,-0.004035340156406164
0.012551403604447842,0.004885129630565643,-0.01035071350634098,0.005215055774897337,-0.0007848598761484027,-0.003997970372438431
0.011902266182005405,0.005122482776641846,-0.010593060404062271,0.005190370138734579,-0.0007640118710696697,-0.004298873245716095
0.012959442101418972,0.005025636870414019,-0.011050608940422535,0.005650894250720739,-0.0008100919076241553,-0.004850856028497219
0.012599926441907883,0.004856535699218512,-0.010707922279834747,0.005475519225001335,-0.0008365387911908329,-0.004969739820808172
0.012634656392037868,0.005205415654927492,-0.011240900494158268,0.005668913945555687,-0.0011376353213563561,-0.005156997591257095
0.012683280743658543,0.0045609851367771626,-0.010687287896871567,0.005401513539254665,-0.0011331262066960335,-0.004890006501227617
0.012945721857249737,0.004552233032882214,-0.010298662818968296,0.00537677900865674,-0.0011345003731548786,-0.004609212279319763
0.013241779990494251,0.004652795381844044,-0.011491010896861553,0.005687483586370945,-0.0011187986237928271,-0.005062321666628122
0.01281759049743414,0.005186021793633699,-0.011243099346756935,0.005292627960443497,-0.0011537582613527775,-0.005700819194316864
0.013136484660208225,0.0052197957411408424,-0.010815988294780254,0.0051034558564424515,-0.0012011545477434993,-0.006383813451975584
0.012311428785324097,0.004920870531350374,-0.011968914419412613,0.004941108636558056,-0.0012280039954930544,-0.00583298783749342
0.013319292105734348,0.004755910020321608,-0.011311923153698444,0.004859816282987595,-0.0013640588149428368,-0.005732283927500248
0.01292586699128151,0.004865665920078754,-0.011026397347450256,0.005564562045037746,-0.001365972450003028,-0.006289128214120865
0.012985299341380596,0.004712997004389763,-0.011190011166036129,0.005459229927510023,-0.0014191492227837443,-0.006417793687433004
0.012847479432821274,0.00493871234357357,-0.011288103647530079,0.0049841380678117275,-0.0013716312823817134,-0.00675809383392334
0.013011804781854153,0.004988306667655706,-0.010790537111461163,0.004832481499761343,-0.0011919619282707572,-0.006908518262207508
0.012995773926377296,0.004815227817744017,-0.011301645077764988,0.004973979201167822,-0.0010203610872849822,-0.006574060767889023
0.013089388608932495,0.004734321963042021,-0.011183766648173332,0.005465416703373194,-0.0009564434876665473,-0.006413291208446026
0.013089388608932495,0.004734321963042021,-0.011183766648173332,0.005465416703373194,-0.0009564434876665473,-0.006413291208446026
0.012729035690426826,0.005135708022862673,-0.010246165096759796,0.005485181696712971,-0.0008429583976976573,-0.006504601798951626
0.013437854126095772,0.004553085658699274,-0.010995643213391304,0.005081634037196636,-0.0008193532121367753,-0.006755061447620392
0.013413351029157639,0.004343611653894186,-0.010772178880870342,0.005175762809813023,-0.0007488291012123227,-0.006619601044803858
0.013046519830822945,0.004763501230627298,-0.01073402725160122,0.005103407893329859,-0.0007595805218443274,-0.006673425901681185
0.012943281792104244,0.005249824374914169,-0.011015970259904861,0.0053092134185135365,-0.0006775121437385678,-0.006880813278257847
0.013447267934679985,0.004648115951567888,-0.010597441345453262,0.006031166296452284,-0.0006365859881043434,-0.006904734298586845
0.01293429546058178,0.005176248028874397,-0.011202800087630749,0.0056387884542346,-0.0006878138519823551,-0.0071878270246088505
0.013323351740837097,0.005051455460488796,-0.011259820312261581,0.005258326884359121,-0.0006880061118863523,-0.00750794168561697
0.01363564282655716,0.004819695372134447,-0.010307149030268192,0.005338576622307301,-0.0006659984937869012,-0.008097603917121887
0.013202562928199768,0.004543018061667681,-0.01088276319205761,0.0055036237463355064,-0.0007283473387360573,-0.007802964653819799
0.013488797470927238,0.004652963485568762,-0.011852185241878033,0.005616656504571438,-0.0007256691460497677,-0.007984522730112076
0.013085818849503994,0.004726945888251066,-0.010600893758237362,0.006132935639470816,-0.0007228674949146807,-0.008233998902142048
0.013486326672136784,0.004699538461863995,-0.011726287193596363,0.005773303564637899,-0.0006623539375141263,-0.008114457130432129
0.013207277283072472,0.004604252986609936,-0.011325210332870483,0.0057816775515675545,-0.0006634800811298192,-0.007967907935380936
0.013679741881787777,0.004585986491292715,-0.01142487209290266,0.0054489742033183575,-0.0006202766089700162,-0.007629686035215855
0.013297497294843197,0.004570711869746447,-0.011225439608097076,0.005744514986872673,-0.0006356147932820022,-0.008052886463701725
0.013225723057985306,0.0048401374369859695,-0.011137022636830807,0.005898802541196346,-0.0006138550234027207,-0.008077620528638363
0.013082756660878658,0.00463517801836133,-0.011395979672670364,0.006023336201906204,-0.0006432469235733151,-0.007800809107720852
0.013664362020790577,0.0049006277695298195,-0.011068863794207573,0.0055624572560191154,-0.0006714692572131753,-0.008701623417437077
0.013926355168223381,0.0048244367353618145,-0.01125910971313715,0.005285053979605436,-0.001113250502385199,-0.008612974546849728
0.01408855989575386,0.004256902728229761,-0.010776576586067677,0.005896204616874456,-0.001168209477327764,-0.008765242993831635
0.013990690000355244,0.004152286797761917,-0.011005790904164314,0.0061666457913815975,-0.0011501621920615435,-0.00924914050847292
0.013707466423511505,0.004805771633982658,-0.01127022597938776,0.0059655713848769665,-0.0011661804746836424,-0.008543306030333042
0.013330671004951,0.004938714671880007,-0.010902101173996925,0.005546691361814737,-0.0012500828597694635,-0.008337980136275291
0.0138326957821846,0.004833769518882036,-0.011499430984258652,0.005093468353152275,-0.0012370706535875797,-0.008860981091856956
0.0138326957821846,0.004833769518882036,-0.011499430984258652,0.005093468353152275,-0.0012370706535875797,-0.008860981091856956
0.013575978577136993,0.004733518697321415,-0.011436748318374157,0.005737057887017727,-0.0014791894936934114,-0.009134775027632713
0.014011922292411327,0.004490600898861885,-0.01163934450596571,0.006059120874851942,-0.0015109037049114704,-0.008936113677918911
0.013726291246712208,0.004508964717388153,-0.011030200868844986,0.006257092580199242,-0.0013514196034520864,-0.009505443274974823
0.014067713171243668,0.0047076051123440266,-0.010617994703352451,0.0057063233107328415,-0.0013472344726324081,-0.00872251857072115
0.013904888182878494,0.00462033087387681,-0.012109209783375263,0.005311912856996059,-0.0012578159803524613,-0.008808719925582409
0.013853177428245544,0.004877999424934387,-0.011366036720573902,0.005531052593141794,-0.0011942523997277021,-0.009412133134901524
0.013392866589128971,0.004943846724927425,-0.011097386479377747,0.006029988639056683,-0.0011142365401610732,-0.009980867616832256
0.014039559289813042,0.004785583354532719,-0.011062560603022575,0.005858737509697676,-0.0010898727923631668,-0.00912732444703579
0.013624009676277637,0.004261760972440243,-0.010557767935097218,0.005930697079747915,-0.0010691038332879543,-0.00886566936969757
0.014625032432377338,0.004184919409453869,-0.011238543316721916,0.005616594105958939,-0.0010490493150427938,-0.009400587528944016
0.013955071568489075,0.00422054436057806,-0.01148097962141037,0.005902194883674383,-0.0010834800777956843,-0.009905249811708927
0.014145031571388245,0.00488283671438694,-0.00967330764979124,0.006880536675453186,-0.0010388774098828435,-0.010358957573771477
0.01389976404607296,0.005019034259021282,-0.012722602114081383,0.0068807341158390045,-0.0010152359027415514,-0.010111327283084393
0.01458006352186203,0.004704365041106939,-0.011528987437486649,0.006083667743951082,-0.0009987849043682218,-0.010414144024252892
0.014244538731873035,0.004157847724854946,-0.011118686757981777,0.005940122064203024,-0.0010141687234863639,-0.01030192244797945
0.014227393083274364,0.0043133944272994995,-0.01067720353603363,0.006512955762445927,-0.0009272475726902485,-0.010980862192809582
0.013872012495994568,0.004173824097961187,-0.01065455935895443,0.006727330852299929,-0.0009185046073980629,-0.011439057067036629
0.014381865039467812,0.003955357242375612,-0.01172423642128706,0.00630243681371212,-0.0009156910236924887,-0.011337969452142715
0.014199011027812958,0.00438107643276453,-0.011544890701770782,0.005983653478324413,-0.00087956857169047,-0.010903414338827133
0.014714373275637627,0.004655206575989723,-0.011647281236946583,0.005548723973333836,-0.0008615648257546127,-0.011043320409953594
0.014621163718402386,0.0043484726920723915,-0.012294183485209942,0.005885656923055649,-0.0008660238236188889,-0.011221585795283318
0.014039096422493458,0.004034002311527729,-0.011701355688273907,0.006231760140508413,-0.0009864931926131248,-0.011045318096876144
0.014811874367296696,0.004026195500046015,-0.01158067025244236,0.005806613713502884,-0.0011018707882612944,-0.01118477527052164
0.014547144994139671,0.0038645975291728973,-0.012419586069881916,0.005565378814935684,-0.001114445272833109,-0.01161052007228136
0.014723659493029118,0.0038048920687288046,-0.011702575720846653,0.006011421326547861,-0.0012402484426274896,-0.011563125066459179
0.01446984987705946,0.0047904266975820065,-0.010993888601660728,0.005881599150598049,-0.001337515888735652,-0.011511461809277534
0.015186972916126251,0.004930996801704168,-0.011765679344534874,0.0060482332482934,-0.001266452600248158,-0.011459728702902794
0.015186972916126251,0.004930996801704168,-0.011765679344534874,0.0060482332482934,-0.001266452600248158,-0.011459728702902794
0.015025384724140167,0.004029940813779831,-0.011295034550130367,0.006059704348444939,-0.0011763052316382527,-0.011425260454416275
0.015025384724140167,0.004029940813779831,-0.011295034550130367,0.006059704348444939,-0.0011763052316382527,-0.011425260454416275
0.014611318707466125,0.004011104814708233,-0.012191531248390675,0.006387229077517986,-0.001129933982156217,-0.01172233372926712
0.015366602689027786,0.0040252432227134705,-0.011677874252200127,0.006290914956480265,-0.0010939495405182242,-0.011249334551393986
0.015123891644179821,0.0043242499232292175,-0.012551216408610344,0.006022474728524685,-0.001093949773348868,-0.011292712762951851
0.015544397756457329,0.004636261612176895,-0.01233934611082077,0.006280205212533474,-0.001078571891412139,-0.011602573096752167
0.015283089131116867,0.0046938215382397175,-0.01165198814123869,0.006769136525690556,-0.0010602271649986506,-0.01155402883887291
0.015396238304674625,0.004721338395029306,-0.011860612779855728,0.006881250534206629,-0.0010492784203961492,-0.011700436472892761
0.015228594653308392,0.004267594777047634,-0.011655529029667377,0.00657062791287899,-0.001172656542621553,-0.011752041056752205
0.01532180979847908,0.003966661170125008,-0.012315679341554642,0.006098148878663778,-0.0012878100387752056,-0.01187463290989399
0.015600381419062614,0.004094410687685013,-0.01166872214525938,0.005975187290459871,-0.0015468933852389455,-0.011634311638772488
0.015400157310068607,0.004024503752589226,-0.012118804268538952,0.006226362660527229,-0.0015697629423812032,-0.011646844446659088
0.015590849332511425,0.004394926596432924,-0.012414160184562206,0.006802771240472794,-0.0014898596564307809,-0.012001941911876202
0.015440763905644417,0.004671433940529823,-0.011806624941527843,0.006770118605345488,-0.001483293017372489,-0.011732448823750019
0.01560424454510212,0.00467695202678442,-0.011946100741624832,0.006740031763911247,-0.0013618897646665573,-0.011716749519109726
0.015468326397240162,0.004169734660536051,-0.011589305475354195,0.006237158551812172,-0.0011578035773709416,-0.011759977787733078
0.016035810112953186,0.004146243911236525,-0.012446112930774689,0.006647107191383839,-0.0010812620166689157,-0.01210987102240324
0.01544427964836359,0.003985866438597441,-0.012392031028866768,0.007202665321528912,-0.0009664887911640108,-0.012252014130353928
0.016135847195982933,0.004347977228462696,-0.012759635224938393,0.006931653246283531,-0.0007804259075783193,-0.012221505865454674
0.015799781307578087,0.004705860745161772,-0.011604639701545238,0.006611342541873455,-0.0007102304953150451,-0.01233561709523201
0.015515750274062157,0.004878800828009844,-0.011301668360829353,0.007155601400882006,-0.0006743358680978417,-0.012252764776349068
0.015727346763014793,0.004486422054469585,-0.01238598208874464,0.007083206903189421,-0.0006955346907489002,-0.012537661008536816
0.01621096022427082,0.004067791625857353,-0.011955324560403824,0.007227266672998667,-0.0007157793152146041,-0.013059179298579693
0.016112087294459343,0.003929845057427883,-0.012191882357001305,0.00647209957242012,-0.000910949136596173,-0.013102348893880844
0.01595328375697136,0.0040597193874418736,-0.011963263154029846,0.00690407445654273,-0.0012489795917645097,-0.012941797263920307
0.015730708837509155,0.004027015995234251,-0.011715990491211414,0.00725661963224411,-0.0015252259327098727,-0.012941895984113216
0.016177430748939514,0.003521729027852416,-0.01152738742530346,0.0072679175063967705,-0.0014650523662567139,-0.012726708315312862
0.01616719178855419,0.004153878893703222,-0.011951001361012459,0.006859482731670141,-0.0013422233751043677,-0.012786720879375935
0.01616719178855419,0.004153878893703222,-0.011951001361012459,0.006859482731670141,-0.0013422233751043677,-0.012786720879375935
0.016398992389440536,0.004105745814740658,-0.012219159863889217,0.007126705255359411,-0.0012553638080134988,-0.013165315613150597
0.016163785010576248,0.004002022091299295,-0.01185081247240305,0.007341303396970034,-0.0011996706016361713,-0.013550687581300735
0.015898149460554123,0.0036912744399160147,-0.011997584253549576,0.0069131129421293736,-0.0011613620445132256,-0.014023181051015854
0.016303645446896553,0.003565453924238682,-0.011264190077781677,0.006728481501340866,-0.0011447895085439086,-0.01422901637852192
0.016339175403118134,0.003614687593653798,-0.011684642173349857,0.00730658695101738,-0.0011438325745984912,-0.014501550234854221
0.01670663245022297,0.0036811395548284054,-0.011982806958258152,0.007446110714226961,-0.0011533912038430572,-0.014334961771965027
0.01625230722129345,0.003941498231142759,-0.011593674309551716,0.007270801346749067,-0.0014571576612070203,-0.013843766413629055
0.01638372801244259,0.004032917320728302,-0.012041770853102207,0.006783162243664265,-0.0014269505627453327,-0.014334158971905708
0.016788262873888016,0.003902232274413109,-0.012004882097244263,0.007211181800812483,-0.0016108512645587325,-0.014518574811518192
0.01687975414097309,0.00377219938673079,-0.011831513606011868,0.007405452895909548,-0.0015633433358743787,-0.01452750712633133
0.017458414658904076,0.004243992734700441,-0.011392900720238686,0.00711967796087265,-0.0014492181362584233,-0.014603272080421448
0.016678612679243088,0.004103532060980797,-0.011551091447472572,0.006748793181031942,-0.001227938337251544,-0.014996693469583988
0.01709577813744545,0.003892803331837058,-0.011874839663505554,0.007117058150470257,-0.0012457444099709392,-0.015604219399392605
0.01694289594888687,0.0037829868961125612,-0.011507108807563782,0.007409099955111742,-0.0011901104589924216,-0.01556140836328268
0.016463231295347214,0.0043250941671431065,-0.012004363350570202,0.007388479541987181,-0.0011886701686307788,-0.0146851921454072
0.016796177253127098,0.004677302204072475,-0.011629215441644192,0.008033471181988716,-0.0012578355381265283,-0.015062838792800903
0.016766872256994247,0.004259888082742691,-0.011580847203731537,0.0078322384506464,-0.0012426801258698106,-0.015143187716603279
0.017234111204743385,0.003937430214136839,-0.012035984545946121,0.007454993668943644,-0.0014547398313879967,-0.015570703893899918
0.01689011976122856,0.0040267412550747395,-0.011254067532718182,0.006955619901418686,-0.0014196345582604408,-0.015489022247493267
0.01666220650076866,0.003882018616423011,-0.012101823464035988,0.007153783924877644,-0.0015114849666133523,-0.015320156700909138
0.017027905210852623,0.0037233682814985514,-0.012090351432561874,0.007670253980904818,-0.0016018952010199428,-0.014495749026536942
0.017028935253620148,0.00375470076687634,-0.01116371713578701,0.007767436560243368,-0.0015280323568731546,-0.014875318855047226
0.01764795370399952,0.0037766494788229465,-0.011252187192440033,0.007657741196453571,-0.0015566354850307107,-0.01489277370274067
0.017316361889243126,0.0038245506584644318,-0.011624861508607864,0.007041101343929768,-0.001500153448432684,-0.015529394149780273
0.018076898530125618,0.0040387376211583614,-0.011464993469417095,0.007869922555983067,-0.001281274831853807,-0.015920018777251244
0.016050392761826515,0.0034215848427265882,-0.01133588794618845,0.00753346411511302,-0.0012992880074307323,-0.0161882434040308
0.016639525070786476,0.0033789663575589657,-0.011603142134845257,0.007831654511392117,-0.0012738568475469947,-0.016041889786720276
0.01731017604470253,0.0035307984799146652,-0.011035850271582603,0.007978653535246849,-0.0012053539976477623,-0.015939855948090553
0.017567597329616547,0.0036416209768503904,-0.012150407768785954,0.008161643519997597,-0.0012613143771886826,-0.015750380232930183
0.017567597329616547,0.0036416209768503904,-0.012150407768785954,0.008161643519997597,-0.0012613143771886826,-0.015750380232930183
0.017804358154535294,0.00348518043756485,-0.011485878378152847,0.007943187840282917,-0.0012044587638229132,-0.015885548666119576
0.01724763587117195,0.0035485979169607162,-0.011315522715449333,0.007377416826784611,-0.0011964259902015328,-0.015596703626215458
0.017884008586406708,0.003880499629303813,-0.011620128527283669,0.007422802969813347,-0.001309497863985598,-0.015969233587384224
0.01716618798673153,0.003942526876926422,-0.011591925285756588,0.007498844992369413,-0.0013213626807555556,-0.015709860250353813
0.017791641876101494,0.0036302045919001102,-0.011548858135938644,0.007333600893616676,-0.0015918606659397483,-0.016207724809646606
0.017859086394309998,0.0035244410391896963,-0.010945710353553295,0.007134662009775639,-0.0016728866612538695,-0.015824254602193832
0.01742902584373951,0.003234960837289691,-0.011827677488327026,0.007477616425603628,-0.0018349558813497424,-0.01558940950781107
0.017754556611180305,0.0035702905151993036,-0.013053360395133495,0.007097281981259584,-0.0017912802286446095,-0.015705078840255737
0.017565185204148293,0.003370835678651929,-0.011674691922962666,0.007165335584431887,-0.001560737146064639,-0.015733206644654274
0.017412031069397926,0.0035031428560614586,-0.011333014816045761,0.007429135963320732,-0.0013348888605833054,-0.01611892320215702
0.0174998939037323,0.0036541647277772427,-0.011368501000106335,0.007907814346253872,-0.0011481657857075334,-0.015965288504958153
0.01751837134361267,0.0036964942701160908,-0.011381945572793484,0.007594210095703602,-0.0011721034534275532,-0.01624280773103237
0.01819641888141632,0.003652911400422454,-0.01195258554071188,0.007321722339838743,-0.0010752056259661913,-0.01614399626851082
0.01762307807803154,0.003685578005388379,-0.012149553745985031,0.007276462856680155,-0.000990210217423737,-0.016714923083782196
0.017587460577487946,0.0032754552084952593,-0.011900480836629868,0.007624725345522165,-0.001009404077194631,-0.016356104984879494
0.017888225615024567,0.0032490405719727278,-0.011793537996709347,0.008099038153886795,-0.0010396511061117053,-0.01652226783335209
0.017587870359420776,0.0034465151838958263,-0.012230201624333858,0.007532975636422634,-0.001551146269775927,-0.016383329406380653
0.017989888787269592,0.0034303334541618824,-0.011791357770562172,0.007357456721365452,-0.0017811856232583523,-0.016335243359208107
0.01742647960782051,0.0032805469818413258,-0.01242187898606062,0.007674544584006071,-0.0019086714601144195,-0.01677287369966507
0.01805545575916767,0.003652718383818865,-0.01214634533971548,0.007350474130362272,-0.0019245017319917679,-0.016867225989699364
0.017702406272292137,0.0037692058831453323,-0.012412349693477154,0.0077983541414141655,-0.0018585256766527891,-0.016853967681527138
0.01777765341103077,0.0038212717045098543,-0.01214128639549017,0.0082405935972929,-0.0018151694675907493,-0.016718529164791107
0.017909402027726173,0.0033596730791032314,-0.012167501263320446,0.007822688668966293,-0.0017167534679174423,-0.017236674204468727
0.01760806143283844,0.003495229873806238,-0.013342508114874363,0.007423041854053736,-0.0016915444284677505,-0.01675369404256344
0.01760806143283844,0.003495229873806238,-0.013342508114874363,0.007423041854053736,-0.0016915444284677505,-0.01675369404256344
0.018030866980552673,0.003702655201777816,-0.012710579670965672,0.008105159737169743,-0.0017147924518212676,-0.016387730836868286
0.01780281402170658,0.00382603844627738,-0.01278702076524496,0.008320098742842674,-0.0018026430625468493,-0.016054874286055565
0.017893847078084946,0.0033433909993618727,-0.01237806212157011,0.00778210861608386,-0.0018204246880486608,-0.016173195093870163
0.018311992287635803,0.0033706827089190483,-0.013284546323120594,0.007739551365375519,-0.001769190072081983,-0.016459491103887558
0.017779139801859856,0.0035775976721197367,-0.013106766156852245,0.0077611408196389675,-0.0016482743667438626,-0.0161698367446661
0.017885684967041016,0.003665006486698985,-0.013149556703865528,0.007851148955523968,-0.0015554550336673856,-0.016502855345606804
0.018005849793553352,0.0035588452592492104,-0.013250907883048058,0.007616628427058458,-0.0015138062881305814,-0.016621261835098267
0.018068140372633934,0.0034251210745424032,-0.012782106176018715,0.00737701915204525,-0.0015205179806798697,-0.01705753616988659
0.018369076773524284,0.003178378799930215,-0.013107982464134693,0.008051776327192783,-0.0014686171198263764,-0.017089007422327995
0.017925376072525978,0.0035034767352044582,-0.012677809223532677,0.00835523009300232,-0.0015405718004330993,-0.017291013151407242
0.01783958449959755,0.0036978982388973236,-0.013085723854601383,0.008168835192918777,-0.0014477006625384092,-0.017183559015393257
0.018621331080794334,0.0028698875103145838,-0.013031593523919582,0.008153620176017284,-0.001456741476431489,-0.0174749493598938
0.018621835857629776,0.002354065887629986,-0.013782816007733345,0.007894066162407398,-0.0014298398746177554,-0.017660927027463913
0.018391625955700874,0.0020464533008635044,-0.012513997964560986,0.008101208135485649,-0.0013753027888014913,-0.01772177778184414
0.018352210521697998,0.0018257739720866084,-0.013290940783917904,0.008424565196037292,-0.001562305260449648,-0.0180556271225214
0.017906421795487404,0.0023554929066449404,-0.012647593393921852,0.00821534264832735,-0.0017981181154027581,-0.01820332370698452
0.01797269843518734,0.0024745375849306583,-0.013057258911430836,0.008285549469292164,-0.0020005162805318832,-0.018336012959480286
0.018397340551018715,0.0026627047918736935,-0.012783139012753963,0.007864589802920818,-0.0019610095769166946,-0.017981652170419693
0.018071185797452927,0.0025325275491923094,-0.01275660004466772,0.007635118905454874,-0.0019044955261051655,-0.017961587756872177
0.01857157237827778,0.0020862168166786432,-0.01288934051990509,0.008543627336621284,-0.0017270620446652174,-0.01818229816854
0.017733901739120483,0.0018388301832601428,-0.013238472864031792,0.007921659387648106,-0.0014253660337999463,-0.01845913752913475
0.018451929092407227,0.0021162552293390036,-0.012880598194897175,0.008128443732857704,-0.0017655271803960204,-0.018566764891147614
0.01853012852370739,0.0021119422744959593,-0.013136016204953194,0.008919884450733662,-0.0020273886620998383,-0.018680496141314507
0.019005799666047096,0.0022383902687579393,-0.012252800166606903,0.008613510057330132,-0.002472778083756566,-0.01865401305258274
0.01863867975771427,0.0021199353504925966,-0.012560567818582058,0.00820311438292265,-0.0023253040853887796,-0.018800288438796997
0.01863867975771427,0.0021199353504925966,-0.012560567818582058,0.00820311438292265,-0.0023253040853887796,-0.018800288438796997
0.018340758979320526,0.002003823406994343,-0.012908058241009712,0.008355622179806232,-0.0020983864087611437,-0.019055267795920372
0.018634319305419922,0.001950337435118854,-0.012564663775265217,0.008305641822516918,-0.001901978743262589,-0.01891227252781391
0.01836249604821205,0.00208420492708683,-0.013181634247303009,0.008167942985892296,-0.001491011120378971,-0.018903866410255432
0.018210815265774727,0.0019358296412974596,-0.012528860941529274,0.008255096152424812,-0.0014389354037120938,-0.019284240901470184
0.0187909547239542,0.002229059115052223,-0.013154596090316772,0.008373752236366272,-0.0013371240347623825,-0.018895478919148445
0.019297610968351364,0.0021012371871620417,-0.012903619557619095,0.008473538793623447,-0.0012036750558763742,-0.019139988347887993
0.018269598484039307,0.0022599962539970875,-0.013290190137922764,0.008629062213003635,-0.0012364088324829936,-0.019813882187008858
0.01988235116004944,0.0018800783436745405,-0.012540796771645546,0.008911732584238052,-0.0012637772597372532,-0.020683422684669495
0.019429141655564308,0.0018559497548267245,-0.012696519494056702,0.008787098340690136,-0.0018275069305673242,-0.020482322201132774
0.0189225971698761,0.0017994593363255262,-0.012866422533988953,0.008075856603682041,-0.0017533679492771626,-0.01996178925037384
0.018947549164295197,0.0020156800746917725,-0.012228253297507763,0.008658125065267086,-0.001992850797250867,-0.019432730972766876
0.019070858135819435,0.002247731201350689,-0.012933050282299519,0.008720611222088337,-0.0018671423895284534,-0.01894388161599636
0.019015615805983543,0.0021510221995413303,-0.012566570192575455,0.008563261479139328,-0.0020267656072974205,-0.01940903067588806
0.019845521077513695,0.0021423001307994127,-0.013134902343153954,0.008774123154580593,-0.0018693298334255815,-0.019917747005820274
0.019761938601732254,0.001982353860512376,-0.012250480242073536,0.0093747079372406,-0.0017983815632760525,-0.02050693891942501
0.019241144880652428,0.0016916226595640182,-0.012698945589363575,0.009428927674889565,-0.0017441113013774157,-0.020217256620526314
0.01976933889091015,0.0017055771313607693,-0.012747767381370068,0.009386125020682812,-0.0017479361267760396,-0.020649170503020287
0.019751673564314842,0.0016119669890031219,-0.012626026757061481,0.009242406114935875,-0.001780662452802062,-0.020915640518069267
0.019475838169455528,0.0017962898127734661,-0.012761050835251808,0.009184473194181919,-0.0019166882848367095,-0.021415041759610176
0.01991117186844349,0.00190769846085459,-0.0122660668566823,0.008869556710124016,-0.00193999451585114,-0.021367734298110008
0.019983895123004913,0.0017961253179237247,-0.013087538070976734,0.008879453875124454,-0.0020573572255671024,-0.02063894271850586
0.019853802397847176,0.0016901493072509766,-0.013453898020088673,0.008826844394207,-0.002043291227892041,-0.021062582731246948
0.020193737000226974,0.001696034916676581,-0.012834095396101475,0.009096830151975155,-0.002000965876504779,-0.021672021597623825
0.0201804731041193,0.0016486672684550285,-0.013853457756340504,0.009108912199735641,-0.0021885144524276257,-0.021949192509055138
0.020127136260271072,0.0015312328469008207,-0.013204919174313545,0.00908284168690443,-0.0021565197966992855,-0.021922871470451355
0.020532848313450813,0.001639495836570859,-0.013114961795508862,0.009208865463733673,-0.0021602935157716274,-0.02184363827109337
0.020626084879040718,0.0016995497280731797,-0.012960830703377724,0.009448056109249592,-0.00200583110563457,-0.02165910229086876
0.02040882594883442,0.0016196062788367271,-0.012762028723955154,0.00975200068205595,-0.0019679125398397446,-0.021958066150546074
0.02059139311313629,0.0017105110455304384,-0.013081340119242668,0.009217225946485996,-0.0020656196866184473,-0.022033771499991417
0.02066277340054512,0.0017135456437245011,-0.012789219617843628,0.009010829962790012,-0.0020672581158578396,-0.02245543710887432
0.02066277340054512,0.0017135456437245011,-0.012789219617843628,0.009010829962790012,-0.0020672581158578396,-0.02245543710887432
0.020652826875448227,0.0016842491459101439,-0.013304785825312138,0.00883385632187128,-0.0021850874181836843,-0.022676406428217888
0.02079864591360092,0.0015562636544927955,-0.01316566951572895,0.0087206419557333,-0.0021998544689267874,-0.02314738929271698
0.02097376435995102,0.0014683202607557178,-0.01322466041892767,0.009116682223975658,-0.0023612375371158123,-0.02332962676882744
0.020923858508467674,0.0014909571036696434,-0.012968393974006176,0.009188818745315075,-0.002483476884663105,-0.023060906678438187
0.020979588851332664,0.0015406188322231174,-0.013662722893059254,0.009106805548071861,-0.0024282049853354692,-0.02312611974775791
0.02093101292848587,0.0017527430318295956,-0.013095877133309841,0.009523018263280392,-0.002209737664088607,-0.02370958961546421
0.02102845348417759,0.001715271733701229,-0.01384609192609787,0.009611550718545914,-0.0020937486551702023,-0.0233305711299181
0.02087717317044735,0.0018391307676211,-0.013247872702777386,0.00959757436066866,-0.001919797738082707,-0.023937178775668144
0.021029425784945488,0.001849857741035521,-0.013289080932736397,0.010413809679448605,-0.0018869061022996902,-0.024703554809093475
0.021675318479537964,0.0019623227417469025,-0.0137910395860672,0.010842726565897465,-0.002090113703161478,-0.023929888382554054
0.021830696612596512,0.0019403756596148014,-0.013381420634686947,0.00974734965711832,-0.001998354448005557,-0.02374972030520439
0.021738538518548012,0.0019642605911940336,-0.013483905233442783,0.010232268832623959,-0.0021197041496634483,-0.02325935661792755
0.02163095772266388,0.001938106957823038,-0.013073929585516453,0.010019033215939999,-0.002079680096358061,-0.023016825318336487
0.021625811234116554,0.002008176175877452,-0.01306255254894495,0.010249664075672626,-0.0019598312210291624,-0.024962643161416054
0.021774381399154663,0.0020311272237449884,-0.013623686507344246,0.010025699622929096,-0.001883756136521697,-0.024283474311232567
0.021702896803617477,0.0020506447181105614,-0.013363298960030079,0.009922638535499573,-0.0017572451615706086,-0.02427024580538273
0.021350355818867683,0.0020298247691243887,-0.013956732116639614,0.010599048808217049,-0.001863992540165782,-0.025096077471971512
0.02218393050134182,0.0019729570485651493,-0.013474328443408012,0.010142635554075241,-0.0022962416987866163,-0.025101855397224426
0.022483833134174347,0.0018953420221805573,-0.013796699233353138,0.009934406727552414,-0.0026228611823171377,-0.024762611836194992
0.02210884913802147,0.0019355100812390447,-0.013741891831159592,0.01033201813697815,-0.0030095481779426336,-0.024099284783005714
0.02204907312989235,0.0022309639025479555,-0.014032179489731789,0.01012515090405941,-0.002823279704898596,-0.024277418851852417
0.02255742810666561,0.002028780523687601,-0.014179454185068607,0.009989544749259949,-0.002498675137758255,-0.025080695748329163
0.02194688841700554,0.0021942220628261566,-0.013667005114257336,0.010026800446212292,-0.0023495382629334927,-0.025442343205213547
0.021434960886836052,0.0019802332390099764,-0.013695751316845417,0.009734038263559341,-0.002099280245602131,-0.02485135942697525
0.022093966603279114,0.0019909306429326534,-0.014560889452695847,0.009806239046156406,-0.002020769054070115,-0.02508605644106865
0.022616954520344734,0.0017808823613449931,-0.01373976655304432,0.010013332590460777,-0.0019060422200709581,-0.02518766187131405
0.022237557917833328,0.0017577746184542775,-0.013663657940924168,0.009413149207830429,-0.0019262201385572553,-0.025142041966319084
0.022237557917833328,0.0017577746184542775,-0.013663657940924168,0.009413149207830429,-0.0019262201385572553,-0.025142041966319084
0.022171491757035255,0.0017714382847771049,-0.014507078565657139,0.009826753288507462,-0.002206964883953333,-0.02510315738618374
0.022095462307333946,0.0021613496355712414,-0.014268658123910427,0.010451680049300194,-0.0021650574635714293,-0.024835607036948204
0.02283668704330921,0.002199075650423765,-0.01438318844884634,0.010101922787725925,-0.0023539462126791477,-0.024684038013219833
0.02298690751194954,0.00217587617225945,-0.014408424496650696,0.010518406517803669,-0.0027324173133820295,-0.024982132017612457
0.02260717935860157,0.0019905732478946447,-0.014690820127725601,0.010481604374945164,-0.0027576058637350798,-0.025812380015850067
0.02263987809419632,0.0019011866534128785,-0.014149055816233158,0.01036097016185522,-0.0026393570005893707,-0.02574787102639675
0.022414878010749817,0.0017385813407599926,-0.01454257220029831,0.010968557558953762,-0.0023056035861372948,-0.02592885121703148
0.02262621372938156,0.0018718437058851123,-0.01459464617073536,0.010770460590720177,-0.0021194200962781906,-0.0252041295170784
0.022987335920333862,0.0017718152375891805,-0.014771210961043835,0.009785248897969723,-0.00230509415268898,-0.026045378297567368
0.02330622635781765,0.0021296178456395864,-0.014994161203503609,0.009961092844605446,-0.002357400255277753,-0.026248279958963394
0.02267940528690815,0.0023845951072871685,-0.014643981121480465,0.009650509804487228,-0.0023299825843423605,-0.02600535750389099
0.022906199097633362,0.0022338246926665306,-0.01506457943469286,0.009393137879669666,-0.0022539636120200157,-0.025985123589634895
0.023183614015579224,0.0018104022601619363,-0.015104996971786022,0.009916127659380436,-0.0021553649567067623,-0.026778388768434525
0.02273598127067089,0.001770581235177815,-0.014725904911756516,0.010273084044456482,-0.002322124084457755,-0.026359695941209793
0.022926779463887215,0.001827258849516511,-0.014823516830801964,0.010869521647691727,-0.0023294605780392885,-0.026396019384264946
0.023142855614423752,0.0022497132886201143,-0.01452147588133812,0.010932931676506996,-0.002256011823192239,-0.026445573195815086
0.022961817681789398,0.0021564604248851538,-0.01479280460625887,0.011108998209238052,-0.002603588392958045,-0.026632271707057953
0.022961817681789398,0.0021564604248851538,-0.01479280460625887,0.011108998209238052,-0.002603588392958045,-0.026632271707057953
0.023115279152989388,0.0020705692004412413,-0.01487702690064907,0.011278686113655567,-0.00262260134331882,-0.026954077184200287
0.02336580492556095,0.002000640146434307,-0.015460883267223835,0.010429983958601952,-0.0025332877412438393,-0.026744481176137924
0.022936934605240822,0.0019148718565702438,-0.01442341785877943,0.010806848295032978,-0.0024818459060043097,-0.027103492990136147
0.02292393147945404,0.0018897895934060216,-0.015011187642812729,0.010484778322279453,-0.0024060907308012247,-0.027117064222693443
0.02349431999027729,0.0019650356844067574,-0.014812353998422623,0.010304897092282772,-0.0023399959318339825,-0.026995083317160606
0.023042138665914536,0.001941950642503798,-0.015190301463007927,0.010503707453608513,-0.002488847356289625,-0.027396349236369133
0.023310434073209763,0.0017517503583803773,-0.014147087931632996,0.010451802983880043,-0.002358474535867572,-0.027324846014380455
0.02388511598110199,0.001967149320989847,-0.01544355321675539,0.010534015484154224,-0.0024654234293848276,-0.02749301679432392
0.02336936816573143,0.0020914226770401,-0.014661277644336224,0.010868268087506294,-0.002376262564212084,-0.027446305379271507
0.023719675838947296,0.0018660981440916657,-0.015026455745100975,0.010283350013196468,-0.002233800943940878,-0.027524976059794426
0.023353079333901405,0.0017754908185452223,-0.014489674009382725,0.010616205632686615,-0.002329625189304352,-0.02750362828373909
0.02317356877028942,0.0017517408123239875,-0.015265852212905884,0.010892733931541443,-0.0025195027701556683,-0.026404956355690956
0.02408265508711338,0.001653150306083262,-0.014783891849219799,0.010202910751104355,-0.0026113325729966164,-0.02738078683614731
0.02389800362288952,0.0018158780876547098,-0.015570536255836487,0.010119112208485603,-0.0028500074986368418,-0.02815142646431923
0.022916078567504883,0.0017017803620547056,-0.014800637029111385,0.010549129918217659,-0.0027581164613366127,-0.028771452605724335
0.023912247270345688,0.0019868200179189444,-0.015031243674457073,0.010738134384155273,-0.0024386851582676172,-0.02885282225906849
0.024063004180788994,0.0020872207824140787,-0.015029402449727058,0.010671054944396019,-0.0024568585213273764,-0.028382550925016403
0.024184834212064743,0.0020915879867970943,-0.015610004775226116,0.010767500847578049,-0.002742324024438858,-0.02719375491142273
0.02374560944736004,0.0019318095874041319,-0.015534254722297192,0.010401731356978416,-0.002621885621920228,-0.02697695791721344
0.023033011704683304,0.0018342339899390936,-0.015145429410040379,0.010730673559010029,-0.0023345916997641325,-0.028302384540438652
0.023853717371821404,0.0018631959101185203,-0.015162084251642227,0.010834429413080215,-0.002181841293349862,-0.028127646073698997
0.02446329966187477,0.0018564127385616302,-0.015569308772683144,0.01108348835259676,-0.0019121560035273433,-0.02895505353808403
0.02404487319290638,0.0019089694833382964,-0.015199391171336174,0.01033114641904831,-0.0019856379367411137,-0.028876332566142082
0.02356436662375927,0.0019114979077130556,-0.015568233095109463,0.010154045186936855,-0.00203525647521019,-0.02843591198325157
0.023282306268811226,0.0019517188193276525,-0.014813859947025776,0.010751771740615368,-0.002077649114653468,-0.027193278074264526
0.023653479292988777,0.0018897127592936158,-0.015402081422507763,0.010820263996720314,-0.0023158742114901543,-0.027923669666051865
0.023653479292988777,0.0018897127592936158,-0.015402081422507763,0.010820263996720314,-0.0023158742114901543,-0.027923669666051865
0.024307623505592346,0.001684277318418026,-0.015512012876570225,0.010802767239511013,-0.0024957985151559114,-0.029325703158974648
0.024307623505592346,0.001684277318418026,-0.015512012876570225,0.010802767239511013,-0.0024957985151559114,-0.029325703158974648
0.024036189541220665,0.0016193074407055974,-0.014522741548717022,0.010656826198101044,-0.00234785582870245,-0.02913338504731655
0.024201398715376854,0.0016595226479694247,-0.015117332339286804,0.011061313562095165,-0.0022055364679545164,-0.028974974527955055
0.024091096594929695,0.001849299413152039,-0.014816041104495525,0.01095224916934967,-0.0020518337842077017,-0.02895149402320385
0.023916462436318398,0.0016880575567483902,-0.015208501368761063,0.011175108142197132,-0.002053875708952546,-0.029062753543257713
0.02452276088297367,0.0017359163612127304,-0.015224493108689785,0.011047117412090302,-0.002105823252350092,-0.02968619577586651
0.02452276088297367,0.0017359163612127304,-0.015224493108689785,0.011047117412090302,-0.002105823252350092,-0.02968619577586651
0.024434886872768402,0.0016216289950534701,-0.014651204459369183,0.011733339168131351,-0.002086506225168705,-0.029278896749019623
0.02399825118482113,0.0016639779787510633,-0.014886650256812572,0.011771715246140957,-0.001919595873914659,-0.0296308733522892
0.02431502752006054,0.0016961852088570595,-0.015243282541632652,0.011316647753119469,-0.0018319635419175029,-0.029887543991208076
0.024257326498627663,0.0017350632697343826,-0.015104195103049278,0.011203307658433914,-0.0018653285223990679,-0.029444986954331398
0.024452371522784233,0.001618636422790587,-0.015422193333506584,0.010850097052752972,-0.0021272702142596245,-0.02904251590371132
0.02473006397485733,0.0016478052129969,-0.015030459500849247,0.01117224246263504,-0.002563352696597576,-0.03021905943751335
0.024990921840071678,0.001680650282651186,-0.015236304141581059,0.010982546024024487,-0.0028590140864253044,-0.03114970400929451
0.02447754144668579,0.0015805219300091267,-0.014993459917604923,0.011252189986407757,-0.0028651764150708914,-0.030406422913074493
0.02460663951933384,0.0016664320137351751,-0.015248372219502926,0.01151297241449356,-0.002885994967073202,-0.028563957661390305
0.02472340315580368,0.001679810811765492,-0.014851938001811504,0.011335882358253002,-0.0025438747834414244,-0.029089681804180145
0.025090660899877548,0.0018302126554772258,-0.0157383531332016,0.011947838589549065,-0.0023153708316385746,-0.03043610416352749
0.024952925741672516,0.0017696110298857093,-0.015594725497066975,0.011342784389853477,-0.0022843354381620884,-0.030737286433577538
0.025634506717324257,0.001553095644339919,-0.01630277931690216,0.011480435729026794,-0.002194188069552183,-0.0305891502648592
0.025256983935832977,0.0012979586608707905,-0.015636825934052467,0.012318708002567291,-0.00264338799752295,-0.031058983877301216
0.025012478232383728,0.0012642542133107781,-0.015242396853864193,0.012230724096298218,-0.0027788658626377583,-0.02994854561984539
0.025054704397916794,0.0012988578528165817,-0.016023071482777596,0.01216964889317751,-0.00269814464263618,-0.030447039753198624
0.025839727371931076,0.0013807404320687056,-0.01661243848502636,0.012278050184249878,-0.0026608735788613558,-0.03174532577395439
0.025824422016739845,0.0016730445204302669,-0.01628265343606472,0.011722083203494549,-0.002684617880731821,-0.031997255980968475
0.025886688381433487,0.0013530612923204899,-0.017016973346471786,0.011733241379261017,-0.0025925147347152233,-0.03215613588690758
0.026019319891929626,0.000905040476936847,-0.015822261571884155,0.012557893991470337,-0.0028798363637179136,-0.03185277059674263
0.026019319891929626,0.000905040476936847,-0.015822261571884155,0.012557893991470337,-0.0028798363637179136,-0.03185277059674263
0.025597326457500458,0.0006199530907906592,-0.01632847636938095,0.012083111330866814,-0.0029712531249970198,-0.03179170936346054
0.025099191814661026,0.00030955797410570085,-0.016110405325889587,0.01181956846266985,-0.002676640171557665,-0.0313088595867157
0.025910023599863052,0.0002989417116623372,-0.016107620671391487,0.012051891535520554,-0.0026440657675266266,-0.03260050341486931
0.026107780635356903,0.0003985563525930047,-0.015624077059328556,0.01181890070438385,-0.002300292020663619,-0.032892707735300064
0.02539103664457798,0.0004674078954849392,-0.01610894501209259,0.012083685025572777,-0.002138787880539894,-0.03234909474849701
0.02582189068198204,0.0010056159226223826,-0.016933517530560493,0.011829180642962456,-0.002094224328175187,-0.03206496685743332
0.026272790506482124,0.0008419840014539659,-0.016398092731833458,0.012181117199361324,-0.0023959996178746223,-0.032639533281326294
0.025998003780841827,0.0007093686144798994,-0.016663162037730217,0.012025903910398483,-0.0027500770520418882,-0.0332210510969162
0.026311371475458145,0.0006126775988377631,-0.01562960259616375,0.012086374685168266,-0.0030893979128450155,-0.03281518816947937
0.02569442242383957,0.0005392020102590322,-0.016105443239212036,0.012240925803780556,-0.002802905859425664,-0.032838430255651474
0.025873146951198578,0.0004814680141862482,-0.016299396753311157,0.011615177616477013,-0.002620552433654666,-0.03321320563554764
0.026262197643518448,0.0004349116061348468,-0.017331762239336967,0.011967042461037636,-0.002618926577270031,-0.034056130796670914
0.026788929477334023,0.00046626824769191444,-0.016564378514885902,0.011682817712426186,-0.0024126546923071146,-0.0337216816842556
0.02657329849898815,0.00043720079702325165,-0.016250254586338997,0.011781512759625912,-0.002336616162210703,-0.03340018540620804
0.026100153103470802,0.0004045545356348157,-0.016683267429471016,0.01154008787125349,-0.0022963855881243944,-0.033398959785699844
0.02650562673807144,0.00037635452463291585,-0.015694718807935715,0.011357441544532776,-0.002250833436846733,-0.033823415637016296
0.026348087936639786,0.0003518292505759746,-0.016326207667589188,0.012041068635880947,-0.0025190196465700865,-0.0344088040292263
0.026450803503394127,0.0003303039993625134,-0.016249772161245346,0.012187802232801914,-0.0029976533260196447,-0.0342896543443203
0.026430446654558182,0.0002942976134363562,-0.016786091029644012,0.012184006161987782,-0.0025409776717424393,-0.0337396040558815
0.026219334453344345,0.00027908527408726513,-0.016069719567894936,0.011669660918414593,-0.002322599058970809,-0.033998895436525345
0.02651912532746792,0.000265368988038972,-0.0165711697191,0.01256787870079279,-0.0021102777682244778,-0.03409990295767784
0.026738351210951805,0.0002529387711547315,-0.016225777566432953,0.012490241788327694,-0.002248193835839629,-0.034732941538095474
0.026768069714307785,0.00024162037880159914,-0.01648077555000782,0.012144873850047588,-0.002655132208019495,-0.03438612073659897
0.026768069714307785,0.00024162037880159914,-0.01648077555000782,0.012144873850047588,-0.002655132208019495,-0.03438612073659897
0.027104703709483147,0.00023127137683331966,-0.015857500955462456,0.011876658536493778,-0.002994513139128685,-0.035720694810152054
0.02524808794260025,0.00022177275968715549,-0.016033560037612915,0.012247285805642605,-0.003003524150699377,-0.036345064640045166
0.02735966071486473,0.0002130241773556918,-0.016366103664040565,0.012523749843239784,-0.002890190342441201,-0.034950390458106995
0.027175527065992355,0.00020493888587225229,-0.016258802264928818,0.0121757248416543,-0.0027632731944322586,-0.03353792428970337
0.026848716661334038,0.00019744537712540478,-0.016543708741664886,0.01242758147418499,-0.002770780585706234,-0.035079337656497955
0.02662261202931404,0.0002113251539412886,-0.015700828284025192,0.012175091542303562,-0.002870146883651614,-0.034785717725753784
0.026514261960983276,0.00021450883650686592,-0.01639384776353836,0.012341702356934547,-0.0029607422184199095,-0.035936158150434494
0.02624724805355072,0.00020758061145897955,-0.016058843582868576,0.01190552394837141,-0.0028088996186852455,-0.03697751462459564
0.027650481089949608,0.0002009608579101041,-0.01639844849705696,0.012173647992312908,-0.00245943246409297,-0.03550402820110321
0.027363531291484833,0.00019474873261060566,-0.016006316989660263,0.012709502130746841,-0.0024778328370302916,-0.03431704640388489
0.027641577646136284,0.00018890919454861432,-0.015910184010863304,0.012099492363631725,-0.0027938971761614084,-0.03577832132577896
0.026326647028326988,0.0001834094728110358,-0.01628085970878601,0.013172430917620659,-0.0031882566399872303,-0.036257676780223846
0.026905233040452003,0.0001782208273652941,-0.01584555208683014,0.012819437310099602,-0.0031285486184060574,-0.03658967465162277
0.02745041251182556,0.00017331790877506137,-0.016241401433944702,0.012946835719048977,-0.0029628330375999212,-0.035860639065504074
0.02748650684952736,0.0001686774630798027,-0.015213444828987122,0.012795785441994667,-0.0027945591136813164,-0.03573460131883621
0.02751414105296135,0.00016427900118287653,-0.01606500707566738,0.01296214573085308,-0.0027711521834135056,-0.03609707951545715
0.028135720640420914,0.00016010412946343422,-0.015992095693945885,0.013432210311293602,-0.002572733210399747,-0.0364692397415638
0.02820865623652935,0.00015613611321896315,-0.01635124348104,0.012037187814712524,-0.002711503766477108,-0.03643553704023361
0.02816542237997055,0.00015236031322274357,-0.016761085018515587,0.012554599903523922,-0.0028379636351019144,-0.03641756623983383
0.027431128546595573,0.0001453310251235962,-0.016729775816202164,0.013331631198525429,-0.00310153653845191,-0.03681161254644394
0.02832704782485962,0.00014205407933332026,-0.016027074307203293,0.013126040808856487,-0.003010569140315056,-0.03676290810108185
0.028680957853794098,4.699397322838195e-05,-0.01669359765946865,0.012841136194765568,-0.00307173328474164,-0.03698164224624634
0.02798409014940262,4.2187675717286766e-05,-0.015989774838089943,0.01325185690075159,-0.002990558510646224,-0.038557570427656174
0.028136080130934715,4.117290518479422e-05,-0.0164833664894104,0.013853183016180992,-0.0028704185970127583,-0.0378519631922245
0.02812311239540577,4.0251557948067784e-05,-0.01658908650279045,0.013761567883193493,-0.0026930198073387146,-0.03622995689511299
0.027918273583054543,3.937113797292113e-05,-0.016834979876875877,0.013494866900146008,-0.0027384834829717875,-0.035162024199962616
0.028249157592654228,3.852848749374971e-05,-0.016714245080947876,0.013440932147204876,-0.002752389758825302,-0.03774477541446686
0.028249157592654228,3.852848749374971e-05,-0.016714245080947876,0.013440932147204876,-0.002752389758825302,-0.03774477541446686
0.026664162054657936,3.772106356336735e-05,-0.016026722267270088,0.013385659083724022,-0.0025135159958153963,-0.038309112191200256
0.028985165059566498,3.6946788895875216e-05,-0.017042743042111397,0.013656890019774437,-0.002348406706005335,-0.03957456350326538
0.02891642227768898,3.6203728086547926e-05,-0.017107294872403145,0.013015045784413815,-0.002304431051015854,-0.037798311561346054
0.028621049597859383,3.548992390278727e-05,-0.017371097579598427,0.013313288800418377,-0.002251533092930913,-0.0363115556538105
0.028504421934485435,3.480371742625721e-05,-0.017013687640428543,0.013039183802902699,-0.002443999284878373,-0.03769142925739288
0.028886813670396805,3.414355160202831e-05,-0.016668541356921196,0.013279273174703121,-0.002859335159882903,-0.0386686734855175
0.029073867946863174,3.350797123857774e-05,-0.017578477039933205,0.012825295329093933,-0.002867563860490918,-0.038797732442617416
0.029097365215420723,3.2895582990022376e-05,-0.016639582812786102,0.012953829020261765,-0.00293144048191607,-0.03876771405339241
0.029567530378699303,3.230529182474129e-05,-0.01681063324213028,0.013083108700811863,-0.0027652389835566282,-0.03853662312030792
0.02930615469813347,1.6084542949101888e-05,-0.016991455107927322,0.013116395100951195,-0.002482579555362463,-0.03907827287912369
0.029746273532509804,1.5595840523019433e-05,-0.01697773113846779,0.013277223333716393,-0.002469687955453992,-0.03924711421132088
0.03000738099217415,1.5327430446632206e-05,-0.016944175586104393,0.013668950647115707,-0.0025628532748669386,-0.039252206683158875
0.029841888695955276,1.5070729205035605e-05,-0.01705823466181755,0.013718689791858196,-0.003207842819392681,-0.03936486318707466
0.03055986762046814,1.4822536286374088e-05,-0.01770230010151863,0.013352425768971443,-0.0033123320899903774,-0.03958018496632576
0.030208885669708252,1.4582374205929227e-05,-0.017608625814318657,0.013843333348631859,-0.00342265865765512,-0.03988993167877197
0.030452910810709,1.434988371329382e-05,-0.016864223405718803,0.013932367786765099,-0.0031213825568556786,-0.03973179683089256
0.03034011460840702,1.4124673725746106e-05,-0.01743130199611187,0.014455429278314114,-0.0030085486359894276,-0.03913061320781708
0.031205598264932632,1.5984147694325657e-06,-0.017354115843772888,0.014148112386465073,-0.002923358231782913,-0.040839411318302155
0.031205598264932632,1.5984147694325657e-06,-0.017354115843772888,0.014148112386465073,-0.002923358231782913,-0.040839411318302155
0.030584432184696198,2.8770905102781796e-10,-0.01697162352502346,0.014107354916632175,-0.0031960795167833567,-0.04089834541082382
0.03105943091213703,3.859983947057666e-12,-0.017438137903809547,0.014043864794075489,-0.0034188563004136086,-0.04095229506492615
0.03244391456246376,5.178660844877732e-14,-0.0170204509049654,0.01472303457558155,-0.003341280622407794,-0.040727220475673676
0.031691860407590866,6.947834336665498e-16,-0.017792904749512672,0.013806678354740143,-0.003133157966658473,-0.04060794413089752
0.0298281479626894,9.321406505812075e-18,-0.017842896282672882,0.014160593040287495,-0.003103364259004593,-0.04078572243452072
0.0298281479626894,9.321406505812075e-18,-0.017842896282672882,0.014160593040287495,-0.003103364259004593,-0.04078572243452072
0.03204244747757912,1.2505856752914246e-19,-0.01705397665500641,0.014058254659175873,-0.0032019983045756817,-0.04062751680612564
0.03242545202374458,1.6778203580837433e-21,-0.017924826592206955,0.014644590206444263,-0.003112065838649869,-0.04175582900643349
0.03175359219312668,2.251010175427088e-23,-0.017318041995167732,0.01419510506093502,-0.0031378287822008133,-0.042580943554639816
0.032576899975538254,3.02001765061346e-25,-0.01737063191831112,0.014445454813539982,-0.0030129719525575638,-0.04102952778339386
0.0327405110001564,4.051738676192812e-27,-0.01749200001358986,0.013902686536312103,-0.0031010720413178205,-0.04005442559719086
0.032044246792793274,5.435924629117713e-29,-0.01758960261940956,0.014414949342608452,-0.0030361260287463665,-0.0420868806540966
0.031419262290000916,7.292986534846205e-31,-0.017733333632349968,0.014511140994727612,-0.0030910957138985395,-0.04162461683154106
0.03250059112906456,9.784472613515044e-33,-0.017277993261814117,0.015032491646707058,-0.003084163647145033,-0.04420657083392143
0.032995156943798065,1.3127117349391924e-34,-0.017990058287978172,0.014684188179671764,-0.002940656617283821,-0.04242542013525963
0.03312338888645172,1.7611703846823838e-36,-0.018229398876428604,0.015120300464332104,-0.0026983486022800207,-0.04143569990992546
0.03291571885347366,2.3628347183425913e-38,-0.017279012128710747,0.014335071668028831,-0.0025050505064427853,-0.04217234253883362
0.032815370708703995,3.1700454119648877e-40,-0.018023500218987465,0.014264652505517006,-0.0028133103623986244,-0.04276930168271065
0.03278098627924919,4.25294083922582e-42,-0.01793454959988594,0.013885891996324062,-0.003015080001205206,-0.043138857930898666
0.03285161033272743,5.74532370373175e-44,-0.017620660364627838,0.014528248459100723,-0.003513871692121029,-0.04302886128425598
0.03287477791309357,1.401298464324817e-45,-0.018048297613859177,0.013989663682878017,-0.0038082292303442955,-0.04301680251955986
0.03322535380721092,0.0,-0.01747150905430317,0.014573125168681145,-0.003883286379277706,-0.04316109046339989
0.03342633321881294,0.0,-0.01772168092429638,0.014148985967040062,-0.0034664622507989407,-0.04360391944646835
0.03352056071162224,0.0,-0.018272846937179565,0.014721821062266827,-0.003530465066432953,-0.043814290314912796
0.03347243741154671,-0.00023967681045178324,-0.01843356154859066,0.014404225163161755,-0.0033128734212368727,-0.04283805936574936
0.0332305021584034,-0.0002331990108359605,-0.0179827231913805,0.013893361203372478,-0.0033600241877138615,-0.04444758594036102
0.03192288428544998,-0.00022178427025210112,-0.01784130372107029,0.014627695083618164,-0.003376155160367489,-0.04534833878278732
0.03431546315550804,-0.00021136744180694222,-0.018708042800426483,0.01467712689191103,-0.003197231562808156,-0.04628218710422516
0.03514467924833298,-0.0002416935021756217,-0.01825513318181038,0.01585053652524948,-0.0035014029126614332,-0.044622790068387985
0.03420587256550789,-0.0002318501501576975,-0.018394028767943382,0.015571353025734425,-0.003864950267598033,-0.04414798691868782
0.03420587256550789,-0.0002318501501576975,-0.018394028767943382,0.015571353025734425,-0.003864950267598033,-0.04414798691868782
0.0329558365046978,-0.00022231174807529896,-0.018636396154761314,0.01537297386676073,-0.003958680666983128,-0.04486897960305214
0.03339800611138344,-0.00023687280190642923,-0.0177912600338459,0.014726055786013603,-0.003952813800424337,-0.0466429740190506
0.03485984727740288,-0.00023946803412400186,-0.018602678552269936,0.014839290641248226,-0.0034623618703335524,-0.0472647063434124
0.03414086997509003,-0.00023084849817678332,-0.018955284729599953,0.01464496273547411,-0.003019466530531645,-0.0447661392390728
0.03459624946117401,-0.0002507520548533648,-0.01830475777387619,0.014955093152821064,-0.0026023071259260178,-0.04558352753520012
0.03371512144804001,-0.0002457638911437243,-0.018413957208395004,0.015138850547373295,-0.0025466757360845804,-0.04611753672361374
0.03318554908037186,-0.00023769823019392788,-0.01859249733388424,0.015367913991212845,-0.0024839062243700027,-0.04450443387031555
0.03336199373006821,-0.0002301018248545006,-0.01872711069881916,0.016074657440185547,-0.003002787008881569,-0.04630550369620323
0.0338505394756794,-0.00022297589748632163,-0.0192234069108963,0.015960218384861946,-0.003437942126765847,-0.046699777245521545
0.03418775275349617,-0.00027569729718379676,-0.019099978730082512,0.016703058034181595,-0.0035884403623640537,-0.04651963710784912
0.033866822719573975,-0.0002522596041671932,-0.01965687982738018,0.015597837045788765,-0.0033076044637709856,-0.04636054486036301
0.033866822719573975,-0.0002522596041671932,-0.01965687982738018,0.015597837045788765,-0.0033076044637709856,-0.04636054486036301
0.03356172516942024,-0.0002846807474270463,-0.018838580697774887,0.015370748937129974,-0.0030544945038855076,-0.046964097768068314
0.03391532227396965,-0.0002721656928770244,-0.018641773611307144,0.01571037992835045,-0.0028563300147652626,-0.04684332758188248
0.033900488168001175,-0.00025912924320437014,-0.01957619935274124,0.015368220396339893,-0.003217152552679181,-0.04675492271780968
0.03416414558887482,-0.0002867911825887859,-0.020176434889435768,0.015932947397232056,-0.003354725195094943,-0.04728064686059952
0.03403408080339432,-0.00027581967879086733,-0.019312908872961998,0.01603521965444088,-0.0034641074016690254,-0.04786894470453262
0.03400878608226776,-0.0003004864265676588,-0.019670050591230392,0.015589974820613861,-0.003293198999017477,-0.04653576761484146
0.03447629511356354,-0.00028984277741983533,-0.019274674355983734,0.01577340066432953,-0.0035312604159116745,-0.048321355134248734
0.033123768866062164,-0.0004055727331433445,-0.01837841607630253,0.015439644455909729,-0.0034212800674140453,-0.04829702153801918
0.034582991153001785,-0.00035678595304489136,-0.019612587988376617,0.015025720000267029,-0.003251241287216544,-0.04704487696290016
0.034363944083452225,-0.00039392776670865715,-0.01950998418033123,0.015608356334269047,-0.0031676897779107094,-0.048542220145463943
0.03471764177083969,-0.000369496934581548,-0.019391460344195366,0.015349824912846088,-0.0031501485500484705,-0.04852971062064171
0.035196512937545776,-0.00040111568523570895,-0.01773110404610634,0.015992626547813416,-0.003063374198973179,-0.046599529683589935
0.034944355487823486,-0.00042688308167271316,-0.01972103863954544,0.015543107874691486,-0.003423326415941119,-0.0479087308049202
0.0350240059196949,-0.0004109319415874779,-0.020308833569288254,0.015923310071229935,-0.003276481991633773,-0.04941301420331001
0.034992460161447525,-0.0005244442145340145,-0.019723990932106972,0.015754664316773415,-0.003502031322568655,-0.050639040768146515
0.03538493439555168,-0.0005645605851896107,-0.019469691440463066,0.01592721790075302,-0.003684193128719926,-0.048035793006420135
0.03538493439555168,-0.0005645605851896107,-0.019469691440463066,0.01592721790075302,-0.003684193128719926,-0.048035793006420135
0.035742949694395065,-0.0005872598267160356,-0.020263435319066048,0.015902679413557053,-0.003329562023282051,-0.04960276186466217
0.0357324592769146,-0.0005965593736618757,-0.01981637440621853,0.01572548784315586,-0.0033373991027474403,-0.05020201951265335
0.03535030037164688,-0.0005737139144912362,-0.019219886511564255,0.016078710556030273,-0.003284743521362543,-0.04979320243000984
0.03495267033576965,-0.0006684873951599002,-0.019771939143538475,0.016105201095342636,-0.0030662144999951124,-0.049904465675354004
0.03569759801030159,-0.0006408898043446243,-0.020596377551555634,0.016778327524662018,-0.0029861736111342907,-0.05027441307902336
0.03680317476391792,-0.0006691957823932171,-0.019935742020606995,0.01664276421070099,-0.003021776909008622,-0.050457872450351715
0.03665364906191826,-0.0006867942865937948,-0.01980714499950409,0.016650201752781868,-0.0030919460114091635,-0.050819821655750275
0.034572895616292953,-0.0007080102805048227,-0.020635275170207024,0.016910215839743614,-0.0032034723553806543,-0.051200054585933685
0.035967275500297546,-0.0008276533335447311,-0.02062549628317356,0.01652330532670021,-0.003378603607416153,-0.05059477686882019
0.03626922890543938,-0.0008613636018708348,-0.019630067050457,0.016702925786376,-0.0037394578102976084,-0.05129322037100792
0.03663085773587227,-0.0009472386445850134,-0.020093046128749847,0.016251765191555023,-0.0037495282012969255,-0.05152871459722519
0.03735905513167381,-0.0008823417010717094,-0.02053242363035679,0.016391603276133537,-0.003313629422336817,-0.0522100068628788
0.036600224673748016,-0.0011189363431185484,-0.020244741812348366,0.01609981618821621,-0.002784383250400424,-0.0522230863571167
0.035437166690826416,-0.0011201228480786085,-0.0202393289655447,0.016392553225159645,-0.003156582824885845,-0.04943130910396576
0.03592939302325249,-0.0010869421530514956,-0.020846806466579437,0.016118114814162254,-0.003815888660028577,-0.050260432064533234
0.036999840289354324,-0.001093513099476695,-0.020306257531046867,0.015775756910443306,-0.003754248609766364,-0.0518181174993515
0.036045536398887634,-0.0011895870557054877,-0.019607873633503914,0.016382969915866852,-0.003242647275328636,-0.05358412116765976
0.03716474771499634,-0.0011777086183428764,-0.02008998952805996,0.01587948203086853,-0.0028776992112398148,-0.05146721750497818
0.036960769444704056,-0.001463906723074615,-0.02047312818467617,0.016343465074896812,-0.0028658839873969555,-0.049366168677806854
0.03646940365433693,-0.0013982448726892471,-0.020096849650144577,0.015661871060729027,-0.003096903907135129,-0.05197709798812866
0.03669268265366554,-0.0014501844998449087,-0.02033289521932602,0.01587490178644657,-0.0036703157238662243,-0.05185014009475708
0.03656011447310448,-0.0014796644682064652,-0.019691001623868942,0.016013003885746002,-0.0036499807611107826,-0.051756273955106735
0.03739217296242714,-0.0014815442264080048,-0.019811158999800682,0.016493747010827065,-0.003278393065556884,-0.0518798828125
0.03699122741818428,-0.0016296419780701399,-0.020449472591280937,0.01641756482422352,-0.0033780024386942387,-0.05209822580218315
0.03673272207379341,-0.0017599507700651884,-0.020987527444958687,0.01649046130478382,-0.0031864873599261045,-0.05220415070652962
0.03680254891514778,-0.0018039215356111526,-0.020280271768569946,0.01624222658574581,-0.0029838867485523224,-0.05253849923610687
0.038232721388339996,-0.0016460943734273314,-0.02062089927494526,0.016678936779499054,-0.003195724682882428,-0.052245281636714935
0.03789813816547394,-0.0015757089713588357,-0.020371099933981895,0.017148593440651894,-0.003662999253720045,-0.051829319447278976
0.035948146134614944,-0.0014881717506796122,-0.019813422113656998,0.016917333006858826,-0.003829736029729247,-0.05334620550274849
0.037439148873090744,-0.0015605278313159943,-0.020207511261105537,0.01736893504858017,-0.00371890258975327,-0.053186219185590744
0.037439148873090744,-0.0015605278313159943,-0.020207511261105537,0.01736893504858017,-0.00371890258975327,-0.053186219185590744
0.03740091994404793,-0.0018388472963124514,-0.021166367456316948,0.016648028045892715,-0.0035292222164571285,-0.05289773643016815
0.03807750716805458,-0.0021506433840841055,-0.021048469468951225,0.016552617773413658,-0.0031457485165446997,-0.05266484245657921
0.03877417370676994,-0.002162907039746642,-0.020178450271487236,0.016045240685343742,-0.002953257877379656,-0.05414104834198952
0.03796744719147682,-0.0021373077761381865,-0.020885655656456947,0.016647471114993095,-0.0031229022424668074,-0.05364781990647316
0.03636716306209564,-0.002046250505372882,-0.0214137751609087,0.0173815805464983,-0.003535590600222349,-0.05208146572113037
0.03860572725534439,-0.0018633570289239287,-0.02094123885035515,0.017850715667009354,-0.004295824095606804,-0.05348055809736252
0.03865855559706688,-0.0018462048610672355,-0.02066517435014248,0.01826738752424717,-0.004196857567876577,-0.05447143316268921
0.0374416783452034,-0.0021319964434951544,-0.021320950239896774,0.017669672146439552,-0.003934076521545649,-0.05485473945736885
0.038359545171260834,-0.002199818380177021,-0.02136349491775036,0.017472825944423676,-0.0033954642713069916,-0.0538034625351429
0.03828044608235359,-0.0023939195089042187,-0.020758002996444702,0.017683425918221474,-0.0030964671168476343,-0.05467461422085762
0.038165222853422165,-0.0026165861636400223,-0.02152060531079769,0.017585553228855133,-0.0031336480751633644,-0.05486488342285156
0.03866778686642647,-0.002317648148164153,-0.021685699000954628,0.017972368746995926,-0.003448030212894082,-0.05537230521440506
0.038493562489748,-0.002272014506161213,-0.021241959184408188,0.017646759748458862,-0.0037405299954116344,-0.0554269477725029
0.03811539337038994,-0.002392316237092018,-0.0208059623837471,0.017543239519000053,-0.003804138395935297,-0.05482417345046997
0.03913455083966255,-0.002323579043149948,-0.021472826600074768,0.01775420270860195,-0.0037281326949596405,-0.05583351477980614
0.03868706524372101,-0.002993963425979018,-0.02124662697315216,0.017261413857340813,-0.003850598121061921,-0.05519307032227516
0.039499007165431976,-0.0026531131006777287,-0.021143587306141853,0.017457885667681694,-0.003789221867918968,-0.057128697633743286
0.038626279681921005,-0.0027394394855946302,-0.02148151397705078,0.017339792102575302,-0.003784260945394635,-0.05666181817650795
0.03910721093416214,-0.0028326634783297777,-0.021544931456446648,0.017776383087038994,-0.004156172275543213,-0.05548977479338646
0.03990980610251427,-0.0031506873201578856,-0.02157626487314701,0.017658637836575508,-0.00373292644508183,-0.05757594481110573
0.039138760417699814,-0.0031601160299032927,-0.0212507713586092,0.017628906294703484,-0.0034035982098430395,-0.05589568242430687
0.03922198712825775,-0.0030237052123993635,-0.02154834382236004,0.01774369180202484,-0.0032129278406500816,-0.055705130100250244
0.039648354053497314,-0.003067492274567485,-0.021810108795762062,0.017566941678524017,-0.003494927426800132,-0.05653692036867142
0.039522189646959305,-0.0032350511755794287,-0.021860575303435326,0.017975622788071632,-0.00413870345801115,-0.05903512239456177
0.039794109761714935,-0.0036114973481744528,-0.020959332585334778,0.017812419682741165,-0.004090274218469858,-0.055156584829092026
0.039794109761714935,-0.0036114973481744528,-0.020959332585334778,0.017812419682741165,-0.004090274218469858,-0.055156584829092026
0.03960298374295235,-0.0034418709110468626,-0.0211228895932436,0.017915576696395874,-0.004235438071191311,-0.05661014840006828
0.039554961025714874,-0.0036194073036313057,-0.021779265254735947,0.01809687726199627,-0.004114247392863035,-0.05800875276327133
0.03939291089773178,-0.0034062049817293882,-0.02166627161204815,0.017419809475541115,-0.003679879242554307,-0.058189112693071365
0.03992794454097748,-0.003488498739898205,-0.02133064903318882,0.017851267009973526,-0.003414586652070284,-0.05773070454597473
0.04111427813768387,-0.003146181581541896,-0.02166835404932499,0.018275218084454536,-0.0034477743320167065,-0.05720135569572449
0.039418645203113556,-0.0032433595042675734,-0.021752092987298965,0.017916448414325714,-0.003784688888117671,-0.057596273720264435
0.03855161741375923,-0.0034649779554456472,-0.02140764147043228,0.018036019057035446,-0.004432372283190489,-0.05818135663866997
0.040087729692459106,-0.003534601768478751,-0.021039603278040886,0.017694471403956413,-0.004165679682046175,-0.058396078646183014
0.04000483825802803,-0.0035397252067923546,-0.02125340886414051,0.01781446672976017,-0.003816697048023343,-0.05845828726887703
0.041324686259031296,-0.0036308502312749624,-0.021682754158973694,0.017920760437846184,-0.003353719599545002,-0.05830449238419533
0.0407630056142807,-0.003674059873446822,-0.021432295441627502,0.017300786450505257,-0.0032187500037252903,-0.05707573518157005
0.039045773446559906,-0.0037529640831053257,-0.021205170080065727,0.017749009653925896,-0.0033711909782141447,-0.058425918221473694
0.040477458387613297,-0.003428166965022683,-0.021322866901755333,0.017837703227996826,-0.00338460854254663,-0.059845007956027985
0.04068468511104584,-0.004023578017950058,-0.02132337912917137,0.018016673624515533,-0.003584160702303052,-0.06068464741110802
