davideferrari95/blind_handover_controller/data/Test 269 - [2024-02-08 -- 12-52-57]/joint_states_data.csv
shoulder_pan_joint,shoulder_lift_joint,elbow_joint,wrist_1_joint,wrist_2_joint,wrist_3_joint
0.0009971571853384376,0.008603902533650398,-0.010830565355718136,0.0012056009145453572,-0.00019428879022598267,0.0011982701253145933
0.000997267197817564,0.008934647776186466,-0.010023500770330429,0.0012247794074937701,-0.00019205767603125423,0.0010609200689941645
0.000997267197817564,0.008934647776186466,-0.010023500770330429,0.0012247794074937701,-0.00019205767603125423,0.0010609200689941645
0.001051167375408113,0.008607551455497742,-0.010119169019162655,0.0013520673383027315,-0.00018725523841567338,0.0010274163214489818
0.0011741742491722107,0.008373696357011795,-0.009671621955931187,0.0013037837343290448,-0.00018252036534249783,0.0010417234152555466
0.0016278906259685755,0.009212502278387547,-0.0092794643715024,0.0012827232712879777,-0.00017800838395487517,0.0009855347452685237
0.0015544729540124536,0.008599153719842434,-0.009845193475484848,0.0012164125218987465,-0.000181637704372406,0.0009953755652531981
0.0014391004806384444,0.008267709985375404,-0.010002870112657547,0.0011464629787951708,-0.0001821769546950236,0.001095402636565268
0.00123712164349854,0.008528552949428558,-0.009654149413108826,0.0010883540380746126,-0.0001755835983203724,0.001264524064026773
0.001148524577729404,0.008737052790820599,-0.010358196683228016,0.0009835438104346395,-0.00016902184870559722,0.0014202598249539733
0.0011039290111511946,0.008169062435626984,-0.00953411590307951,0.0008911655750125647,-0.0001629038160899654,0.0013360923621803522
0.0010840676259249449,0.007853162474930286,-0.008969453163444996,0.0009218148770742118,-0.00015721230010967702,0.001264407648704946
0.0011331733549013734,0.00878372322767973,-0.00969625636935234,0.000944667961448431,-0.00015190450358204544,0.0012014851672574878
0.0011331733549013734,0.00878372322767973,-0.00969625636935234,0.000944667961448431,-0.00015190450358204544,0.0012014851672574878
0.001132506295107305,0.0085593331605196,-0.009956168942153454,0.0012030481593683362,-0.00017244063201360404,0.0011462689144536853
0.0011083775898441672,0.007819220423698425,-0.009352121502161026,0.0011800890788435936,-0.00017050169117283076,0.0010889751138165593
0.0011801051441580057,0.008327547460794449,-0.009530885145068169,0.0011731920531019568,-0.00016550505824852735,0.0009937153663486242
0.001148580340668559,0.008605443872511387,-0.008467301726341248,0.001115836901590228,-0.00016059738118201494,0.0009582274360582232
0.0012067932402715087,0.008340949192643166,-0.009625998325645924,0.0011189470533281565,-0.0001559594093123451,0.0009664577664807439
0.001160074956715107,0.008775956928730011,-0.009216557256877422,0.0010748847853392363,-0.00017036637291312218,0.0012121524196118116
0.0011278982274234295,0.008484086953103542,-0.008614704944193363,0.0012028578203171492,-0.00016733598022256047,0.001192079740576446
0.0011011473834514618,0.00776375038549304,-0.009141753427684307,0.001260048826225102,-0.0001631016202736646,0.0011470676399767399
0.0012823024298995733,0.008267547935247421,-0.009594021365046501,0.0011662831529974937,-0.00017014931654557586,0.001130464836023748
0.0013434556312859058,0.008666669949889183,-0.009028336964547634,0.0012555402936413884,-0.00017647760978434235,0.0011838494101539254
0.001404435490258038,0.008527953177690506,-0.009222502820193768,0.0012390896445140243,-0.00017292446864303201,0.0011421601520851254
0.001528027467429638,0.008023503236472607,-0.010404245927929878,0.0011848079739138484,-0.00016891247651074082,0.0010510183637961745
0.0014033537590876222,0.008822078816592693,-0.009144656360149384,0.0011087229941040277,-0.0001650433405302465,0.0010586230782791972
0.0012347748270258307,0.008464392274618149,-0.008951717056334019,0.001173687051050365,-0.00016134481120388955,0.0010731141082942486
0.0012217335170134902,0.008346114307641983,-0.009215053170919418,0.0011725598014891148,-0.0001578085357323289,0.001067607430741191
0.0011760027846321464,0.00857552420347929,-0.00925455242395401,0.0012534708948805928,-0.00018899400311056525,0.001098633510991931
0.0011515308870002627,0.009415501728653908,-0.008873055689036846,0.0012265646364539862,-0.00018626223027240485,0.0012384853325784206
0.0013259187107905746,0.008117861114442348,-0.010156999342143536,0.0011679038871079683,-0.00017917771765496582,0.0012154175201430917
0.0012585471849888563,0.008117873221635818,-0.008989864028990269,0.0011251572286710143,-0.0001723364694043994,0.0014781657373532653
0.0012185596860945225,0.008970486000180244,-0.008425004780292511,0.0010222526034340262,-0.00016598029469605535,0.0013978228671476245
0.0013214526697993279,0.008593728765845299,-0.009039131924510002,0.0009954114211723208,-0.0001600754476385191,0.001427863142453134
0.0012542956974357367,0.008216665126383305,-0.009205053560435772,0.0009610927081666887,-0.00015457581321243197,0.0013630461180582643
0.0011951944325119257,0.00855530146509409,-0.009080913849174976,0.0008618676802143455,-0.00014944197027944028,0.0012951974058523774
0.0012666749535128474,0.008890172466635704,-0.008323775604367256,0.0008644202025607228,-0.00016973630408756435,0.0013360101729631424
0.0012407372705638409,0.008261732757091522,-0.009383231401443481,0.0009007977787405252,-0.00016791022790130228,0.0014196132542565465
0.0012407372705638409,0.008261732757091522,-0.009383231401443481,0.0009007977787405252,-0.00016791022790130228,0.0014196132542565465
0.0011966351885348558,0.008176201954483986,-0.0088068637996912,0.0009028579806908965,-0.00016306480392813683,0.0014101156266406178
0.0013417889131233096,0.008960861712694168,-0.008736438117921352,0.0009027156047523022,-0.0001582989643793553,0.0016148246359080076
0.0013017707969993353,0.008503870107233524,-0.00926890317350626,0.0008582687005400658,-0.00016637225053273141,0.0016299993731081486
0.0012452963273972273,0.008249988779425621,-0.009159810841083527,0.0010047719115391374,-0.00017360218043904752,0.0015194608131423593
0.0013587811263278127,0.009088711813092232,-0.009226839058101177,0.0010348692303523421,-0.0001696975959930569,0.001430748263373971
0.0014518743846565485,0.008821104653179646,-0.009113915264606476,0.001018309616483748,-0.00016529533604625612,0.0014248568331822753
0.0015798453241586685,0.009184849448502064,-0.008737643249332905,0.0009104273049160838,-0.00015705688565503806,0.0013550850562751293
0.00150003912858665,0.008360536769032478,-0.00969550758600235,0.0009079216397367418,-0.00016399323067162186,0.0013698425609618425
0.001520434394478798,0.008467011153697968,-0.009028325788676739,0.000906546541955322,-0.0001702416775515303,0.0017961922567337751
0.0014496924122795463,0.008566394448280334,-0.00906585343182087,0.0009055963600985706,-0.00016695565136615187,0.0017167688347399235
0.0015028818743303418,0.00906775426119566,-0.00888456217944622,0.0009184909868054092,-0.00016321404837071896,0.001535599585622549
0.001572163193486631,0.008551592007279396,-0.009102210402488708,0.0009260725928470492,-0.00015959881420712918,0.0014965699519962072
0.0015239978674799204,0.008272441104054451,-0.008779257535934448,0.0009227350237779319,-0.00015613790310453624,0.001381252077408135
0.0018776997458189726,0.008976017124950886,-0.00870482437312603,0.0009264005930162966,-0.00015282377717085183,0.0012398796388879418
0.001724863424897194,0.008755861781537533,-0.009393922984600067,0.0010697290999814868,-0.00017261604079976678,0.0012564415810629725
0.0017613967647776008,0.008762102574110031,-0.00885317474603653,0.0010492397705093026,-0.00016952866280917078,0.001250248635187745
0.0017754066502675414,0.009150572121143341,-0.008975554257631302,0.0010270792990922928,-0.00016358848370146006,0.0015556658618152142
0.0017783535877242684,0.008764341473579407,-0.00881239678710699,0.0010411972180008888,-0.00015786339645273983,0.0016466062515974045
0.0017841215012595057,0.008458067663013935,-0.008721930906176567,0.0010807369835674763,-0.0001674636878306046,0.0017295258585363626
0.0018916531698778272,0.008775676600635052,-0.00850783009082079,0.0010542484233155847,-0.0001760008599376306,0.0016396100400015712
0.0018890921492129564,0.009161122143268585,-0.008507128804922104,0.001042130053974688,-0.000171330597368069,0.001514475210569799
0.0020023572724312544,0.009057102724909782,-0.008831920102238655,0.0011696998262777925,-0.00016611911996733397,0.0012801323318853974
0.00202962732873857,0.008583526127040386,-0.008469118736684322,0.001171897049061954,-0.0001611644256627187,0.0011921668192371726
0.001984773203730583,0.008728142827749252,-0.008462664671242237,0.0011504035210236907,-0.00015649419219698757,0.0012151639675721526
0.001933511346578598,0.009160060435533524,-0.008791015483438969,0.0012446747859939933,-0.00015208622789941728,0.0011542902793735266
0.0019062015926465392,0.00929325446486473,-0.008710741065442562,0.0012175602605566382,-0.00016932135622482747,0.0012311524478718638
0.0017103952122852206,0.009257180616259575,-0.008450995199382305,0.0011652135290205479,-0.00016775919357314706,0.0012527769431471825
0.0019485846860334277,0.009870504029095173,-0.008616230450570583,0.0010765690822154284,-0.0001635953813092783,0.0017249936936423182
0.0019485846860334277,0.009870504029095173,-0.008616230450570583,0.0010765690822154284,-0.0001635953813092783,0.0017249936936423182
0.001975046470761299,0.008193683810532093,-0.008515022695064545,0.0009941544849425554,-0.00015946685743983835,0.001702353823930025
0.0022384910844266415,0.00800219178199768,-0.008293959312140942,0.0009734999621286988,-0.00015553046250715852,0.001972356578335166
0.002123334677889943,0.008569291792809963,-0.008068653754889965,0.0009520822786726058,-0.0001678581174928695,0.0018361834809184074
0.0019976727198809385,0.00809894222766161,-0.008457529358565807,0.0009287012508139014,-0.00016901933122426271,0.0016581590753048658
0.0019461970077827573,0.008208660408854485,-0.008193828165531158,0.0008497873786836863,-0.0001654679945204407,0.001478363643400371
0.0019117578631266952,0.008391927927732468,-0.008222331292927265,0.0007576400530524552,-0.00016177199722733349,0.0013608259614557028
0.0021838124375790358,0.007925793528556824,-0.00931644719094038,0.0007793773547746241,-0.00015481632726732641,0.0011180113069713116
0.0019974783062934875,0.008131156675517559,-0.008003714494407177,0.0007923714583739638,-0.0001515574404038489,0.0011727267410606146
0.0021486440673470497,0.00843092706054449,-0.007949654944241047,0.0008686851942911744,-0.0001484328240621835,0.0014940137043595314
0.0020432304590940475,0.00810033455491066,-0.009172040969133377,0.00090672547230497,-0.00014543456200044602,0.0016971047734841704
0.0020287323277443647,0.007660595700144768,-0.008619171567261219,0.0009170026169158518,-0.00017103264690376818,0.0022531149443238974
0.0022701104171574116,0.008942609652876854,-0.008070151321589947,0.0009251739247702062,-0.00016877014422789216,0.0021694714669138193
0.0022237244993448257,0.008269542828202248,-0.008256061002612114,0.0011780026834458113,-0.00016293031512759626,0.0021584462374448776
0.0024301246739923954,0.007811934687197208,-0.00880506169050932,0.0011429692385718226,-0.0001572535838931799,0.0020048709120601416
0.002205213299021125,0.007929123006761074,-0.008417567238211632,0.0011241534957662225,-0.0001519440847914666,0.001780090038664639
0.002283870941027999,0.008669005706906319,-0.008290717378258705,0.00109126849565655,-0.00014698099403176457,0.0017419137293472886
0.0020647216588258743,0.008524241857230663,-0.009045513346791267,0.001048572827130556,-0.0001423316280124709,0.0016390798846259713
0.002209485275670886,0.007882114499807358,-0.00861959159374237,0.0009850965579971671,-0.00013796730490867049,0.0016651516780257225
0.0025235710199922323,0.007856528274714947,-0.008570595644414425,0.0009702623938210309,-0.0001338627189397812,0.001824506907723844
0.002246759831905365,0.008249374106526375,-0.00887581892311573,0.0009124273201450706,-0.0001542461250210181,0.0019653192721307278
0.002356309676542878,0.007584426552057266,-0.009046299383044243,0.0009264633408747613,-0.0001515002513770014,0.002588452072814107
0.0024282049853354692,0.007560425437986851,-0.009103254415094852,0.0009592777350917459,-0.00014746606757398695,0.0026932687032967806
0.002251572906970978,0.008762679994106293,-0.008593343198299408,0.0009698031935840845,-0.00014355227176565677,0.0026140089612454176
0.0022022747434675694,0.008142239414155483,-0.009254470467567444,0.00122423330321908,-0.00013983545068185776,0.002341322135180235
0.0021417385432869196,0.007417858112603426,-0.00865611620247364,0.0012673515593633056,-0.00013630535977426916,0.0021191947162151337
0.0024007607717067003,0.007342700380831957,-0.008236179128289223,0.0012229587882757187,-0.00013294914970174432,0.0017903305124491453
0.0024007607717067003,0.007342700380831957,-0.008236179128289223,0.0012229587882757187,-0.00013294914970174432,0.0017903305124491453
0.0023756183218210936,0.008025316521525383,-0.00875941477715969,0.0013292002258822322,-0.0001267097977688536,0.0017203900497406721
0.0024683934170752764,0.007314922288060188,-0.0085454685613513,0.0012588400859385729,-0.00012380471162032336,0.0017480590613558888
0.0023571131750941277,0.007548213005065918,-0.009456229396164417,0.0013583243126049638,-0.00012102966866223142,0.002162889577448368
0.002479963470250368,0.007858065888285637,-0.009081593714654446,0.0012996341101825237,-0.00011837643251055852,0.0020353819709271193
0.002479963470250368,0.007858065888285637,-0.009081593714654446,0.0012996341101825237,-0.00011837643251055852,0.0020353819709271193
0.0024062569718807936,0.008176011964678764,-0.008853171952068806,0.0012113279663026333,-0.00011583697778405622,0.0021660425700247288
0.0023265413474291563,0.007582232356071472,-0.008756937459111214,0.00111920025665313,-0.00011340425407979637,0.0023044864647090435
0.0023530651815235615,0.008062946610152721,-0.009566430002450943,0.0010783751495182514,-0.00011107148748124018,0.0022057821042835712
0.002436720533296466,0.007913341745734215,-0.008653365075588226,0.0010477120522409678,-0.00012228963896632195,0.0023609644267708063
0.002536593470722437,0.007469960954040289,-0.009706612676382065,0.0009865830652415752,-0.00012203208461869508,0.0023260877933353186
0.002689637476578355,0.007635124027729034,-0.009471786208450794,0.0010097657795995474,-0.00011973099753959104,0.0023180788848549128
0.002569058444350958,0.007935969159007072,-0.008839892223477364,0.001073447405360639,-0.00011749930854421109,0.0020802756771445274
0.002724597929045558,0.008062725886702538,-0.010430706664919853,0.0012632791185751557,-0.00011534784425748512,0.0018754474585875869
0.0025144778192043304,0.007767200469970703,-0.009387770667672157,0.0014191806549206376,-0.00011327394895488396,0.00185629993211478
0.0023786446545273066,0.0069333892315626144,-0.009464357048273087,0.001358185545541346,-0.00011127321340609342,0.0018372749909758568
0.0025780508294701576,0.008163905702531338,-0.009871402755379677,0.0014372913865372539,-0.00010934199235634878,0.0020427480340003967
0.002612091600894928,0.008287823759019375,-0.009114477783441544,0.0013934595044702291,-0.0001074765605153516,0.0025059315375983715
0.0030406771693378687,0.0079592140391469,-0.008857527747750282,0.0013279132544994354,-0.00010567378922132775,0.002520899288356304
0.002804677002131939,0.007794931530952454,-0.009694977663457394,0.001331975101493299,-0.0001168359667644836,0.002635692711919546
0.0027855311054736376,0.007674784865230322,-0.010181759484112263,0.0013032228453084826,-0.00011672326945699751,0.00248624081723392
0.002645111409947276,0.007886979728937149,-0.008858583867549896,0.0012659750645980239,-0.00011497573723318055,0.0024013379588723183
0.002508798148483038,0.007531982380896807,-0.010134362615644932,0.0013936238829046488,-0.00011317594180582091,0.002535707550123334
0.0027718348428606987,0.00788770243525505,-0.009748744778335094,0.0014808537671342492,-0.00011142507719341666,0.0025219563394784927
0.002960372716188431,0.008509175851941109,-0.009365740232169628,0.0016669337637722492,-0.0001097268977900967,0.0024818736128509045
0.0031538386829197407,0.007865252904593945,-0.009080273099243641,0.0016063525108620524,-0.000108079839264974,0.002596094971522689
0.003249130444601178,0.008109391666948795,-0.009493986144661903,0.001507592503912747,-0.00010648142779245973,0.0023762346245348454
0.002930115442723036,0.007971941493451595,-0.009194055572152138,0.0014882341492921114,-0.000104929567896761,0.002304478082805872
0.0030613818671554327,0.007948885671794415,-0.009153869934380054,0.0014740211190655828,-0.00010342248424421996,0.0023343178909271955
0.003390149213373661,0.007919877767562866,-0.008575097657740116,0.0013891360722482204,-0.00010195796494372189,0.0024921586737036705
0.003267098218202591,0.008428565226495266,-0.009994259104132652,0.0013097795890644193,-0.00010053422738565132,0.0024823423009365797
0.003267098218202591,0.008428565226495266,-0.009994259104132652,0.0013097795890644193,-0.00010053422738565132,0.0024823423009365797
0.0030954754911363125,0.008563360199332237,-0.009750141762197018,0.0012531616957858205,-9.914983820635825e-05,0.0026808588299900293
0.0029190625064074993,0.008021955378353596,-0.009432182647287846,0.0012214186135679483,-9.78029565885663e-05,0.0027799801900982857
0.0030308126006275415,0.008041552267968655,-0.008871487341821194,0.001250753877684474,-9.649225103203207e-05,0.0026206558104604483
0.0032408256083726883,0.008069110102951527,-0.009362448006868362,0.0013078410411253572,-9.521624451735988e-05,0.002504069125279784
0.003249669913202524,0.008107482455670834,-0.009684910997748375,0.001413895981386304,-9.053016401594505e-05,0.0024733059108257294
0.003380750771611929,0.008036596700549126,-0.009261030703783035,0.0014413092285394669,-8.37692350614816e-05,0.002742714248597622
0.00340352114289999,0.008755789138376713,-0.009680257178843021,0.0014492175541818142,-8.222471660701558e-05,0.0027488216292113066
0.0031426118221133947,0.00838201679289341,-0.009492562152445316,0.0014244854683056474,-8.074841753114015e-05,0.0027047237381339073
0.0031476474832743406,0.008406201377511024,-0.008912583813071251,0.0015036497497931123,-7.93249491835013e-05,0.00270419311709702
0.0032458240166306496,0.0078099812380969524,-0.00946563296020031,0.001608890714123845,-7.795079000061378e-05,0.0026908309664577246
0.0035494917538017035,0.008023533038794994,-0.009007583372294903,0.00154648267198354,-7.662347343284637e-05,0.0027189627289772034
0.0033217528834939003,0.007806831039488316,-0.009253125637769699,0.0016035333974286914,-7.534062024205923e-05,0.002652892377227545
0.0035435433965176344,0.007877766154706478,-0.009320704266428947,0.0016597297508269548,-7.40999894333072e-05,0.002990312408655882
0.0037471232935786247,0.008252252824604511,-0.009921147488057613,0.0018208950059488416,-8.372346201213077e-05,0.00316728581674397
0.0037711882032454014,0.008256149478256702,-0.008926012553274632,0.0018428635085001588,-8.583965245634317e-05,0.003307612147182226
0.0037635352928191423,0.007725049275904894,-0.01008105743676424,0.0018126543145626783,-8.471809996990487e-05,0.0031745426822453737
0.0037798958364874125,0.007664119824767113,-0.009727373719215393,0.0018296331400051713,-8.342405635630712e-05,0.003037713933736086
0.0038140220567584038,0.0077529000118374825,-0.009279574267566204,0.0018740699160844088,-8.215572597691789e-05,0.0027199541218578815
0.0038796490989625454,0.007927512750029564,-0.00935132335871458,0.0018835073569789529,-8.092462667264044e-05,0.0024262007791548967
0.0038909853901714087,0.007504304405301809,-0.00929558277130127,0.001687401905655861,-7.972979074111208e-05,0.0023028694558888674
0.003925251308828592,0.007653716951608658,-0.009094190783798695,0.0015325765125453472,-7.856974843889475e-05,0.002745006000623107
0.003925251308828592,0.007653716951608658,-0.009094190783798695,0.0015325765125453472,-7.856974843889475e-05,0.002745006000623107
0.004298995714634657,0.008009722456336021,-0.009286198765039444,0.0015019199345260859,-7.74429936427623e-05,0.003037518123164773
0.004210000857710838,0.007954808883368969,-0.010643569752573967,0.0013686638558283448,-7.634802022948861e-05,0.0034433447290211916
0.003966768272221088,0.008233735337853432,-0.009264877997338772,0.0013980513904243708,-7.528364221798256e-05,0.003904252080246806
0.0037808087654411793,0.007845507934689522,-0.009764419868588448,0.001391928642988205,-8.343927038367838e-05,0.0041838414035737514
0.0037059453316032887,0.007945527322590351,-0.009862869046628475,0.001735194819048047,-8.524046279489994e-05,0.003603051882237196
0.003938458394259214,0.007530687842518091,-0.009136967360973358,0.0016878206515684724,-8.429135050391778e-05,0.0031579332426190376
0.0039801085367798805,0.00728857284411788,-0.00904193613678217,0.0019628293812274933,-8.319074549945071e-05,0.0027533131651580334
0.003801057580858469,0.007555647287517786,-0.009779349900782108,0.0018664050148800015,-8.210742817027494e-05,0.0025987010449171066
0.0037131228018552065,0.0076423268765211105,-0.010186332277953625,0.0019796036649495363,-8.105116285150871e-05,0.0027209550607949495
0.004311376716941595,0.0076585737988352776,-0.009104186668992043,0.001872990862466395,-8.002175309229642e-05,0.003180260071530938
0.003858280135318637,0.007640351541340351,-0.009660903364419937,0.0020039547234773636,-7.803925109328702e-05,0.003806082531809807
0.003861750941723585,0.00824523065239191,-0.009318273514509201,0.0020482372492551804,-8.251259714597836e-05,0.0033011778723448515
0.0039289710111916065,0.00790505949407816,-0.010292534716427326,0.0021885212045162916,-8.666699432069436e-05,0.003108146833255887
0.004473981447517872,0.00763697549700737,-0.009323731064796448,0.0021257486660033464,-8.596837869845331e-05,0.0030142192263156176
0.0041543650440871716,0.008297695778310299,-0.00948534905910492,0.0018456215038895607,-8.497563248965889e-05,0.0030144534539431334
0.004409569315612316,0.007682778872549534,-0.009832865558564663,0.0017525228904560208,-8.398591307923198e-05,0.0032950574532151222
0.004219879861921072,0.007646048441529274,-0.009547542780637741,0.0016316634137183428,-8.30176068120636e-05,0.003281837096437812
0.003950537648051977,0.0074715930968523026,-0.009131092578172684,0.001611033920198679,-8.207135397242382e-05,0.0032364807557314634
0.0038067875429987907,0.0076688374392688274,-0.009047919884324074,0.0016582587268203497,-8.114635420497507e-05,0.003182873362675309
0.0039955927059054375,0.007407166995108128,-0.009273490868508816,0.0020870440639555454,-8.024206181289628e-05,0.0030537478160113096
0.004002707544714212,0.00729689747095108,-0.008808000013232231,0.0021852608770132065,-4.022628490929492e-05,0.003328830236569047
0.0038471147418022156,0.007441838271915913,-0.009521791711449623,0.002120029414072633,-7.725136674707755e-05,0.003693182487040758
0.004249680787324905,0.008093038573861122,-0.009570611640810966,0.0019066293025389314,-0.00010693071089917794,0.0034326042514294386
0.004171428736299276,0.007993647828698158,-0.009624463506042957,0.0016078531043604016,-0.00010645886504789814,0.0035139969550073147
0.004171428736299276,0.007993647828698158,-0.009624463506042957,0.0016078531043604016,-0.00010645886504789814,0.0035139969550073147
0.004485044628381729,0.007483173627406359,-0.008888756856322289,0.0016194862546399236,-0.00010412982373964041,0.004171134438365698
0.004345233552157879,0.008142015896737576,-0.009044225327670574,0.0018637392204254866,-9.953242260962725e-05,0.0035354087594896555
0.004345233552157879,0.008142015896737576,-0.009044225327670574,0.0018637392204254866,-9.953242260962725e-05,0.0035354087594896555
0.004120408091694117,0.007712266407907009,-0.009610246866941452,0.002312552183866501,-9.737853542901576e-05,0.00311850244179368
0.004305025562644005,0.007694696541875601,-0.009738518856465816,0.0022871254477649927,-9.53158742049709e-05,0.003042935160920024
0.004493547137826681,0.007854471914470196,-0.009191072545945644,0.0024407547898590565,-9.333877096651122e-05,0.00349015137180686
0.00456710672006011,0.008199082687497139,-0.008890031836926937,0.002254064427688718,-0.00010500913776922971,0.0038991044275462627
0.00427854061126709,0.007674227934330702,-0.009365279227495193,0.002123800804838538,-0.00010723678133217618,0.0039049985352903605
0.004432608373463154,0.007433920633047819,-0.00912494957447052,0.001775203039869666,-0.00010542488598730415,0.0038394774310290813
0.004136201925575733,0.008166052401065826,-0.008893096819519997,0.0016639959067106247,-0.00010342401947127655,0.003759760642424226
0.004331641364842653,0.00801062025129795,-0.009571464732289314,0.0015778866363689303,-0.00010148169531021267,0.003646185388788581
0.004642854444682598,0.007395599037408829,-0.009193743579089642,0.0016441295156255364,-9.780560503713787e-05,0.003496067365631461
0.0042371079325675964,0.007936568930745125,-0.009176576510071754,0.0020973230712115765,-0.0001110120429075323,0.003736055688932538
0.004433840978890657,0.007748875301331282,-0.01013222523033619,0.002136536641046405,-0.0001100480294553563,0.0038911851588636637
0.00440808292478323,0.0074025415815413,-0.009073799476027489,0.00217537977732718,-0.00010822119656950235,0.0038889003917574883
0.004734988324344158,0.008180785924196243,-0.009981418959796429,0.001939200097694993,-0.00010639768152032048,0.003996904008090496
0.0049959998577833176,0.008551695384085178,-0.009669591672718525,0.0018788164015859365,-0.00010463091894052923,0.004124196246266365
0.0047771562822163105,0.007703948300331831,-0.009345531463623047,0.0017698141746222973,-0.00010292160004610196,0.003986040595918894
0.00428810017183423,0.0077102286741137505,-0.009418589994311333,0.001923834322951734,-0.00010126729466719553,0.0037101840134710073
0.004404066596180201,0.007858586497604847,-0.009436073713004589,0.0020469147711992264,-9.966512880055234e-05,0.0036265328526496887
0.004908508155494928,0.007846062071621418,-0.00895607378333807,0.002305334433913231,-9.811307972995564e-05,0.004205314442515373
0.004848715849220753,0.007462815381586552,-0.00909050740301609,0.0023678101133555174,-9.660843352321535e-05,0.004311583936214447
0.004781366791576147,0.007352815940976143,-0.009792502969503403,0.0022266532760113478,-9.514947305433452e-05,0.003726935014128685
0.004851981997489929,0.007700439542531967,-0.009499148465692997,0.002032181015238166,-0.00010367696813773364,0.0036766366101801395
0.00486728036776185,0.007620257791131735,-0.009653149172663689,0.0019665537402033806,-0.00010532876331126317,0.0038686133921146393
0.004795814398676157,0.0073706042021512985,-0.010086643509566784,0.002085175598040223,-0.00010401409963378683,0.004510081838816404
0.004630323499441147,0.008040552958846092,-0.009196171537041664,0.0023949970491230488,-0.00010254617518512532,0.004274355713278055
0.004630323499441147,0.008040552958846092,-0.009196171537041664,0.0023949970491230488,-0.00010254617518512532,0.004274355713278055
0.0051446883007884026,0.007831970229744911,-0.009323849342763424,0.0024791844189167023,-0.00010110699804499745,0.0039544967003166676
0.0051724594086408615,0.008114312775433064,-0.009496546350419521,0.002581173786893487,-9.970695100491866e-05,0.004297811537981033
0.004881485365331173,0.007786829490214586,-0.009693171828985214,0.0023500046227127314,-9.834510274231434e-05,0.004173393361270428
0.004800871480256319,0.007124168332666159,-0.009491028264164925,0.002230702666565776,-9.701989620225504e-05,0.004266086034476757
0.004766735248267651,0.007509633433073759,-0.01011828612536192,0.002270729513838887,-9.572995622875169e-05,0.004353643395006657
0.004795849788933992,0.008047022856771946,-0.009718326851725578,0.0022413439583033323,-0.00011671425454551354,0.004522147122770548
0.005657405126839876,0.007759985513985157,-0.009362162090837955,0.00272001582197845,-0.00012080340093234554,0.004632162395864725
0.005339509341865778,0.007769051007926464,-0.01039845310151577,0.002996988594532013,-0.00011810439173132181,0.004725701175630093
0.0052254693582654,0.007576050236821175,-0.009979888796806335,0.0026939555536955595,-0.00011224441550439224,0.0047073340974748135
0.005311827640980482,0.007706908509135246,-0.00995577685534954,0.002382163191214204,-0.00010951290460070595,0.0046299216337502
0.0055001890286803246,0.007450934499502182,-0.009877890348434448,0.002301502274349332,-0.00010691092757042497,0.00457018380984664
0.005285697523504496,0.007492392789572477,-0.009785697795450687,0.0025454768911004066,-0.00010442982602398843,0.004670065827667713
0.005532614886760712,0.007053788285702467,-0.010401792824268341,0.002805521013215184,-0.0001171977783087641,0.004508457146584988
0.005690972786396742,0.007151135243475437,-0.009813891723752022,0.0026252788957208395,-0.00011941265256609768,0.004525316413491964
0.005429234821349382,0.0073008122853934765,-0.009944177232682705,0.002603595145046711,-0.00011713651474565268,0.004464410711079836
0.005412097088992596,0.00781368650496006,-0.01046996284276247,0.0025371555238962173,-0.00011466948490124196,0.004385317210108042
0.0052815699018538,0.007213842589408159,-0.010127163492143154,0.002459008479490876,-0.00011228622315684333,0.004569000098854303
0.005865371320396662,0.006982587277889252,-0.010726718232035637,0.0025918029714375734,-0.00010999891674146056,0.0045852456241846085
0.005564864259213209,0.007457589264959097,-0.010089639574289322,0.002749317092821002,-0.00010780314914882183,0.004945476073771715
0.0057125636376440525,0.007731393910944462,-0.009936870075762272,0.0027939784340560436,-0.0001056929977494292,0.004973916802555323
0.0054401978850364685,0.0069262320175766945,-0.010101941414177418,0.0027770281303673983,-0.00010366392962168902,0.004877700004726648
0.005792988929897547,0.006502836011350155,-0.010240370407700539,0.0028510289266705513,-0.00010171138274017721,0.005013226065784693
0.0054843914695084095,0.006309575866907835,-0.0105742784217,0.0028192761819809675,-0.00011428994912421331,0.004825924523174763
0.005977566819638014,0.0070330495946109295,-0.01115851104259491,0.002779171569272876,-0.00011421299132052809,0.004940705839544535
0.005977566819638014,0.0070330495946109295,-0.01115851104259491,0.002779171569272876,-0.00011421299132052809,0.004940705839544535
0.005629400722682476,0.007139288354665041,-0.010133578442037106,0.00262696435675025,-0.00011230737436562777,0.004710759036242962
0.005878249648958445,0.006584152113646269,-0.009998996742069721,0.0027147410437464714,-0.00011034857743652537,0.004914676304906607
0.005598951131105423,0.006322013214230537,-0.010789260268211365,0.0028043093625456095,-0.00010844963981071487,0.005268253851681948
0.005713781341910362,0.006670731585472822,-0.010157685726881027,0.002740992698818445,-0.0001066143813659437,0.004969318397343159
0.006084283348172903,0.006860480643808842,-0.01032587606459856,0.0028123825322836637,-0.00010484018275747076,0.004838518798351288
0.006015587132424116,0.006771643180400133,-0.011010910384356976,0.002841116162016988,-0.00010312407539458945,0.004834338091313839
0.005912372376769781,0.006541319191455841,-0.009764005430042744,0.0030708368867635727,-0.00011222393368370831,0.00484063196927309
0.005754242651164532,0.006347944028675556,-0.009502317756414413,0.003155825659632683,-0.00011387626000214368,0.005071219988167286
0.0058942679315805435,0.006792799104005098,-0.009931552223861217,0.003023916156962514,-0.00011232353426748887,0.005255579948425293
0.006019803695380688,0.006707454100251198,-0.009979788213968277,0.002575363265350461,-0.00010893982835114002,0.004895270802080631
0.005907999351620674,0.006691500544548035,-0.010151523165404797,0.0024623603094369173,-0.00010731612564995885,0.005004578735679388
0.005972904618829489,0.006345225498080254,-0.009867839515209198,0.0027213150169700384,-0.0001057401459547691,0.004984999541193247
0.0063714818097651005,0.006674269679933786,-0.009888657368719578,0.0031364872120320797,-0.00010420966282254085,0.0052014365792274475
0.006237031891942024,0.006651538424193859,-0.010446491651237011,0.0035537523217499256,-0.0001027229955070652,0.00549094146117568
0.006453933194279671,0.006534510757774115,-0.00997592881321907,0.0034150262363255024,-0.00010127798304893076,0.005502666346728802
0.006607733201235533,0.00615979777649045,-0.01050535961985588,0.0032065818086266518,-9.987303928937763e-05,0.005472426302731037
0.006063527427613735,0.006657685153186321,-0.010164013132452965,0.003207674017176032,-9.85872684395872e-05,0.005322315730154514
0.006451752968132496,0.006759663112461567,-0.009644759818911552,0.0029777507297694683,-0.00011557012476259843,0.00527225760743022
0.006809456739574671,0.006509631406515837,-0.00897081196308136,0.0030569664668291807,-0.00011391907901270315,0.005265140440315008
0.006743592210114002,0.006305653136223555,-0.010897653177380562,0.0029262907337397337,-0.00011118737165816128,0.005507640540599823
0.006195551250129938,0.006418002303689718,-0.010343903675675392,0.0028754514642059803,-0.00010851171100512147,0.005789435934275389
0.006254212465137243,0.006962680723518133,-0.010699670761823654,0.0027552919927984476,-0.00010595682397251949,0.005641347263008356
0.0069902497343719006,0.0069791050627827644,-0.010990587063133717,0.002915601944550872,-0.00010351936361985281,0.00555855268612504
0.007031738292425871,0.006764959078282118,-0.009891715832054615,0.0029672780074179173,-0.0001011914064292796,0.005335671361535788
0.007031738292425871,0.006764959078282118,-0.009891715832054615,0.0029672780074179173,-0.0001011914064292796,0.005335671361535788
0.006476120557636023,0.006434107199311256,-0.010594133287668228,0.002905021421611309,-9.896585834212601e-05,0.005431578494608402
0.006277283653616905,0.0068077342584729195,-0.010107570327818394,0.0029531929176300764,-9.479619620833546e-05,0.005863454658538103
0.006277283653616905,0.0068077342584729195,-0.010107570327818394,0.0029531929176300764,-9.479619620833546e-05,0.005863454658538103
0.007112340070307255,0.00642901798710227,-0.011235366575419903,0.0031361666042357683,-9.284025873057544e-05,0.005620555020868778
0.0075079528614878654,0.006343051791191101,-0.01019712258130312,0.0034391661174595356,-0.00010446011583553627,0.005662452429533005
0.006173588801175356,0.006455665919929743,-0.009618457406759262,0.0032628020271658897,-0.00010668687173165381,0.005805249325931072
0.006492422893643379,0.006726840976625681,-0.010236320085823536,0.0035293567925691605,-0.0001048947888193652,0.005889697931706905
0.0072523378767073154,0.00621461495757103,-0.010430552065372467,0.003753999713808298,-0.00010291377839166671,0.006025287788361311
0.006882184650748968,0.006018403917551041,-0.009949404746294022,0.0038766630459576845,-0.00010099034989252687,0.005518617574125528
0.006502603180706501,0.006549108307808638,-0.010497617535293102,0.0034142741933465004,-9.913629037328064e-05,0.005408598575741053
0.006653001997619867,0.00643016304820776,-0.010145786218345165,0.003194148186594248,-9.562529157847166e-05,0.006102808751165867
0.007044423837214708,0.006435699760913849,-0.010651139542460442,0.0032908963039517403,-9.39613746595569e-05,0.005939231254160404
0.006935666780918837,0.0062242476269602776,-0.010146379470825195,0.0033219025935977697,-9.23543339013122e-05,0.00614974508062005
0.007172606885433197,0.006549359764903784,-0.011049139313399792,0.003331082873046398,-9.080132440431044e-05,0.006437240168452263
0.006823972798883915,0.007270489819347858,-0.01079348661005497,0.003334642620757222,-0.00010319492866983637,0.006360572297126055
0.006904019042849541,0.006362412124872208,-0.010677606798708439,0.003348015248775482,-0.000102423713542521,0.006518190260976553
0.007166952360421419,0.006105273496359587,-0.01106208749115467,0.003556456882506609,-0.00010084336099680513,0.006318140774965286
0.006937538739293814,0.006708131637424231,-0.010591154918074608,0.003367235418409109,-9.925846825353801e-05,0.005854742135852575
0.007098771166056395,0.007036447059363127,-0.010452108457684517,0.003233822528272867,-9.771910117706284e-05,0.006303687114268541
0.007774119731038809,0.006967734545469284,-0.011470671743154526,0.003287084400653839,-9.622655488783494e-05,0.006799474824219942
0.007604328915476799,0.006259320303797722,-0.010870637372136116,0.0034213720355182886,-9.47788794292137e-05,0.00652435515075922
0.007308225613087416,0.006352831143885851,-0.01130767073482275,0.0036199416499584913,-9.337416850030422e-05,0.006494469940662384
0.007226401008665562,0.006567623931914568,-0.01077062264084816,0.0036734959576278925,-9.201045031659305e-05,0.006787540856748819
0.00750756124034524,0.00721493037417531,-0.010116919875144958,0.003739509731531143,-9.068597864825279e-05,0.0066732121631503105
0.007583149708807468,0.006582120433449745,-0.011472777463495731,0.003941944334656,-8.939917461248115e-05,0.006682128179818392
0.007583149708807468,0.006582120433449745,-0.011472777463495731,0.003941944334656,-8.939917461248115e-05,0.006682128179818392
0.007476558908820152,0.006173735950142145,-0.010957559570670128,0.003769473172724247,-8.814831380732358e-05,0.006458560936152935
0.00816009659320116,0.0062329708598554134,-0.010408149100840092,0.0033359096851199865,-8.693199197296053e-05,0.006753013469278812
0.008279964327812195,0.006596516352146864,-0.01125118788331747,0.0032418787013739347,-8.574880484957248e-05,0.006820281036198139
0.007861759513616562,0.00679440563544631,-0.010265043005347252,0.0035864280071109533,-8.459736272925511e-05,0.006774826906621456
0.007809402421116829,0.006334536708891392,-0.010769959539175034,0.004252232611179352,-8.347639959538355e-05,0.00657876068726182
0.007665446028113365,0.006167967338114977,-0.010827703401446342,0.004235383123159409,-8.238475857069716e-05,0.006349815987050533
0.007968873716890812,0.006250039674341679,-0.010238489136099815,0.003978941589593887,-8.132137008942664e-05,0.0065070935525000095
0.007639907766133547,0.006857333704829216,-0.010992155410349369,0.0038218291010707617,-8.028504089452326e-05,0.006703484337776899
0.008546167053282261,0.006016625557094812,-0.010614568367600441,0.003551509464159608,-7.82896313467063e-05,0.006563624367117882
0.007998546585440636,0.005985650233924389,-0.01065391581505537,0.003643091069534421,-7.732873928034678e-05,0.006672362331300974
0.007842707447707653,0.006591929588466883,-0.010532164014875889,0.0042156339623034,-8.449847518932074e-05,0.006779866758733988
0.007883498445153236,0.006902727298438549,-0.011197779327630997,0.00410356605425477,-8.607499330537394e-05,0.007398450281471014
0.008063956163823605,0.006746591534465551,-0.011101678013801575,0.003924242220818996,-8.522501593688503e-05,0.0070927864871919155
0.008737289346754551,0.006588210351765156,-0.010396269150078297,0.003937603905797005,-8.423899271292612e-05,0.006761288736015558
0.007950435392558575,0.006242919247597456,-0.011014522053301334,0.004062927793711424,-8.326557144755498e-05,0.006784063298255205
0.00820333044975996,0.0065832315012812614,-0.011147299781441689,0.003916271962225437,-8.231364336097613e-05,0.00695409020408988
0.00834700744599104,0.006831650156527758,-0.01015723031014204,0.0037578651681542397,-8.138330304063857e-05,0.007282502483576536
0.008802659809589386,0.006403178442269564,-0.010885866358876228,0.003738151863217354,-8.047366281971335e-05,0.0072524831630289555
0.008088858798146248,0.006215799134224653,-0.010807034559547901,0.0038930773735046387,-7.958420610520989e-05,0.007989780977368355
0.008371815085411072,0.00617189472541213,-0.010911831632256508,0.004331550095230341,-5.196280199015746e-06,0.007278193719685078
0.008539491333067417,0.006837819702923298,-0.010993334464728832,0.004466048441827297,-3.3927994991245214e-07,0.006696358788758516
0.008815160021185875,0.00667986087501049,-0.010044233873486519,0.004322506487369537,-2.2152555345655855e-08,0.007020591292530298
0.008307603187859058,0.006341265980154276,-0.010552803054451942,0.004520623479038477,-1.4464035524852648e-09,0.007028365507721901
0.008479559794068336,0.006108436733484268,-0.010878641158342361,0.004115702584385872,-9.443981707768501e-11,0.007189772557467222
0.008479559794068336,0.006108436733484268,-0.010878641158342361,0.004115702584385872,-9.443981707768501e-11,0.007189772557467222
0.008380956947803497,0.006496146321296692,-0.010807237587869167,0.004125081934034824,-6.1662458993028135e-12,0.007484345231205225
0.008418704383075237,0.006657356861978769,-0.01158516202121973,0.004124301485717297,-7.008983084233478e-05,0.007953578606247902
0.00891133863478899,0.007138248533010483,-0.010512576438486576,0.004354135133326054,-7.360758900176734e-05,0.007933065295219421
0.008938063867390156,0.0063860854133963585,-0.010443982668220997,0.004597190767526627,-7.272265793289989e-05,0.007744491100311279
0.0083859171718359,0.006265739910304546,-0.011148327961564064,0.004638349637389183,-7.158573134802282e-05,0.007791530340909958
0.008848440833389759,0.00682134460657835,-0.010177914053201675,0.004346699919551611,-7.046596147119999e-05,0.007718123961240053
0.008746174164116383,0.0063840048387646675,-0.01117103174328804,0.00430598109960556,-7.62139679864049e-05,0.007239202968776226
0.008717004209756851,0.006197873502969742,-0.011301747523248196,0.004168813116848469,-8.15318344393745e-05,0.007877382449805737
0.009012150578200817,0.006452525965869427,-0.010542670264840126,0.0047039068304002285,-8.073517528828233e-05,0.008035912178456783
0.008943581022322178,0.00660610431805253,-0.01061360351741314,0.004520951304584742,-7.841930346330628e-05,0.00799620896577835
0.008725997991859913,0.006608269177377224,-0.01029646024107933,0.004316138103604317,-7.729695789748803e-05,0.008126132190227509
0.008966813795268536,0.006048054900020361,-0.01104014366865158,0.004252057988196611,-7.620611722813919e-05,0.008140048943459988
0.008954892866313457,0.005942170508205891,-0.010713024996221066,0.004424328915774822,-8.444709237664938e-05,0.007751502562314272
0.008879825472831726,0.006459655240178108,-0.011128428392112255,0.004582602996379137,-8.625631016911939e-05,0.007930627092719078
0.009305263869464397,0.006631534080952406,-0.010982952080667019,0.00491280946880579,-8.528228499926627e-05,0.008108669891953468
0.00897729117423296,0.006245502736419439,-0.010672949254512787,0.004507764708250761,-8.41557266539894e-05,0.007860050536692142
0.009410531260073185,0.006276755593717098,-0.011360115371644497,0.004383590538054705,-8.304717630380765e-05,0.00811710860580206
0.009055601432919502,0.006252584047615528,-0.011303914710879326,0.004527391400188208,-8.773766603553668e-05,0.007770125288516283
0.009646090678870678,0.006463801953941584,-0.011064507998526096,0.004759307950735092,-9.208545088768005e-05,0.00757265742868185
0.008953042328357697,0.006574329920113087,-0.012440883554518223,0.004733342211693525,-9.127519297180697e-05,0.007474725134670734
0.009629376232624054,0.006500595714896917,-0.011180225759744644,0.0047875065356493,-9.015572140924633e-05,0.008049792610108852
0.009634489193558693,0.006870227865874767,-0.011393683962523937,0.00479115592315793,-8.916325896279886e-05,0.008100972510874271
0.009228497743606567,0.00683028856292367,-0.011116519570350647,0.0046865022741258144,-0.0001912089646793902,0.008511927910149097
0.009228497743606567,0.00683028856292367,-0.011116519570350647,0.0046865022741258144,-0.0001912089646793902,0.008511927910149097
0.009478261694312096,0.00624789809808135,-0.011947429738938808,0.004330687690526247,-0.00018277666822541505,0.008112725801765919
0.009338956326246262,0.006584761664271355,-0.011195376515388489,0.004457384813576937,-0.00020612883963622153,0.007725381758064032
0.009338956326246262,0.006584761664271355,-0.011195376515388489,0.004457384813576937,-0.00020612883963622153,0.007725381758064032
0.0089680515229702,0.00623634597286582,-0.012161622755229473,0.0049416846595704556,-0.00020257922005839646,0.007985195145010948
0.009272094815969467,0.00656153354793787,-0.011474392376840115,0.0051010469906032085,-0.0001955170591827482,0.008241156116127968
0.009602044709026814,0.006548438221216202,-0.011229224503040314,0.005715555511415005,-0.00018870232452172786,0.007981046102941036
0.009670105762779713,0.0066359080374240875,-0.011696690693497658,0.0053374990820884705,-0.0002106654574163258,0.00861480925232172
0.009751747362315655,0.006844220217317343,-0.011068985797464848,0.004874764010310173,-0.00020563643192872405,0.008469518274068832
0.009523275308310986,0.006373531650751829,-0.011711185798048973,0.004719509277492762,-0.0001992527541005984,0.008247959427535534
0.009834813885390759,0.006658044643700123,-0.011890911497175694,0.005169334821403027,-0.00021709618158638477,0.008528465405106544
0.009911077097058296,0.006837235763669014,-0.011278398334980011,0.005151020362973213,-0.00021393958013504744,0.008592231199145317
0.00987169984728098,0.0068832761608064175,-0.011763605289161205,0.004968517925590277,-0.00020797438628505915,0.00833894032984972
0.009878424927592278,0.006586079485714436,-0.011554422788321972,0.004696248564869165,-0.00027243170188739896,0.00901481881737709
0.009599188342690468,0.006646434310823679,-0.011402162723243237,0.004736218601465225,-0.0002801503869704902,0.008616762235760689
0.00957579631358385,0.006551067344844341,-0.011676343157887459,0.005159616470336914,-0.00026524727582000196,0.008560283109545708
0.010293861851096153,0.006293739192187786,-0.011883281171321869,0.005206942558288574,-0.00029393675504252315,0.008876485750079155
0.009769707918167114,0.006390128284692764,-0.011491148732602596,0.005006350111216307,-0.00028439299785532057,0.00902152806520462
0.010012216866016388,0.006734122522175312,-0.011973921209573746,0.004872418474406004,-0.00027052933000959456,0.009219014085829258
0.010208068415522575,0.0065920366905629635,-0.011981344781816006,0.0048325518146157265,-0.00025764352176338434,0.008659591898322105
0.009841788560152054,0.006347338669002056,-0.011324767023324966,0.00506201246753335,-0.00028141328948549926,0.009231937117874622
0.009717152453958988,0.006355092860758305,-0.011655819602310658,0.005010067019611597,-0.00027403750573284924,0.00874761026352644
0.010582844726741314,0.006889550946652889,-0.011415100656449795,0.004410498309880495,-0.0002629183290991932,0.008558857254683971
0.010015159845352173,0.006476459559053183,-0.011647574603557587,0.005244599189609289,-0.00025240235845558345,0.009351536631584167
0.00830541830509901,0.006167491897940636,-0.012296853587031364,0.005434527061879635,-0.00024267970002256334,0.009524589404463768
0.010543057695031166,0.006330103613436222,-0.011600303463637829,0.005925972945988178,-0.0002583673922345042,0.009286872111260891
0.010676256380975246,0.006575905252248049,-0.011434171348810196,0.005514542572200298,-0.00025693935458548367,0.00942686665803194
0.009562486782670021,0.006774666253477335,-0.010998336598277092,0.005828676745295525,-0.0002777809277176857,0.009266416542232037
0.00989583134651184,0.006471636239439249,-0.01125020906329155,0.005405672825872898,-0.0002887739101424813,0.008971279487013817
0.009924645535647869,0.006040381733328104,-0.011380014009773731,0.005059276707470417,-0.00027312777820043266,0.009556645527482033
0.009501012973487377,0.006519238464534283,-0.010982944630086422,0.005062236450612545,-0.0002576084225438535,0.009453853592276573
0.009752829559147358,0.0068496959283947945,-0.012007774785161018,0.005033958703279495,-0.0002890314790420234,0.009131141006946564
0.00985654629766941,0.006485804449766874,-0.0115436352789402,0.005291435867547989,-0.000277152459602803,0.009364219382405281
0.00985654629766941,0.006485804449766874,-0.0115436352789402,0.005291435867547989,-0.000277152459602803,0.009364219382405281
0.010581634938716888,0.0062975212931632996,-0.012006709352135658,0.005644490011036396,-0.00026380218332633376,0.009453061036765575
0.011234371922910213,0.006257687695324421,-0.011369477026164532,0.0060326107777655125,-0.0002515237429179251,0.009439717046916485
0.01040815282613039,0.006147657986730337,-0.010570406913757324,0.005936819594353437,-0.0002776442270260304,0.009148863144218922
0.01004242617636919,0.00640102056786418,-0.01150971744209528,0.00579264247789979,-0.0002682536724023521,0.009318302385509014
0.010516499169170856,0.006604612339287996,-0.011455203406512737,0.005683839786797762,-0.000257449020864442,0.009220672771334648
0.009916367940604687,0.006494568195194006,-0.011962931603193283,0.00594880199059844,-0.00027347399736754596,0.009721650741994381
0.010712157003581524,0.00616156030446291,-0.011714380234479904,0.005814000964164734,-0.00027140381280332804,0.009859600104391575
0.010290422476828098,0.006207691505551338,-0.011227881535887718,0.0058155967853963375,-0.00026206226903013885,0.00955210067331791
0.010173079557716846,0.006576769985258579,-0.01153821311891079,0.00594420125707984,-0.00025289133191108704,0.009731576777994633
0.010586842894554138,0.006105092354118824,-0.011409004218876362,0.0056930226273834705,-0.00023629263159818947,0.00972561165690422
0.0099436454474926,0.006607088726013899,-0.01187273021787405,0.005746395327150822,-0.00025936198653653264,0.009528371505439281
0.01084269117563963,0.006294670514762402,-0.011509770527482033,0.005927315913140774,-0.0002497840905562043,0.010565165430307388
0.011097428388893604,0.0064752656035125256,-0.012274131178855896,0.005633525550365448,-0.0002369433204876259,0.010033262893557549
0.01005567330867052,0.0063383071683347225,-0.011983545497059822,0.005779527593404055,-0.00026408571284264326,0.009165434166789055
0.01014887448400259,0.0064994110725820065,-0.011893338523805141,0.005908389110118151,-0.0002568625786807388,0.009466608054935932
0.010426148772239685,0.006144494283944368,-0.011484246701002121,0.005860630888491869,-0.00024552957620471716,0.009658077731728554
0.010631605051457882,0.006426570005714893,-0.01103917695581913,0.005481977481395006,-0.0002687889209482819,0.009778398089110851
0.010869543068110943,0.0063798073679208755,-0.011833962984383106,0.00556521862745285,-0.0002622522006276995,0.0104558439925313
0.010516989044845104,0.005981928668916225,-0.01154852844774723,0.006013635545969009,-0.00025206213467754424,0.009939362294971943
0.011350592598319054,0.006193005014210939,-0.010897171683609486,0.005884463433176279,-0.00027465721359476447,0.00959570612758398
0.01289965771138668,0.0064616999588906765,-0.011437322944402695,0.006234548054635525,-0.00026659254217520356,0.01030760258436203
0.012979675084352493,0.006276632193475962,-0.011016289703547955,0.006099480204284191,-0.0002572051016613841,0.009964806959033012
0.013059900142252445,0.006510862149298191,-0.012287885881960392,0.006045271642506123,-0.0002483419084455818,0.009931247681379318
0.012544592842459679,0.006336010526865721,-0.011622133664786816,0.006344974506646395,-0.0003071730607189238,0.010115483775734901
0.012862594798207283,0.006195797584950924,-0.01161083485931158,0.006727832369506359,-0.0003084281925112009,0.010525786317884922
0.012862594798207283,0.006195797584950924,-0.01161083485931158,0.006727832369506359,-0.0003084281925112009,0.010525786317884922
0.012803483754396439,0.00610498758032918,-0.011740429326891899,0.00650421716272831,-0.00029000508948229253,0.009989332407712936
0.013329575769603252,0.006776774767786264,-0.01153394766151905,0.006464892067015171,-0.0002725279191508889,0.010087716393172741
0.012981113977730274,0.006632489152252674,-0.01200531143695116,0.0062082307413220406,-0.00030479859560728073,0.010084784589707851
0.01325267180800438,0.006156077608466148,-0.011460351757705212,0.00634667556732893,-0.00029146141605451703,0.01045064628124237
0.013171583414077759,0.006485082674771547,-0.01130998507142067,0.006607452407479286,-0.00027672553551383317,0.010656523518264294
0.013243552297353745,0.006866392679512501,-0.011738529428839684,0.006310016382485628,-0.0003041064483113587,0.010099521838128567
0.01325367670506239,0.006916572339832783,-0.011343449354171753,0.006300400011241436,-0.00029264308977872133,0.010548747144639492
0.013322259299457073,0.006217830814421177,-0.012230576016008854,0.006081664934754372,-0.00027981758466921747,0.010159124620258808
0.013791922479867935,0.00627926317974925,-0.011720205657184124,0.006217282731086016,-0.00026792477001436055,0.01010877825319767
0.013674665242433548,0.0060261948965489864,-0.011948278173804283,0.006167293060570955,-0.00025699453544802964,0.010656590573489666
0.013639559969305992,0.006035491358488798,-0.012077054008841515,0.006449324078857899,-0.00026418446213938296,0.010632701218128204
0.013826164416968822,0.00602254644036293,-0.012504557147622108,0.006798843387514353,-0.0002616022829897702,0.010542534291744232
0.013449841178953648,0.006013157311826944,-0.011995365843176842,0.007234697230160236,-0.00025249557802453637,0.010606447234749794
0.013620619662106037,0.006153271533548832,-0.011800616979598999,0.007474051788449287,-0.0002439441013848409,0.010763587430119514
0.012983991764485836,0.006208222825080156,-0.012051695957779884,0.007024295162409544,-0.00023594911908730865,0.010531438514590263
0.013497593812644482,0.006251263897866011,-0.011523665860295296,0.007072449196130037,-0.00022846131469123065,0.010269585065543652
0.013385971076786518,0.0061533343978226185,-0.01258544996380806,0.006688475608825684,-0.0002293325960636139,0.01043736096471548
0.013583263382315636,0.00587358558550477,-0.01223339419811964,0.006662033032625914,-0.00022121079382486641,0.010601308196783066
0.013820188120007515,0.006312448065727949,-0.012757651507854462,0.006909101270139217,-0.00021103998005855829,0.010882965289056301
0.01361921988427639,0.006781911943107843,-0.012243194505572319,0.0069811283610761166,-0.00020159657287877053,0.011157257482409477
0.013451308012008667,0.0062604197300970554,-0.01250617764890194,0.006803822237998247,-0.000192951294593513,0.010673638433218002
0.013530012220144272,0.006292164791375399,-0.012440999038517475,0.007323439698666334,-0.00018501646991353482,0.01065890584141016
0.013986985199153423,0.005871851462870836,-0.010597113519906998,0.0068552433513104916,-0.00017770884733181447,0.011085709556937218
0.013625492341816425,0.005998867563903332,-0.01342631597071886,0.006877942476421595,-0.00018769690359476954,0.010827392339706421
0.013715080916881561,0.0067407493479549885,-0.013103649951517582,0.0067206136882305145,-0.00019649870228022337,0.010891994461417198
0.013475055806338787,0.00618929835036397,-0.01264091208577156,0.006912527605891228,-0.00019058448378928006,0.010803372599184513
0.013977069407701492,0.00596259068697691,-0.01235352922230959,0.007204268127679825,-0.0001841516059357673,0.010617383755743504
0.01358560286462307,0.006555426400154829,-0.013256493024528027,0.006917787250131369,-0.00017808192933443934,0.011097308248281479
0.01358560286462307,0.006555426400154829,-0.013256493024528027,0.006917787250131369,-0.00017808192933443934,0.011097308248281479
0.014028748497366905,0.0069131674244999886,-0.01307566836476326,0.006662851665169001,-0.0001723963359836489,0.011434730142354965
0.013565477915108204,0.006438407581299543,-0.012806454673409462,0.006818186026066542,-0.0001670621131779626,0.011119276285171509
0.013937694951891899,0.006258498411625624,-0.01327582262456417,0.006908969022333622,-0.0001620483526494354,0.011663345620036125
0.01371956430375576,0.006554059684276581,-0.013072528876364231,0.006949660833925009,-0.00015732672181911767,0.01179123017936945
0.014061279594898224,0.0061952401883900166,-0.012663341127336025,0.006843244191259146,-0.0001528727589175105,0.011515574529767036
0.013867810368537903,0.006375613622367382,-0.012851299718022346,0.007091177627444267,-0.00014866363198962063,0.011157898232340813
0.01403284352272749,0.006612073164433241,-0.013103614561259747,0.0074091702699661255,-0.00016717580729164183,0.011089617386460304
0.013932251371443272,0.006134475581347942,-0.01276269368827343,0.007764886133372784,-0.00016428322123829275,0.011290805414319038
0.014084300957620144,0.005909745581448078,-0.01282990537583828,0.007488492876291275,-0.00015623474610038102,0.010964863002300262
0.01445587445050478,0.006386891473084688,-0.01241280511021614,0.00764281814917922,-0.00015245412942022085,0.011648307554423809
0.014315834268927574,0.006469104439020157,-0.01258285716176033,0.008062134496867657,-0.00016869445971678942,0.011750887148082256
0.014487323351204395,0.0057014948688447475,-0.01248631626367569,0.008180644363164902,-0.0001660967100178823,0.011317366734147072
0.014166533015668392,0.006143278442323208,-0.013361157849431038,0.00783498678356409,-0.00016243409481830895,0.011307947337627411
0.014696839265525341,0.006147476844489574,-0.012594910338521004,0.00805532094091177,-0.0001588556042406708,0.011464100331068039
0.014259780757129192,0.006111081223934889,-0.013238364830613136,0.007699328009039164,-0.0001554267801111564,0.011386540718376637
0.01488956343382597,0.006322874221950769,-0.013198738917708397,0.007460116874426603,-0.00015214232553262264,0.011592604219913483
0.014533741399645805,0.006209373474121094,-0.013421803712844849,0.007599837612360716,-0.0001489938294980675,0.011747648008167744
0.014810113236308098,0.00599283492192626,-0.012934821657836437,0.008040239103138447,-0.00014597320114262402,0.012518554925918579
0.014763932675123215,0.006289077457040548,-0.013096640817821026,0.007908396422863007,-0.00014353024016600102,0.011582127772271633
0.01491338387131691,0.006755565758794546,-0.013178082183003426,0.006998967379331589,-0.00013930670684203506,0.011735588312149048
0.014141731895506382,0.0061738146468997,-0.012511351145803928,0.007112637162208557,-0.00013513703015632927,0.01208508387207985
0.015136183239519596,0.005855075083673,-0.013418185524642467,0.007346868980675936,-0.00013119776849634945,0.012497861869633198
0.0144930025562644,0.006048072595149279,-0.01291176863014698,0.007458797190338373,-0.00013999617658555508,0.012382934801280499
0.014470010995864868,0.005921381525695324,-0.013385343365371227,0.007508112583309412,-0.000147914863191545,0.012483898550271988
0.014173937030136585,0.006339625455439091,-0.013106620870530605,0.008418233133852482,-0.00014471863687504083,0.012242071330547333
0.014173937030136585,0.006339625455439091,-0.013106620870530605,0.008418233133852482,-0.00014471863687504083,0.012242071330547333
0.015180924907326698,0.00630946783348918,-0.013739876449108124,0.008578331209719181,-0.0001409897522535175,0.012330434285104275
0.014450890943408012,0.005664138123393059,-0.012588496319949627,0.008311407640576363,-0.0001374055864289403,0.012342223897576332
0.014884497970342636,0.006312943994998932,-0.013308870606124401,0.0077619352377951145,-0.0001339958398602903,0.012148361653089523
0.014762897044420242,0.005881821271032095,-0.013113501481711864,0.007914649322628975,-0.00014690648822579533,0.012431520037353039
0.014823587611317635,0.006124408915638924,-0.013460865244269371,0.0077203442342579365,-0.00014856872439850122,0.012587607838213444
0.014610250480473042,0.005988955497741699,-0.01313843484967947,0.007385172415524721,-0.000145472920848988,0.01267801970243454
0.01520454790443182,0.005977802909910679,-0.012923197820782661,0.007929195649921894,-0.00014221100718714297,0.01264283899217844
0.015122567303478718,0.00606176070868969,-0.013362662866711617,0.008498135022819042,-0.0001538070646347478,0.013100091367959976
0.015178926289081573,0.0061647165566682816,-0.013495839200913906,0.008146029897034168,-0.00015219800116028637,0.013261599466204643
0.015192235819995403,0.006307474337518215,-0.012691071256995201,0.00833061058074236,-0.00014919588284101337,0.013175302185118198
0.015096310526132584,0.005814969073981047,-0.013428236357867718,0.008341796696186066,-0.0002347897825529799,0.013107887469232082
0.015444153919816017,0.005179650150239468,-0.013273971155285835,0.00799605529755354,-0.00022894771245773882,0.013279607519507408
0.015217771753668785,0.004830663092434406,-0.013267331756651402,0.00811044406145811,-0.0002182409371016547,0.013000233098864555
0.015065680257976055,0.004900435917079449,-0.013004555366933346,0.00841047428548336,-0.00020816814503632486,0.013203578069806099
0.015541812404990196,0.005336635280400515,-0.012982890009880066,0.008839292451739311,-0.0001989636366488412,0.013110640458762646
0.01543213240802288,0.005059326067566872,-0.012599674984812737,0.008540181443095207,-0.00019053737923968583,0.013522173278033733
0.01574239693582058,0.005219250451773405,-0.012605872936546803,0.008564797230064869,-0.0001827956730267033,0.013319923542439938
0.01528848521411419,0.004957424942404032,-0.012899300083518028,0.00870517734438181,-0.00017565938469488174,0.01351460162550211
0.01586110331118107,0.004828644450753927,-0.01275730598717928,0.008474711328744888,-0.00016905905795283616,0.01324963103979826
0.016079680994153023,0.005140725988894701,-0.01323430985212326,0.008444592356681824,-0.0001629363832762465,0.013608068227767944
0.016146454960107803,0.00490631815046072,-0.013197166845202446,0.00909759197384119,-0.0001845192746259272,0.013855015859007835
0.015372696332633495,0.004809271078556776,-0.014138385653495789,0.009252472780644894,-0.00018204656953457743,0.014262435026466846
0.0160039272159338,0.0049993544816970825,-0.01326131820678711,0.009031601250171661,-0.00017634601681493223,0.01396897528320551
0.016362641006708145,0.004840809386223555,-0.013495683670043945,0.009016846306622028,-0.00017078450764529407,0.013728906400501728
0.01592414453625679,0.0048433467745780945,-0.013219472020864487,0.009217002429068089,-0.0001790845562936738,0.013775979168713093
0.01592414453625679,0.0048433467745780945,-0.013219472020864487,0.009217002429068089,-0.0001790845562936738,0.013775979168713093
0.016220029443502426,0.0048958002589643,-0.014073730446398258,0.008751587942242622,-0.0001864774530986324,0.013766027055680752
0.015947656705975533,0.0051540108397603035,-0.01369968056678772,0.009061148390173912,-0.00018192167044617236,0.014122498221695423
0.016583267599344254,0.005008026957511902,-0.013910532929003239,0.008978978730738163,-0.00017686815408524126,0.013963690027594566
0.016839856281876564,0.0052224500104784966,-0.013867519795894623,0.008622962981462479,-0.0001933775347424671,0.01422093901783228
0.016539989039301872,0.005319156218320131,-0.014099057763814926,0.009381918236613274,-0.00019118057389277965,0.014054407365620136
0.016102677211165428,0.004942203871905804,-0.01375732570886612,0.009143051691353321,-0.0002078800171148032,0.014129086397588253
0.016486484557390213,0.0054612550884485245,-0.013500926084816456,0.008699276484549046,-0.000205679185455665,0.014555692672729492
0.017374342307448387,0.005259163212031126,-0.014151903800666332,0.008505594916641712,-0.00023388663248624653,0.01459421031177044
0.01713338866829872,0.004893242847174406,-0.014291607774794102,0.008912034332752228,-0.00022650239407084882,0.014612667262554169
0.01704588532447815,0.005191415082663298,-0.014489554800093174,0.008491052314639091,-0.0002513257786631584,0.014759023673832417
0.017439136281609535,0.004468167200684547,-0.014216759242117405,0.008677338249981403,-0.000268553732894361,0.014765731990337372
0.017472194507718086,0.005028898827731609,-0.014038999564945698,0.009464418515563011,-0.0006403604638762772,0.014862362295389175
0.016815850511193275,0.005463616456836462,-0.014635310508310795,0.008799271658062935,-0.0006905709160491824,0.015094447880983353
0.017471302300691605,0.005068304017186165,-0.014304067008197308,0.008457417599856853,-0.0007382480544038117,0.015111437067389488
0.01808934658765793,0.004991431720554829,-0.014515710063278675,0.009062753058969975,-0.0008974936790764332,0.015362021513283253
0.017314184457063675,0.005277569405734539,-0.01400844193994999,0.009235095232725143,-0.0010651933262124658,0.01567094214260578
0.01795235276222229,0.005013714544475079,-0.014222081750631332,0.008698871359229088,-0.0010482314974069595,0.01536842342466116
0.01816745474934578,0.00542852096259594,-0.014475183561444283,0.00908872950822115,-0.001027294434607029,0.015474874526262283
0.017997588962316513,0.005223982501775026,-0.015227122232317924,0.009626869112253189,-0.001138819963671267,0.015381812117993832
0.01799871399998665,0.004946353379637003,-0.014719795435667038,0.009480913169682026,-0.0011148265330120921,0.015524293296039104
0.01795850321650505,0.005362526513636112,-0.014404402114450932,0.009778679348528385,-0.0010815801797434688,0.015450489707291126
0.018120387569069862,0.005172117613255978,-0.014108608476817608,0.009627165272831917,-0.0010056011378765106,0.015141057781875134
0.018343975767493248,0.0052954512648284435,-0.015015264973044395,0.008924969471991062,-0.0011298784520477057,0.014868400059640408
0.018604181706905365,0.005457306746393442,-0.015576084144413471,0.009390641003847122,-0.0011196419363841414,0.015422162599861622
0.019240574911236763,0.004965278785675764,-0.015453536994755268,0.00959323812276125,-0.0011059013195335865,0.015436235815286636
0.01853248104453087,0.004912642762064934,-0.015419138595461845,0.009358801878988743,-0.0012492326786741614,0.01528239343315363
0.01853248104453087,0.004912642762064934,-0.015419138595461845,0.009358801878988743,-0.0012492326786741614,0.01528239343315363
0.018424641340970993,0.005358976777642965,-0.015552274882793427,0.009876779280602932,-0.0011907309526577592,0.015889450907707214
0.018292248249053955,0.005175614729523659,-0.015820007771253586,0.010326484218239784,-0.001069393358193338,0.015129735693335533
0.018028203397989273,0.005685335490852594,-0.014628821052610874,0.009841988794505596,-0.0010305801406502724,0.0150636350736022
0.018816273659467697,0.00519609684124589,-0.015633653849363327,0.009861438535153866,-0.000927996588870883,0.015423302538692951
0.019070394337177277,0.00489041255787015,-0.01520630531013012,0.00953918881714344,-0.0007720632711425424,0.01638004370033741
0.018810272216796875,0.005396898370236158,-0.01561592798680067,0.009257194586098194,-0.0007805046625435352,0.016338208690285683
0.018836215138435364,0.005308316554874182,-0.014849420636892319,0.009784731082618237,-0.0007435919833369553,0.016526909545063972
0.01878746971487999,0.005674863234162331,-0.015707988291978836,0.01027190312743187,-0.0007090754224918783,0.015846077352762222
0.018993927165865898,0.005554592236876488,-0.015804195776581764,0.010078621096909046,-0.0007188522140495479,0.015610580332577229
0.01953771896660328,0.005662685725837946,-0.01573696732521057,0.010602504014968872,-0.0006634366000071168,0.015256390906870365
0.019580455496907234,0.0055279857479035854,-0.015519818291068077,0.010631231591105461,-0.0005645273486152291,0.016346082091331482
0.019724534824490547,0.005310781300067902,-0.01591407135128975,0.010500823147594929,-0.0005019202944822609,0.016674762591719627
0.01897388882935047,0.005941200535744429,-0.015714580193161964,0.010488852858543396,-0.0005175143014639616,0.01642780192196369
0.01934206672012806,0.005549128167331219,-0.01617230847477913,0.009741856716573238,-0.0004907554830424488,0.015681911259889603
0.019489211961627007,0.00584195414558053,-0.015286912210285664,0.009618189185857773,-0.00045105998287908733,0.016081394627690315
0.01999315805733204,0.005402299575507641,-0.015965944156050682,0.009668383747339249,-0.0004163385892752558,0.01603563316166401
0.019657449796795845,0.005189251620322466,-0.015221666544675827,0.009821074083447456,-0.0004421445482876152,0.016703587025403976
0.0195779949426651,0.005866375286132097,-0.015740104019641876,0.010262895375490189,-0.0004202266864012927,0.01671002432703972
0.020056065171957016,0.006301972549408674,-0.014943589456379414,0.00981434341520071,-0.000394402100937441,0.01621120795607567
0.019982805475592613,0.005576041527092457,-0.015666935592889786,0.009783437475562096,-0.0003711850440595299,0.01604459248483181
0.019717443734407425,0.0056969472207129,-0.01546767819672823,0.010188351385295391,-0.000350526679540053,0.016205843538045883
0.020083362236618996,0.005393406376242638,-0.015734709799289703,0.010583794675767422,-0.0003320452233310789,0.016343533992767334
0.0201935563236475,0.005950234830379486,-0.015559501945972443,0.010335483588278294,-0.0003154145379085094,0.016395963728427887
0.020133810117840767,0.0060014682821929455,-0.015412980690598488,0.010646267794072628,-0.0003003725141752511,0.01694018952548504
0.020512357354164124,0.0062321387231349945,-0.015961691737174988,0.010367446579039097,-0.0002866995637305081,0.017301956191658974
0.02032577432692051,0.005553431808948517,-0.015595169737935066,0.010727441869676113,-0.00027421695995144546,0.01729574240744114
0.021060923114418983,0.005194283556193113,-0.015884364023804665,0.010737566277384758,-0.00029531048494391143,0.017097214236855507
0.020670413970947266,0.005394201260060072,-0.0156535841524601,0.010324450209736824,-0.000287962204311043,0.01709405891597271
0.020670413970947266,0.005394201260060072,-0.0156535841524601,0.010324450209736824,-0.000287962204311043,0.01709405891597271
0.02068396285176277,0.006214276421815157,-0.015851842239499092,0.011075231246650219,-0.00027716721524484456,0.017289821058511734
0.02098824642598629,0.006585236638784409,-0.014962413348257542,0.01079722959548235,-0.00026690997765399516,0.0171932652592659
0.0209511648863554,0.00561589514836669,-0.0158664733171463,0.01030331663787365,-0.00025736968382261693,0.017279332503676414
0.02098044753074646,0.005417203065007925,-0.015789229422807693,0.01067331712692976,-0.00024848573957569897,0.01757902279496193
0.021431226283311844,0.005771173629909754,-0.01583191007375717,0.010605687275528908,-0.0002401950623607263,0.017457157373428345
0.021325193345546722,0.006531806197017431,-0.01555310282856226,0.01044832170009613,-0.00023243980831466615,0.0174068845808506
0.02114175073802471,0.006232085172086954,-0.015815356746315956,0.01061019953340292,-0.00022516974422615021,0.017604801803827286
0.022101841866970062,0.005846094340085983,-0.016160326078534126,0.01010357029736042,-0.00021834058861713856,0.017745716497302055
0.02203160524368286,0.005581378936767578,-0.01598869264125824,0.01066435407847166,-0.00017564384324941784,0.017581788823008537
0.02164914272725582,0.0057574547827243805,-0.016110869124531746,0.011043659411370754,-0.00015808995522093028,0.01749705709517002
0.02179682068526745,0.006213455926626921,-0.015245371498167515,0.0105846356600523,-0.00015200464986264706,0.017933718860149384
0.021827703341841698,0.006088429130613804,-0.016094937920570374,0.010910536162555218,-0.00014699038001708686,0.018145479261875153
0.022129861637949944,0.006162015721201897,-0.015804609283804893,0.010673090815544128,-0.00014233715774025768,0.017768684774637222
0.022427702322602272,0.00608986197039485,-0.015753204002976418,0.010560519993305206,-0.00013386768114287406,0.017579279839992523
0.022343818098306656,0.005750720854848623,-0.01600687764585018,0.010326213203370571,-0.0001525672705611214,0.01792498119175434
0.022272204980254173,0.006115295924246311,-0.016013717278838158,0.010609349235892296,-0.0001513956522103399,0.01787136122584343
0.022640252485871315,0.006081653758883476,-0.015573840588331223,0.010908748023211956,-0.00014746369561180472,0.01784513331949711
0.02242983877658844,0.005924285855144262,-0.016148295253515244,0.010766544379293919,-0.0001435567537555471,0.017808010801672935
0.022208083420991898,0.005955365486443043,-0.01560871209949255,0.01095864363014698,-0.00015711227024439722,0.01798250339925289
0.023119941353797913,0.006464832928031683,-0.016084175556898117,0.010789960622787476,-0.00015863390581216663,0.01808556541800499
0.023253239691257477,0.006312359124422073,-0.015590421855449677,0.010034693405032158,-0.00015508654178120196,0.01819590851664543
0.022802557796239853,0.006170158740133047,-0.01619160920381546,0.011531958356499672,-0.00016741594299674034,0.018028754740953445
0.022872542962431908,0.005847377236932516,-0.015805264934897423,0.011292041279375553,-0.00016858581511769444,0.018173499032855034
0.023038716986775398,0.005900241434574127,-0.01615229621529579,0.010586476884782314,-0.0001650534541113302,0.018117913976311684
0.023067951202392578,0.006524463649839163,-0.016406526789069176,0.010689626447856426,-0.00020803092047572136,0.017956240102648735
0.024169310927391052,0.006087051704525948,-0.01598352938890457,0.010373194701969624,-0.0002412027242826298,0.018291564658284187
0.02413763850927353,0.005821722559630871,-0.01640779711306095,0.011071830987930298,-0.00027182907797396183,0.018746862187981606
0.023114629089832306,0.005985838361084461,-0.015850316733121872,0.011425059288740158,-0.0002642137696966529,0.01843595691025257
0.021994898095726967,0.005783777218312025,-0.01627696119248867,0.011016749776899815,-0.0002522417053114623,0.018622739240527153
0.024022281169891357,0.006212251726537943,-0.016146695241332054,0.011585271917283535,-0.0002784268872346729,0.018405674025416374
0.024085842072963715,0.005909424740821123,-0.016398482024669647,0.011065795086324215,-0.0002689803368411958,0.018112463876605034
0.02352568693459034,0.006006082519888878,-0.016772232949733734,0.010989113710820675,-0.00027615681756287813,0.01786571927368641
0.02352568693459034,0.006006082519888878,-0.016772232949733734,0.010989113710820675,-0.00027615681756287813,0.01786571927368641
0.02351330779492855,0.0062955040484666824,-0.01645079255104065,0.01087232306599617,-0.0002821602101903409,0.01820346713066101
0.023955460637807846,0.005952888634055853,-0.017085399478673935,0.010597432032227516,-0.0004343043838161975,0.01887156069278717
0.024659650400280952,0.006226435303688049,-0.016418173909187317,0.011136447079479694,-0.0005095246015116572,0.019153771921992302
0.024361981078982353,0.006038745399564505,-0.016606250777840614,0.011273476295173168,-0.0004871682613156736,0.018960101529955864
0.024328401312232018,0.005145695060491562,-0.01596526801586151,0.01084410771727562,-0.00044824526412412524,0.019566118717193604
0.023569881916046143,0.004811715334653854,-0.016591887921094894,0.011563551612198353,-0.0004780701419804245,0.019842490553855896
0.023926246911287308,0.005414290819317102,-0.01691311039030552,0.01121609192341566,-0.0004482258518692106,0.019681792706251144
0.024562260136008263,0.0055944304913282394,-0.01690160110592842,0.0110951391980052,-0.0004477553302422166,0.01954520493745804
0.02415401116013527,0.005846261512488127,-0.016928810626268387,0.01101747713983059,-0.00044668157352134585,0.019368747249245644
0.024656914174556732,0.0047819181345403194,-0.017112361267209053,0.012220554985105991,-0.00047475556493736804,0.019026614725589752
0.024783048778772354,0.00507280183956027,-0.016600990667939186,0.011599014513194561,-0.0005127495969645679,0.019332880154252052
0.024726228788495064,0.005480276420712471,-0.01751016639173031,0.011432604864239693,-0.0005310836713761091,0.01969847083091736
0.024318793788552284,0.005127796437591314,-0.01719127781689167,0.011827587150037289,-0.0005417219363152981,0.020244890823960304
0.02445242367684841,0.0049745975993573666,-0.016586801037192345,0.011632893234491348,-0.0005346836987882853,0.020073316991329193
0.024203326553106308,0.00513897929340601,-0.017515838146209717,0.012012097053229809,-0.0007081813528202474,0.019818678498268127
0.02443639375269413,0.004650359507650137,-0.017055204138159752,0.011870481073856354,-0.0007016023155301809,0.01988121122121811
0.0246739462018013,0.0050024110823869705,-0.01698608137667179,0.012584263458848,-0.0006705032428726554,0.02000572718679905
0.025102445855736732,0.004883693065494299,-0.016898542642593384,0.01245430950075388,-0.0006725540151819587,0.019829105585813522
0.025038287043571472,0.004853521939367056,-0.017136814072728157,0.012884608469903469,-0.0006280334782786667,0.01976437121629715
0.02513781189918518,0.004659728612750769,-0.017792552709579468,0.01296877022832632,-0.000642836675979197,0.020217301324009895
0.024743668735027313,0.004479945637285709,-0.017110636457800865,0.01274976134300232,-0.0006557352025993168,0.02024628408253193
0.0252166036516428,0.004387711640447378,-0.01731240004301071,0.013166104443371296,-0.0006949954549781978,0.02008233219385147
0.025177357718348503,0.00455189635977149,-0.017222406342625618,0.012707240879535675,-0.0007057889015413821,0.02028166875243187
0.025023410096764565,0.004656454548239708,-0.01687212474644184,0.012784882448613644,-0.0007252856739796698,0.02065935730934143
0.02540852501988411,0.004654505290091038,-0.017603492364287376,0.012313737533986568,-0.0006812024512328207,0.020509567111730576
0.02540852501988411,0.004654505290091038,-0.017603492364287376,0.012313737533986568,-0.0006812024512328207,0.020509567111730576
0.025513960048556328,0.004731723107397556,-0.017124300822615623,0.012651868164539337,-0.0008300862973555923,0.020583035424351692
0.026267310604453087,0.00475336704403162,-0.017167214304208755,0.012708382681012154,-0.0007159894448705018,0.020635323598980904
0.026787493377923965,0.0041519030928611755,-0.017594169825315475,0.012439646758139133,-0.0007243584841489792,0.020570028573274612
0.0265442356467247,0.004366829991340637,-0.01709328219294548,0.012584046460688114,-0.0006512067629955709,0.020994001999497414
0.025286301970481873,0.004357859492301941,-0.017627835273742676,0.012502049095928669,-0.0006526394281536341,0.020799599587917328
0.02518676221370697,0.004804125055670738,-0.017113473266363144,0.012960923835635185,-0.0006110589602030814,0.020632605999708176
0.0258798711001873,0.004334216006100178,-0.01721731200814247,0.012952830642461777,-0.000627009489107877,0.021005939692258835
0.026762213557958603,0.004426188301295042,-0.017551599070429802,0.013094931840896606,-0.0005854262853972614,0.02106429636478424
0.02658507600426674,0.0044995201751589775,-0.017794519662857056,0.012832261621952057,-0.00046005682088434696,0.02120262011885643
0.02749987132847309,0.0042922962456941605,-0.017279090359807014,0.012783598154783249,-0.00047830372932367027,0.02129123918712139
0.027196573093533516,0.004398117773234844,-0.01736930012702942,0.012707157991826534,-0.00045667344238609076,0.020991845056414604
0.0275261253118515,0.0045112804509699345,-0.017414743080735207,0.013333382084965706,-0.00047383690252900124,0.020975185558199883
0.026087364181876183,0.0042763277888298035,-0.017190685495734215,0.012972420081496239,-0.0004556665080599487,0.020866507664322853
0.026429960504174232,0.004498444031924009,-0.017528139054775238,0.01329948753118515,-0.00045545658213086426,0.02094937488436699
0.026837816461920738,0.004422950092703104,-0.017192821949720383,0.01325416099280119,-0.00045393541222438216,0.021039362996816635
0.026959462091326714,0.004140269476920366,-0.017670942470431328,0.013668783940374851,-0.0004286796029191464,0.021209154278039932
0.02713637240231037,0.004418002441525459,-0.017585840076208115,0.013490207493305206,-0.000432845379691571,0.021279670298099518
0.027243752032518387,0.0042316545732319355,-0.017367716878652573,0.01372884027659893,-0.0004214484361000359,0.02131531946361065
0.02725580334663391,0.004508974030613899,-0.01790696568787098,0.013206110335886478,-0.00038707832572981715,0.021426016464829445
0.02682904526591301,0.004620503168553114,-0.017534131184220314,0.013410228304564953,-0.00040883917245082557,0.02156001701951027
0.02679762989282608,0.004321230109781027,-0.017952775582671165,0.013553855009377003,-0.0003951522521674633,0.021593352779746056
0.0273982472717762,0.004377580713480711,-0.01796075329184532,0.013147694058716297,-0.0003691854071803391,0.021452663466334343
0.02724221907556057,0.004578959662467241,-0.017372624948620796,0.013134900480508804,-0.0003456124395597726,0.021588940173387527
0.02734839729964733,0.004746640101075172,-0.01805288717150688,0.013318744488060474,-0.00032481661764904857,0.021928761154413223
0.027465960010886192,0.004751094616949558,-0.019153162837028503,0.013694817200303078,-0.0003505531349219382,0.022424722090363503
0.027524251490831375,0.004330422729253769,-0.017981164157390594,0.013565177097916603,-0.0003377945686224848,0.022437412291765213
0.028158344328403473,0.004326853435486555,-0.018283942714333534,0.013533322140574455,-0.0003606720711104572,0.0223194919526577
0.028158344328403473,0.004326853435486555,-0.018283942714333534,0.013533322140574455,-0.0003606720711104572,0.0223194919526577
0.028192883357405663,0.004989881534129381,-0.017745573073625565,0.013155226595699787,-0.0003486654022708535,0.021257683634757996
0.028571272268891335,0.004520127549767494,-0.01817944087088108,0.0129901934415102,-0.00037788640474900603,0.021934809163212776
0.028571272268891335,0.004520127549767494,-0.01817944087088108,0.0129901934415102,-0.00037788640474900603,0.021934809163212776
0.0280636977404356,0.004195649642497301,-0.01796986535191536,0.013708754442632198,-0.0003820528509095311,0.022310465574264526
0.028199035674333572,0.004484426695853472,-0.018396912142634392,0.015028868801891804,-0.00039053111686371267,0.022333640605211258
0.028633754700422287,0.0046589067205786705,-0.01732638292014599,0.014726245775818825,-0.000408271502237767,0.023035692051053047
0.02873474732041359,0.004974330775439739,-0.018745848909020424,0.014743913896381855,-0.00039797776844352484,0.023837335407733917
0.02848106250166893,0.00446734856814146,-0.019242649897933006,0.013679743744432926,-0.0005288622342050076,0.02267168089747429
0.02871367335319519,0.004358865786343813,-0.01872084103524685,0.01391526497900486,-0.0005184330511838198,0.022387899458408356
0.02917228825390339,0.004466467071324587,-0.018306316807866096,0.013768091797828674,-0.0005482886335812509,0.02203822322189808
0.029251471161842346,0.004149124026298523,-0.018743084743618965,0.014264986850321293,-0.0005698520108126104,0.02326248027384281
0.02937777154147625,0.0044206660240888596,-0.01921258121728897,0.01413548830896616,-0.0005782141815871,0.023456942290067673
0.029148941859602928,0.004664478823542595,-0.018616346642374992,0.014357072301208973,-0.0005679067107848823,0.02372121252119541
0.029414445161819458,0.0045920792035758495,-0.018231380730867386,0.013815578073263168,-0.0006836257525719702,0.023421842604875565
0.029478708282113075,0.004556458909064531,-0.01867087557911873,0.013879542239010334,-0.0007212682976387441,0.023036951199173927
0.029471855610609055,0.00416904129087925,-0.01951463147997856,0.013394743204116821,-0.0006502378964796662,0.02337832748889923
0.029465580359101295,0.004504307638853788,-0.018753111362457275,0.013742600567638874,-0.0006277109496295452,0.02316993847489357
0.029985301196575165,0.004699015058577061,-0.01877293735742569,0.014140835031867027,-0.0006088509107939899,0.023091694340109825
0.03059336170554161,0.004547255579382181,-0.018944866955280304,0.014243576675653458,-0.0006263181567192078,0.023176655173301697
0.03029973991215229,0.004941967315971851,-0.018736952915787697,0.014564063400030136,-0.0006497134454548359,0.022940829396247864
0.02898353338241577,0.004843092057853937,-0.01917228102684021,0.014031162485480309,-0.0006997057353146374,0.02295870892703533
0.029559772461652756,0.00475996034219861,-0.019187606871128082,0.01390093844383955,-0.0007742439629510045,0.023142214864492416
0.030474232509732246,0.004574588965624571,-0.01854897290468216,0.013901477679610252,-0.0007492520962841809,0.02342282608151436
0.029976297169923782,0.004748816601932049,-0.01881023496389389,0.014074474573135376,-0.0009998409077525139,0.02356269583106041
0.030710017308592796,0.004769055172801018,-0.019163426011800766,0.013830369338393211,-0.0009955436689779162,0.02381112240254879
0.031278859823942184,0.005008192267268896,-0.01872081123292446,0.01429221872240305,-0.0008502873824909329,0.02403595857322216
0.031278859823942184,0.005008192267268896,-0.01872081123292446,0.01429221872240305,-0.0008502873824909329,0.02403595857322216
0.030388118699193,0.004771634005010128,-0.019241541624069214,0.014570041559636593,-0.000823868322186172,0.023922149091959
0.03025561012327671,0.004457035567611456,-0.019298536702990532,0.014647120609879494,-0.0007523616659455001,0.024019043892621994
0.030237801373004913,0.004831540863960981,-0.018633805215358734,0.0152976606041193,-0.0007438187603838742,0.023933500051498413
0.031126735731959343,0.005023712757974863,-0.019060920923948288,0.015370793640613556,-0.0006937576690688729,0.024294016882777214
0.031589068472385406,0.004886825103312731,-0.01951218768954277,0.015570543706417084,-0.0005883155390620232,0.02446482889354229
0.029835516586899757,0.004645070061087608,-0.018902063369750977,0.015417090617120266,-0.0005853053880855441,0.024839840829372406
0.031493186950683594,0.004728054162114859,-0.01972050406038761,0.015519198961555958,-0.000641115359030664,0.02441212721168995
0.03075546771287918,0.005037892144173384,-0.019168198108673096,0.01602710783481598,-0.0010659252293407917,0.024306191131472588
0.031057924032211304,0.004938905593007803,-0.01964406482875347,0.015709614381194115,-0.0010878444882109761,0.02444416470825672
0.03111792728304863,0.004801836796104908,-0.019562197849154472,0.016304589807987213,-0.0010616553481668234,0.024735020473599434
0.030958186835050583,0.004668535199016333,-0.01889413595199585,0.016157029196619987,-0.0009810583433136344,0.02558286115527153
0.03116985782980919,0.004771444480866194,-0.01962250843644142,0.015748552978038788,-0.0008724107756279409,0.02555263228714466
0.03178241848945618,0.00510111078619957,-0.019940758123993874,0.015225331299006939,-0.0008041874971240759,0.024975091218948364
0.03217969462275505,0.00467453571036458,-0.019045192748308182,0.015021814964711666,-0.0008042609551921487,0.023949183523654938
0.03165877237915993,0.004644482862204313,-0.01898295059800148,0.015227872878313065,-0.0007138781948015094,0.024204419925808907
0.03163899481296539,0.005093556363135576,-0.019436394795775414,0.01519774366170168,-0.000631301139947027,0.02507084421813488
0.03189295530319214,0.004857756197452545,-0.019452914595603943,0.015060367994010448,-0.0006461615557782352,0.02492584101855755
0.03300579637289047,0.005257634446024895,-0.019456934183835983,0.014904631301760674,-0.0005959547706879675,0.02523156628012657
0.03233102336525917,0.005047298967838287,-0.01947137340903282,0.015450458973646164,-0.0005450571770779788,0.025830840691924095
0.030681230127811432,0.004772318061441183,-0.019136670976877213,0.015472633764147758,-0.0005682429182343185,0.026601368561387062
0.0318753682076931,0.004651205148547888,-0.019466063007712364,0.015860501676797867,-0.000530678837094456,0.025437425822019577
0.032805394381284714,0.005126471631228924,-0.019673625007271767,0.01534932479262352,-0.00047446551616303623,0.025247497484087944
0.03229771926999092,0.0050606755539774895,-0.01949302852153778,0.016075560823082924,-0.00041618512477725744,0.024965673685073853
0.03366532549262047,0.004986433312296867,-0.01964341290295124,0.015769174322485924,-0.00044556293869391084,0.02539299987256527
0.03334508463740349,0.005041005555540323,-0.019653446972370148,0.016014402732253075,-0.0004711974470410496,0.026784323155879974
0.033001456409692764,0.004874769598245621,-0.019670942798256874,0.01588708907365799,-0.0005015644710510969,0.027039874345064163
0.0313090980052948,0.004830527119338512,-0.019494540989398956,0.015836842358112335,-0.0004837962915189564,0.02618163637816906
0.03275296092033386,0.005070430692285299,-0.019831445068120956,0.016147451475262642,-0.0007033557631075382,0.02610691450536251
0.033467140048742294,0.004907124675810337,-0.019987663254141808,0.015795139595866203,-0.0007025937084108591,0.026053914800286293
0.033467140048742294,0.004907124675810337,-0.019987663254141808,0.015795139595866203,-0.0007025937084108591,0.026053914800286293
0.03304705023765564,0.005282579455524683,-0.0201241597533226,0.016009625047445297,-0.000671658490318805,0.025812475010752678
0.033045534044504166,0.005601127631962299,-0.020571963861584663,0.015582672320306301,-0.0006865884060971439,0.025905858725309372
0.03344332054257393,0.005005061160773039,-0.02060813456773758,0.0163302943110466,-0.000695627648383379,0.026036890223622322
0.03362227976322174,0.004722944460809231,-0.019597698003053665,0.016141116619110107,-0.0006571518024429679,0.02641882561147213
0.03313227742910385,0.004957759752869606,-0.020509518682956696,0.015811974182724953,-0.0006890103104524314,0.02632390893995762
0.03331466764211655,0.005516946781426668,-0.02055157534778118,0.015434248372912407,-0.0006992925191298127,0.02643703669309616
0.03362833335995674,0.005141007248312235,-0.020594067871570587,0.015569780953228474,-0.0007192260236479342,0.02656290866434574
0.03367700055241585,0.0045085749588906765,-0.020058922469615936,0.016073541715741158,-0.000784330302849412,0.026739172637462616
0.03422818332910538,0.00426212465390563,-0.020546207204461098,0.016801057383418083,-0.000891379255335778,0.027317550033330917
0.033955059945583344,0.004078585188835859,-0.020415466278791428,0.016560455784201622,-0.0008984840242192149,0.027243219316005707
0.033946871757507324,0.004397077020257711,-0.021224504336714745,0.01714310236275196,-0.0008990432834252715,0.027212392538785934
0.0344155915081501,0.004621193744242191,-0.021400460973381996,0.016810374334454536,-0.0010004894575104117,0.02741236239671707
0.03416458144783974,0.004720231052488089,-0.02075215056538582,0.017065923660993576,-0.0010251436615362763,0.027333416044712067
0.03388189896941185,0.004362742882221937,-0.019760429859161377,0.017368966713547707,-0.0010177165968343616,0.02685108780860901
0.03472045063972473,0.004013789352029562,-0.02144857868552208,0.016857201233506203,-0.0009931696113198996,0.02723056636750698
0.034439172595739365,0.003895806148648262,-0.020031284540891647,0.017042264342308044,-0.000939411751460284,0.0273135919123888
0.03436475992202759,0.003983956761658192,-0.0200660303235054,0.016406890004873276,-0.0008253674022853374,0.027266858145594597
0.034879811108112335,0.004050851333886385,-0.021330539137125015,0.016588028520345688,-0.000819927197881043,0.026763873174786568
0.03496299311518669,0.004182474687695503,-0.020974546670913696,0.016532786190509796,-0.0007258036057464778,0.02767018973827362
0.03466774523258209,0.0041745747439563274,-0.020816298201680183,0.01714341528713703,-0.0007322091259993613,0.028216050937771797
0.035007376223802567,0.004361952189356089,-0.020405301824212074,0.017958182841539383,-0.0007367144571617246,0.0277352686971426
0.035072021186351776,0.004060939885675907,-0.020571567118167877,0.018033277243375778,-0.0007060578209348023,0.02828051708638668
0.034842703491449356,0.003958717919886112,-0.020775699988007545,0.017483441159129143,-0.0007360693416558206,0.028461933135986328
0.034842703491449356,0.003958717919886112,-0.020775699988007545,0.017483441159129143,-0.0007360693416558206,0.028461933135986328
0.035021912306547165,0.004373626317828894,-0.020542971789836884,0.017100032418966293,-0.0008167563937604427,0.02780211716890335
0.03452197089791298,0.00439418712630868,-0.0210542231798172,0.01680043712258339,-0.0010494781890884042,0.027046456933021545
0.035807810723781586,0.004566968884319067,-0.02092520333826542,0.016924822703003883,-0.0012344373390078545,0.02719053253531456
0.036550696939229965,0.004271021578460932,-0.021096795797348022,0.0164810661226511,-0.001118730055168271,0.0284331813454628
0.034812480211257935,0.004170417319983244,-0.02085684798657894,0.017180364578962326,-0.0010111884912475944,0.02836025133728981
0.03514574468135834,0.0038245024625211954,-0.020976155996322632,0.017859438434243202,-0.0008739036857150495,0.029358748346567154
0.034993235021829605,0.0037556313909590244,-0.02036355994641781,0.017646346241235733,-0.0007401803159154952,0.028845030814409256
0.03662204369902611,0.0038288291543722153,-0.020819805562496185,0.01701474003493786,-0.0006290486780926585,0.028235048055648804
0.03657129779458046,0.004305186681449413,-0.02139698714017868,0.01771571673452854,-0.0005512827192433178,0.027529286220669746
0.035203345119953156,0.0046000112779438496,-0.021166948601603508,0.01802932471036911,-0.0005626240163110197,0.027758333832025528
0.03461369872093201,0.004211191087961197,-0.020577412098646164,0.018078964203596115,-0.0005293912836350501,0.02889421582221985
0.03627553582191467,0.004241247195750475,-0.021180909126996994,0.018159424886107445,-0.0005424157716333866,0.0288133155554533
0.03657045587897301,0.004234042018651962,-0.021079251542687416,0.017896560952067375,-0.0005162719753570855,0.028960732743144035
0.036152977496385574,0.004070076625794172,-0.020552972331643105,0.01810111105442047,-0.0004782532050739974,0.028751317411661148
0.03617352619767189,0.004205562639981508,-0.02060648240149021,0.018331406638026237,-0.000503605930134654,0.02860732190310955
0.03662708401679993,0.004100669175386429,-0.02113407477736473,0.017513686791062355,-0.0004742728197015822,0.02808207832276821
0.0364205576479435,0.004314925987273455,-0.020992357283830643,0.017569726333022118,-0.0004346976929809898,0.028791852295398712
0.03659232333302498,0.004594198428094387,-0.020906254649162292,0.018292490392923355,-0.0004698619886767119,0.028791243210434914
0.0360969603061676,0.004682364873588085,-0.02105714939534664,0.01856124959886074,-0.0005042956909164786,0.028487414121627808
0.03622322157025337,0.004252298269420862,-0.021134648472070694,0.018555060029029846,-0.000520767061971128,0.028490297496318817
0.03622322157025337,0.004252298269420862,-0.021134648472070694,0.018555060029029846,-0.000520767061971128,0.028490297496318817
0.0363142192363739,0.003986911848187447,-0.021264253184199333,0.018110807985067368,-0.000500258116517216,0.028920726850628853
0.03621529042720795,0.004080325830727816,-0.02071365900337696,0.017615389078855515,-0.0006975533906370401,0.02922164648771286
0.03756556287407875,0.004256828688085079,-0.021364303305745125,0.018326522782444954,-0.0007943188538774848,0.029619507491588593
0.03734477981925011,0.0044424827210605145,-0.02159750647842884,0.01804625429213047,-0.0008044697460718453,0.027987362816929817
0.035282574594020844,0.004579593427479267,-0.021301288157701492,0.017936140298843384,-0.0007758623105473816,0.02988167107105255
0.035495657473802567,0.004454398527741432,-0.02058124542236328,0.017883222550153732,-0.0007413658313453197,0.03001144900918007
0.03661736100912094,0.0042597283609211445,-0.021134912967681885,0.017711792141199112,-0.0007380815222859383,0.02923627384006977
0.03786487504839897,0.00415812386199832,-0.02141321823000908,0.018145766109228134,-0.0006019187858328223,0.02957264520227909
0.03711789846420288,0.004124194383621216,-0.020676009356975555,0.018418526276946068,-0.0006293469341471791,0.029895314946770668
0.035900890827178955,0.004340892657637596,-0.02155553549528122,0.018680116161704063,-0.0006386926979757845,0.029379816725850105
0.036497749388217926,0.004584424197673798,-0.022425802424550056,0.018031129613518715,-0.0006624206434935331,0.02909504808485508
0.03764420375227928,0.004481054842472076,-0.022150307893753052,0.018283775076270103,-0.0006309991586022079,0.030759297311306
0.03746525198221207,0.004292309284210205,-0.021190935745835304,0.018429996445775032,-0.0006281447131186724,0.03103967197239399
0.037063151597976685,0.004079423379153013,-0.022236747667193413,0.018419183790683746,-0.0006514657288789749,0.03018103539943695
0.03716889023780823,0.004204240627586842,-0.02175006829202175,0.018548602238297462,-0.000678167212754488,0.028916358947753906
0.03722395375370979,0.004137156996876001,-0.02130897156894207,0.017852652817964554,-0.0007001296035014093,0.029584037140011787
0.037341613322496414,0.00435278657823801,-0.021353835240006447,0.017680037766695023,-0.0008292202837765217,0.030512338504195213
0.03742951154708862,0.004616227466613054,-0.022158285602927208,0.018271472305059433,-0.0008837172063067555,0.03042667731642723
0.037182681262493134,0.004177376162260771,-0.021979236975312233,0.01793445460498333,-0.0007778024300932884,0.031355440616607666
0.037685610353946686,0.004284200258553028,-0.021398624405264854,0.01783066987991333,-0.0007859165780246258,0.031351104378700256
0.03802992030978203,0.004154865629971027,-0.021240683272480965,0.018330996856093407,-0.0007531474693678319,0.03028205782175064
0.03802992030978203,0.004154865629971027,-0.021240683272480965,0.018330996856093407,-0.0007531474693678319,0.03028205782175064
0.03805384412407875,0.003982181195169687,-0.021814625710248947,0.017943335697054863,-0.0007213745266199112,0.029567770659923553
0.03830750286579132,0.004122363403439522,-0.021593626588582993,0.01815304346382618,-0.0006740534445270896,0.02998099848628044
0.03840373456478119,0.0040213121101260185,-0.021214550361037254,0.01813424378633499,-0.0006041938904672861,0.03144680708646774
0.03835489600896835,0.004423307720571756,-0.021165916696190834,0.018070725724101067,-0.0006253704777918756,0.031238500028848648
0.03834572434425354,0.0045539094135165215,-0.02158363349735737,0.01872039958834648,-0.000617434096056968,0.031073201447725296
0.038448233157396317,0.004320859909057617,-0.02192111127078533,0.018252259120345116,-0.0006005683680996299,0.0318642184138298
0.03837139159440994,0.004050000570714474,-0.021968720480799675,0.01825634017586708,-0.0006238542846404016,0.03144269064068794
0.03882273659110069,0.0043562320061028,-0.02166159078478813,0.019042430445551872,-0.0006500534946098924,0.030966773629188538
0.03855198994278908,0.0041693998500704765,-0.021834807470440865,0.01967582106590271,-0.0006898744613863528,0.03099057450890541
0.03902703896164894,0.004544470924884081,-0.021736295893788338,0.019258378073573112,-0.0007631625048816204,0.031050290912389755
0.03868488594889641,0.004230309743434191,-0.021298257634043694,0.018787650391459465,-0.0009657329646870494,0.03132407367229462
0.03911620005965233,0.004391615744680166,-0.022067228332161903,0.018181122839450836,-0.0009955106070265174,0.031299084424972534
0.039436422288417816,0.004149043932557106,-0.022257812321186066,0.019321486353874207,-0.0008769600535742939,0.031503766775131226
0.03869209066033363,0.003986202646046877,-0.02200404554605484,0.019266625866293907,-0.0008644947083666921,0.03187534958124161
0.0387449637055397,0.004012997727841139,-0.021606698632240295,0.019176853820681572,-0.0008258406305685639,0.03157416731119156
0.04048711806535721,0.00394840445369482,-0.021483587101101875,0.019480496644973755,-0.0007839006138965487,0.03144034370779991
0.04003950580954552,0.004384883679449558,-0.02197081223130226,0.01937524601817131,-0.0007096898043528199,0.031925100833177567
0.03807706758379936,0.004260155837982893,-0.021843530237674713,0.01930784247815609,-0.000615907774772495,0.03209049254655838
0.03918444737792015,0.004006154835224152,-0.021453503519296646,0.01981954276561737,-0.0006330989999696612,0.03212655708193779
0.03972800821065903,0.004085571505129337,-0.021612942218780518,0.019587330520153046,-0.0006240569637157023,0.03223518282175064
0.04068051651120186,0.003948136232793331,-0.022146789357066154,0.019034693017601967,-0.0006063815671950579,0.03266201540827751
0.041384462267160416,0.0038195806555449963,-0.02206270955502987,0.019317293539643288,-0.0005939892143942416,0.03276050090789795
0.039578892290592194,0.004295793827623129,-0.02161865122616291,0.019107772037386894,-0.0005810139118693769,0.032303471118211746
0.03886031731963158,0.00416984548792243,-0.02138100564479828,0.019223803654313087,-0.0006541077746078372,0.03410044685006142
0.040644362568855286,0.004480940289795399,-0.022244274616241455,0.019695529714226723,-0.000697003270033747,0.03471061587333679
0.04084564372897148,0.004154978785663843,-0.02245303988456726,0.019915128126740456,-0.0006746173021383584,0.033183503895998
0.04079531505703926,0.00387874455191195,-0.021626628935337067,0.019357943907380104,-0.0006950473762117326,0.031230799853801727
0.04079531505703926,0.00387874455191195,-0.021626628935337067,0.019357943907380104,-0.0006950473762117326,0.031230799853801727
0.04028550162911415,0.004269280470907688,-0.021919844672083855,0.01957676187157631,-0.0006733851623721421,0.032287295907735825
0.04054157808423042,0.004160626791417599,-0.022469986230134964,0.019356487318873405,-0.0007630967302247882,0.03270077332854271
0.0407307930290699,0.0041753132827579975,-0.023117072880268097,0.01904466189444065,-0.0008623089524917305,0.03315605968236923
0.04095974937081337,0.003936483524739742,-0.02259032242000103,0.01965411938726902,-0.000901873572729528,0.03422887623310089
0.04054374620318413,0.003964649513363838,-0.022562453523278236,0.019696088507771492,-0.0009876847034320235,0.03371230512857437
0.041909728199243546,0.003917211201041937,-0.022036831825971603,0.019415266811847687,-0.0010771563975140452,0.03292711824178696
0.042016368359327316,0.0043018413707613945,-0.022074542939662933,0.01972939446568489,-0.0010535622714087367,0.03215339407324791
0.03936522454023361,0.004189256578683853,-0.02316257730126381,0.019664600491523743,-0.0009342876146547496,0.03367587924003601
0.041051995009183884,0.0043020304292440414,-0.022003967314958572,0.019738582894206047,-0.000850257754791528,0.03420524671673775
0.04248272255063057,0.0040125721134245396,-0.02272670902311802,0.019718928262591362,-0.0007442178321070969,0.03380613401532173
0.04233621060848236,0.0043570068664848804,-0.023282526060938835,0.019773384556174278,-0.0007498389459215105,0.03301655501127243
0.041194405406713486,0.004192615859210491,-0.023225460201501846,0.019963743165135384,-0.0007528873393312097,0.033799149096012115
