davideferrari95/blind_handover_controller/data/Test 174 - [2024-02-08 -- 11-15-01]/joint_states_data.csv
shoulder_pan_joint,shoulder_lift_joint,elbow_joint,wrist_1_joint,wrist_2_joint,wrist_3_joint
-0.005491398740559816,-0.01608377695083618,-5.863057150889972e-09,0.01456831581890583,-0.0,-0.00413288502022624
-0.0050709908828139305,-0.015325780026614666,-7.866039070103525e-11,0.014534788206219673,-0.0,-0.004405316896736622
-0.0050709908828139305,-0.015325780026614666,-7.866039070103525e-11,0.014534788206219673,-0.0,-0.004405316896736622
-0.005271000321954489,-0.015380618162453175,-1.0553295433715637e-12,0.014778376556932926,-0.0,-0.004355140030384064
-0.0049832481890916824,-0.016037046909332275,-1.4158591088290519e-14,0.01506776176393032,-0.0,-0.0044471872970461845
-0.004358931444585323,-0.01603350229561329,-1.899555558116902e-16,0.01534517016261816,-0.0,-0.0042780363000929356
-0.004241156857460737,-0.016154654324054718,-2.548496524776116e-18,0.01502225175499916,-0.0,-0.0036851046606898308
-0.004487295169383287,-0.016291610896587372,-3.41913296741204e-20,0.014938500709831715,-0.0,-0.0035314045380800962
-0.004705358296632767,-0.015675745904445648,-4.587203192230624e-22,0.014803921803832054,-0.0,-0.00369829754345119
-0.004713825881481171,-0.016132744029164314,-6.154318862465259e-24,0.015560784377157688,-0.0,-0.00411949073895812
-0.004742427729070187,-0.015611808747053146,-8.256804949341368e-26,0.015500027686357498,-0.0,-0.004315169528126717
-0.004742427729070187,-0.015611808747053146,-8.256804949341368e-26,0.015500027686357498,-0.0,-0.004315169528126717
-0.004500359762459993,-0.015665043145418167,-1.1077557113371698e-27,0.01585039682686329,-0.0,-0.004118065349757671
-0.004562724847346544,-0.01512344554066658,-1.486195600953666e-29,0.01528581790626049,-0.0,-0.003922346513718367
-0.004291160497814417,-0.015209471806883812,-2.6750996774731424e-33,0.014965597540140152,-0.0,-0.0034093677531927824
-0.0041480157524347305,-0.015931405127048492,-3.5889874390956933e-35,0.015132931061089039,-0.0,-0.0035679989960044622
-0.004332478158175945,-0.015694083645939827,-4.815085282758855e-37,0.015405905432999134,-0.0,-0.004006683826446533
-0.004492658190429211,-0.014859548769891262,-6.460050380266766e-39,0.01573885977268219,-0.0,-0.0042275027371943
-0.004077475052326918,-0.01535614300519228,-8.667031001848994e-41,0.015026246197521687,-0.0,-0.004014917649328709
-0.003921939060091972,-0.015066522173583508,-1.1630777253895982e-42,0.014913377352058887,-0.0,-0.003860430559143424
-0.0038781827315688133,-0.015425775200128555,-1.5414283107572988e-44,0.014798187650740147,-0.0,-0.003751911222934723
-0.004324545152485371,-0.01531418226659298,-0.0,0.014406951144337654,-0.0,-0.0038135393988341093
-0.004161117598414421,-0.01610291562974453,-0.0,0.014289462007582188,-0.0,-0.0041408599354326725
-0.004443187732249498,-0.015134691260755062,-0.0,0.014512697234749794,-0.0,-0.00414050230756402
-0.004216845612972975,-0.015254860743880272,-0.0,0.01459544524550438,-0.0,-0.003933414351195097
-0.003971298690885305,-0.014414346776902676,-0.0,0.014964806847274303,-0.0,-0.0037773209623992443
-0.0038368075620383024,-0.015211643651127815,-0.0,0.015220659784972668,-0.0,-0.004106247331947088
-0.0038225383032113314,-0.014884925447404385,-0.0,0.014930425211787224,-0.0,-0.004062510095536709
-0.003801847342401743,-0.015617480501532555,-0.0,0.014680451713502407,-0.0,-0.004409256856888533
-0.0037735230289399624,-0.015637444332242012,-0.0,0.015034779906272888,-0.0,-0.004218120593577623
-0.00377196935005486,-0.015926050022244453,-0.0,0.015759553760290146,-0.0,-0.00427342439070344
-0.003778209211304784,-0.0153603320941329,-0.0,0.01580251380801201,-0.0,-0.0043222373351454735
-0.004097822122275829,-0.014938960783183575,-0.0,0.01592283882200718,-0.0,-0.004046974703669548
-0.003976309671998024,-0.015107851475477219,-0.0,0.015309593640267849,-0.0,-0.0038760907482355833
-0.003761300351470709,-0.014987420290708542,-0.0,0.015849217772483826,-0.0,-0.0041615902446210384
-0.0037909611128270626,-0.014983189292252064,-0.0,0.01535082422196865,-0.0,-0.004121781792491674
-0.0037909611128270626,-0.014983189292252064,-0.0,0.01535082422196865,-0.0,-0.004121781792491674
-0.004025147762149572,-0.015170557424426079,-0.0,0.01422218419611454,-0.0,-0.0041723959147930145
-0.004025147762149572,-0.015170557424426079,-0.0,0.01422218419611454,-0.0,-0.0041723959147930145
-0.0038782223127782345,-0.014790086075663567,-0.0,0.01441696472465992,-0.0,-0.0040052044205367565
-0.0038625402376055717,-0.015173293650150299,-0.0,0.014611813239753246,-0.0,-0.004306556656956673
-0.004227516241371632,-0.01477337907999754,-0.0,0.01445979904383421,-0.0,-0.004154740832746029
-0.0039714546874165535,-0.014644146896898746,-0.0,0.014688508585095406,-0.0,-0.004452705383300781
-0.0039714546874165535,-0.014644146896898746,-0.0,0.014688508585095406,-0.0,-0.004452705383300781
-0.003844435326755047,-0.014557956717908382,-0.0,0.014368628151714802,-0.0,-0.0038571141194552183
-0.00399220734834671,-0.01491311751306057,-0.0,0.014244318008422852,-0.0,-0.003980905748903751
-0.0039282301440835,-0.01470888964831829,-0.0,0.014664906077086926,-0.0,-0.004004113841801882
-0.003853307571262121,-0.015477406792342663,-0.0,0.014371739700436592,-0.0,-0.0038785934448242188
-0.003732780460268259,-0.014692679047584534,-0.0,0.014431528747081757,-0.0,-0.004298187792301178
-0.0036813230253756046,-0.01492651179432869,-0.0,0.014231527224183083,-0.0,-0.0045689125545322895
-0.0036969471257179976,-0.01425942126661539,-0.0,0.014385403133928776,-0.0,-0.0044012474827468395
-0.0033519959542900324,-0.015032933093607426,-0.0,0.013692772947251797,-0.0,-0.004027295392006636
-0.003449073527008295,-0.01442207396030426,-0.0,0.014452693052589893,-0.0,-0.0038044098764657974
-0.0031976657919585705,-0.014944122172892094,-0.0,0.014130617491900921,-0.0,-0.003805413143709302
-0.003355800174176693,-0.014608428813517094,-0.0,0.014501908794045448,-0.0,-0.0038718373980373144
-0.0035921467933803797,-0.014893310144543648,-0.0,0.013781053014099598,-0.0,-0.0039003444835543633
-0.003718310734257102,-0.014162106439471245,-0.0,0.014145025052130222,-0.0,-0.00443640211597085
-0.0036064262967556715,-0.014594700187444687,-0.0,0.014007428660988808,-0.0,-0.0045819212682545185
-0.0035323977936059237,-0.01436369027942419,-0.0,0.014630865305662155,-0.0,-0.0045668925158679485
-0.0035595474764704704,-0.014830133877694607,-0.0,0.014094403013586998,-0.0,-0.004197391681373119
-0.0034882009495049715,-0.014273055829107761,-0.0,0.014187433756887913,-0.0,-0.00423651235178113
-0.0033695478923618793,-0.01478850468993187,-0.0,0.013779524713754654,-0.0,-0.004263474605977535
-0.003568974556401372,-0.01441127248108387,-0.0,0.014104347676038742,-0.0,-0.0040970309637486935
-0.003771741408854723,-0.014382503926753998,-0.0,0.013775733299553394,-0.0,-0.0042611658573150635
-0.0038836910389363766,-0.013681636191904545,-0.0,0.014347591437399387,-0.0,-0.004333066288381815
-0.003448536153882742,-0.014478757977485657,-0.0,0.014290655963122845,-0.0,-0.0044716340489685535
-0.003448536153882742,-0.014478757977485657,-0.0,0.014290655963122845,-0.0,-0.0044716340489685535
-0.0032821090426295996,-0.014172797091305256,-0.0,0.014810623601078987,-0.0,-0.004527269396930933
-0.0033712671138346195,-0.014548108913004398,-0.0,0.014030682854354382,-0.0,-0.004548246972262859
-0.003299268428236246,-0.014501124620437622,-0.0,0.013413041830062866,-0.0,-0.004036141559481621
-0.0030324370600283146,-0.013810193166136742,-0.0,0.014180317521095276,-0.0,-0.004352041985839605
-0.0032457683701068163,-0.013894377276301384,-0.0,0.014100851491093636,-0.0,-0.004534080624580383
-0.0032739387825131416,-0.01360951829701662,-0.0,0.01456337422132492,-0.0,-0.004844088573008776
-0.0034924368374049664,-0.014130516909062862,-0.0,0.013998045586049557,-0.0,-0.0047534615732729435
-0.0036416184157133102,-0.01384893897920847,-0.0,0.014236846938729286,-0.0,-0.004388502798974514
-0.0037491782568395138,-0.014224047772586346,-0.0,0.01374376192688942,-0.0,-0.003977588377892971
-0.003366427030414343,-0.013243327848613262,-0.0,0.014159093610942364,-0.0,-0.004151571542024612
-0.0034658443182706833,-0.013724945485591888,-0.0,0.013945826329290867,-0.0,-0.004226920194923878
-0.0030382974073290825,-0.013388787396252155,-0.0,0.014293869026005268,-0.0,-0.004310570191591978
-0.003039625706151128,-0.01377336960285902,-0.0,0.014182532206177711,-0.0,-0.00424334267154336
-0.0034244866110384464,-0.013070760294795036,-0.0,0.014098971150815487,-1.4091135653870879e-06,-0.004336152225732803
-0.003716172883287072,-0.013387959450483322,-0.0,0.013722145929932594,-9.200504536011067e-08,-0.004586612805724144
-0.003417286556214094,-0.013553479686379433,-0.0,0.013841642998158932,-6.007272013164311e-09,-0.004505954682826996
-0.00299041997641325,-0.012728332541882992,-0.0,0.013750589452683926,-3.9223196912629987e-10,-0.004527329932898283
-0.002820584923028946,-0.01307240966707468,-0.0,0.01335561741143465,-2.5609944720450528e-11,-0.004531539510935545
-0.002934940392151475,-0.012786787003278732,-0.0,0.01352010015398264,-1.6721463623470267e-12,-0.004761454649269581
-0.0032276525162160397,-0.012883618474006653,-0.0,0.013552861288189888,-1.0917919942687176e-13,-0.004381363280117512
-0.0032473893370479345,-0.01270511094480753,-0.0,0.01373056136071682,-7.128621660795666e-15,-0.004453207366168499
-0.0029864972457289696,-0.013112417422235012,-0.0,0.013662425801157951,-4.654480455875863e-16,-0.004587769974023104
-0.0031610738951712847,-0.012703071348369122,-0.0,0.014072165824472904,-3.0390430416741025e-17,-0.00467543164268136
-0.0028773974627256393,-0.01283964328467846,-0.0,0.013805977068841457,-1.9842780765197677e-18,-0.004702244885265827
-0.0030815082136541605,-0.012855864129960537,-0.0,0.01396676804870367,-1.2955917969386106e-19,-0.004701643250882626
-0.00345394155010581,-0.01292791124433279,-0.0,0.013162896037101746,-8.459288550069981e-21,-0.004681694786995649
-0.002952256705611944,-0.012494830414652824,-0.0,0.01333184726536274,-5.523311233189507e-22,-0.004582753870636225
-0.002952256705611944,-0.012494830414652824,-0.0,0.01333184726536274,-5.523311233189507e-22,-0.004582753870636225
-0.002700677840039134,-0.012536645866930485,-0.0,0.01300528272986412,-3.6063274842270654e-23,-0.0046539101749658585
-0.0026621154975146055,-0.013048741035163403,-0.0,0.013445449061691761,-2.3546744658682716e-24,-0.004653850570321083
-0.0029090819880366325,-0.01266407873481512,-0.00010428052337374538,0.013655162416398525,6.5518975134182256e-06,-0.0047341203317046165
-0.00278241909109056,-0.012355875223875046,-0.00010216495138593018,0.01331915520131588,0.00023272598627954721,-0.004847551696002483
-0.002840204630047083,-0.012604553252458572,-9.990030957851559e-05,0.013310758396983147,0.00023533418425358832,-0.004521822091192007
-0.00284055108204484,-0.012205913662910461,-9.773069177754223e-05,0.013197509571909904,0.00025770615320652723,-0.004536344204097986
-0.0025715031661093235,-0.01261084619909525,-9.565334767103195e-05,0.012947519309818745,0.0002559602726250887,-0.0043417164124548435
-0.002621815539896488,-0.013052116148173809,-9.366237645735964e-05,0.012871692888438702,0.00024502750602550805,-0.0044763581827282906
-0.0027697328478097916,-0.012518524192273617,-9.175272134598345e-05,0.01269177719950676,0.00023443260579369962,-0.004983038175851107
-0.002797953085973859,-0.012847433798015118,-8.991936192614958e-05,0.013031513430178165,0.0002523543080314994,-0.004953443538397551
-0.002629630733281374,-0.01222975179553032,-0.00010554806067375466,0.01281004585325718,0.0002510153572075069,-0.004546984098851681
-0.0027472958900034428,-0.012633588165044785,-0.00010375351848779246,0.01278887502849102,0.00024194372235797346,-0.004507238510996103
-0.0026229771319776773,-0.013021816499531269,-0.00010180072422372177,0.012591186910867691,0.00024933385429903865,-0.004587018862366676
-0.002623650012537837,-0.01260695792734623,-9.991712431656197e-05,0.012616545893251896,0.0002557135885581374,-0.0047871628776192665
-0.0026627257466316223,-0.012978238984942436,-0.00011254099081270397,0.012680375017225742,0.00024790375027805567,-0.004726318642497063
-0.0027441191487014294,-0.01259344071149826,-0.00011238468869123608,0.012370914220809937,0.0003202735970262438,-0.004753662273287773
-0.002521280664950609,-0.013013636693358421,-0.00011043927952414379,0.01242915727198124,0.00032374431611970067,-0.005024287849664688
-0.002583767520263791,-0.012509368360042572,-0.00010853699495783076,0.011966886930167675,0.0003331381012685597,-0.004523028153926134
-0.0026656959671527147,-0.012925775721669197,-0.00010669880430214107,0.012108663097023964,0.00033940127468667924,-0.00452205166220665
-0.002511498285457492,-0.012662009336054325,-0.00010492193541722372,0.011865104548633099,0.0003209998831152916,-0.0046174898743629456
-0.002599484520033002,-0.012681039981544018,-0.00011735803127521649,0.012209615670144558,0.0003467948699835688,-0.0050139413215219975
-0.0027112967800348997,-0.012087209150195122,-0.00011603757593547925,0.012439253740012646,0.00033437099773436785,-0.004938924219459295
-0.002473254222422838,-0.012467731721699238,-0.00011420476948842406,0.011986115016043186,0.00035720496089197695,-0.004808219149708748
-0.002523448783904314,-0.012970955111086369,-0.00011242157052038237,0.01201675646007061,0.00034547242103144526,-0.004838890861719847
-0.0024584089405834675,-0.01269392017275095,-0.00011069343599956483,0.011592969298362732,0.00033158736187033355,-0.004779415670782328
-0.0024584089405834675,-0.01269392017275095,-0.00011069343599956483,0.011592969298362732,0.00033158736187033355,-0.004779415670782328
-0.0023655479308217764,-0.013150635175406933,-0.00018274788453709334,0.011732335202395916,0.0004234239459037781,-0.0048984927125275135
-0.0023585325106978416,-0.012843212112784386,-0.00017853840836323798,0.012474621646106243,0.0003943742485716939,-0.0048087784089148045
-0.002414153655990958,-0.013087373226881027,-0.0001717643317533657,0.01199757494032383,0.0004305184702388942,-0.004727011080831289
-0.0022684147115796804,-0.012842203490436077,-0.00018717115744948387,0.011968600563704967,0.00040282029658555984,-0.004813031293451786
-0.0024921440053731203,-0.012892522849142551,-0.00019134560716338456,0.011694511398673058,0.00043324404396116734,-0.00474768178537488
-0.002213590545579791,-0.012883384712040424,-0.00018493727839086205,0.01202358864247799,0.0004373359552118927,-0.004423004109412432
-0.0023865539114922285,-0.013117345049977303,-0.00019203222473151982,0.011424803175032139,0.00048332542064599693,-0.004884928930550814
-0.0022670782636851072,-0.012507811188697815,-0.00019552724552340806,0.012110522016882896,0.0004977288190275431,-0.004764148965477943
-0.002493847394362092,-0.013034727424383163,-0.00018976416322402656,0.011645874008536339,0.00045213199337013066,-0.004769518040120602
-0.00220593367703259,-0.012524661608040333,-0.00018421682761982083,0.011857906356453896,0.00048737795441411436,-0.004952071700245142
-0.0022817098069936037,-0.01269241701811552,-0.0002041997213382274,0.0115049472078681,0.00045159089495427907,-0.005189050454646349
-0.002467683283612132,-0.012551825493574142,-0.00019889669783879071,0.01132380124181509,0.00045068495091982186,-0.005202342756092548
-0.002354142488911748,-0.012576407752931118,-0.00019355429685674608,0.01128808781504631,0.0004492972220759839,-0.005261716432869434
-0.0024801427498459816,-0.012776454910635948,-0.00018848727631848305,0.01112684141844511,0.0004212548956274986,-0.004958320874720812
-0.002323074731975794,-0.012538631446659565,-0.0002501406997907907,0.011527342721819878,0.00043650215957313776,-0.005188948009163141
-0.0024475017562508583,-0.01296903844922781,-0.0002684359787963331,0.012042829766869545,0.0004237832617945969,-0.005479077808558941
-0.0023832402657717466,-0.012674864381551743,-0.00025374427787028253,0.011433579958975315,0.0004023672081530094,-0.005399836227297783
-0.002284325659275055,-0.012757147662341595,-0.00028627197025343776,0.011489165015518665,0.0004045616078656167,-0.005347168538719416
-0.002266200026497245,-0.012589609250426292,-0.0002736106398515403,0.010834301821887493,0.0004096227348782122,-0.005033351480960846
-0.0020036788191646338,-0.012666582129895687,-0.00029869156423956156,0.01096461433917284,0.00041146547300741076,-0.00443603191524744
-0.0020100597757846117,-0.012734214775264263,-0.00028979431954212487,0.011076402850449085,0.00044390876428224146,-0.0046002562157809734
-0.0020928257144987583,-0.01253534760326147,-0.0002771129074972123,0.010790454223752022,0.0004701263678725809,-0.0050590611062943935
-0.002302096225321293,-0.012846104800701141,-0.0002988688356708735,0.010863145813345909,0.0004488039412535727,-0.004948216024786234
-0.0022964896634221077,-0.012333265505731106,-0.00029103041742928326,0.010706375353038311,0.0006363352295011282,-0.005131919868290424
-0.0022321685682982206,-0.01255962997674942,-0.0002802471281029284,0.010305037721991539,0.000655314710456878,-0.004914007615298033
-0.0020968359895050526,-0.012436309829354286,-0.0003979720931965858,0.010689442977309227,0.0006079499144107103,-0.004361407365649939
-0.0020169042982161045,-0.012774630449712276,-0.00041534140473231673,0.010795682668685913,0.0006264859111979604,-0.004417387768626213
-0.002196667017415166,-0.012175746262073517,-0.000407274259487167,0.011304590851068497,0.0006195633322931826,-0.004636013880372047
-0.0019807848148047924,-0.012175547890365124,-0.0003789974725805223,0.01078918855637312,0.0006044537876732647,-0.005190008785575628
-0.002069940324872732,-0.012697607278823853,-0.0004123156832065433,0.010454156436026096,0.0006454091053456068,-0.005123357754200697
-0.002069940324872732,-0.012697607278823853,-0.0004123156832065433,0.010454156436026096,0.0006454091053456068,-0.005123357754200697
-0.0019191880710422993,-0.011974736116826534,-0.00038771951221860945,0.010235152207314968,0.0006849284982308745,-0.005271650850772858
-0.002053322969004512,-0.012221062555909157,-0.00041668512858450413,0.010436587035655975,0.0007590629393234849,-0.005032914690673351
-0.002011849544942379,-0.012384903617203236,-0.00039454037323594093,0.010245973244309425,0.000732538232114166,-0.005151093006134033
-0.002010826487094164,-0.012005933560431004,-0.00048691450501792133,0.010422032326459885,0.0009144855430349708,-0.004999337252229452
-0.0018845389131456614,-0.01188577525317669,-0.0004529323778115213,0.010023131035268307,0.0009298352524638176,-0.005170577205717564
-0.0017241541063413024,-0.012220816686749458,-0.0004525527765508741,0.010084235109388828,0.0008784193778410554,-0.005287914536893368
-0.0019400727469474077,-0.01164182461798191,-0.00047879747580736876,0.01034074928611517,0.0008281642803922296,-0.005089121405035257
-0.002006344962865114,-0.012006294913589954,-0.00045209325617179275,0.00974111258983612,0.0007665239972993731,-0.004724894650280476
-0.002042087260633707,-0.01187409833073616,-0.000461317365989089,0.009680133312940598,0.0006750069442205131,-0.0048862844705581665
-0.001932600629515946,-0.012203098274767399,-0.0004516392946243286,0.009467728435993195,0.000696915783919394,-0.005297231022268534
-0.0019257693784311414,-0.012026533484458923,-0.0004252198268659413,0.009088019840419292,0.0007128255092538893,-0.005240544211119413
-0.0017702548066154122,-0.011296670883893967,-0.00040406829793937504,0.009801479056477547,0.000696399889420718,-0.005397205241024494
-0.0018008920596912503,-0.01191022340208292,-0.00042459365795366466,0.009269763715565205,0.0006724745035171509,-0.0050704893656075
-0.0019446443766355515,-0.011364132165908813,-0.00045701698400080204,0.009323928505182266,0.0007061102660372853,-0.004952693358063698
-0.0022062608040869236,-0.011537193320691586,-0.00042922707507386804,0.009740928187966347,0.0007403900963254273,-0.005159043241292238
-0.0022231601178646088,-0.012007179670035839,-0.00046304549323394895,0.009720107540488243,0.0007528616697527468,-0.005022848024964333
-0.0019434834830462933,-0.01111587230116129,-0.00048648996744304895,0.009644008241593838,0.0007684181910008192,-0.005533440969884396
-0.0017636605771258473,-0.011412129737436771,-0.0004620979889295995,0.008697950281202793,0.0009309431188739836,-0.005438540130853653
-0.0017120925476774573,-0.011464660987257957,-0.0006293272599577904,0.007996750064194202,0.0011012855684384704,-0.005759811494499445
-0.001606153673492372,-0.01111134048551321,-0.0006578884785994887,0.007808152586221695,0.0010728309862315655,-0.005430081859230995
-0.0016386689385399222,-0.011542867869138718,-0.0005972873186692595,0.0077601950615644455,0.0010050220880657434,-0.005276794545352459
-0.0016762744635343552,-0.010871313512325287,-0.0006237488123588264,0.008544258773326874,0.0009395936504006386,-0.00521427346393466
-0.0016762744635343552,-0.010871313512325287,-0.0006237488123588264,0.008544258773326874,0.0009395936504006386,-0.00521427346393466
-0.0017275323625653982,-0.011115452274680138,-0.0006237678462639451,0.008519587107002735,0.0009324147249571979,-0.00525980768725276
-0.0016137249767780304,-0.01076197624206543,-0.0005976466345600784,0.00818714965134859,0.0009229531278833747,-0.005396444816142321
-0.0015097939176484942,-0.01126131135970354,-0.0006953011616133153,0.008352688513696194,0.0008349712006747723,-0.005460801534354687
-0.0015086381463333964,-0.010961756110191345,-0.0007076290785335004,0.008101923391222954,0.0008350022253580391,-0.005135296378284693
-0.0013971294974908233,-0.010559901595115662,-0.0007272459915839136,0.008105755783617496,0.0008071897318586707,-0.004865785129368305
-0.0014340433990582824,-0.010963227599859238,-0.000677385542076081,0.009112663567066193,0.0008895471692085266,-0.005200687795877457
-0.0013872039271518588,-0.010453750379383564,-0.0009180851629935205,0.008756807073950768,0.0008956103702075779,-0.005186138674616814
-0.0014858493814244866,-0.010929952375590801,-0.0009182404028251767,0.008463484235107899,0.0010195558425039053,-0.005876145791262388
-0.0014260569587349892,-0.011113209649920464,-0.0009252720628865063,0.00877731665968895,0.0011394682805985212,-0.005485546309500933
-0.0015029485803097486,-0.01062840037047863,-0.0010024507064372301,0.009017073549330235,0.001117407577112317,-0.0053349947556853294
-0.0014269648818299174,-0.01079561561346054,-0.0010458332253620028,0.008460820652544498,0.0010579876834526658,-0.005429563112556934
-0.0014436306664720178,-0.010797929018735886,-0.0010347438510507345,0.008382000960409641,0.0009619174525141716,-0.005342851858586073
-0.0013481772039085627,-0.01087961345911026,-0.0010054406011477113,0.00806453824043274,0.0009643335943110287,-0.005871586501598358
-0.0012698464561253786,-0.011351061053574085,-0.000981418532319367,0.008120736107230186,0.0008846673299558461,-0.005641052033752203
-0.00121282075997442,-0.010320362634956837,-0.0009532788535580039,0.007946757599711418,0.0008733071736060083,-0.005389451514929533
-0.001190664479508996,-0.010277075693011284,-0.0009448530618101358,0.00824179407209158,0.0008757025934755802,-0.00513500114902854
-0.0012580616166815162,-0.010783680714666843,-0.0009388377657160163,0.00842936709523201,0.0008679541060701013,-0.005722836125642061
-0.001205194159410894,-0.01013522781431675,-0.0009896804112941027,0.007638873532414436,0.0008845215779729187,-0.005872733891010284
-0.0011559707345440984,-0.010682040825486183,-0.0010151918977499008,0.006988754961639643,0.0008963780128397048,-0.006193128414452076
-0.0010678410762920976,-0.010742096230387688,-0.0009972414700314403,0.007463941350579262,0.0008896599756553769,-0.00566844642162323
-0.0010445377556607127,-0.010223109275102615,-0.000983787002041936,0.007561294361948967,0.0009062961325980723,-0.005760559346526861
-0.0009868275374174118,-0.010739144869148731,-0.000986934290267527,0.0073593417182564735,0.0009606255334801972,-0.005797769874334335
-0.0009741743560880423,-0.010387156158685684,-0.001009160652756691,0.007475343067198992,0.0009193511796183884,-0.006045288406312466
-0.0009089799714274704,-0.01028550136834383,-0.0009922200115397573,0.007658023852854967,0.0008560730493627489,-0.0057373493909835815
-0.0009486506460234523,-0.010647010989487171,-0.0009795023361220956,0.007430532015860081,0.0008646531496196985,-0.0057212053798139095
-0.0009486506460234523,-0.010647010989487171,-0.0009795023361220956,0.007430532015860081,0.0008646531496196985,-0.0057212053798139095
-0.0008568580960854888,-0.01039555761963129,-0.0010466856183484197,0.0073405238799750805,0.0010673219803720713,-0.005576645024120808
-0.0008492378401570022,-0.010366029106080532,-0.001023394288495183,0.007066723890602589,0.0013642989797517657,-0.005870656576007605
-0.0007768085924908519,-0.010067018680274487,-0.0010095934849232435,0.007161135319620371,0.0015322117833420634,-0.00589398480951786
-0.0007599412929266691,-0.010756941512227058,-0.001006038743071258,0.006903508678078651,0.0014812886947765946,-0.005809114780277014
-0.0007599412929266691,-0.010756941512227058,-0.001006038743071258,0.006903508678078651,0.0014812886947765946,-0.005809114780277014
-0.0007740573491901159,-0.009990821592509747,-0.0009891930967569351,0.006895643193274736,0.0014508271124213934,-0.006053258664906025
-0.0007799719460308552,-0.010121605359017849,-0.0009769618045538664,0.0071130613796412945,0.0013517752522602677,-0.0061902692541480064
-0.0007134554907679558,-0.010050119832158089,-0.0008664134657010436,0.00645786477252841,0.0011815251782536507,-0.005665317643433809
-0.0007452024728991091,-0.010232217609882355,-0.0007968029822222888,0.006313725374639034,0.0010559193324297667,-0.005765021312981844
-0.0006437961710616946,-0.009911802597343922,-0.0008072918280959129,0.006326575297862291,0.0010239112889394164,-0.005691493861377239
-0.0006741278921253979,-0.009703202173113823,-0.0008098767139017582,0.006926867179572582,0.0009408956975676119,-0.006000618916004896
-0.000665641447994858,-0.009905765764415264,-0.0007964904652908444,0.007260308600962162,0.000923092185985297,-0.005608254577964544
-0.0006300832028500736,-0.011138071306049824,-0.0007573755574412644,0.0070295133627951145,0.0008609159267507493,-0.005967394914478064
-0.0006300832028500736,-0.011138071306049824,-0.0007573755574412644,0.0070295133627951145,0.0008609159267507493,-0.005967394914478064
-0.0006002637092024088,-0.00876681599766016,-0.0008972998475655913,0.006413810886442661,0.0009680017828941345,-0.00580690149217844
-0.0005730869597755373,-0.009518032893538475,-0.0009068389190360904,0.006511368323117495,0.001327847596257925,-0.006305323913693428
-0.0005194025579839945,-0.010090634226799011,-0.0010589022422209382,0.006587260868400335,0.0013359339209273458,-0.006115998141467571
-0.000465778517536819,-0.00894108135253191,-0.0010546279372647405,0.005949688609689474,0.0012631826102733612,-0.00615640077739954
-0.0004770538944285363,-0.009094120934605598,-0.000983513193204999,0.005619529634714127,0.0011160068679600954,-0.006017537787556648
-0.00046264371485449374,-0.0093427998945117,-0.0008889823802746832,0.006264553405344486,0.00098473543766886,-0.005866806022822857
-0.00047284114407375455,-0.008963518775999546,-0.0008860084926709533,0.006208196748048067,0.0010397507576271892,-0.006147332489490509
-0.00046077813021838665,-0.008723708800971508,-0.0008029980817809701,0.005672483239322901,0.0010231751948595047,-0.005996065679937601
-0.0004296497208997607,-0.008966327644884586,-0.000779954541940242,0.005098231136798859,0.0010389095405116677,-0.006152560003101826
-0.0004296497208997607,-0.008966327644884586,-0.000779954541940242,0.005098231136798859,0.0010389095405116677,-0.006152560003101826
-0.0004022170905955136,-0.008880631998181343,-0.0007955385954119265,0.004870434291660786,0.0010820376919582486,-0.006043063476681709
-0.00037807595799677074,-0.00868198275566101,-0.0008319475455209613,0.005074809305369854,0.0011390120489522815,-0.005961605813354254
-0.0003566679952200502,-0.008931818418204784,-0.001209268462844193,0.005177803337574005,0.0010627289302647114,-0.00662868469953537
-0.0003375551605131477,-0.008491174317896366,-0.001164135755971074,0.0055902255699038506,0.0012391092022880912,-0.006638319697231054
-0.000346652464941144,-0.008913284167647362,-0.001008789986371994,0.005401695147156715,0.00116158917080611,-0.006127656903117895
-0.0003323257842566818,-0.008588151074945927,-0.0009570984984748065,0.00561274029314518,0.0011119521223008633,-0.006087479181587696
-0.0003176845784764737,-0.007697709836065769,-0.0009388587204739451,0.00531888147816062,0.0011650107335299253,-0.006161166820675135
-0.00030425924342125654,-0.008025195449590683,-0.000932944065425545,0.005102676805108786,0.0011646285420283675,-0.006402068305760622
-0.0002919223625212908,-0.00887440424412489,-0.0009381274576298892,0.005115350242704153,0.0011353176087141037,-0.00679340586066246
-0.00028054649010300636,-0.00859005469828844,-0.0009710160084068775,0.005144631490111351,0.0011583867017179728,-0.006142446771264076
-0.0002700251352507621,-0.007734490558505058,-0.0010805928613990545,0.0048552569933235645,0.0012451111106202006,-0.005944053642451763
-0.000260263797827065,-0.007997538894414902,-0.0010862842900678515,0.004696272779256105,0.001435191952623427,-0.006445661187171936
-0.0002511836646590382,-0.00809444673359394,-0.0011404628166928887,0.005062277894467115,0.001619031187146902,-0.006683722138404846
-0.0002427155413897708,-0.007553787901997566,-0.0011546207824721932,0.0049902694299817085,0.0018197313183918595,-0.0066576143726706505
-0.00023480002710130066,-0.007418208755552769,-0.0011098368559032679,0.004820827394723892,0.0018793913768604398,-0.00624989764764905
-0.00022738474945072085,-0.007523061241954565,-0.0010779408039525151,0.004327473696321249,0.0018839372787624598,-0.006456068251281977
-0.00022042363707441837,-0.008246676996350288,-0.0010151544120162725,0.004378841258585453,0.0017304453067481518,-0.006551024969667196
-0.00021387576998677105,-0.007632986642420292,-0.0010084855603054166,0.00419106800109148,0.0015968808438628912,-0.006454119458794594
-0.00020770568517036736,-0.007792996242642403,-0.001003051409497857,0.0039362795650959015,0.0015043799066916108,-0.006622323300689459
-0.00017766267410479486,-0.007954015396535397,-0.0009951266692951322,0.004201304633170366,0.0015613585710525513,-0.0064986106008291245
-0.0001718422572594136,-0.007867703214287758,-0.001252469141036272,0.004438983742147684,0.001791571732610464,-0.0064813015051186085
-9.676448826212436e-05,-0.007518839556723833,-0.0013139268849045038,0.004891762509942055,0.001827630097977817,-0.006308974698185921
-1.0818961527547799e-05,-0.007433220744132996,-0.0013932973379269242,0.004486858379095793,0.0018421623390167952,-0.006365778390318155
-1.4515018165184301e-07,-0.007394940592348576,-0.0013761174632236362,0.004225065466016531,0.0016983883688226342,-0.006236480548977852
-1.9473751500242997e-09,-0.008039568550884724,-0.001403267029672861,0.0037637786008417606,0.001555419759824872,-0.006260044872760773
-2.6126519350744282e-11,-0.007046394050121307,-0.0013400402385741472,0.0035748151130974293,0.0014015755150467157,-0.006398768629878759
-3.505205836955988e-13,-0.006363774184137583,-0.0012816746020689607,0.003675173968076706,0.001343357958830893,-0.006669851951301098
-4.702681183376724e-15,-0.006727366708219051,-0.0013249891344457865,0.0038150872569531202,0.0012873316882178187,-0.006573491729795933
-6.309246668609824e-17,-0.007259850390255451,-0.0013071777066215873,0.0036594702396541834,0.0013368654763326049,-0.0063292235136032104
-6.309246668609824e-17,-0.007259850390255451,-0.0013071777066215873,0.0036594702396541834,0.0013368654763326049,-0.0063292235136032104
-1.1356422406464471e-20,-0.006410990841686726,-0.0013220509281381965,0.0032271919772028923,0.0012728695292025805,-0.0066738976165652275
-1.5236088553519934e-22,-0.005854214541614056,-0.0014897671062499285,0.002906032605096698,0.0015952409012243152,-0.006959191523492336
-2.0441157047008637e-24,-0.006367781199514866,-0.0015628584660589695,0.002649820176884532,0.0015342262340709567,-0.007160071283578873
-2.742442273228991e-26,-0.0066997897811234,-0.0015658957418054342,0.0026371083222329617,0.0016804785700514913,-0.006870408076792955
-3.6793362880624784e-28,-0.006143879145383835,-0.0017029864247888327,0.0027189385145902634,0.0015809066826477647,-0.0065690684132277966
-4.936299130628392e-30,-0.006251100916415453,-0.0015494442777708173,0.002958405762910843,0.0014451068127527833,-0.006923651788383722
-6.622675222320876e-32,-0.006958464626222849,-0.001518965931609273,0.0031949318945407867,0.0012469079811125994,-0.006802567280828953
-8.885164150167307e-34,-0.00698503153398633,-0.0014300815528258681,0.003122912719845772,0.0011615565745159984,-0.0067208437249064445
-1.1920581022445646e-35,-0.00631681876257062,-0.0013726716861128807,0.0029248010832816362,0.0012011791113764048,-0.006738460157066584
-1.5992981258020908e-37,-0.006094760727137327,-0.0014244051417335868,0.003064684569835663,0.0011155413230881095,-0.007062170654535294
-2.1456626033803026e-39,-0.0059143477119505405,-0.0015034141251817346,0.002909580012783408,0.0012045330367982388,-0.0074794176034629345
-2.8786874352624717e-41,-0.006408614572137594,-0.0016723183216527104,0.002903287298977375,0.0012897318229079247,-0.007288968190550804
-3.867583761536495e-43,-0.006640292704105377,-0.0017666224157437682,0.0033296558540314436,0.0015670998254790902,-0.006690778769552708
-5.605193857299268e-45,-0.006347921676933765,-0.0018971755634993315,0.003267799038439989,0.0016450079856440425,-0.006285523064434528
0.0003625722602009773,-0.005810163915157318,-0.001875168876722455,0.0027696939650923014,0.0016432692063972354,-0.0064331223256886005
0.00038621420389972627,-0.00624935794621706,-0.0016366216586902738,0.0024125196505337954,0.0016315423417836428,-0.006720507517457008
0.00038076567579992115,-0.006768484134227037,-0.0014574378728866577,0.0028629188891500235,0.0014819331699982285,-0.006684108171612024
0.0003559542237780988,-0.0065325540490448475,-0.0013530714204534888,0.00293967267498374,0.0013294380623847246,-0.006915148347616196
0.00033394203637726605,-0.006334100849926472,-0.0012787592131644487,0.002610855270177126,0.0013497360050678253,-0.006791556254029274
0.00033394203637726605,-0.006334100849926472,-0.0012787592131644487,0.002610855270177126,0.0013497360050678253,-0.006791556254029274
0.000314490549499169,-0.006254048086702824,-0.0012600139016285539,0.002414809074252844,0.0013373461551964283,-0.006656615063548088
0.00034600665094330907,-0.006044649984687567,-0.0013171805767342448,0.0021368463058024645,0.001540900208055973,-0.006691735703498125
0.0003699750523082912,-0.006246070843189955,-0.001697432016953826,0.002019646344706416,0.0016758745769038796,-0.007196186110377312
0.0004531921003945172,-0.006267704535275698,-0.0017634063260629773,0.0018423415021970868,0.00214799284003675,-0.006920192390680313
0.000515235704369843,-0.0055818078108131886,-0.0016625931020826101,0.0016463410574942827,0.002106011612340808,-0.007219502702355385
0.0005509544280357659,-0.005727551877498627,-0.0016962846275418997,0.0015872212825343013,0.0020875835325568914,-0.0072252643294632435
0.0005309327971190214,-0.0058744014240801334,-0.001569188665598631,0.001463765511289239,0.001879537128843367,-0.007070846855640411
0.0005192411481402814,-0.005746908485889435,-0.0013860061299055815,0.0012531055836007,0.0015905083855614066,-0.00704688485711813
0.0006988102686591446,-0.005675483960658312,-0.0013493143487721682,0.0011344648664817214,0.0014583138981834054,-0.0074241491965949535
0.0007398511515930295,-0.005537013523280621,-0.0014935244107618928,0.001034822897054255,0.00148774532135576,-0.006949435453861952
0.0007597351213917136,-0.0056496127508580685,-0.001514773233793676,0.0008797921473160386,0.0014498113887384534,-0.00707259913906455
0.000775107357185334,-0.006097646430134773,-0.0017713073175400496,0.0007184568094089627,0.001570577034726739,-0.007279521320015192
0.00088816526113078,-0.005908559542149305,-0.0016384730115532875,0.0007322781602852046,0.0016264017904177308,-0.00732404412701726
0.0009565381333231926,-0.005717142950743437,-0.0015033509116619825,0.0007302591693587601,0.0018118047155439854,-0.007447914686053991
0.0009488284704275429,-0.005195670295506716,-0.0015213051810860634,0.0006763949058949947,0.0018365102587267756,-0.00805660430341959
0.0008375504985451698,-0.005765116307884455,-0.0015301482053473592,0.0006933449767529964,0.0018709107534959912,-0.0077745430171489716
0.0008433947805315256,-0.005727886687964201,-0.0015173614956438541,0.0006373169017024338,0.0018664790550246835,-0.007592253852635622
0.0008410466252826154,-0.005670448299497366,-0.0015917634591460228,0.0006186927203088999,0.0018632003339007497,-0.007738093379884958
0.0009453369420953095,-0.005576570983976126,-0.0015091117238625884,0.0006447912310250103,0.0017789168050512671,-0.007071967236697674
0.0009686525445431471,-0.005520730745047331,-0.0015864145243540406,0.0005877731600776315,0.001575486152432859,-0.0072095743380486965
0.0011829000432044268,-0.005762006156146526,-0.001617393922060728,0.0006128524546511471,0.0015613113064318895,-0.007229931186884642
0.0013319570571184158,-0.0059736925177276134,-0.0016544829122722149,0.0005634088884107769,0.001478464575484395,-0.007108106277883053
0.0012711710296571255,-0.005608018487691879,-0.001548065454699099,0.000553203106392175,0.0013351069064810872,-0.006825142540037632
0.0014212876558303833,-0.005939708091318607,-0.0015772080514580011,0.0005439729429781437,0.0012756857322528958,-0.006930263713002205
0.0014212876558303833,-0.005939708091318607,-0.0015772080514580011,0.0005439729429781437,0.0012756857322528958,-0.006930263713002205
0.0013166394783183932,-0.005479007493704557,-0.001623631687834859,0.0005077277892269194,0.0012995635624974966,-0.007008381187915802
0.0012922154273837805,-0.005470693577080965,-0.0015601064078509808,0.0005080628907307982,0.001450796495191753,-0.007152893580496311
0.0014110136544331908,-0.005158934276551008,-0.00185309664811939,0.00046260535600595176,0.001563672674819827,-0.007517505437135696
0.00149725831579417,-0.00540108373388648,-0.0016890658298507333,0.0004198359383735806,0.001842781319282949,-0.007563878782093525
0.0018706386908888817,-0.005469855852425098,-0.0016977721825242043,0.00038399879122152925,0.0019933755975216627,-0.0075881765224039555
0.0018124304478988051,-0.005564055405557156,-0.0015588867245242,0.0003537804295774549,0.0022270185872912407,-0.007512661628425121
0.0016019950853660703,-0.005051237531006336,-0.0014903511619195342,0.0003279755765106529,0.0020591802895069122,-0.00724150100722909
0.001665386720560491,-0.005229596979916096,-0.0016113780438899994,0.00030568099464289844,0.0019274705555289984,-0.00771586038172245
0.002035032957792282,-0.0054314774461090565,-0.0019834330305457115,0.00026910071028396487,0.001757063320837915,-0.0076535604894161224
0.0022258618846535683,-0.005974049214273691,-0.0018197548342868686,0.0002539101697038859,0.0018491202499717474,-0.007866643369197845
0.0022047136444598436,-0.005246495362371206,-0.0019290393684059381,0.00024034356465563178,0.002268746728077531,-0.00794349703937769
0.002336295321583748,-0.005588312167674303,-0.0017398158088326454,0.00022815332340542227,0.002029695315286517,-0.007976141758263111
0.0023899825755506754,-0.005348764359951019,-0.0016404232010245323,0.00021714089962188154,0.001878917682915926,-0.0075498316437006
0.00232529710046947,-0.005262416787445545,-0.0016749469796195626,0.00020714271522592753,0.0018563184421509504,-0.007530165836215019
0.0025724824517965317,-0.005405898671597242,-0.0018404489383101463,0.0001980248634936288,0.0018844445003196597,-0.008126846514642239
0.002697555348277092,-0.00530225969851017,-0.001854624948464334,0.00018967644427902997,0.0018773851916193962,-0.007920204661786556
0.0029692985117435455,-0.005186227150261402,-0.0016932558501139283,0.00018200327758677304,0.0018885472090914845,-0.007714506238698959
0.003020181553438306,-0.004970252979546785,-0.0017023077234625816,0.0001749270741129294,0.0018814740469679236,-0.007653737906366587
0.0028932082932442427,-0.005232822149991989,-0.0015899246791377664,0.0001683805458014831,0.002176738576963544,-0.00767629686743021
0.0031749240588396788,-0.004965078551322222,-0.0015844035660848022,0.00016230621258728206,0.0020048064179718494,-0.007543197833001614
0.003633962944149971,-0.005157776176929474,-0.0015876219840720296,0.00015665539831388742,0.0019502303330227733,-0.008030194789171219
0.0034293909557163715,-0.005024390760809183,-0.0017550340853631496,0.0001289761275984347,0.00187517364975065,-0.007811208721250296
0.0035067384596914053,-0.005144184920936823,-0.00163928116671741,0.00011767941032303497,0.0018178565660491586,-0.00802468042820692
0.0036339068319648504,-0.00498815905302763,-0.0016429591923952103,0.000113505739136599,0.0017439652001485229,-0.007482863962650299
0.0036339068319648504,-0.00498815905302763,-0.0016429591923952103,0.000113505739136599,0.0017439652001485229,-0.007482863962650299
0.004148690029978752,-0.005447551608085632,-0.001674562692642212,0.00011000653466908261,0.0018205528613179922,-0.007772048469632864
0.004348922986537218,-0.005152793135493994,-0.0015591791598126292,0.00010674238728825003,0.0018537557916715741,-0.007710128556936979
0.004020631313323975,-0.0054245516657829285,-0.0016706215683370829,7.949359860504046e-05,0.0019624964334070683,-0.008174627088010311
0.004261058755218983,-0.00557708740234375,-0.001651004422456026,7.568848377559334e-05,0.0020640927832573652,-0.0076875812374055386
0.004303790628910065,-0.005136323627084494,-0.0018185469089075923,7.352421380346641e-05,0.0023147747851908207,-0.008118918165564537
0.004207013640552759,-0.005498278420418501,-0.001838945085182786,-2.6442859962116927e-05,0.0020710802637040615,-0.008023801259696484
0.004100657533854246,-0.005265631712973118,-0.0017017952632158995,-5.659245289280079e-05,0.001849659951403737,-0.008266613818705082
0.003995549865067005,-0.005851854104548693,-0.0017179603455588222,-8.15464009065181e-05,0.001880938303656876,-0.007910232990980148
0.004961569793522358,-0.0052144951187074184,-0.0015948353102430701,-0.00010360855958424509,0.0023196833208203316,-0.008317836560308933
0.004650444723665714,-0.005387079436331987,-0.0016412889817729592,-0.0001264161110157147,0.0023845969699323177,-0.007976398803293705
0.00463421456515789,-0.005352107807993889,-0.0018070113146677613,-0.0005419627414084971,0.002439639298245311,-0.007680447772145271
0.004910608753561974,-0.00583898089826107,-0.0018137049628421664,-0.0006869622156955302,0.002204069634899497,-0.007827176712453365
0.004908851347863674,-0.00537330936640501,-0.0017923898994922638,-0.0007328211213462055,0.0019588747527450323,-0.008254261687397957
0.005022604484111071,-0.0053128888830542564,-0.0018054633401334286,-0.0011551351053640246,0.0019060575868934393,-0.007828792557120323
0.005292830057442188,-0.005018518306314945,-0.001705714501440525,-0.0015924711478874087,0.0018154671415686607,-0.007691272534430027
0.005191158503293991,-0.004639671184122562,-0.0017328271642327309,-0.0030154793057590723,0.00182090955786407,-0.008712750859558582
0.00568776298314333,-0.005047238897532225,-0.002009296789765358,-0.003741116728633642,0.002297208411619067,-0.008341050706803799
0.005328354891389608,-0.004968941677361727,-0.0020299351308494806,-0.003907789476215839,0.0025361168663948774,-0.00789809599518776
0.006006174720823765,-0.004791276063770056,-0.0021027904003858566,-0.004810138139873743,0.002379469107836485,-0.008062565699219704
0.0060819098725914955,-0.0044023822993040085,-0.002037223894149065,-0.005161481909453869,0.002120311139151454,-0.008531466126441956
0.006193241104483604,-0.004249408841133118,-0.0019505927339196205,-0.005484484601765871,0.0020862752571702003,-0.008621172979474068
0.006261582486331463,-0.00451430631801486,-0.0019156835041940212,-0.005996150430291891,0.002247262978926301,-0.008714981377124786
0.006087260786443949,-0.004747787490487099,-0.0019539331551641226,-0.006663686595857143,0.00228146486915648,-0.009091228246688843
0.006543120369315147,-0.004749561659991741,-0.001931380364112556,-0.006970352027565241,0.002422026824206114,-0.008519373834133148
0.006543120369315147,-0.004749561659991741,-0.001931380364112556,-0.006970352027565241,0.002422026824206114,-0.008519373834133148
0.00669146329164505,-0.004520212300121784,-0.0020466626156121492,-0.0064375437796115875,0.002400512108579278,-0.00841702800244093
0.006666849367320538,-0.004760922398418188,-0.0020027097780257463,-0.006028384435921907,0.002348673064261675,-0.008443710394203663
0.006470994092524052,-0.004286141134798527,-0.002106250263750553,-0.0066109648905694485,0.002458302304148674,-0.008632812649011612
0.006569292396306992,-0.004307345487177372,-0.0020289281383156776,-0.0068594724871218204,0.0024551586247980595,-0.008694670163094997
0.006882691755890846,-0.00424104044213891,-0.0022463288623839617,-0.006759090814739466,0.002147517167031765,-0.008432467468082905
0.00714917341247201,-0.003988632000982761,-0.0020613237284123898,-0.0065416027791798115,0.0018963589100167155,-0.008366943337023258
0.006854381877928972,-0.004335564095526934,-0.0022990964353084564,-0.007423345930874348,0.00217741378583014,-0.008291603066027164
0.008031363599002361,-0.004121675156056881,-0.0022016060538589954,-0.007645900826901197,0.0022496096789836884,-0.00827461015433073
0.007976660504937172,-0.0038261213339865208,-0.0022111611906439066,-0.007399727590382099,0.0025894977152347565,-0.008334064856171608
0.00713973818346858,-0.0036202447954565287,-0.002109814900904894,-0.008624778129160404,0.0023978750687092543,-0.008033107966184616
0.007212952710688114,-0.0036699080374091864,-0.0022466678638011217,-0.008352059870958328,0.002328837290406227,-0.008187071420252323
0.008206028491258621,-0.00450051948428154,-0.0020522677805274725,-0.007798802573233843,0.0024810198228806257,-0.008179147727787495
0.007806442212313414,-0.004288268741220236,-0.002189863473176956,-0.007515785750001669,0.0026173472870141268,-0.00838271714746952
0.007462459150701761,-0.003924669697880745,-0.002424652688205242,-0.008239350281655788,0.0026493340265005827,-0.008349799551069736
0.007905066944658756,-0.003829218912869692,-0.0023280465975403786,-0.009050020016729832,0.0027671640273183584,-0.008458001539111137
0.008309603668749332,-0.0034208649303764105,-0.0024276042822748423,-0.008460450917482376,0.0028062884230166674,-0.008613348938524723
0.008353348821401596,-0.0032845246605575085,-0.0021946229971945286,-0.009277567267417908,0.002831151010468602,-0.008771033957600594
0.008404220454394817,-0.003228026209399104,-0.002222213661298156,-0.010256078094244003,0.0026108718011528254,-0.00883191917091608
0.00846638809889555,-0.003461013315245509,-0.0023296887520700693,-0.008683194406330585,0.002384184394031763,-0.008874986320734024
0.008388444781303406,-0.0033808560110628605,-0.002221786417067051,-0.008207234553992748,0.002213854808360338,-0.008754056878387928
0.008920532651245594,-0.003562356811016798,-0.0022412852849811316,-0.009366936981678009,0.0019970997236669064,-0.008641290478408337
0.008080543018877506,-0.003260878147557378,-0.002240864560008049,-0.009994330815970898,0.0019622454419732094,-0.00888657197356224
0.008920195512473583,-0.0028805492911487818,-0.0025631182361394167,-0.00988753791898489,0.002524614566937089,-0.009455260820686817
0.009052226319909096,-0.0026944868732243776,-0.002484926488250494,-0.010613285936415195,0.0028528578113764524,-0.009218250401318073
0.008567364886403084,-0.0027188900858163834,-0.0023180232383310795,-0.010217084549367428,0.0027005241718143225,-0.008807085454463959
0.009007330052554607,-0.0031336056999862194,-0.0022866942454129457,-0.00992600154131651,0.0027029933407902718,-0.008967629633843899
0.009007330052554607,-0.0031336056999862194,-0.0022866942454129457,-0.00992600154131651,0.0027029933407902718,-0.008967629633843899
0.008681615814566612,-0.0029320812318474054,-0.0021794517524540424,-0.01043190062046051,0.0026079381350427866,-0.00882843229919672
0.00928911380469799,-0.0025467760860919952,-0.0026091921608895063,-0.010374593548476696,0.002686325227841735,-0.008545944467186928
0.00928911380469799,-0.0025467760860919952,-0.0026091921608895063,-0.010374593548476696,0.002686325227841735,-0.008545944467186928
0.009544653818011284,-0.0023778551258146763,-0.002463405951857567,-0.011028969660401344,0.002585410140454769,-0.008845021016895771
0.009172326885163784,-0.0024422614369541407,-0.002556463936343789,-0.010328446514904499,0.0022983886301517487,-0.008873390033841133
0.008769907988607883,-0.0027349048759788275,-0.002663211664184928,-0.010727952234447002,0.0021579915191978216,-0.009259936399757862
0.009708765894174576,-0.0025004856288433075,-0.0026103889103978872,-0.010267991572618484,0.0021950523369014263,-0.009489617310464382
0.008882389403879642,-0.0022716738749295473,-0.002743109595030546,-0.01017788052558899,0.0024050099309533834,-0.008789614774286747
0.009133335202932358,-0.0021491688676178455,-0.002430560067296028,-0.010695934295654297,0.0027220030315220356,-0.008944322355091572
0.009125352837145329,-0.0022484930232167244,-0.002482127398252487,-0.010207355953752995,0.0027709791902452707,-0.0090786749497056
0.00772519176825881,-0.002204884309321642,-0.002364931395277381,-0.010382832027971745,0.0029928460717201233,-0.009153737686574459
0.006585707888007164,-0.002402018755674362,-0.002301144413650036,-0.00967361032962799,0.003023131750524044,-0.00913773663341999
0.007265410386025906,-0.0021328243892639875,-0.00258506927639246,-0.009663771837949753,0.003286355407908559,-0.009065582416951656
0.0076327514834702015,-0.0021278562489897013,-0.0025601782836019993,-0.010663247667253017,0.003200266044586897,-0.009446743875741959
0.007400518748909235,-0.0020648674108088017,-0.0024485159665346146,-0.010347441770136356,0.003506655106320977,-0.00985067430883646
0.007491721771657467,-0.0020460074301809072,-0.0026794150471687317,-0.009968714788556099,0.0034579746425151825,-0.009427760727703571
0.007460275664925575,-0.002276636427268386,-0.0025712670758366585,-0.010197333991527557,0.0032912357710301876,-0.009404614567756653
0.007451810408383608,-0.002161656506359577,-0.0024814028292894363,-0.010571951046586037,0.0025727904867380857,-0.00950620323419571
0.0073936632834374905,-0.0020942767150700092,-0.0026755863800644875,-0.011007940396666527,0.0023738860618323088,-0.009613805450499058
0.007659168913960457,-0.0018316186033189297,-0.0027889066841453314,-0.011330983601510525,0.0021528550423681736,-0.00981164164841175
0.007777172606438398,-0.0020223369356244802,-0.0024910345673561096,-0.01079593040049076,0.0021215060260146856,-0.009630507789552212
0.007168694399297237,-0.0017987682949751616,-0.002518773777410388,-0.011824392713606358,0.002298858482390642,-0.009461212903261185
0.007948976010084152,-0.001732981763780117,-0.002431930974125862,-0.012025922536849976,0.0023475619964301586,-0.00974887516349554
0.007944699376821518,-0.0014477873919531703,-0.002348183188587427,-0.012217160314321518,0.0024909568019211292,-0.009949307888746262
0.007840209640562534,-0.0014414560282602906,-0.0023971167393028736,-0.01191380713135004,0.002623551059514284,-0.009757449850440025
0.007991832681000233,-0.0013977594207972288,-0.0024590916000306606,-0.011827235110104084,0.0028899896424263716,-0.009994343854486942
0.007563526276499033,-0.0016032590065151453,-0.0024028830230236053,-0.01174854300916195,0.0031616392079740763,-0.01022351160645485
0.007563662249594927,-0.001657133107073605,-0.002504600677639246,-0.011253953911364079,0.0028176140040159225,-0.009362948127090931
0.007904603146016598,-0.001849857158958912,-0.0025133348535746336,-0.010886105708777905,0.002829561475664377,-0.009512834250926971
0.007904603146016598,-0.001849857158958912,-0.0025133348535746336,-0.010886105708777905,0.002829561475664377,-0.009512834250926971
0.008407790213823318,-0.0016356745036318898,-0.0024144859053194523,-0.011153212748467922,0.0029988589230924845,-0.009560542181134224
0.008524569682776928,-0.0014886019052937627,-0.0024819374084472656,-0.011166417971253395,0.0031059314496815205,-0.009233744814991951
0.008229385130107403,-0.0012100095627829432,-0.0026679548900574446,-0.011198676191270351,0.0034701440017670393,-0.009338253177702427
0.008618655614554882,-0.0011429612059146166,-0.0025275624357163906,-0.011504428461194038,0.0036928197368979454,-0.00963531993329525
0.008332389406859875,-0.0010662421118468046,-0.002570605603978038,-0.011035371571779251,0.0035106539726257324,-0.00941969733685255
0.00871102511882782,-0.0009588411194272339,-0.0024861828424036503,-0.011385148391127586,0.003039573784917593,-0.0094846710562706
0.008999291807413101,-0.0010537554044276476,-0.0026694275438785553,-0.011361743323504925,0.0026903259567916393,-0.009752349928021431
0.008527079597115517,-0.0010322475573047996,-0.0027680739294737577,-0.011469099670648575,0.0027184465434402227,-0.00978605542331934
0.00895614456385374,-0.000938989280257374,-0.002516859909519553,-0.011396221816539764,0.0026125165168195963,-0.009897153824567795
0.008886327035725117,-0.0009666492696851492,-0.0025789218489080667,-0.011954271234571934,0.0027643495704978704,-0.009836247190833092
0.008643204346299171,-0.0008021134999580681,-0.00270166527479887,-0.011795470491051674,0.002559938933700323,-0.010520908050239086
0.009048892185091972,-0.0007686793687753379,-0.0028118807822465897,-0.011995713226497173,0.0024400711990892887,-0.010296155698597431
0.008974771946668625,-0.0007087718113325536,-0.0026609820779412985,-0.011645507998764515,0.0023776069283485413,-0.00991357397288084
0.009256000630557537,-0.0007186121074482799,-0.002686197403818369,-0.011455748230218887,0.002403663005679846,-0.010126342065632343
0.008757145144045353,-0.0007160626701079309,-0.002586474409326911,-0.011846565641462803,0.0026909969747066498,-0.01018158532679081
0.009940413758158684,-0.0006779193063266575,-0.0024929572828114033,-0.01220266055315733,0.0029498219955712557,-0.009693045169115067
0.009554986841976643,-0.0006199259078130126,-0.002744475845247507,-0.012471582740545273,0.0033011024352163076,-0.009652642533183098
0.009424208663403988,-0.0005398655775934458,-0.0029019005596637726,-0.012361575849354267,0.00340713607147336,-0.009906177408993244
0.009541167877614498,-0.00046815318637527525,-0.0029777593445032835,-0.012622181326150894,0.0031997403129935265,-0.0099801542237401
0.009661536663770676,-0.00042383329127915204,-0.0027052287477999926,-0.01312860194593668,0.0029283103067427874,-0.010356745682656765
0.01084824837744236,-0.00038733123801648617,-0.0025979161728173494,-0.013230482116341591,0.0026905701961368322,-0.01028638705611229
0.009932936169207096,-0.0003566252125892788,-0.0025876418221741915,-0.01358763873577118,0.0025666533038020134,-0.010059364140033722
0.009199175983667374,-0.00033043377334252,-0.002576827770099044,-0.013377197086811066,0.002682095393538475,-0.010304540395736694
0.010504735633730888,-0.0003078243462368846,-0.0029135490767657757,-0.01393289864063263,0.002998208627104759,-0.010602805763483047
0.011383735574781895,-0.0002881130203604698,-0.003216294338926673,-0.013448556885123253,0.003532742615789175,-0.010348633863031864
0.01026889681816101,-0.00023532977502327412,-0.0027876400854438543,-0.013952325098216534,0.0038228058256208897,-0.010311386547982693
0.009891853667795658,0.00013247254537418485,-0.002667551627382636,-0.013418343849480152,0.0034513999707996845,-0.00996984913945198
0.010634434409439564,0.00042372566531412303,-0.002669781446456909,-0.014238644391298294,0.0031945565715432167,-0.010067007504403591
0.01003094483166933,0.002878853352740407,-0.0028712560888379812,-0.014256399124860764,0.0026689053047448397,-0.010854331776499748
0.01003094483166933,0.002878853352740407,-0.0028712560888379812,-0.014256399124860764,0.0026689053047448397,-0.010854331776499748
0.01114326436072588,0.0005323067889548838,-0.0031520582269877195,-0.014734475873410702,0.0028353340458124876,-0.01009626779705286
0.011043586768209934,3.255428237025626e-05,-0.002887240843847394,-0.01480564009398222,0.0034820407163351774,-0.010429292917251587
0.011043586768209934,3.255428237025626e-05,-0.002887240843847394,-0.01480564009398222,0.0034820407163351774,-0.010429292917251587
0.011433078907430172,4.367572614683013e-07,-0.0029055678751319647,-0.014497537165880203,0.003668694756925106,-0.01019369252026081
0.011832893826067448,7.861476747361706e-11,-0.0029833281878381968,-0.014613027684390545,0.003262340323999524,-0.01084396243095398
0.011628801003098488,1.0547174028249784e-12,-0.003499718615785241,-0.014888208359479904,0.00303746503777802,-0.010218359529972076
0.011384734883904457,1.4150380797932783e-14,-0.003106526331976056,-0.015009698458015919,0.003118117805570364,-0.010454482398927212
0.010733992792665958,0.0012566137593239546,-0.0031091938726603985,-0.015334847383201122,0.0032607221510261297,-0.010400956496596336
0.010896231047809124,0.0010246464516967535,-0.0030177938751876354,-0.014663898386061192,0.003559510223567486,-0.010104317218065262
0.010751058347523212,0.0006706138956360519,-0.00299302046187222,-0.01520560309290886,0.0033278700429946184,-0.011032766662538052
0.011771362274885178,0.000563254056032747,-0.0027557145804166794,-0.015266688540577888,0.0033621471375226974,-0.011004351079463959
0.011423168703913689,0.00030336552299559116,-0.002983650891110301,-0.015592128969728947,0.003358586924150586,-0.00931507907807827
0.01138851884752512,0.00027657131431624293,-0.003021115204319358,-0.015393989160656929,0.003221140243113041,-0.009760874323546886
0.011451204307377338,0.00040509249083697796,-0.003002365818247199,-0.01567373052239418,0.0032382826320827007,-0.010553969070315361
0.011220418848097324,0.0004825460782740265,-0.002904197433963418,-0.015760287642478943,0.0031678907107561827,-0.01070250105112791
0.011192304082214832,0.0011973248329013586,-0.0030849461909383535,-0.015861492604017258,0.003403553506359458,-0.010926046408712864
0.011330422945320606,0.0012054230319336057,-0.0032229023054242134,-0.016614610329270363,0.0036360255908221006,-0.010928905569016933
0.010907589457929134,0.0010280940914526582,-0.0031849523074924946,-0.016074853017926216,0.003696575528010726,-0.011043580248951912
0.011378207243978977,0.0009656526381149888,-0.0033381651155650616,-0.016773322597146034,0.003668079851195216,-0.011206001043319702
0.011454131454229355,0.0008852205355651677,-0.00316742155700922,-0.01644987054169178,0.003214293858036399,-0.011100015603005886
0.011368861421942711,0.0007782021421007812,-0.002883629873394966,-0.01668975129723549,0.003087508725002408,-0.011108233593404293
0.011473258025944233,0.0007778994040563703,-0.0030130320228636265,-0.01701432652771473,0.003145397873595357,-0.011285609565675259
0.011869042180478573,0.0008026168216019869,-0.003394547151401639,-0.016956260427832603,0.0033155048731714487,-0.010312667116522789
0.011497908271849155,0.0011756755411624908,-0.0033017131499946117,-0.017600325867533684,0.0038771938998252153,-0.010037214495241642
0.01139049045741558,0.0014633587561547756,-0.003563900012522936,-0.017654074355959892,0.004223013762384653,-0.010734567418694496
0.01130598597228527,0.0015650177374482155,-0.003709726966917515,-0.017671529203653336,0.0042028226889669895,-0.010657938197255135
0.011569053865969181,0.0018138181185349822,-0.0033255447633564472,-0.01772445999085903,0.004064952023327351,-0.010881020687520504
0.011006055399775505,0.001606422825716436,-0.0031252168118953705,-0.017669595777988434,0.0036851356271654367,-0.011111236177384853
0.011006055399775505,0.001606422825716436,-0.0031252168118953705,-0.017669595777988434,0.0036851356271654367,-0.011111236177384853
0.01119025144726038,0.0011884344276040792,-0.0032967336010187864,-0.017397325485944748,0.003220537444576621,-0.011209074407815933
0.01076703704893589,0.00120139354839921,-0.0033450208138674498,-0.01736431010067463,0.0035676744300872087,-0.010829051956534386
0.011753430590033531,0.001224040170200169,-0.003536415286362171,-0.018154172226786613,0.003913875203579664,-0.010870461352169514
0.011110808700323105,0.0019015412544831634,-0.0034825142938643694,-0.017649130895733833,0.003913507796823978,-0.011356904171407223
0.011279838159680367,0.001998585881665349,-0.0034795335959643126,-0.018244609236717224,0.0037895729765295982,-0.011216012760996819
0.011465484276413918,0.002042943611741066,-0.0033117812126874924,-0.01822821982204914,0.0036910444032400846,-0.01171019021421671
0.010791418142616749,0.0019395414274185896,-0.003373022424057126,-0.018115418031811714,0.003287716768682003,-0.010706358589231968
0.011325649917125702,0.0021087208297103643,-0.0036771176382899284,-0.018792275339365005,0.0033666687086224556,-0.011606251820921898
0.010923417285084724,0.002148724626749754,-0.00344263156875968,-0.019425297155976295,0.0031016082502901554,-0.011491579934954643
0.010649514384567738,0.0021400703117251396,-0.003276435425505042,-0.0187448188662529,0.003329057013615966,-0.011050333268940449
0.010949323885142803,0.0023412667214870453,-0.0031691035255789757,-0.018585098907351494,0.003634020918980241,-0.011054680682718754
0.010744122788310051,0.002122033154591918,-0.0034881127066910267,-0.018569068983197212,0.0038170006591826677,-0.011213095858693123
0.01108106505125761,0.002187403617426753,-0.0034022920299321413,-0.01821819320321083,0.0037810541689395905,-0.011252634227275848
0.01121822651475668,0.002412565052509308,-0.0040662288665771484,-0.018651913851499557,0.003671057755127549,-0.011528548784554005
0.010928592644631863,0.002344634849578142,-0.0036079417914152145,-0.018380308523774147,0.0034764506854116917,-0.011091107502579689
0.011407986283302307,0.0025721078272908926,-0.003586528357118368,-0.018958674743771553,0.00360339367762208,-0.010946566238999367
0.0109731275588274,0.0026063844561576843,-0.0033070482313632965,-0.01928500086069107,0.0038155585061758757,-0.01150589156895876
0.010905631817877293,0.0024341302923858166,-0.0036059445701539516,-0.018933404237031937,0.004134388640522957,-0.011473995633423328
0.011844148859381676,0.0024534189142286777,-0.003264202969148755,-0.01906212419271469,0.004134005401283503,-0.011578446254134178
0.011299154721200466,0.002725315745919943,-0.003248096676543355,-0.01910795085132122,0.00380500010214746,-0.011275194585323334
0.011333152651786804,0.0033700077328830957,-0.003275175578892231,-0.01955820806324482,0.0035330832470208406,-0.011435145512223244
0.011376196518540382,0.003785747801885009,-0.0035854210145771503,-0.019943539053201675,0.0033503316808491945,-0.011313900351524353
0.011536793783307076,0.0043739150278270245,-0.0038410844281315804,-0.01971779763698578,0.0035658390261232853,-0.01098637841641903
0.011905016377568245,0.004116819240152836,-0.0034599746577441692,-0.01896253600716591,0.0038484889082610607,-0.011014241725206375
0.011014880612492561,0.003422556910663843,-0.0034895443823188543,-0.01939971372485161,0.004154382273554802,-0.011105528101325035
0.011163548566401005,0.003492969088256359,-0.0032844343222677708,-0.019802987575531006,0.004109922796487808,-0.011056598275899887
0.011163548566401005,0.003492969088256359,-0.0032844343222677708,-0.019802987575531006,0.004109922796487808,-0.011056598275899887
0.011516017839312553,0.004346102941781282,-0.0037348479963839054,-0.019888540729880333,0.004216684959828854,-0.011001254431903362
0.01150646060705185,0.004812874831259251,-0.003304434474557638,-0.02023695968091488,0.004113000351935625,-0.011118941009044647
0.01109998021274805,0.004496870096772909,-0.003357135923579335,-0.0199721809476614,0.0039024949073791504,-0.011285257525742054
0.011221530847251415,0.00417688861489296,-0.003488189773634076,-0.020115843042731285,0.003840660210698843,-0.01145161222666502
0.01127759087830782,0.004053717944771051,-0.003442964283749461,-0.02043837308883667,0.003890835214406252,-0.011732259765267372
0.010731860063970089,0.004616983234882355,-0.0035277758724987507,-0.02066611684858799,0.0039061165880411863,-0.011488142423331738
0.011425107717514038,0.0048935567028820515,-0.003354879328981042,-0.02062399312853813,0.003865595441311598,-0.011679827235639095
0.011488952673971653,0.0048446860164403915,-0.0035086902789771557,-0.02092655561864376,0.003853033296763897,-0.01210752222687006
0.011478413827717304,0.005262014456093311,-0.003757970407605171,-0.021154209971427917,0.004295038059353828,-0.01229417696595192
0.011218423955142498,0.005381913855671883,-0.003407001495361328,-0.020769482478499413,0.004120964556932449,-0.011489001102745533
0.011784673668444157,0.005235529970377684,-0.0035740600433200598,-0.021259039640426636,0.004177653696388006,-0.011219372041523457
0.011362829245626926,0.0058295102789998055,-0.0037861496675759554,-0.021068638190627098,0.003651607083156705,-0.011317220516502857
0.011383322067558765,0.005550638306885958,-0.0034183517564088106,-0.021153941750526428,0.003608979284763336,-0.011605948209762573
0.011316445656120777,0.006068172864615917,-0.0034723549615591764,-0.020820938050746918,0.004148207139223814,-0.011664032936096191
0.01170535571873188,0.006178039591759443,-0.0035340574104338884,-0.021504702046513557,0.004384675994515419,-0.011742696166038513
0.011363252997398376,0.00563181284815073,-0.00358416885137558,-0.02254098653793335,0.004872071091085672,-0.011709191836416721
0.01136965211480856,0.005878920666873455,-0.0035884876269847155,-0.022822752594947815,0.004784021060913801,-0.011656815186142921
0.011893687769770622,0.007003693841397762,-0.003574750851839781,-0.022508423775434494,0.004437064286321402,-0.012017038650810719
0.011893687769770622,0.007003693841397762,-0.003574750851839781,-0.022508423775434494,0.004437064286321402,-0.012017038650810719
0.01129570696502924,0.0067416224628686905,-0.0034021285828202963,-0.021959338337183,0.004088369198143482,-0.011793079786002636
0.011920501478016376,0.0064365556463599205,-0.0034920494072139263,-0.021824173629283905,0.00349983898922801,-0.012089891359210014
0.011278169229626656,0.00652594119310379,-0.003733877558261156,-0.02226267196238041,0.0035441021900624037,-0.011613590642809868
0.011526565998792648,0.006696864031255245,-0.003870965214446187,-0.023218126967549324,0.004274167586117983,-0.011703560128808022
0.011658990755677223,0.007398457732051611,-0.003798629390075803,-0.02345026098191738,0.004660412203520536,-0.011926759965717793
0.011800646781921387,0.0067629124969244,-0.003738629864528775,-0.02276524156332016,0.004730284679681063,-0.012162934057414532
0.011295273900032043,0.00693208584561944,-0.0037406065966933966,-0.024005666375160217,0.004216345027089119,-0.012010058388113976
0.01193482056260109,0.007246662862598896,-0.0037006204947829247,-0.0238468199968338,0.003520581405609846,-0.012033483944833279
0.012556763365864754,0.007489100564271212,-0.003661127993836999,-0.023198066279292107,0.0034432022366672754,-0.01204424723982811
0.01178817916661501,0.00754251005128026,-0.003952830098569393,-0.022327899932861328,0.004309684969484806,-0.012051026336848736
0.012098817154765129,0.006977416574954987,-0.00405616732314229,-0.022010240703821182,0.004706247244030237,-0.011857010424137115
0.011897211894392967,0.007430173456668854,-0.0038885504473000765,-0.022776653990149498,0.004921798128634691,-0.011814063414931297
0.012297348119318485,0.008118739351630211,-0.004168761428445578,-0.023691659793257713,0.0044250101782381535,-0.012337654829025269
0.012129474431276321,0.008042159490287304,-0.00362256052903831,-0.023152606561779976,0.004224927630275488,-0.012133672833442688
0.014235874637961388,0.008224060758948326,-0.0035447694826871157,-0.023268282413482666,0.004034600220620632,-0.012258902192115784
0.011873826384544373,0.00846183206886053,-0.004180591087788343,-0.023566022515296936,0.003978271037340164,-0.012427601031959057
0.011307556182146072,0.008180332370102406,-0.0041792551055550575,-0.023444218561053276,0.004664509557187557,-0.011869671754539013
0.012658420950174332,0.008237974718213081,-0.003977329004555941,-0.023552313446998596,0.00499690230935812,-0.012067650444805622
0.012658867053687572,0.008413424715399742,-0.003785307751968503,-0.02383922040462494,0.0050085801631212234,-0.0120028555393219
0.013999554328620434,0.008436862379312515,-0.003677570493891835,-0.02402256429195404,0.004964306950569153,-0.01213543489575386
0.013708652928471565,0.00891184899955988,-0.0042529357597231865,-0.024494454264640808,0.004395737778395414,-0.012210904620587826
0.013933435082435608,0.008649582974612713,-0.004179183393716812,-0.024987244978547096,0.004330870695412159,-0.01238007377833128
0.01366331335157156,0.008698652498424053,-0.004007043316960335,-0.024763548746705055,0.003674254519864917,-0.012347972951829433
0.013967156410217285,0.009462526999413967,-0.003930744249373674,-0.02541845105588436,0.0036109189968556166,-0.012410076335072517
0.014230875298380852,0.009518364444375038,-0.0039770170114934444,-0.026222318410873413,0.004159691743552685,-0.01253141462802887
0.014230875298380852,0.009518364444375038,-0.0039770170114934444,-0.026222318410873413,0.004159691743552685,-0.01253141462802887
0.013908792287111282,0.009483668021857738,-0.00437109125778079,-0.02558460272848606,0.004493667744100094,-0.012315232306718826
0.013870463706552982,0.009339946322143078,-0.00436419015750289,-0.025548432022333145,0.004536160733550787,-0.012221570126712322
0.013983789831399918,0.008991722948849201,-0.004018578678369522,-0.024939050897955894,0.004404800478368998,-0.012155584990978241
0.01428434532135725,0.009611221961677074,-0.004015923943370581,-0.02501704916357994,0.004025043919682503,-0.012313141487538815
0.014333205297589302,0.009305319748818874,-0.003975036554038525,-0.02506551891565323,0.0038261613808572292,-0.012512551620602608
0.014220493845641613,0.008973497897386551,-0.0038409533444792032,-0.025154566392302513,0.004430949222296476,-0.012527817860245705
0.01420091837644577,0.009226154536008835,-0.003765645669773221,-0.02553914487361908,0.005222050938755274,-0.012801310047507286
0.01405337918549776,0.0097002312541008,-0.004407129716128111,-0.025662802159786224,0.005627983715385199,-0.012676045298576355
0.014176166616380215,0.009878466837108135,-0.004757235292345285,-0.025852493941783905,0.005817243829369545,-0.012634404934942722
0.014164510183036327,0.009595135226845741,-0.004313415847718716,-0.025479067116975784,0.0038985959254205227,-0.011941595003008842
0.014103417284786701,0.009124523028731346,-0.004151625093072653,-0.02491213008761406,0.003485538763925433,-0.012168768793344498
0.013974975794553757,0.009952155873179436,-0.004024581518024206,-0.025176657363772392,0.003650414291769266,-0.01295052096247673
0.014556004665791988,0.010367684997618198,-0.004007281269878149,-0.02590191923081875,0.003956781700253487,-0.012952941469848156
0.014525800943374634,0.010021835565567017,-0.004962951876223087,-0.02565969154238701,0.004471203312277794,-0.012680974788963795
0.014722947962582111,0.010597108863294125,-0.004962139297276735,-0.0257803276181221,0.004931388422846794,-0.012875901535153389
0.014347605407238007,0.010117154568433762,-0.0047181276604533195,-0.025462141260504723,0.004871638026088476,-0.012577356770634651
0.014626208692789078,0.010142914019525051,-0.004214294254779816,-0.025894302874803543,0.004656518809497356,-0.012751425616443157
0.014249920845031738,0.010308165103197098,-0.004050270654261112,-0.02608816884458065,0.004220149479806423,-0.012682624161243439
0.014667639508843422,0.009922971948981285,-0.004166789352893829,-0.025922100991010666,0.004337710794061422,-0.01285624597221613
0.01447643619030714,0.010555418208241463,-0.004774115048348904,-0.02586313523352146,0.004556485451757908,-0.01285040844231844
0.015031091868877411,0.010357402265071869,-0.004819629248231649,-0.026166127994656563,0.004978473763912916,-0.012972844764590263
0.014666136354207993,0.008710897527635098,-0.0048686140216887,-0.026178713887929916,0.005090498831123114,-0.013285141438245773
0.014831500127911568,0.008223283104598522,-0.004336662590503693,-0.02595917135477066,0.005180025473237038,-0.01300829742103815
0.014987633563578129,0.01005679089576006,-0.0041589816100895405,-0.025833170861005783,0.0049727619625627995,-0.013313109055161476
0.01523437350988388,0.009604043327271938,-0.0041740345768630505,-0.026127204298973083,0.0047128889709711075,-0.01299171894788742
0.015433108434081078,0.009352841414511204,-0.004425536375492811,-0.02703997865319252,0.004671111702919006,-0.013142953626811504
0.015158183872699738,0.009081161580979824,-0.0046789865009486675,-0.027480442076921463,0.004858679138123989,-0.013129482045769691
0.015378625132143497,0.009684109129011631,-0.004938195459544659,-0.02716633304953575,0.004753137938678265,-0.012803658843040466
0.015439215116202831,0.009525668807327747,-0.004367344547063112,-0.027042988687753677,0.005169934127479792,-0.01295455452054739
0.015439215116202831,0.009525668807327747,-0.004367344547063112,-0.027042988687753677,0.005169934127479792,-0.01295455452054739
0.015166030265390873,0.009872675873339176,-0.00418382603675127,-0.026425059884786606,0.005110580008476973,-0.01287812739610672
0.014689154922962189,0.009925056248903275,-0.003974167630076408,-0.026612626388669014,0.004828989040106535,-0.013326299376785755
0.015012821182608604,0.008854134008288383,-0.004420976620167494,-0.027285348623991013,0.004612080752849579,-0.013572446070611477
0.015754830092191696,0.009827470406889915,-0.004878230392932892,-0.02745756320655346,0.0046828920021653175,-0.013521689921617508
0.015754830092191696,0.009827470406889915,-0.004878230392932892,-0.02745756320655346,0.0046828920021653175,-0.013521689921617508
0.015368497930467129,0.009286228567361832,-0.00458662211894989,-0.028562337160110474,0.004479906987398863,-0.013588421046733856
0.015430912375450134,0.009257849305868149,-0.004461571108549833,-0.028594275936484337,0.004616542253643274,-0.013258925639092922
0.015266727656126022,0.009371540509164333,-0.004484829492866993,-0.02711004577577114,0.004605328198522329,-0.012952681630849838
0.015980439260601997,0.009362996555864811,-0.004174071829766035,-0.02686886116862297,0.004590409342199564,-0.01311041321605444
0.016351940110325813,0.0103178471326828,-0.004831505939364433,-0.028861451894044876,0.004885585978627205,-0.012793675065040588
0.016228696331381798,0.010322591289877892,-0.0046890596859157085,-0.029171112924814224,0.005497937090694904,-0.013223037123680115
0.01579342596232891,0.010822923853993416,-0.004601308144629002,-0.028795454651117325,0.005394794512540102,-0.013666991144418716
0.016471583396196365,0.010432083159685135,-0.004411421716213226,-0.028751222416758537,0.004998218268156052,-0.0137107465416193
0.0157913938164711,0.010416774079203606,-0.004079492762684822,-0.02953680418431759,0.004771611653268337,-0.01449169497936964
0.01634947396814823,0.010564097203314304,-0.004381902050226927,-0.029270319268107414,0.005084434989839792,-0.014122962020337582
0.016217883676290512,0.01129654049873352,-0.0048798504285514355,-0.029782725498080254,0.005208701826632023,-0.013748847879469395
0.016490202397108078,0.010790458880364895,-0.004766378551721573,-0.02979089692234993,0.005280698649585247,-0.013385976664721966
0.016667060554027557,0.01082630641758442,-0.004405410028994083,-0.02943182922899723,0.005125347524881363,-0.01426181010901928
0.016601810231804848,0.011317552998661995,-0.004328384064137936,-0.029528599232435226,0.005126373376697302,-0.013189117424190044
0.01657608151435852,0.010964587330818176,-0.0044478559866547585,-0.03023568168282509,0.0050079431384801865,-0.013526609167456627
0.01629593037068844,0.011170487850904465,-0.004684583283960819,-0.02974851056933403,0.004780239891260862,-0.013785973191261292
0.017313703894615173,0.010975384153425694,-0.004804067779332399,-0.03090750426054001,0.004720557946711779,-0.01373534370213747
0.016902286559343338,0.011002006009221077,-0.00492924964055419,-0.031053081154823303,0.004732311703264713,-0.01336926780641079
0.016913598403334618,0.011554860509932041,-0.00518812658265233,-0.030402345582842827,0.004792369436472654,-0.013561839237809181
0.01694505102932453,0.01113948505371809,-0.004947435576468706,-0.029491525143384933,0.004608497489243746,-0.013697093352675438
0.017163151875138283,0.01164149958640337,-0.004852100275456905,-0.02937047742307186,0.004690429195761681,-0.013392895460128784
0.017489511519670486,0.011152306571602821,-0.004804196301847696,-0.030834009870886803,0.005405557807534933,-0.013700558803975582
0.017229290679097176,0.011137435212731361,-0.004817959852516651,-0.03153540939092636,0.005386194214224815,-0.013706098310649395
0.017581244930624962,0.011415580287575722,-0.004795712884515524,-0.03130967170000076,0.005024693440645933,-0.013694293797016144
0.017581244930624962,0.011415580287575722,-0.004795712884515524,-0.03130967170000076,0.005024693440645933,-0.013694293797016144
0.017869366332888603,0.01151246391236782,-0.005206230096518993,-0.03233793377876282,0.005116933491080999,-0.013714462518692017
0.01774761453270912,0.01294996403157711,-0.0054571921937167645,-0.03277168422937393,0.0048824455589056015,-0.01372133195400238
0.01810760796070099,0.011251315474510193,-0.005029639229178429,-0.031185679137706757,0.0048661986365914345,-0.013429875485599041
0.018035098910331726,0.011840532533824444,-0.004795478656888008,-0.03224904090166092,0.005114649422466755,-0.013723954558372498
0.018035098910331726,0.011840532533824444,-0.004795478656888008,-0.03224904090166092,0.005114649422466755,-0.013723954558372498
0.018405871465802193,0.011684784665703773,-0.005956097971647978,-0.03241908550262451,0.004553947597742081,-0.014057843014597893
0.018421506509184837,0.011704439297318459,-0.005339126568287611,-0.033090002834796906,0.005035764072090387,-0.01423165574669838
0.018421506509184837,0.011704439297318459,-0.005339126568287611,-0.033090002834796906,0.005035764072090387,-0.01423165574669838
0.018303629010915756,0.011478225700557232,-0.005223478190600872,-0.032567307353019714,0.00504812877625227,-0.014167962595820427
0.0189349502325058,0.01192144863307476,-0.005123566370457411,-0.03272639214992523,0.005161547567695379,-0.013486544601619244
0.0189349502325058,0.01192144863307476,-0.005123566370457411,-0.03272639214992523,0.005161547567695379,-0.013486544601619244
0.01861134171485901,0.012272833846509457,-0.005678799003362656,-0.03324371576309204,0.004935892764478922,-0.01403072290122509
0.0184347964823246,0.012356624007225037,-0.005699316971004009,-0.033454447984695435,0.00512315146625042,-0.014287402853369713
0.018687758594751358,0.011896839365363121,-0.005151951685547829,-0.03347593545913696,0.004779063630849123,-0.01390497013926506
0.018789011985063553,0.01174685638397932,-0.005007798317819834,-0.033061519265174866,0.0054685454815626144,-0.014030076563358307
0.018857605755329132,0.012506161816418171,-0.005021507386118174,-0.03263864293694496,0.005395242478698492,-0.013804320245981216
0.01856164261698723,0.011814648285508156,-0.0057950858026742935,-0.03261306509375572,0.004982030019164085,-0.014269264414906502
0.018699679523706436,0.012624499388039112,-0.005821442697197199,-0.03295738250017166,0.0048677194863557816,-0.014130717143416405
0.019053859636187553,0.012067009694874287,-0.005678333807736635,-0.03269614279270172,0.00507940212264657,-0.014250725507736206
0.019123675301671028,0.0120532913133502,-0.005146512296050787,-0.03222477808594704,0.004998432006686926,-0.014195865951478481
0.019156254827976227,0.012463166378438473,-0.0048187002539634705,-0.032824162393808365,0.005444200709462166,-0.01477531623095274
0.01923389360308647,0.011899673379957676,-0.0055685462430119514,-0.032766055315732956,0.005337836686521769,-0.014357597567141056
0.019296346232295036,0.01250864751636982,-0.005540788639336824,-0.034000322222709656,0.005201437510550022,-0.015229274518787861
0.01949603296816349,0.012659351341426373,-0.006003345362842083,-0.032454002648591995,0.0052587855607271194,-0.01389581523835659
0.019652705639600754,0.012936203740537167,-0.005309102591127157,-0.032460492104291916,0.004990764893591404,-0.013387217186391354
0.01930958405137062,0.012731419876217842,-0.005245369393378496,-0.03318113088607788,0.004888868425041437,-0.01368239801377058
0.019343070685863495,0.012819432653486729,-0.00506685022264719,-0.032954201102256775,0.0050726598128676414,-0.01410449855029583
0.019716210663318634,0.012941882014274597,-0.005195244215428829,-0.03303461894392967,0.005116401240229607,-0.014449813403189182
0.019716210663318634,0.012941882014274597,-0.005195244215428829,-0.03303461894392967,0.005116401240229607,-0.014449813403189182
0.020471317693591118,0.012712214142084122,-0.005685167852789164,-0.03343246132135391,0.005321376491338015,-0.014481008984148502
0.019718989729881287,0.01309679914265871,-0.0055673690512776375,-0.034106213599443436,0.005565242376178503,-0.014520463533699512
0.019527768716216087,0.012781132943928242,-0.0055290712043643,-0.03333646059036255,0.005962907802313566,-0.015039351768791676
0.01968069188296795,0.013150070793926716,-0.0050447559915483,-0.03352273628115654,0.0063116843812167645,-0.014687268063426018
0.018813831731677055,0.012618002481758595,-0.004545993637293577,-0.035456400364637375,0.005807589273899794,-0.01422009989619255
0.01960770972073078,0.013112225569784641,-0.005134984850883484,-0.036177121102809906,0.005896060261875391,-0.013845537789165974
0.019867263734340668,0.012892174534499645,-0.0058339862152934074,-0.034417081624269485,0.005934752989560366,-0.013689306564629078
0.01944398134946823,0.012593495659530163,-0.005561011843383312,-0.0354645811021328,0.005819305311888456,-0.014432050287723541
0.019895100966095924,0.012885251082479954,-0.0047683799639344215,-0.035939764231443405,0.005820129998028278,-0.014640409499406815
0.020224403589963913,0.013227656483650208,-0.005080960690975189,-0.036922354251146317,0.006091992370784283,-0.014648654498159885
0.02056615985929966,0.012633536010980606,-0.005806989502161741,-0.036944013088941574,0.005894114263355732,-0.014790440909564495
0.02006332203745842,0.01366735715419054,-0.00583282858133316,-0.0363413468003273,0.005812220275402069,-0.014502126723527908
0.021196072921156883,0.013081664219498634,-0.005358297843486071,-0.03578896448016167,0.00538772763684392,-0.014195847325026989
0.019140006974339485,0.013505466282367706,-0.005353789310902357,-0.036659348756074905,0.005204259883612394,-0.014329844154417515
0.019397074356675148,0.013481229543685913,-0.005124219693243504,-0.03646617382764816,0.004898893181234598,-0.01473098061978817
0.02022770419716835,0.013720561750233173,-0.005308225750923157,-0.03673621267080307,0.005267362575978041,-0.015239524655044079
0.01996636390686035,0.013726147823035717,-0.005310581065714359,-0.03678552806377411,0.0062476107850670815,-0.015461437404155731
0.020527034997940063,0.013566074892878532,-0.0058419485576450825,-0.03811776638031006,0.00634380616247654,-0.015401080250740051
0.020373674109578133,0.013410289771854877,-0.005626164376735687,-0.03637201339006424,0.005950403865426779,-0.014624899253249168
0.019834624603390694,0.013559508137404919,-0.005555205047130585,-0.0366821251809597,0.0055857812985777855,-0.014262950047850609
0.020385270938277245,0.013943306170403957,-0.00520509434863925,-0.03697114437818527,0.0054349759593605995,-0.014204809442162514
0.020482750609517097,0.013616932556033134,-0.005045170895755291,-0.0378643199801445,0.00549128046259284,-0.014575500041246414
0.020305968821048737,0.014049451798200607,-0.00584907503798604,-0.0377163328230381,0.005473819095641375,-0.01472797803580761
0.020446911454200745,0.013872664421796799,-0.005843183025717735,-0.03807657212018967,0.0056068142876029015,-0.014986722730100155
0.02093234658241272,0.01400549616664648,-0.005622313357889652,-0.03772636875510216,0.005484913941472769,-0.015139276161789894
0.020633017644286156,0.013582118786871433,-0.004971097223460674,-0.03878176212310791,0.005867081228643656,-0.01528543047606945
0.02079867757856846,0.014169683679938316,-0.005497159902006388,-0.039090245962142944,0.005884424317628145,-0.014864291064441204
0.020744120702147484,0.01390148513019085,-0.005769526120275259,-0.03777104988694191,0.005913355387747288,-0.015446936711668968
0.020744120702147484,0.01390148513019085,-0.005769526120275259,-0.03777104988694191,0.005913355387747288,-0.015446936711668968
0.020615985617041588,0.01410787645727396,-0.005728123709559441,-0.037172794342041016,0.006324160378426313,-0.014298751018941402
0.02055017091333866,0.013859422877430916,-0.005518323741853237,-0.03817985951900482,0.0058919088914990425,-0.01473198551684618
0.0204328540712595,0.014347570016980171,-0.0056272936053574085,-0.037609703838825226,0.005816347897052765,-0.015045161359012127
0.02105014957487583,0.014612828381359577,-0.006133254151791334,-0.03880778327584267,0.006155563052743673,-0.015143844299018383
0.02105014957487583,0.014612828381359577,-0.006133254151791334,-0.03880778327584267,0.006155563052743673,-0.015143844299018383
0.02070027031004429,0.014125185087323189,-0.005586560815572739,-0.03675086051225662,0.005896597169339657,-0.015383942052721977
0.02088761329650879,0.014648997224867344,-0.005758342333137989,-0.03766709193587303,0.005825481843203306,-0.01536970678716898
0.020816247910261154,0.014931701123714447,-0.005816365126520395,-0.03857768326997757,0.005319621413946152,-0.015419617295265198
0.020420314744114876,0.01432842668145895,-0.0059354123659431934,-0.038634587079286575,0.0053473892621695995,-0.015564018860459328
0.020870668813586235,0.014791328459978104,-0.005800843704491854,-0.0385148786008358,0.006065789610147476,-0.015649273991584778
0.021070295944809914,0.014946050941944122,-0.005493147764354944,-0.03807447478175163,0.006618581246584654,-0.015594745986163616
0.020757878199219704,0.014633804559707642,-0.005761716049164534,-0.03803567960858345,0.005973122548311949,-0.015756290405988693
0.020713768899440765,0.014678450301289558,-0.006221276707947254,-0.03823673725128174,0.0059812357649207115,-0.015615384094417095
0.021434683352708817,0.014813633635640144,-0.005786782596260309,-0.03826181963086128,0.006232625339180231,-0.015611623413860798
0.02139679528772831,0.014932028017938137,-0.005874996539205313,-0.038860492408275604,0.006288610864430666,-0.015521712601184845
0.021182900294661522,0.014827489852905273,-0.005235361400991678,-0.038471683859825134,0.006354151293635368,-0.01555937621742487
0.02116675116121769,0.014731579460203648,-0.00524157052859664,-0.03847911208868027,0.006154435686767101,-0.01564783602952957
0.02141597494482994,0.015177851542830467,-0.005587191320955753,-0.03906070441007614,0.0056009250693023205,-0.01598132774233818
0.02161666750907898,0.015091919340193272,-0.006147304549813271,-0.039341576397418976,0.00633344566449523,-0.015605088323354721
0.021632403135299683,0.01491002831608057,-0.006123503670096397,-0.03880256414413452,0.0066459886729717255,-0.015582902356982231
0.021907031536102295,0.01556991133838892,-0.00546253751963377,-0.039284419268369675,0.006411200854927301,-0.01579573191702366
0.022056976333260536,0.015047083608806133,-0.005206385627388954,-0.039906878024339676,0.00631209509447217,-0.015660230070352554
0.02126866951584816,0.01554183941334486,-0.005610349588096142,-0.040445007383823395,0.0061988006345927715,-0.015935197472572327
0.021163852885365486,0.015233118087053299,-0.005832833703607321,-0.04069799557328224,0.005982321221381426,-0.015797797590494156
0.021163852885365486,0.015233118087053299,-0.005832833703607321,-0.04069799557328224,0.005982321221381426,-0.015797797590494156
0.02166222594678402,0.015869013965129852,-0.007146921474486589,-0.040574654936790466,0.006442937534302473,-0.015901828184723854
0.022238142788410187,0.015734005719423294,-0.006144300103187561,-0.041315268725156784,0.0068499306216835976,-0.015865320339798927
0.02224818617105484,0.016126206144690514,-0.005354455206543207,-0.040665145963430405,0.0068459901958703995,-0.016343558207154274
0.021597666665911674,0.015857407823204994,-0.005593659821897745,-0.040685199201107025,0.006390816997736692,-0.016012510284781456
0.021862348541617393,0.015219548717141151,-0.006042560562491417,-0.04245679825544357,0.0063840411603450775,-0.016908295452594757
0.022566232830286026,0.01544866431504488,-0.006834528408944607,-0.04107622429728508,0.006325255613774061,-0.01584748923778534
0.02188083902001381,0.016936281695961952,-0.005480681546032429,-0.04063872620463371,0.00607422785833478,-0.01583161950111389
0.021434130147099495,0.016594409942626953,-0.005188655108213425,-0.04177238047122955,0.0061064003966748714,-0.01631777174770832
0.021631676703691483,0.01694955863058567,-0.005980669986456633,-0.04246591404080391,0.006041246931999922,-0.016736213117837906
0.02194085158407688,0.016406454145908356,-0.006813910789787769,-0.04371208697557449,0.006475808564573526,-0.016548998653888702
0.02229388803243637,0.017206287011504173,-0.006594860460609198,-0.041676077991724014,0.006856844760477543,-0.01657702773809433
0.021251730620861053,0.016901450231671333,-0.005564187653362751,-0.04105488583445549,0.006905686110258102,-0.016437117010354996
0.022789521142840385,0.01697097159922123,-0.006054588593542576,-0.04250069335103035,0.006509609054774046,-0.016154998913407326
0.02249789796769619,0.016770759597420692,-0.005759336054325104,-0.04310587793588638,0.006554711144417524,-0.016369568184018135
0.021953046321868896,0.016317293047904968,-0.006761934608221054,-0.04346073791384697,0.006724819075316191,-0.01620691642165184
0.022049402818083763,0.01719743013381958,-0.006431888788938522,-0.04358108341693878,0.006647869478911161,-0.01626535877585411
0.022296784445643425,0.017378589138388634,-0.006044676527380943,-0.04389197379350662,0.006414336618036032,-0.01655822992324829
0.022479170933365822,0.01733091101050377,-0.005828958470374346,-0.04324939474463463,0.006347975693643093,-0.016749108210206032
0.022594952955842018,0.01769477315247059,-0.005907231476157904,-0.04308026283979416,0.006187184248119593,-0.016515051946043968
0.022542187944054604,0.01738898642361164,-0.006191772874444723,-0.04345088452100754,0.005800948478281498,-0.016472110524773598
0.022155437618494034,0.016943566501140594,-0.006479806266725063,-0.04418867081403732,0.006322634872049093,-0.01665908470749855
0.022539261728525162,0.016935965046286583,-0.006003472954034805,-0.04331359267234802,0.006801653653383255,-0.0166010744869709
0.022854868322610855,0.017471592873334885,-0.005936404690146446,-0.042716752737760544,0.007233438082039356,-0.016746383160352707
0.02272767759859562,0.017510950565338135,-0.006551136262714863,-0.043608106672763824,0.006933634635061026,-0.016555236652493477
0.022690434008836746,0.01752730831503868,-0.006726465653628111,-0.044551800936460495,0.006459685042500496,-0.016640977934002876
0.022690434008836746,0.01752730831503868,-0.006726465653628111,-0.044551800936460495,0.006459685042500496,-0.016640977934002876
0.022529134526848793,0.017650580033659935,-0.00615870812907815,-0.04288719594478607,0.006598697043955326,-0.016653889790177345
0.022816747426986694,0.017547473311424255,-0.0061774891801178455,-0.0427679680287838,0.00671501224860549,-0.016683153808116913
0.022768380120396614,0.017145702615380287,-0.006003479473292828,-0.042826082557439804,0.006529300473630428,-0.01651683636009693
0.023628510534763336,0.018020888790488243,-0.0061939251609146595,-0.043616123497486115,0.005973606836050749,-0.016230899840593338
0.0232703797519207,0.017556117847561836,-0.006547121796756983,-0.044295378029346466,0.00643897196277976,-0.016291161999106407
0.02303607389330864,0.017497673630714417,-0.0058634462766349316,-0.04236118495464325,0.007049492094665766,-0.016615865752100945
0.02368362434208393,0.017649633809924126,-0.005967882461845875,-0.0436260811984539,0.006987587083131075,-0.01691378466784954
0.023593498393893242,0.017737451940774918,-0.0062415339052677155,-0.04431447759270668,0.006410141941159964,-0.017419027164578438
0.023718809708952904,0.017167948186397552,-0.006721433252096176,-0.0441417396068573,0.0059010605327785015,-0.016385944560170174
0.023885143920779228,0.01803670823574066,-0.006445379462093115,-0.04402948170900345,0.0063560777343809605,-0.01671033352613449
0.02375311590731144,0.018396325409412384,-0.006329608615487814,-0.04438795894384384,0.006813826039433479,-0.0164453387260437
0.023787764832377434,0.01751009002327919,-0.005917970556765795,-0.04583950713276863,0.0070237996987998486,-0.016443755477666855
0.024148449301719666,0.01795920729637146,-0.006273315288126469,-0.044110409915447235,0.007043261546641588,-0.01688954420387745
0.023937731981277466,0.018275314942002296,-0.0065250820480287075,-0.04454850032925606,0.006978690158575773,-0.017111092805862427
0.023992685601115227,0.018419405445456505,-0.006330171599984169,-0.04499336704611778,0.006866763345897198,-0.017544817179441452
0.024363471195101738,0.019013933837413788,-0.006406598258763552,-0.04573441669344902,0.006856430787593126,-0.017432956025004387
0.024446947500109673,0.018834982067346573,-0.006640197709202766,-0.04561081528663635,0.0068448381498456,-0.016770631074905396
0.024719055742025375,0.018454037606716156,-0.006807790603488684,-0.04564628005027771,0.006673196330666542,-0.01710902899503708
0.024209462106227875,0.019028648734092712,-0.0064223711378872395,-0.04599272832274437,0.006598904728889465,-0.017596859484910965
0.024443628266453743,0.018687671050429344,-0.006144555285573006,-0.04565761983394623,0.006469001993536949,-0.01813576929271221
0.02454559877514839,0.019190223887562752,-0.0062583088874816895,-0.045824240893125534,0.006368412636220455,-0.01782277040183544
0.024697283282876015,0.01972617767751217,-0.007200407329946756,-0.0461340993642807,0.006722660735249519,-0.017054378986358643
0.02422660030424595,0.019437292590737343,-0.006820274982601404,-0.046459075063467026,0.006894539576023817,-0.017009872943162918
0.02505405806005001,0.019503841176629066,-0.006194474175572395,-0.04612013325095177,0.006911685690283775,-0.017073605209589005
0.02505405806005001,0.019503841176629066,-0.006194474175572395,-0.04612013325095177,0.006911685690283775,-0.017073605209589005
0.025368893519043922,0.019871920347213745,-0.00612463615834713,-0.04764080047607422,0.0070872837677598,-0.017448116093873978
0.025664446875452995,0.019477056339383125,-0.005926142912358046,-0.04833626002073288,0.006648477166891098,-0.0178229957818985
0.025481050834059715,0.019813278689980507,-0.006498083006590605,-0.046615876257419586,0.0065851942636072636,-0.018181128427386284
0.02470383234322071,0.02002592384815216,-0.006828476209193468,-0.047366466373205185,0.0067037129774689674,-0.018089769408106804
0.024289993569254875,0.01973831094801426,-0.006682256236672401,-0.0495067834854126,0.006629343144595623,-0.017687173560261726
0.025383390486240387,0.019816964864730835,-0.006291544064879417,-0.049303848296403885,0.006491164211183786,-0.01740913651883602
0.02543088048696518,0.020272089168429375,-0.006429445464164019,-0.04629587009549141,0.006888426374644041,-0.0177838783711195
0.025711029767990112,0.019828608259558678,-0.00655652629211545,-0.04830296337604523,0.007467649877071381,-0.017180312424898148
0.026035677641630173,0.01984836533665657,-0.006428747903555632,-0.04765930771827698,0.0070456285029649734,-0.017619315534830093
0.026117272675037384,0.020779328420758247,-0.006894314661622047,-0.04764265939593315,0.007035519927740097,-0.018039710819721222
0.026193907484412193,0.02038879692554474,-0.00727896299213171,-0.04809146374464035,0.007299724034965038,-0.018194371834397316
0.026302630081772804,0.020363623276352882,-0.006618762854486704,-0.04802877455949783,0.007341302465647459,-0.01711520366370678
0.026086391881108284,0.020854655653238297,-0.006274250335991383,-0.04784940928220749,0.007219514809548855,-0.01747511513531208
0.026357589289546013,0.021022003144025803,-0.007178178057074547,-0.04780993238091469,0.007016082759946585,-0.018111849203705788
0.026747342199087143,0.020922143012285233,-0.00839830469340086,-0.04810882732272148,0.007283770013600588,-0.01827458292245865
0.026417246088385582,0.020785823464393616,-0.008072557859122753,-0.047801848500967026,0.007614356931298971,-0.018023332580924034
0.02631283365190029,0.020583927631378174,-0.007377053145319223,-0.04742196947336197,0.007701420690864325,-0.017630452290177345
0.02644256316125393,0.02089780941605568,-0.007136027328670025,-0.04717949032783508,0.0072610992938280106,-0.01772260293364525
0.026940995827317238,0.021477581933140755,-0.007523922715336084,-0.04931631311774254,0.006985096726566553,-0.018170585855841637
0.026989955455064774,0.022280029952526093,-0.007139990106225014,-0.04962676763534546,0.007301055360585451,-0.01790890283882618
0.027218347415328026,0.022602234035730362,-0.007330150809139013,-0.04711310565471649,0.007343582808971405,-0.018085019662976265
0.027432946488261223,0.020985376089811325,-0.007977394387125969,-0.048807669430971146,0.007264652289450169,-0.0183701328933239
0.027358202263712883,0.02061477117240429,-0.00826920848339796,-0.048271048814058304,0.007663385011255741,-0.018483182415366173
0.027617452666163445,0.02192847989499569,-0.008045376278460026,-0.050407107919454575,0.007728322874754667,-0.01850900985300541
0.027829205617308617,0.022491686046123505,-0.007863146252930164,-0.04878947138786316,0.00737334368750453,-0.018845250830054283
0.028101777657866478,0.02221628651022911,-0.007849321700632572,-0.04988963156938553,0.00738470908254385,-0.01843644678592682
0.028101777657866478,0.02221628651022911,-0.007849321700632572,-0.04988963156938553,0.00738470908254385,-0.01843644678592682
0.027591001242399216,0.021320518106222153,-0.008419308811426163,-0.05159920081496239,0.007357700262218714,-0.01795928366482258
0.02808389626443386,0.02237619459629059,-0.008110263384878635,-0.0515579953789711,0.0074558197520673275,-0.01818118616938591
0.02893081121146679,0.023219725117087364,-0.007700519170612097,-0.0509389266371727,0.007457544095814228,-0.018983324989676476
0.02893081121146679,0.023219725117087364,-0.007700519170612097,-0.0509389266371727,0.007457544095814228,-0.018983324989676476
0.027006927877664566,0.022279413416981697,-0.008130867965519428,-0.051447536796331406,0.007804643828421831,-0.018863145262002945
0.029231416061520576,0.022564953193068504,-0.008273513987660408,-0.05169473960995674,0.007507619448006153,-0.018956942483782768
0.029017457738518715,0.022863328456878662,-0.008133510127663612,-0.051886431872844696,0.007401145529001951,-0.019390374422073364
0.0284833125770092,0.02351093851029873,-0.008107075467705727,-0.05214792117476463,0.007990325801074505,-0.019527744501829147
0.02892586588859558,0.02481493353843689,-0.00792293343693018,-0.05259130522608757,0.007652804255485535,-0.01912739686667919
0.02893887832760811,0.022518327459692955,-0.007397050969302654,-0.05237044766545296,0.007265703286975622,-0.018198287114501
0.02902631275355816,0.02324519120156765,-0.008817781694233418,-0.05272654816508293,0.00730676157400012,-0.018732959404587746
0.028120964765548706,0.02359870821237564,-0.008315079845488071,-0.05345199257135391,0.00794976670295,-0.018160689622163773
0.02797435037791729,0.023370100185275078,-0.008289389312267303,-0.05294626206159592,0.007979905232787132,-0.018293457105755806
0.029351234436035156,0.023493953049182892,-0.008699427358806133,-0.05476130172610283,0.007604870479553938,-0.019005270674824715
0.029821597039699554,0.023559819906949997,-0.008577498607337475,-0.053785525262355804,0.007503061089664698,-0.01975763589143753
0.029477762058377266,0.023602191358804703,-0.008036837913095951,-0.05170609802007675,0.007929746061563492,-0.019507592543959618
0.028974613174796104,0.02404746226966381,-0.007937820628285408,-0.05316326767206192,0.008065858855843544,-0.019678417593240738
0.028960786759853363,0.024050334468483925,-0.009029454551637173,-0.05523819103837013,0.0075418902561068535,-0.019748462364077568
0.029582424089312553,0.023826371878385544,-0.008755943737924099,-0.05473858118057251,0.007431065198034048,-0.019663438200950623
0.029671423137187958,0.023971088230609894,-0.007739503867924213,-0.05209612101316452,0.007643377408385277,-0.019693080335855484
0.02974172681570053,0.02381017617881298,-0.008090762421488762,-0.05359679460525513,0.008109912276268005,-0.01996506005525589
0.029943298548460007,0.024002499878406525,-0.008825142867863178,-0.054331496357917786,0.007704141084104776,-0.02026361972093582
0.03010992892086506,0.02434542588889599,-0.008596569299697876,-0.05410799756646156,0.007909799925982952,-0.020192263647913933
0.030600085854530334,0.024715248495340347,-0.008178051561117172,-0.05351777747273445,0.007976237684488297,-0.02020411379635334
0.030238710343837738,0.02442048117518425,-0.008783007971942425,-0.05351190268993378,0.007987096905708313,-0.02006686106324196
0.03004765696823597,0.024318665266036987,-0.008410019800066948,-0.05381390452384949,0.007856575772166252,-0.020035700872540474
0.03004765696823597,0.024318665266036987,-0.008410019800066948,-0.05381390452384949,0.007856575772166252,-0.020035700872540474
