davideferrari95/blind_handover_controller/data/Test 183 - [2024-02-08 -- 11-24-28]/joint_states_data.csv
shoulder_pan_joint,shoulder_lift_joint,elbow_joint,wrist_1_joint,wrist_2_joint,wrist_3_joint
0.0005976779502816498,3.7175068428041413e-05,-0.005586123093962669,0.0033585524652153254,-0.0,0.001141164219006896
0.0005976779502816498,3.7175068428041413e-05,-0.005586123093962669,0.0033585524652153254,-0.0,0.001141164219006896
0.0005976779502816498,3.7175068428041413e-05,-0.005586123093962669,0.0033585524652153254,-0.0,0.001141164219006896
0.0006209785933606327,4.229980731906835e-06,-0.0059257084503769875,0.0029112230986356735,-0.0,0.0009919768199324608
0.000574408273678273,5.675058645238096e-08,-0.005198946222662926,0.0026053248438984156,-0.0,0.0008409295696765184
0.0006446511833928525,7.61381513392223e-10,-0.005146325100213289,0.0025031832046806812,-0.0,0.0007275105454027653
0.000642505765426904,1.0214904443139883e-11,-0.00553344190120697,0.0026059283409267664,-0.0,0.0007398638990707695
0.0006053945980966091,1.3704598708034338e-13,-0.005557579454034567,0.0024709037970751524,-0.0,0.0006677878554910421
0.0006316839717328548,1.8386465835501476e-15,-0.005789609160274267,0.0023382457438856363,-0.0,0.0006040872540324926
0.0006309854798018932,2.4667793107029717e-17,-0.005572952330112457,0.002196137560531497,-0.0,0.0006088957889005542
0.000603982771281153,3.3094992245060863e-19,-0.005550771486014128,0.002248908393085003,-0.0,0.0005778397899121046
0.0006603890215046704,4.44011569669642e-21,-0.005331610795110464,0.0024486971087753773,-0.0,0.0004670286434702575
0.0006922537577338517,5.956981520491878e-23,-0.0052740201354026794,0.0025313603691756725,-0.0,0.0004052608273923397
0.0007163614500313997,7.992051396635618e-25,-0.005516309756785631,0.002862371504306793,-0.0,0.0004393755516503006
0.0007354415720328689,1.0722356890763388e-26,-0.006046078633517027,0.0028929486870765686,-0.0,0.00046944469795562327
0.0009441284346394241,1.9299862462535053e-30,-0.004902457352727652,0.0033367807045578957,-0.0,0.0007842134218662977
0.000846813665702939,2.589322826136083e-32,-0.005196125712245703,0.003136531449854374,-0.0,0.0008401108789257705
0.0008394123869948089,3.4739067717389318e-34,-0.005168855655938387,0.0029927892610430717,-0.0,0.0008262625196948647
0.0007522410596720874,4.660689096920775e-36,-0.005336293019354343,0.0028725615702569485,-0.0,0.0007549682050012052
0.0007666907040402293,6.252908759712114e-38,-0.003676150692626834,0.0029033850878477097,-0.0,0.0007220777915790677
0.0007174508646130562,8.389069438465523e-40,-0.0028799441643059254,0.0028332320507615805,-0.0,0.0006941678002476692
0.0007174508646130562,8.389069438465523e-40,-0.0028799441643059254,0.0028332320507615805,-0.0,0.0006941678002476692
0.0007393655832856894,1.1255229265456931e-41,-0.0024955172557383776,0.0031149908900260925,-0.0,0.0006355720106512308
0.0007252207142300904,1.5134023414708024e-43,-0.003339433344081044,0.0030113488901406527,-0.0,0.0005893848720006645
0.0006804755539633334,1.401298464324817e-45,-0.004262553062289953,0.002825440838932991,-0.0,0.0006160045741125941
0.0006985771469771862,0.0,-0.0038040229119360447,0.0026163896545767784,-0.0,0.0006451284280046821
0.0007389261736534536,0.0,-0.002996228402480483,0.0028678711969405413,-0.0,0.000669253000523895
0.0007951940642669797,0.0,-0.0026301436591893435,0.003388894721865654,-0.0,0.0010523083619773388
0.0008093901560641825,0.0,-0.002787423087283969,0.003647292498499155,-0.0,0.0011364218080416322
0.0007962186355143785,0.0,-0.0032261544838547707,0.0033245778176933527,-0.0,0.0011067463783547282
0.000746014469768852,0.0,-0.0035723820328712463,0.0029571224004030228,-0.0,0.001085803029127419
0.0008379300124943256,0.0,-0.0032828086987137794,0.002824018709361553,-0.0,0.0009669323917478323
0.0008494847570545971,0.0,-0.0028385231271386147,0.003023141762241721,-0.0,0.0008770261192694306
0.0008464750135317445,0.0,-0.0023847431875765324,0.0032399012707173824,-0.0,0.0008108395850285888
0.0008281528134830296,0.0,-0.0025086686946451664,0.0034445554483681917,-0.0,0.0007085301331244409
0.000779750756919384,0.0,-0.0032415310852229595,0.0032052709721028805,-0.0,0.000716063950676471
0.0008852654718793929,0.0,-0.003115819301456213,0.00299290893599391,-0.0,0.0006988280219957232
0.000888788141310215,0.0,-0.0031138185877352953,0.0027620727196335793,-0.0,0.0006745297578163445
0.0008148548076860607,0.0,-0.0032852976582944393,0.0029432440642267466,-0.0,0.000569623545743525
0.000812413461972028,0.0,-0.003227286972105503,0.0029594756197184324,-0.0,0.0005661858594976366
0.000740052608307451,0.0,-0.003599561983719468,0.0026424957904964685,-0.0,0.0005966460448689759
0.000720564741641283,0.0,-0.0034009183291345835,0.002571284072473645,-0.0,0.0006034541875123978
0.0006430736393667758,0.0,-0.003503171494230628,0.0024359305389225483,-0.0,0.0005944455042481422
0.0006960690370760858,0.0,-0.003899629693478346,0.0024383198469877243,-0.0,0.0008340933709405363
0.0006960690370760858,0.0,-0.003899629693478346,0.0024383198469877243,-0.0,0.0008340933709405363
0.0006626896210946143,0.0,-0.003434506943449378,0.002545364433899522,-0.0,0.0007978106732480228
0.0008070397889241576,0.0,-0.00366743141785264,0.00287730828858912,-0.0,0.0007603052072227001
0.0008070397889241576,0.0,-0.00366743141785264,0.00287730828858912,-0.0,0.0007603052072227001
0.0007604728452861309,0.0,-0.004011885728687048,0.0028918662574142218,-0.0,0.0006514820270240307
0.0007718149572610855,0.0,-0.0038321614265441895,0.002734206151217222,-0.0,0.0006539382156915963
0.0007098956266418099,0.0,-0.003914179280400276,0.0027817199006676674,-0.0,0.0006059256265871227
0.0007098956266418099,0.0,-0.003914179280400276,0.0027817199006676674,-0.0,0.0006059256265871227
0.0007391726830974221,0.0,-0.003978537395596504,0.0030185815412551165,-0.0,0.0006306609720923007
0.0007618134841322899,0.0,-0.00397033104673028,0.0030939674470573664,-0.0,0.0006494955741800368
0.0007788842776790261,0.0,-0.00402036914601922,0.0031928960233926773,-0.0,0.0006616655737161636
0.0007922006188891828,0.0,-0.00404245825484395,0.0032588858157396317,-0.0,0.0007175619248300791
0.0009908259380608797,0.0,-0.004472473636269569,0.00301786744967103,-0.0,0.000741591677069664
0.0008879523957148194,0.0,-0.004175576381385326,0.0030667344108223915,-0.0,0.0007345449412241578
0.0008883331902325153,0.0,-0.003946634475141764,0.0030092985834926367,-0.0,0.0007136204512789845
0.0008865594863891602,0.0,-0.00393201457336545,0.00292566092684865,-0.0,0.0009738530497997999
0.0009081247262656689,0.0,-0.0039458442479372025,0.002937797224149108,-0.0,0.0009963352931663394
0.0009177806787192822,0.0,-0.004243370611220598,0.002993381815031171,-0.0,0.0009937218856066465
0.000915283162612468,0.0,-0.0043000164441764355,0.0030833103228360415,-0.0,0.0010912889847531915
0.0009165322408080101,0.0,-0.004082288593053818,0.00311022880487144,-0.0,0.0010779757285490632
0.0010014426661655307,0.0,-0.0038723330944776535,0.0029213486704975367,-0.0,0.001018818817101419
0.0009897538693621755,0.0,-0.0038389787077903748,0.002885671565309167,-0.0,0.0009057265124283731
0.0009757454390637577,0.0,-0.004009612835943699,0.0029318786691874266,-0.0,0.0008984810556285083
0.0009654686436988413,0.0,-0.004089654888957739,0.003125980030745268,-0.0,0.0007974480395205319
0.0009292595786973834,0.0,-0.0039368909783661366,0.0030871022026985884,-0.0,0.0006826022872701287
0.0010341382585465908,0.0,-0.0038061130326241255,0.0029954533092677593,-0.0,0.0007024795631878078
0.0010159558150917292,0.0,-0.004233746323734522,0.002913495060056448,-0.0,0.0007750538061372936
0.0011204768670722842,0.0,-0.004545844625681639,0.0030389244202524424,-0.0,0.0008795973844826221
0.0011618786957114935,0.0,-0.0041963160037994385,0.0031910904217511415,-0.0,0.0009935536654666066
0.0011005598353222013,7.470694254152477e-05,-0.004057802725583315,0.0029103767592459917,-0.0,0.0009871766669675708
0.0012534548295661807,9.441457223147154e-05,-0.0043660663068294525,0.002691800706088543,-0.0,0.0011827616253867745
0.0012534548295661807,9.441457223147154e-05,-0.0043660663068294525,0.002691800706088543,-0.0,0.0011827616253867745
0.0011538421967998147,9.088455408345908e-05,-0.004230404272675514,0.002786556724458933,-0.0,0.0010273212101310492
0.001119180116802454,8.908531162887812e-05,-0.004107949789613485,0.002744215540587902,-0.0,0.0010087493574246764
0.0011959632392972708,8.735599112696946e-05,-0.003964457660913467,0.002744029276072979,-0.0,0.0009258323698304594
0.0011827378766611218,8.569261990487576e-05,-0.004351794254034758,0.0028661005198955536,-0.0,0.0008903385023586452
0.0013889942783862352,8.409119618590921e-05,-0.004541678819805384,0.0029531598556786776,-0.0,0.0008897806401364505
0.0013554824981838465,9.712820610729977e-05,-0.004263038747012615,0.0031036108266562223,-0.0,0.0008910292526707053
0.0013554824981838465,9.712820610729977e-05,-0.004263038747012615,0.0031036108266562223,-0.0,0.0008910292526707053
0.00129236513748765,9.724809206090868e-05,-0.0039763967506587505,0.0030714604072272778,-0.0,0.0008922912529669702
0.0014260021271184087,9.55524665187113e-05,-0.003904841374605894,0.0032147159799933434,-0.0,0.0009469627984799445
0.0013330334331840277,9.389142360305414e-05,-0.004470170941203833,0.003186807269230485,-0.0,0.0009527959628030658
0.001269869040697813,9.228676208294928e-05,-0.00415313895791769,0.0030379327945411205,-1.7504455627204152e-06,0.0009465236798860133
0.0013355943374335766,9.073609544429928e-05,-0.0038479247596114874,0.0029710899107158184,-1.1429158774944881e-07,0.000999017502181232
0.0013868025271221995,0.0001039065609802492,-0.003623452503234148,0.002923366380855441,-7.46242356797211e-09,0.0009910358348861337
0.0016788389766588807,0.00010241430572932586,-0.004015990532934666,0.0029725544154644012,-4.872429126834277e-10,0.0008717987802810967
0.0015761906979605556,0.00010077871411340311,-0.004540090914815664,0.0029741129837930202,-3.1813482403997284e-11,0.0008599896682426333
0.001472928561270237,9.919195872498676e-05,-0.0041590845212340355,0.003169825067743659,-2.0771930182850173e-12,0.0007694000378251076
0.0015081122983247042,9.765454160515219e-05,-0.004389367997646332,0.0031616785563528538,-1.3562587196976755e-13,0.0007772636599838734
0.0013920033816248178,0.0001052078659995459,-0.003618411486968398,0.0034369868226349354,-8.855399967727228e-15,0.0006985383806750178
0.0013426747173070908,0.0001081863374565728,-0.0035669065546244383,0.0031584089156240225,-5.781943247955604e-16,0.0007114298059605062
0.001362440874800086,0.00010664516594260931,-0.0038037484046071768,0.00308731896802783,-3.7751957365381197e-17,0.0007329321815632284
0.0014345645904541016,0.00010508952982490882,-0.004305745474994183,0.0029182941652834415,-2.4649328781396308e-18,0.0010081203654408455
0.0016924671363085508,0.00010357775317970663,-0.004235166124999523,0.0029167919419705868,-1.6094250260700243e-19,0.001197956153191626
0.0017288066446781158,0.00010210883192485198,-0.003979366738349199,0.0029280062299221754,-1.0508395873122827e-20,0.0011681353207677603
0.0018085783813148737,0.0001509352878201753,-0.003552819602191448,0.0030198197346180677,-6.861231445347847e-22,0.0011270844843238592
0.0016366828931495547,0.00017047367873601615,-0.0034923660568892956,0.003243903396651149,-4.479894064640175e-23,0.0009885040344670415
0.0015241520013660192,0.00016457808669656515,-0.004222013521939516,0.003066954668611288,-2.9250506798422353e-24,0.0008933460339903831
0.0016218428499996662,0.00015877571422606707,-0.004108468070626259,0.0028435487765818834,-1.909849138093822e-25,0.0008214167901314795
0.0015394424553960562,0.00015336442447733134,-0.0038713819812983274,0.0026677357964217663,-1.246995111490421e-26,0.0007667060708627105
0.001977411564439535,0.00014830981672275811,-0.003748183837160468,0.0029216373804956675,-8.141986321623647e-28,0.0007789074443280697
0.0017529841279610991,0.0001665806194068864,-0.004150427412241697,0.0032182373106479645,-3.47105614283689e-30,0.0008758248295634985
0.0017635064432397485,0.00016195308126043528,-0.004201390314847231,0.0030416748486459255,-2.2663516977921493e-31,0.0009636383038014174
0.0018303155666217208,0.0001572421024320647,-0.004291160963475704,0.0027416106313467026,-1.479765626871264e-32,0.001202437444590032
0.0016652671620249748,0.00015279294166248292,-0.004038488492369652,0.0027143070474267006,-9.661813267755593e-34,0.001489944290369749
0.0017026314744725823,0.0001730119256535545,-0.003751340787857771,0.002695272443816066,-6.30847295673642e-35,0.0014385165413841605
0.001787086483091116,0.00016870659601408988,-0.00369230005890131,0.002596772275865078,-4.1189819973393686e-36,0.0013569926377385855
0.001838300609961152,0.00016431123367510736,-0.003906077705323696,0.0027506386395543814,-2.689401159740247e-37,0.0012750362511724234
0.0019019236788153648,0.00018269612337462604,-0.00440178019925952,0.0028785106260329485,-1.7559865836940824e-38,0.0012030572397634387
0.001858271542005241,0.00017847026174422354,-0.00408225366845727,0.002963467501103878,-1.1465339957197794e-39,0.0011533107608556747
0.001858271542005241,0.00017847026174422354,-0.00408225366845727,0.002963467501103878,-1.1465339957197794e-39,0.0011533107608556747
0.0018276049522683024,0.0002418687508907169,-0.0042933449149131775,0.0028197267092764378,-7.486016656116038e-41,0.0011351677821949124
0.0019067376852035522,0.00026152768987230957,-0.004291847813874483,0.002807215554639697,-4.887729043564962e-42,0.0011404119431972504
0.0019651094917207956,0.0002475903311278671,-0.004057727754116058,0.0028253432828933,-3.194960498660583e-43,0.0011242175241932273
0.0019505221862345934,0.00026542969862930477,-0.0039364248514175415,0.002784921322017908,-2.1019476964872256e-44,0.00116956967394799
0.001978633226826787,0.0002674422867130488,-0.004333795048296452,0.0029066770803183317,-1.401298464324817e-45,0.0011666251812130213
0.001923047355376184,0.00025501492200419307,-0.004084201529622078,0.0031427943613380194,-0.0,0.0011217787396162748
0.0021355412900447845,0.0002824468247126788,-0.0038387575186789036,0.003101882291957736,-0.0,0.0010783402249217033
0.0021561761386692524,0.0002718212199397385,-0.0041143945418298244,0.003070578910410404,-0.0,0.0009770049946382642
0.002074249554425478,0.00026059840456582606,-0.004601915832608938,0.0028399997390806675,-0.0,0.0009490267839282751
0.0020335037261247635,0.000285496877040714,-0.004575897008180618,0.0027554375119507313,-0.0,0.0009405392920598388
0.0020482416730374098,0.0002750628627836704,-0.0037419376894831657,0.0028072576969861984,-0.0,0.0009350673644803464
0.002054087584838271,0.0003911422681994736,-0.003582899458706379,0.0029746494255959988,-0.0,0.0010047260439023376
0.002038526115939021,0.0003648624988272786,-0.004147957544773817,0.00286287534981966,-0.0,0.0011143733281642199
0.002190561965107918,0.0003375601372681558,-0.004823554772883654,0.0028961242642253637,-0.0,0.0011248040245845914
0.002012418583035469,0.0003741881810128689,-0.004393290728330612,0.0028761690482497215,-0.0,0.0011546011082828045
0.0020994048099964857,0.00035218364791944623,-0.00394078902900219,0.002819441258907318,7.99573099357076e-05,0.0012120220344513655
0.0022778939455747604,0.000363543484127149,-0.0038074124604463577,0.0026932896580547094,0.0003554662689566612,0.0013046362437307835
0.0024293686728924513,0.0003869925276376307,-0.004221530631184578,0.002576985862106085,0.0003305866557639092,0.0013643866404891014
0.002360278507694602,0.00037244337727315724,-0.004583995323628187,0.002468416467308998,0.0003533296112436801,0.0013513434678316116
0.002473022323101759,0.00045162756578065455,-0.00413530133664608,0.0023765333462506533,0.000344877626048401,0.0014203382888808846
0.0023363351356238127,0.00042248793761245906,-0.003907048609107733,0.0023820442147552967,0.00032503504189662635,0.0013289309572428465
0.002222096547484398,0.00046039727749302983,-0.003989858087152243,0.0024469238705933094,0.0003066301578655839,0.0012503272155299783
0.002222096547484398,0.00046039727749302983,-0.003989858087152243,0.0024469238705933094,0.0003066301578655839,0.0012503272155299783
0.002350728726014495,0.0004269556957297027,-0.004421145189553499,0.002691296860575676,0.00029015197651460767,0.0011407540878280997
0.00251913839019835,0.00046069742529653013,-0.0048348079435527325,0.002793919062241912,0.0003180863568559289,0.0010873634601011872
0.0024255088064819574,0.00043011322850361466,-0.00431438721716404,0.002820926485583186,0.0003054474072996527,0.001094006234779954
0.0025960453785955906,0.0004593265475705266,-0.0039053859654814005,0.0026646764017641544,0.00029149281908757985,0.001066880882717669
0.002580218482762575,0.0004324936307966709,-0.003781005972996354,0.0027091680094599724,0.0002786105906125158,0.0012224158272147179
0.0024147897493094206,0.000519913446623832,-0.003918150905519724,0.0026187628973275423,0.00028544908855110407,0.0013412158004939556
0.0024466391187161207,0.0004797597066499293,-0.0042769042775034904,0.0024861085694283247,0.0002912617928814143,0.0015633645234629512
0.0023394403979182243,0.0004337069403845817,-0.004547659307718277,0.0024182952474802732,0.00028102699434384704,0.0016792227979749441
0.00253992504440248,0.00044699417776428163,-0.0038565739523619413,0.002559816697612405,0.0002705394581425935,0.0015271371230483055
0.002687685890123248,0.00043594464659690857,-0.0035267118364572525,0.0025383387692272663,0.0002607454953249544,0.0013220907421782613
0.002707289531826973,0.00046815603855066,-0.0042885844595730305,0.0027155911084264517,0.0002520167035982013,0.0011603557504713535
0.0025224287528544664,0.0004981629899702966,-0.004821798298507929,0.002620052546262741,0.00023913498444017023,0.0010254381923004985
0.002564809750765562,0.0007046340615488589,-0.004252709448337555,0.002403448335826397,0.0002492603671271354,0.0009992000414058566
0.0027253786101937294,0.0007422169437631965,-0.0038386702071875334,0.0024400781840085983,0.0002579038555268198,0.000989188440144062
0.002600867534056306,0.0012743226252496243,-0.003798617282882333,0.002370385220274329,0.0002474285429343581,0.0009723930270411074
0.0029356300365179777,0.001403910107910633,-0.0043640718795359135,0.002597038634121418,0.00026580929988995194,0.001017359783872962
0.0030137773137539625,0.0013018305180594325,-0.004647340625524521,0.002678041346371174,0.00026385209639556706,0.0010219374671578407
0.0030349402222782373,0.0011843281099572778,-0.004248862620443106,0.0024246980901807547,0.00028062824276275933,0.001354701118543744
0.002857473213225603,0.0010565470438450575,-0.0037181859370321035,0.0024231499992311,0.00027826998848468065,0.0013854160206392407
0.0030076203402131796,0.0008725401712581515,-0.0035446383990347385,0.0023450152948498726,0.0002693799033295363,0.0013645621947944164
0.002952401991933584,0.0008662761538289487,-0.0038032850716263056,0.0023155799135565758,0.0004096121119800955,0.0013254786608740687
0.003237200900912285,0.0014629290672019124,-0.004966252949088812,0.0022874162532389164,0.0004253456136211753,0.001309097744524479
0.003017527051270008,0.0015521933091804385,-0.004267341922968626,0.00237574172206223,0.00045227789087221026,0.0013982801465317607
0.0030363474506884813,0.001818645279854536,-0.0034766835160553455,0.0023459666408598423,0.00042928208131343126,0.001415348262526095
0.003016156144440174,0.0016736375400796533,-0.0038414245937019587,0.00230972096323967,0.0004558394430205226,0.001839723321609199
0.0032214068342000246,0.0015398947289213538,-0.0043065790086984634,0.002376277232542634,0.0005320344353094697,0.0017580583225935698
0.00318523240275681,0.001481005223467946,-0.004978802055120468,0.0023791450075805187,0.0006150873377919197,0.0017502412665635347
0.00318523240275681,0.001481005223467946,-0.004978802055120468,0.0023791450075805187,0.0006150873377919197,0.0017502412665635347
0.0035833504516631365,0.0015490103978663683,-0.004361958708614111,0.002314907731488347,0.0006495892885141075,0.0017037481302395463
0.0032679846044629812,0.0017837885534390807,-0.003853566013276577,0.0024714996106922626,0.0006750839529559016,0.0015087167266756296
0.003279398661106825,0.0018123019253835082,-0.003744180779904127,0.0025965210516005754,0.0006614326848648489,0.001360405469313264
0.0032398984767496586,0.0021862380672246218,-0.004402540624141693,0.002442347351461649,0.0009339344105683267,0.0013905392261222005
0.0032606448512524366,0.0021714293397963047,-0.004631410352885723,0.0021550115197896957,0.0008744056103751063,0.0015282491222023964
0.003398887813091278,0.0023431796580553055,-0.004348010290414095,0.002037070458754897,0.0008655795245431364,0.0016975408652797341
0.0036289668641984463,0.0023200404830276966,-0.003923291340470314,0.0019438249291852117,0.0008545743767172098,0.0021725480910390615
0.0033509565982967615,0.002213260857388377,-0.003887007711455226,0.002000371692702174,0.0007866631494835019,0.0020063803531229496
0.003359676105901599,0.0022956463508307934,-0.004500473849475384,0.0022732720244675875,0.0007494105375371873,0.0018219767371192575
0.003224280197173357,0.002182167023420334,-0.004624796565622091,0.0021380456164479256,0.0007617892697453499,0.0016520029166713357
0.004028799012303352,0.002395597053691745,-0.004611624404788017,0.0021158228628337383,0.0007638572715222836,0.0013554547913372517
0.0034787647891789675,0.002626087050884962,-0.004199312534183264,0.0022994454484432936,0.0007529901922680438,0.0012284271651878953
0.0033689585980027914,0.0027636424638330936,-0.00394734600558877,0.00234054634347558,0.0007262536673806608,0.0012440558057278395
0.0033983811736106873,0.0026819638442248106,-0.004311241675168276,0.002298919018357992,0.0008465813007205725,0.0018030924256891012
0.003483937820419669,0.002781818388029933,-0.0050853644497692585,0.0022106971591711044,0.0008607698837295175,0.002365379361435771
0.003684458089992404,0.002555661601945758,-0.004814646206796169,0.0021313049364835024,0.0008663749322295189,0.0026795114390552044
0.003803971456363797,0.0023591937497258186,-0.004072029609233141,0.0020045540295541286,0.000827868701890111,0.0025121173821389675
0.003484522458165884,0.002393446397036314,-0.0037681125104427338,0.00217137741856277,0.0010441348422318697,0.0022274134680628777
0.003512520110234618,0.002544290851801634,-0.004270429722964764,0.0023807098623365164,0.0009947482030838728,0.0017636530101299286
0.0036963620223104954,0.0024663202930241823,-0.004534141626209021,0.0023689379449933767,0.0009167015668936074,0.001450762734748423
0.0036569791845977306,0.0025153399910777807,-0.004565826617181301,0.0021491139195859432,0.0009023466263897717,0.0015050621004775167
0.003687100950628519,0.0025149451103061438,-0.004615385551005602,0.0020706632640212774,0.0008137779077515006,0.0017526719020679593
0.003775423625484109,0.002371553098782897,-0.004193349741399288,0.0022498967591673136,0.0007436072337441146,0.002102256752550602
0.0035881635267287493,0.0023471792228519917,-0.00454571982845664,0.0021311549935489893,0.0006688112043775618,0.002407277002930641
0.003513745730742812,0.0024784926790744066,-0.004628509748727083,0.001922495779581368,0.0006068363436497748,0.0021623880602419376
0.00365515798330307,0.0026716687716543674,-0.00420081103220582,0.0017894187476485968,0.0006306616705842316,0.0017870599403977394
0.004158120136708021,0.002439116593450308,-0.0044419970363378525,0.001698403968475759,0.0006181720527820289,0.0013811658136546612
0.0042313155718147755,0.0025006793439388275,-0.004692337475717068,0.001840520417317748,0.0006028705975040793,0.0013128353748470545
0.0042313155718147755,0.0025006793439388275,-0.004692337475717068,0.001840520417317748,0.0006028705975040793,0.0013128353748470545
0.003592572407796979,0.002310490934178233,-0.004593288991600275,0.001999671570956707,0.0006344189750961959,0.0014605957549065351
0.003592572407796979,0.002310490934178233,-0.004593288991600275,0.001999671570956707,0.0006344189750961959,0.0014605957549065351
0.0037573552690446377,0.0025669641327112913,-0.0043156808242201805,0.0018676039762794971,0.0005903872661292553,0.0017867861315608025
0.0038340368773788214,0.0027716881595551968,-0.004060712642967701,0.0017346800304949284,0.0006161477649584413,0.00218514958396554
0.003812408773228526,0.0025268392637372017,-0.004454928915947676,0.0016695137601345778,0.0006052901153452694,0.0022624267730861902
0.004356087185442448,0.0025616995990276337,-0.005476954393088818,0.001504114014096558,0.000591339950915426,0.0021746743004769087
0.004188366234302521,0.002362433122470975,-0.005232705734670162,0.0014965184964239597,0.0006100010359659791,0.0018114279955625534
0.0038927504792809486,0.0023159566335380077,-0.0038548149168491364,0.0014800686622038484,0.0006473452667705715,0.0016952169826254249
0.004290082026273012,0.002536692190915346,-0.0035062511451542377,0.0017892718315124512,0.0006265463307499886,0.0016249719774350524
0.004216657020151615,0.0024977680295705795,-0.004292501602321863,0.001709793577902019,0.0006518048467114568,0.001788957859389484
0.0040059820748865604,0.0024197311140596867,-0.005104736424982548,0.0017931777983903885,0.0006583592621609569,0.0019333303207531571
0.0041115907952189445,0.002792685991153121,-0.00472780829295516,0.0014923193957656622,0.0007871369598433375,0.0023900652304291725
0.0041115907952189445,0.002792685991153121,-0.00472780829295516,0.0014923193957656622,0.0007871369598433375,0.0023900652304291725
0.004188376013189554,0.002595716854557395,-0.004116227850317955,0.0013699072878807783,0.0007508822018280625,0.002357343677431345
0.004331831820309162,0.002722562523558736,-0.004320164676755667,0.0014469685265794396,0.0007437963504344225,0.0022994414903223515
0.004021668806672096,0.0027050445787608624,-0.004313293844461441,0.0017482266994193196,0.0006874153623357415,0.002057271543890238
0.004206547047942877,0.0027620005421340466,-0.005022027529776096,0.001799259684048593,0.0007035020389594138,0.0018640708876773715
0.004270134028047323,0.0025448575615882874,-0.0048758420161902905,0.0017629944486543536,0.0006950114038772881,0.001811588415876031
0.004059263970702887,0.002507179044187069,-0.004358815494924784,0.0017910213209688663,0.0007070903666317463,0.002014259807765484
0.004441446624696255,0.0025921068154275417,-0.004526244476437569,0.0017280274769291282,0.0006761655677109957,0.0021145103964954615
0.004496467765420675,0.002461655531078577,-0.004788610618561506,0.0017511994810774922,0.0006907273782417178,0.002348276786506176
0.004544725641608238,0.002887638984248042,-0.005049371626228094,0.0016017192974686623,0.0006767903687432408,0.0022211105097085238
0.0043683843687176704,0.0030427786987274885,-0.004268427845090628,0.0013347598724067211,0.0006887197378091514,0.0020989724434912205
0.004181265830993652,0.0028570194263011217,-0.004236426204442978,0.0013129705330356956,0.00062600988894701,0.0021209889091551304
0.004426585976034403,0.0029902933165431023,-0.005248613655567169,0.0012781127588823438,0.0006534235435537994,0.0025060989428311586
0.004518820438534021,0.003042261116206646,-0.005189231131225824,0.0012335069477558136,0.0006360459374263883,0.0025677562225610018
0.004555714316666126,0.0033149076625704765,-0.004906542133539915,0.001160872750915587,0.0006165190716274083,0.002468141494318843
0.004103450104594231,0.0033883959986269474,-0.004521161317825317,0.0011284826323390007,0.0006389027694240212,0.0023694911506026983
0.00444094929844141,0.0034161191433668137,-0.004526094533503056,0.0010063507361337543,0.0006784854340367019,0.002135563874617219
0.00444094929844141,0.0034161191433668137,-0.004526094533503056,0.0010063507361337543,0.0006784854340367019,0.002135563874617219
0.004607810638844967,0.0030706969555467367,-0.0046928818337619305,0.0009847674518823624,0.0007080771611072123,0.0021900201682001352
0.004506929311901331,0.0031202505342662334,-0.0049081649631261826,0.000971144821960479,0.0007313782698474824,0.002313712378963828
0.004681901074945927,0.0033199929166585207,-0.005217593628913164,0.000961358833592385,0.000749673112295568,0.0023176074028015137
0.0046735783107578754,0.0035828272812068462,-0.004896930884569883,0.0009463477181270719,0.0007039015181362629,0.002491791034117341
0.004355286713689566,0.003691409481689334,-0.004235532600432634,0.0010214356007054448,0.0008200155571103096,0.002428571693599224
0.004468205850571394,0.002518740948289633,-0.0038924654945731163,0.0010426609078422189,0.0008378321654163301,0.0022793610114604235
0.004570330493152142,0.001612729043699801,-0.00429318193346262,0.001137815765105188,0.000838165171444416,0.002113036345690489
0.005127596203237772,0.0011851629242300987,-0.005092353094369173,0.0011374393943697214,0.0008310294942930341,0.0021038451232016087
0.004522650968283415,0.0012362055713310838,-0.004998574033379555,0.0011850397568196058,0.0007692584185861051,0.0023117780219763517
0.004536452703177929,0.0012630957644432783,-0.00420438963919878,0.0010972138261422515,0.0007610988104715943,0.0025867088697850704
0.004634601529687643,0.0013034367002546787,-0.003949712961912155,0.0011994224041700363,0.0007792605902068317,0.002579997992143035
0.005012046080082655,0.003152682678773999,-0.004218852613121271,0.001255689887329936,0.0007944509852677584,0.002602933906018734
0.005056377500295639,0.0028899223543703556,-0.004912192467600107,0.0013009896501898766,0.0008099183323793113,0.002671662485226989
0.004727150313556194,0.002440274925902486,-0.004946614149957895,0.0013060563942417502,0.0010547931306064129,0.002543906681239605
0.004862826783210039,0.0018882106523960829,-0.0043413955718278885,0.001254467060789466,0.0010639282409101725,0.0025844196788966656
0.004873008467257023,0.0012519215233623981,-0.004199367947876453,0.0012163990177214146,0.0010420161997899413,0.002610671566799283
0.004903003573417664,0.001333463005721569,-0.004865394905209541,0.0012207665713503957,0.0010911585995927453,0.002556733088567853
0.005091359838843346,0.0014806302497163415,-0.004974267445504665,0.001161908614449203,0.001250364352017641,0.0027559148147702217
0.005308923777192831,0.0017999591073021293,-0.004801092203706503,0.0011184369213879108,0.0012141918996348977,0.002627223962917924
0.005140642169862986,0.0023490474559366703,-0.00419754208996892,0.0010258766124024987,0.00115215964615345,0.0025098249316215515
0.004798290319740772,0.0022433442063629627,-0.004286010749638081,0.0009210661519318819,0.0011836589546874166,0.00264328857883811
0.0047238292172551155,0.001996602863073349,-0.005261521320790052,0.0009041483863256872,0.0011654496192932129,0.0024514717515558004
0.0051190610975027084,0.0017741941846907139,-0.005206229165196419,0.0008853729232214391,0.0011064824648201466,0.0024166652001440525
0.005554331466555595,0.0016261715209111571,-0.004613854456692934,0.0008574202074669302,0.0010461154161021113,0.002682499121874571
0.00514996238052845,0.0016655302606523037,-0.00440266914665699,0.0008114460506476462,0.0009743233676999807,0.002867728704586625
0.005232090596109629,0.002091942122206092,-0.004984796047210693,0.0006801214767619967,0.0008429982117377222,0.002735975431278348
0.005206316243857145,0.0021864287555217743,-0.005015251692384481,0.0006483144243247807,0.0008416647906415164,0.0029547950252890587
0.005509895738214254,0.0021709685679525137,-0.004713153466582298,0.0006235361215658486,0.0008480590768158436,0.0027671386487782
0.005652505438774824,0.0020670779049396515,-0.00466321874409914,0.0006069185910746455,0.0008474767091684043,0.002576351398602128
0.005598912015557289,0.001996363513171673,-0.0045128753408789635,0.0005907145095989108,0.000856906408444047,0.0024043533485382795
0.005621781572699547,0.002141577424481511,-0.005057462956756353,0.0005424781120382249,0.0008635203703306615,0.00240399525500834
0.005621781572699547,0.002141577424481511,-0.005057462956756353,0.0005424781120382249,0.0008635203703306615,0.00240399525500834
0.005014108959585428,0.002223232528194785,-0.004851353820413351,0.0005519732949323952,0.0008126147440634668,0.0023704785853624344
0.00551985576748848,0.0024020117707550526,-0.004327831789851189,0.0005278607713989913,0.0008188922656700015,0.002802718197926879
0.005739864893257618,0.0024379428941756487,-0.004502029623836279,0.0004928120179101825,0.0008656576392240822,0.003018389455974102
0.005712773650884628,0.0023443959653377533,-0.0046613262966275215,0.0004390098911244422,0.0008735046139918268,0.003015626687556505
0.005252533592283726,0.0022956395987421274,-0.005243612453341484,0.00039823679253458977,0.0008606687770225108,0.002909658243879676
0.005681113339960575,0.002146159764379263,-0.00460842065513134,0.0004010201955679804,0.0008365582907572389,0.002853440586477518
0.0055172559805214405,0.0022871685214340687,-0.0045207166112959385,0.0004033694276586175,0.0007938698399811983,0.0028985508251935244
0.005872569978237152,0.0026114836800843477,-0.004157417919486761,0.0003772916388697922,0.0008613563259132206,0.0028842478059232235
0.005605809390544891,0.002814431907609105,-0.005112473387271166,0.00039602903416380286,0.0008766043465584517,0.002723463112488389
0.0056036715395748615,0.0026478793006390333,-0.005570915527641773,0.00038530759047716856,0.0009253629250451922,0.0028115727473050356
0.005278938449919224,0.002351377857849002,-0.004733670502901077,0.00036392544279806316,0.0012120726751163602,0.002529043471440673
0.005814701784402132,0.0022250215988606215,-0.004451374523341656,0.00034409770159982145,0.001282439916394651,0.0024329836014658213
0.0059646619483828545,0.002276108367368579,-0.004542976152151823,0.00034901461913250387,0.0012449114583432674,0.002682381309568882
0.006137433461844921,0.0025097797624766827,-0.00468172924593091,0.0003529608657117933,0.0012555656721815467,0.00291845272295177
0.005667723715305328,0.002548852702602744,-0.004981495905667543,0.0003377771645318717,0.001291662105359137,0.00300904200412333
0.005619214382022619,0.002882098313421011,-0.00535188103094697,0.00032272288808599114,0.0011497489176690578,0.0029702046886086464
0.006023047026246786,0.002913552336394787,-0.004898213315755129,0.0003088813100475818,0.0011058773379772902,0.002964150160551071
0.005792728625237942,0.0028375438414514065,-0.004623576067388058,0.00029617323889397085,0.0009613294387236238,0.0028142817318439484
0.006394358351826668,0.0027929944917559624,-0.004515491425991058,0.0002844689879566431,0.0009452781523577869,0.0028299770783632994
0.005973887164145708,0.0032469378784298897,-0.005336559843271971,0.0002636340504977852,0.0010785215999931097,0.0030146399512887
0.006204600445926189,0.0033849633764475584,-0.005035002250224352,0.00025432062102481723,0.0013073435984551907,0.002739904448390007
0.006199765484780073,0.0031227697618305683,-0.005045012105256319,0.0002456434885971248,0.0012826959136873484,0.0024639435578137636
0.006458187010139227,0.003154168138280511,-0.004911959636956453,0.00023753824643790722,0.0015660409117117524,0.002581315580755472
0.006391492672264576,0.003334366250783205,-0.005032637156546116,0.00022995087783783674,0.0015778609085828066,0.0029775311704725027
0.005910028237849474,0.0036990877706557512,-0.005339080933481455,0.0002228338416898623,0.0014502621488645673,0.0034709449391812086
0.006235499866306782,0.0033052717335522175,-0.005114138592034578,0.00021614374418277293,0.0013445434160530567,0.0037250064779073
0.006779365707188845,0.003397237742319703,-0.004704813007265329,0.00020984429283998907,0.0012540873140096664,0.0033941047731786966
0.00657239044085145,0.0035833416040986776,-0.004867110401391983,0.00020390092686284333,0.0011930469190701842,0.003094079438596964
0.00657239044085145,0.0035833416040986776,-0.004867110401391983,0.00020390092686284333,0.0011930469190701842,0.003094079438596964
0.006277382839471102,0.0037136427126824856,-0.0055435760878026485,0.00019828559015877545,0.0010883886134251952,0.0029385609086602926
0.006016240920871496,0.0036596166901290417,-0.005211862735450268,0.000192970474017784,0.0011470707831904292,0.00298321177251637
0.006007149815559387,0.0035325961653143167,-0.00517313415184617,0.00018793370691128075,0.001112487749196589,0.0031537290196865797
0.006440078839659691,0.0034275539219379425,-0.0049780188128352165,0.00018315254419576377,0.001034001586958766,0.0032964693382382393
0.006785818375647068,0.0035827478859573603,-0.004910575225949287,0.00017860872321762145,0.001175293349660933,0.0033470436464995146
0.00644109258428216,0.003721394808962941,-0.005586142651736736,0.0001742855238262564,0.0011575038079172373,0.003165553091093898
0.006200797390192747,0.0037548241671174765,-0.005321879405528307,0.00017016635683830827,0.0011187498457729816,0.0033414687495678663
0.006302982103079557,0.00395338237285614,-0.005074153654277325,0.00016623706324025989,0.0010895216837525368,0.003158044070005417
0.006666320841759443,0.003866106504574418,-0.00498641561716795,0.00016248559404630214,0.0010712555376812816,0.00323034031316638
0.006608025170862675,0.0035278326831758022,-0.004957558587193489,0.00015889940550550818,0.0010433977004140615,0.003242583479732275
0.006124661769717932,0.0035142714623361826,-0.005820735357701778,0.00015546851500403136,0.0010225905571132898,0.0035068339202553034
0.0062401979230344296,0.0036974921822547913,-0.005395788233727217,0.0001521822705399245,0.0009907567873597145,0.0034442953765392303
0.006943832617253065,0.003871280001476407,-0.0049562472850084305,0.00014903215924277902,0.000985105405561626,0.0031986581161618233
0.006860021501779556,0.0035038129426538944,-0.005103193689137697,0.00014601000293623656,0.000982138211838901,0.003180459840223193
0.006582606118172407,0.003610531333833933,-0.005073715932667255,0.00014310791448224336,0.000978789059445262,0.0029613475780934095
0.006458841729909182,0.0037709386087954044,-0.00566266942769289,0.00014031885075382888,0.001095722196623683,0.0033220506738871336
0.006606193259358406,0.004221989773213863,-0.0058567277155816555,0.0001376363798044622,0.0010688420152291656,0.003661098424345255
0.007037611212581396,0.003935219720005989,-0.0051515474915504456,0.00013256813690532,0.0009741379180923104,0.0037618300411850214
0.007251364178955555,0.0034416404087096453,-0.00504020182415843,0.00013017127639614046,0.0010057537583634257,0.00350508326664567
0.0065713790245354176,0.003598178969696164,-0.00506426440551877,0.00012785985018126667,0.0010293330997228622,0.003509924514219165
0.006762742530554533,0.0038081184029579163,-0.006009583827108145,0.00012562880874611437,0.0010344282491132617,0.003314854111522436
0.007083162199705839,0.0042531839571893215,-0.006031727883964777,0.0001234744704561308,0.001303691416978836,0.0034290198236703873
0.007057250011712313,0.004132793750613928,-0.005322779528796673,0.00012139259342802688,0.0013656415976583958,0.0032699769362807274
0.007008958142250776,0.004220078233629465,-0.004802744369953871,0.00011937995441257954,0.0014674834674224257,0.003429147182032466
0.0074729323387146,0.003943105693906546,-0.005467264447361231,0.00011743278446374461,0.0013880723854526877,0.003964449279010296
0.0075729540549218655,0.003750934498384595,-0.006122410763055086,0.00011554821685422212,0.0013029740657657385,0.004265838302671909
0.007622887380421162,0.003778513753786683,-0.00604159664362669,0.00011372361768735573,0.0012497908901423216,0.004070634488016367
0.007096846122294664,0.004223743453621864,-0.005247241351753473,0.00011195528350071982,0.001196458819322288,0.003960291855037212
0.007096846122294664,0.004223743453621864,-0.005247241351753473,0.00011195528350071982,0.001196458819322288,0.003960291855037212
0.007628532126545906,0.00401026476174593,-0.005078589078038931,0.00011024113337043673,0.001164506422355771,0.0038501678500324488
0.008240139111876488,0.003994327504187822,-0.005329745355993509,0.00010189257591264322,0.001126124756410718,0.003406987991183996
0.00793467927724123,0.004085392691195011,-0.005662814248353243,9.404460433870554e-05,0.0013001940678805113,0.0031320652924478054
0.0076619526371359825,0.004096823278814554,-0.005783483386039734,9.225415851688012e-05,0.0012583356583490968,0.003178009996190667
0.007211002986878157,0.004016239661723375,-0.00552378548309207,9.089619561564177e-05,0.0013686626916751266,0.0035907207056879997
0.00792357511818409,0.004494593944400549,-0.0050809914246201515,8.96016790647991e-05,0.0013910852139815688,0.004240328446030617
0.007938590832054615,0.004218281712383032,-0.005648926831781864,8.834507752908394e-05,0.0012967612128704786,0.004546568728983402
0.00762844318524003,0.003966872114688158,-0.005488792434334755,8.712336421012878e-05,0.0012387706665322185,0.004205514211207628
0.007760277949273586,0.0038476833142340183,-0.0058735087513923645,8.593496022513136e-05,0.0012108859373256564,0.003868819447234273
0.007626824080944061,0.004380435217171907,-0.0056691477075219154,8.477866504108533e-05,0.0012255237670615315,0.0036341140512377024
0.00769288232550025,0.004375827964395285,-0.005422556307166815,3.4734446671791375e-05,0.0011761394562199712,0.003315991023555398
0.00741654634475708,0.004234796389937401,-0.0050644828006625175,2.745468918874394e-05,0.0012880999129265547,0.0034727430902421474
0.007613572757691145,0.003959284629672766,-0.005864242557436228,2.6607904146658257e-05,0.0012793807545676827,0.0041825794614851475
0.007522697560489178,0.0037575429305434227,-0.005747357849031687,2.6191939468844794e-05,0.0011781405191868544,0.004155545961111784
0.007513240445405245,0.003609867300838232,-0.0058426265604794025,2.5814435502979904e-05,0.001072614104487002,0.004355111159384251
0.007395402994006872,0.0035554913338273764,-0.005150667391717434,1.5999277820810676e-05,0.000965282553806901,0.004191155079752207
0.007838606834411621,0.004257577005773783,-0.005145160481333733,1.2761076504830271e-05,0.0009484470938332379,0.004297693260014057
0.007815510034561157,0.004220660775899887,-0.0054952409118413925,1.238871664099861e-05,0.0010050575947389007,0.003912893123924732
0.00809349026530981,0.00429497892037034,-0.0059511698782444,1.0406565564835546e-07,0.0012013132218271494,0.0035298988223075867
0.008388450369238853,0.004195617511868477,-0.0053777978755533695,6.794742990479108e-09,0.0012269705766811967,0.0037767321337014437
0.008200803771615028,0.004006417002528906,-0.0052633448503911495,4.4364814599795466e-10,0.0016274938825517893,0.004247900098562241
0.00801100954413414,0.004347246140241623,-0.005209960509091616,2.8967056184270312e-11,0.0016859587049111724,0.004901211243122816
0.008750581182539463,0.004205069970339537,-0.005974593106657267,1.891341683962766e-12,0.001790562062524259,0.004578623455017805
0.00798520352691412,0.004234164021909237,-0.006625122856348753,1.2349110178454942e-13,0.0017537465319037437,0.004528943449258804
0.008169937878847122,0.004291144199669361,-0.0058371322229504585,8.063086195898503e-15,0.001579799922183156,0.004214918706566095
0.008433547802269459,0.004380988422781229,-0.0056860423646867275,5.264619463606816e-16,0.0016428285744041204,0.00419108709320426
0.008433547802269459,0.004380988422781229,-0.0056860423646867275,5.264619463606816e-16,0.0016428285744041204,0.00419108709320426
0.009383158758282661,0.004041786305606365,-0.005371683742851019,-0.0002008664741879329,0.0015445953467860818,0.00431014271453023
0.00866634026169777,0.004268070217221975,-0.005893002729862928,-0.0008877121726982296,0.001753441640175879,0.004441349767148495
0.008769030682742596,0.004293069243431091,-0.006096239201724529,-0.001035309862345457,0.0016464160289615393,0.004597681108862162
0.008702296763658524,0.004482528660446405,-0.006244151387363672,-0.0013301909202709794,0.0016395862912759185,0.004525844473391771
0.008917410857975483,0.0042801229283213615,-0.006095794960856438,-0.001451185904443264,0.0015561672626063228,0.004369392525404692
0.008842344395816326,0.004242490511387587,-0.005507898982614279,-0.0014243441401049495,0.001483984524384141,0.00407791743054986
0.0088663250207901,0.004109153524041176,-0.005851683672517538,-0.0015005203895270824,0.0014707549707964063,0.003989846911281347
0.009730404242873192,0.004473042208701372,-0.006514776963740587,-0.0015779380919411778,0.0013792935060337186,0.004096143413335085
0.008579399436712265,0.004612367134541273,-0.006560957059264183,-0.0018593530403450131,0.0013283685548231006,0.004312501288950443
0.008575276471674442,0.004400079604238272,-0.005772303324192762,-0.0018841447308659554,0.0014603636227548122,0.00449476670473814
0.009289389476180077,0.004477261565625668,-0.00538239860907197,-0.0019550910219550133,0.0014208423672243953,0.004589151591062546
0.009177534841001034,0.004239372909069061,-0.00601316150277853,-0.001962661510333419,0.001559144933708012,0.004640672355890274
0.008802845142781734,0.0042466954328119755,-0.00692056305706501,-0.0024465403985232115,0.0016600099625065923,0.004200995434075594
0.009286148473620415,0.004206658806651831,-0.00665796734392643,-0.002815005136653781,0.0015910699730738997,0.003913130145519972
0.009232334792613983,0.004412498325109482,-0.005884627345949411,-0.0026471533346921206,0.001514170435257256,0.00411522202193737
0.009051124565303326,0.004552620463073254,-0.005477984435856342,-0.002643836662173271,0.0015416692476719618,0.0042215692810714245
0.010610196739435196,0.00467539532110095,-0.005918948445469141,-0.002406276063993573,0.0013903015060350299,0.004821839276701212
0.009819160215556622,0.004779087379574776,-0.006496457848697901,-0.0027212228160351515,0.0013548824936151505,0.0045164464972913265
0.010295780375599861,0.004959283862262964,-0.005946260876953602,-0.003076902125030756,0.0014180125435814261,0.004348482005298138
0.010785865597426891,0.004887808579951525,-0.006019280757755041,-0.0030028412584215403,0.0013769959332421422,0.00420260289683938
0.010688479989767075,0.005007545463740826,-0.005559616256505251,-0.002919823629781604,0.0013150135055184364,0.004330604802817106
0.010834385640919209,0.005369264166802168,-0.0064658550545573235,-0.0032558508682996035,0.0014267240185290575,0.0045518651604652405
0.010623074136674404,0.005113766994327307,-0.0061762225814163685,-0.0033312321174889803,0.0014559832634404302,0.0047690244391560555
0.010880660265684128,0.00550419045612216,-0.0058819386176764965,-0.003287551924586296,0.0015526879578828812,0.004676703363656998
0.011055443435907364,0.005069674924015999,-0.0059126815758645535,-0.00316822063177824,0.0016419623279944062,0.00461046164855361
0.010752315632998943,0.004777937661856413,-0.005473851691931486,-0.0027521962765604258,0.0015414932277053595,0.004210185259580612
0.010909507051110268,0.004960645921528339,-0.00644451379776001,-0.00264111184515059,0.0015829222975298762,0.004414662718772888
0.010909507051110268,0.004960645921528339,-0.00644451379776001,-0.00264111184515059,0.0015829222975298762,0.004414662718772888
0.01127565000206232,0.005237153265625238,-0.005969930440187454,-0.0033068396151065826,0.001445392263121903,0.004400712437927723
0.010511951521039009,0.004850506316870451,-0.006301103625446558,-0.0034161368384957314,0.001476899953559041,0.00461147865280509
0.010511951521039009,0.004850506316870451,-0.006301103625446558,-0.0034161368384957314,0.001476899953559041,0.00461147865280509
0.010673130862414837,0.004574486054480076,-0.005775307770818472,-0.0031192817259579897,0.0014695817371830344,0.004850307945162058
0.011169862002134323,0.004619527142494917,-0.005922815762460232,-0.0033647504169493914,0.001620250754058361,0.004476253874599934
0.011041517369449139,0.004674963187426329,-0.0056350501254200935,-0.0032325596548616886,0.0015842195134609938,0.004061773885041475
0.010676966980099678,0.004787588957697153,-0.0054660639725625515,-0.0030624920036643744,0.0014533527428284287,0.0043370164930820465
0.01113408524543047,0.005084137432277203,-0.005594971589744091,-0.0031443547923117876,0.001492673996835947,0.004520863760262728
0.010916443541646004,0.005147595889866352,-0.006017550826072693,-0.0032284557819366455,0.0015399814583361149,0.004715010989457369
0.01092001236975193,0.005248306784778833,-0.005973654333502054,-0.0032173299696296453,0.0015992071712389588,0.004349474795162678
0.011232267133891582,0.005036880262196064,-0.005746498703956604,-0.003501185681670904,0.0016064770752564073,0.004615618847310543
0.011625046841800213,0.004812296479940414,-0.005188079085201025,-0.0037035855930298567,0.0016946550458669662,0.004960223101079464
0.011732403188943863,0.005176388192921877,-0.005638915114104748,-0.0033844790887087584,0.0016436479054391384,0.004835174884647131
0.011339985765516758,0.005190073978155851,-0.005758405197411776,-0.0035295214038342237,0.0015270373551174998,0.004399063531309366
0.0110119404271245,0.005133681930601597,-0.005810433533042669,-0.0032658104319125414,0.0015108502702787519,0.004442683421075344
0.011218936182558537,0.005134591367095709,-0.005606149323284626,-0.003424414899200201,0.0015707308193668723,0.004510937258601189
0.010778479278087616,0.004869171883910894,-0.005561372265219688,-0.003506437176838517,0.0016287688631564379,0.004658153280615807
0.010932806879281998,0.005343240220099688,-0.005356708541512489,-0.0035405191592872143,0.001559949479997158,0.004696700256317854
0.010839762166142464,0.00521802669391036,-0.00599604332819581,-0.0035543448757380247,0.0018432423239573836,0.004887059330940247
0.010818816721439362,0.0058205341920256615,-0.00590785127133131,-0.003722748951986432,0.002064632950350642,0.0050073107704520226
0.011056863702833652,0.005308212712407112,-0.005475192796438932,-0.0033935047686100006,0.0020654320251196623,0.005261470563709736
0.011088031344115734,0.005492793396115303,-0.005499620456248522,-0.0031499348115175962,0.002045634901151061,0.0051717134192585945
0.01107590738683939,0.005192635115236044,-0.005229415372014046,-0.0032360346522182226,0.0018843025900423527,0.004807904362678528
0.010870187543332577,0.005094604101032019,-0.005775887053459883,-0.0036208743695169687,0.0017150398343801498,0.00460495799779892
0.01095679122954607,0.005638809874653816,-0.006486137863248587,-0.0037616395857185125,0.0015889218775555491,0.004855478182435036
0.011387369595468044,0.005805691238492727,-0.00601207697764039,-0.003769482020288706,0.0015989718958735466,0.0057211266830563545
0.011387369595468044,0.005805691238492727,-0.00601207697764039,-0.003769482020288706,0.0015989718958735466,0.0057211266830563545
0.010758798569440842,0.005550793372094631,-0.005509427282959223,-0.003447061637416482,0.0017046061111614108,0.005601376760751009
0.010632425546646118,0.0051035210490226746,-0.005189238116145134,-0.003085251897573471,0.0017451071180403233,0.005717800930142403
0.010768873617053032,0.005369335878640413,-0.005629619583487511,-0.002980442252010107,0.001860050018876791,0.005127068608999252
0.010460884310305119,0.005169055890291929,-0.00594500545412302,-0.003208318492397666,0.0018691731384024024,0.004529923666268587
0.010745382867753506,0.006140328943729401,-0.006114125717431307,-0.0035821895580738783,0.002117960713803768,0.004565822891891003
0.010561465285718441,0.0059572369791567326,-0.005656915716826916,-0.0038008643314242363,0.0019974876195192337,0.004964499268680811
0.010248933918774128,0.005630956497043371,-0.005606907419860363,-0.0038044925313442945,0.0019500599009916186,0.005365874618291855
0.010700740851461887,0.005204119253903627,-0.0052588628605008125,-0.0033601298928260803,0.001875395653769374,0.0055512781254947186
0.010912074707448483,0.005020270124077797,-0.005969562102109194,-0.0034474313724786043,0.001813902985304594,0.0052185081876814365
0.011058127507567406,0.0058631328865885735,-0.005866320803761482,-0.003620729548856616,0.0018163358327001333,0.0045270309783518314
0.011006398126482964,0.005677246022969484,-0.005831850226968527,-0.003995612729340792,0.0019398396834731102,0.004539750516414642
0.010735833086073399,0.005681644193828106,-0.005519558675587177,-0.0037102068308740854,0.0018491719383746386,0.004933218006044626
0.011040533892810345,0.005376046989113092,-0.005510193295776844,-0.0035850508138537407,0.0018566467333585024,0.005742671433836222
0.010417076759040356,0.005755722057074308,-0.005155782215297222,-0.0036660467740148306,0.0017464116681367159,0.005881687626242638
0.010618952102959156,0.005339598748832941,-0.005888194311410189,-0.004314439836889505,0.0015933529939502478,0.005319621413946152
0.010912700556218624,0.006032972130924463,-0.006101746577769518,-0.0041585699655115604,0.0014879523077979684,0.004899163264781237
0.010909311473369598,0.005846880842000246,-0.005488388705998659,-0.003453556913882494,0.001910527003929019,0.005297234747558832
0.011045146733522415,0.005708209238946438,-0.005647393874824047,-0.003483968786895275,0.0018627212848514318,0.005977672059088945
0.010324442759156227,0.00580604700371623,-0.005859198980033398,-0.0037040337920188904,0.0020833155140280724,0.00564574683085084
0.01083165593445301,0.006253066007047892,-0.005839940160512924,-0.003861478064209223,0.0019583269022405148,0.005306378472596407
0.010794113390147686,0.00596286216750741,-0.005631301552057266,-0.0038761848118156195,0.002001779153943062,0.0049461363814771175
0.010621965862810612,0.0057213702239096165,-0.005803186912089586,-0.004348537884652615,0.0018517484422773123,0.00490853376686573
0.010621965862810612,0.0057213702239096165,-0.005803186912089586,-0.004348537884652615,0.0018517484422773123,0.00490853376686573
0.01112242043018341,0.005278215743601322,-0.005652094259858131,-0.0044113639742136,0.0017451428575441241,0.005421737674623728
0.011074250563979149,0.005823907442390919,-0.005600368604063988,-0.004368169698864222,0.001751963747665286,0.005488143768161535
0.010568940080702305,0.005861021112650633,-0.005783050786703825,-0.0040584164671599865,0.0018186039524152875,0.005591593217104673
0.011416877619922161,0.006280055269598961,-0.005787472240626812,-0.003861506935209036,0.0018317752983421087,0.005528827663511038
0.010864478535950184,0.0057412548922002316,-0.006156735122203827,-0.003901072544977069,0.001804283238016069,0.005704058334231377
0.011249953880906105,0.005586385726928711,-0.005977549124509096,-0.00401558680459857,0.001975027611479163,0.005718822591006756
0.010286764241755009,0.006029144860804081,-0.005620013456791639,-0.004159750882536173,0.0019829794764518738,0.0055511645041406155
0.010286764241755009,0.006029144860804081,-0.005620013456791639,-0.004159750882536173,0.0019829794764518738,0.0055511645041406155
0.010796652175486088,0.0061661493964493275,-0.005915429443120956,-0.004671822302043438,0.0017308990936726332,0.005417033098638058
0.01111350767314434,0.005883106961846352,-0.005579766817390919,-0.004799647256731987,0.0017231631791219115,0.005540912505239248
0.01122104562819004,0.005972102750092745,-0.006396841257810593,-0.004448568448424339,0.0018819955876097083,0.005861406214535236
0.011234833858907223,0.0064294468611478806,-0.006743664853274822,-0.004283877555280924,0.0019441402982920408,0.00575419794768095
0.010970004834234715,0.006288669537752867,-0.006462572608143091,-0.004228155594319105,0.00239447015337646,0.006097779609262943
0.012018945999443531,0.00646962970495224,-0.006059455219656229,-0.004316282924264669,0.0022362815216183662,0.006191368214786053
0.011474468745291233,0.006425667088478804,-0.005570033565163612,-0.004724826663732529,0.002230500802397728,0.005937950219959021
0.011404095217585564,0.0061109005473554134,-0.005950269289314747,-0.005003742873668671,0.002057646866887808,0.005630331579595804
0.01154428068548441,0.006440131925046444,-0.00621269503608346,-0.004968246445059776,0.0019632005132734776,0.00534861022606492
0.011215872131288052,0.007002412807196379,-0.006216783542186022,-0.004967662505805492,0.0018459325656294823,0.005848004017025232
0.011141444556415081,0.0062442924827337265,-0.005958967842161655,-0.004781720228493214,0.0019132975721731782,0.005534715484827757
0.011467658914625645,0.005886549595743418,-0.005435583647340536,-0.004828349221497774,0.002218985930085182,0.00617990642786026
0.009519191458821297,0.005991670303046703,-0.005967568606138229,-0.00491180457174778,0.0022616542410105467,0.0058290534652769566
0.012024699710309505,0.005803434178233147,-0.006506522186100483,-0.0051254769787192345,0.0023014748003333807,0.005383847281336784
0.011486517265439034,0.006501301657408476,-0.005942030809819698,-0.003999635111540556,0.0019186664139851928,0.006329053547233343
0.011570759117603302,0.00573824904859066,-0.006044779904186726,-0.003789342939853668,0.0018680653301998973,0.006708614528179169
0.011378293856978416,0.006368838716298342,-0.005657881963998079,-0.00381804583594203,0.0016703103901818395,0.005942143965512514
0.011648982763290405,0.006780885625630617,-0.006472303066402674,-0.004350123926997185,0.0016454242868348956,0.0058516087010502815
0.011459901928901672,0.0064332569018006325,-0.006684162653982639,-0.0043228925205767155,0.001607571030035615,0.005636694375425577
0.012003983370959759,0.006343585439026356,-0.0061633833684027195,-0.004323449917137623,0.0020237101707607508,0.005885791033506393
0.012007891200482845,0.006330357864499092,-0.005883935838937759,-0.004129340872168541,0.002721315249800682,0.005908869206905365
0.011323199607431889,0.0059091513976454735,-0.005457089748233557,-0.003813666757196188,0.002496653236448765,0.00584441376850009
0.011323199607431889,0.0059091513976454735,-0.005457089748233557,-0.003813666757196188,0.002496653236448765,0.00584441376850009
0.011983247473835945,0.006306965369731188,-0.0060853008180856705,-0.0037533151917159557,0.002306460402905941,0.006076423916965723
0.011732904240489006,0.006721077021211386,-0.0069237397983670235,-0.0042596664279699326,0.0020490270107984543,0.006270584650337696
0.011614927090704441,0.006165508646517992,-0.00602685334160924,-0.004621436819434166,0.0018913386156782508,0.006262058857828379
0.011695509776473045,0.006287314463406801,-0.00571091752499342,-0.004478286951780319,0.001791608752682805,0.005972771439701319
0.011844582855701447,0.006584381218999624,-0.005805742461234331,-0.004533480387181044,0.0018758992664515972,0.00594328111037612
0.011912830173969269,0.006478878669440746,-0.006379871629178524,-0.0045890165492892265,0.002195435343310237,0.006493637338280678
0.011160483583807945,0.0064035868272185326,-0.00661300728097558,-0.004680877085775137,0.0023295599967241287,0.006760900374501944
0.01179431937634945,0.006076045334339142,-0.006222742609679699,-0.004627525340765715,0.002572539960965514,0.006536927539855242
0.012359156273305416,0.0063206348568201065,-0.005848417058587074,-0.004626943729817867,0.0023131908383220434,0.006247422657907009
0.011608881875872612,0.006178618874400854,-0.006226656958460808,-0.004722330719232559,0.002122377511113882,0.006426307372748852
0.011717547662556171,0.006744420621544123,-0.0067501794546842575,-0.004901672247797251,0.0019423244521021843,0.0067861550487577915
0.011517161503434181,0.006486652884632349,-0.006380489096045494,-0.0050116549246013165,0.001926484634168446,0.006407599430531263
0.012580121867358685,0.005974332801997662,-0.006309966091066599,-0.0048842038959264755,0.0020319048780947924,0.0063451845198869705
0.011682674288749695,0.006175387650728226,-0.006327290553599596,-0.0047086672857403755,0.002290000906214118,0.006345320492982864
0.01189856231212616,0.006738198921084404,-0.006159121636301279,-0.004816784523427486,0.0023474579211324453,0.006329640746116638
0.012389729730784893,0.006493949797004461,-0.006567716598510742,-0.004926597233861685,0.0023369307164102793,0.006426465231925249
0.012114795856177807,0.006193657871335745,-0.0065725441090762615,-0.005180618725717068,0.0024491760414093733,0.00649854214861989
0.012302383780479431,0.005820676684379578,-0.0066019147634506226,-0.005433197133243084,0.002432172652333975,0.0065699247643351555
0.012019135057926178,0.005793322809040546,-0.0060505336150527,-0.005105598829686642,0.002269043819978833,0.0060248589143157005
0.012654422782361507,0.006893509067595005,-0.0071378969587385654,-0.004830430261790752,0.0020929642487317324,0.00700303865596652
0.012413562275469303,0.006394646130502224,-0.0069577135145664215,-0.005130569916218519,0.002022475702688098,0.006856624502688646
0.013802118599414825,0.0062347413040697575,-0.006389514543116093,-0.005722613073885441,0.0019788651261478662,0.006748723331838846
0.01395240519195795,0.0061575197614729404,-0.006486198864877224,-0.005652020685374737,0.002121757948771119,0.006416984833776951
0.013995642773807049,0.007142484188079834,-0.006987953092902899,-0.0051175449043512344,0.0021466421894729137,0.006611645687371492
0.013995642773807049,0.007142484188079834,-0.006987953092902899,-0.0051175449043512344,0.0021466421894729137,0.006611645687371492
0.013237087987363338,0.007490848656743765,-0.007324798498302698,-0.005099696572870016,0.002156420610845089,0.006553685292601585
0.013998732902109623,0.006512631196528673,-0.007530211005359888,-0.005045146215707064,0.002206588163971901,0.006343064829707146
0.01387769728899002,0.006441234145313501,-0.007055351510643959,-0.005384242162108421,0.0021556252613663673,0.006217245012521744
0.01424692664295435,0.006911217700690031,-0.007676419802010059,-0.005369994789361954,0.002228885656222701,0.006158809177577496
0.014109784737229347,0.0075331139378249645,-0.0069558811374008656,-0.005128802265971899,0.002151921857148409,0.006322414614260197
0.014399061910808086,0.007040943950414658,-0.00687958812341094,-0.005132540129125118,0.002244003815576434,0.005516432225704193
0.014195241965353489,0.006466981954872608,-0.006801941432058811,-0.004710420500487089,0.0024129098746925592,0.006728631444275379
0.014823053032159805,0.006630522198975086,-0.007011301349848509,-0.004928366746753454,0.002416684990748763,0.006989119108766317
0.014085707254707813,0.00696431752294302,-0.007023516111075878,-0.005269171204417944,0.0025350647047162056,0.006947389803826809
0.014660164713859558,0.006972209550440311,-0.006577643565833569,-0.00511332880705595,0.00235453131608665,0.006449964828789234
0.014199529774487019,0.006998858880251646,-0.007167548406869173,-0.0053949253633618355,0.0024043971206992865,0.006455359980463982
0.014805232174694538,0.006882612593472004,-0.006753811612725258,-0.005443400237709284,0.0025484696961939335,0.006451999768614769
0.014020072296261787,0.006743927951902151,-0.0072721512988209724,-0.005591551773250103,0.002441665856167674,0.0069649661891162395
0.014750415459275246,0.006896049249917269,-0.007156667299568653,-0.005360995419323444,0.00250604678876698,0.006945946253836155
0.014263253659009933,0.006756913382560015,-0.006757330149412155,-0.00510652270168066,0.0024638741742819548,0.006401516497135162
0.01451108232140541,0.006789876148104668,-0.006947711575776339,-0.005711535457521677,0.0024167136289179325,0.00650026323273778
0.01411993894726038,0.006930828560143709,-0.007642168086022139,-0.005479210522025824,0.0026577257085591555,0.006551325786858797
0.014466558583080769,0.007337593007832766,-0.007899914868175983,-0.00540924072265625,0.0025505763478577137,0.007037443574517965
0.014173058792948723,0.007540994323790073,-0.0064588203094899654,-0.00510858790948987,0.002360743470489979,0.006578180007636547
0.01453971303999424,0.007058142218738794,-0.006193079985678196,-0.0058325184509158134,0.0023507876321673393,0.0065346285700798035
0.01420575100928545,0.007498325780034065,-0.00738016702234745,-0.00624433346092701,0.0021482554730027914,0.006664912216365337
0.014352180995047092,0.006828241050243378,-0.007608718704432249,-0.006180036347359419,0.0021645836532115936,0.0067730434238910675
0.01425819844007492,0.006813206244260073,-0.006998851895332336,-0.004994862247258425,0.0020063421688973904,0.0065913391299545765
0.014088170602917671,0.006650954019278288,-0.007303434889763594,-0.004967879969626665,0.0019436230650171638,0.006440586410462856
0.014594098553061485,0.007205084431916475,-0.007490064948797226,-0.005769185721874237,0.0019782534800469875,0.00680942926555872
0.014259392395615578,0.0073277996852993965,-0.007217309437692165,-0.006124015897512436,0.0021062574815005064,0.006949207745492458
0.014688803814351559,0.00739376712590456,-0.007258702535182238,-0.0062357340939342976,0.002125645289197564,0.007102217525243759
0.014688803814351559,0.00739376712590456,-0.007258702535182238,-0.0062357340939342976,0.002125645289197564,0.007102217525243759
0.014314589090645313,0.006923983804881573,-0.007577687967568636,-0.005614189896732569,0.0022501309867948294,0.006630904506891966
0.014755475334823132,0.007293583359569311,-0.007510770112276077,-0.005756419617682695,0.002162329154089093,0.006662375759333372
0.014169132336974144,0.006766162347048521,-0.007033173460513353,-0.006063289940357208,0.002043231623247266,0.007008796092122793
0.014933253638446331,0.006844466086477041,-0.0071692438796162605,-0.0060738916508853436,0.002014505909755826,0.007321134675294161
0.014434028416872025,0.007299694698303938,-0.0074563948437571526,-0.006287256721407175,0.0024968415964394808,0.007262208499014378
0.014894272200763226,0.007544058375060558,-0.00821150653064251,-0.005794324446469545,0.0025947957765311003,0.007019522599875927
0.014219587668776512,0.007264195010066032,-0.007138476707041264,-0.005969727411866188,0.0024252193979918957,0.007346143014729023
0.014779707416892052,0.006927831564098597,-0.007029373664408922,-0.006260702386498451,0.0023438662756234407,0.007714092265814543
0.014420339837670326,0.007260538637638092,-0.007338743191212416,-0.006294968072324991,0.002471260027959943,0.007163561414927244
0.013679569587111473,0.007747530937194824,-0.007439104840159416,-0.006230270955711603,0.0023739461321383715,0.0071409824304282665
0.014221946708858013,0.007652441971004009,-0.007070167455822229,-0.006195718888193369,0.0023145205341279507,0.006919898558408022
0.015112756751477718,0.00703085120767355,-0.0070186699740588665,-0.005974240601062775,0.002179149305447936,0.006986545864492655
0.014470838010311127,0.007016567513346672,-0.007050549145787954,-0.006151850800961256,0.0021489188075065613,0.006820334121584892
0.014753460884094238,0.007676166016608477,-0.007591096684336662,-0.006136949639767408,0.0020138334948569536,0.007039139047265053
0.014969118870794773,0.007542642764747143,-0.006846786011010408,-0.0059701818972826,0.0021565789356827736,0.007223807275295258
0.015055354684591293,0.006921110674738884,-0.006970013026148081,-0.0061052413657307625,0.002306902315467596,0.007535635959357023
0.01500367745757103,0.007088423240929842,-0.0070081776939332485,-0.006212994456291199,0.0023758909665048122,0.007389172445982695
0.015081171877682209,0.00792110525071621,-0.007324861362576485,-0.006363480351865292,0.002653636271134019,0.007447035051882267
0.014797328971326351,0.0083016287535429,-0.007239048834890127,-0.006690718233585358,0.0025915727019309998,0.007691321894526482
0.014935703948140144,0.007691678591072559,-0.007328519597649574,-0.006710325833410025,0.0024990581441670656,0.007926402613520622
0.015164555050432682,0.008034201338887215,-0.00748218921944499,-0.006934865843504667,0.0026473980396986008,0.008197072893381119
0.015339377336204052,0.007979181595146656,-0.0073888059705495834,-0.007131817750632763,0.0025528916157782078,0.008201519958674908
0.01557773444801569,0.007904562167823315,-0.007545652333647013,-0.006718663964420557,0.002681976417079568,0.00778005039319396
0.015498954802751541,0.008318784646689892,-0.006826955359429121,-0.006842253264039755,0.002460225485265255,0.007630533538758755
0.014795736409723759,0.00837627612054348,-0.0071924300864338875,-0.006572389975190163,0.00240120361559093,0.007603647653013468
0.015363305807113647,0.007885711267590523,-0.007133196573704481,-0.006472634617239237,0.0024701273068785667,0.007643320132046938
0.015363305807113647,0.007885711267590523,-0.007133196573704481,-0.006472634617239237,0.0024701273068785667,0.007643320132046938
0.015450102277100086,0.00770789198577404,-0.0069660949520766735,-0.006593150552362204,0.0026397828478366137,0.008181024342775345
0.015830427408218384,0.008317734114825726,-0.007045991253107786,-0.006583613809198141,0.0026941958349198103,0.00845279823988676
0.015272417105734348,0.008950069546699524,-0.007589335087686777,-0.006411771755665541,0.0028154158499091864,0.00799223780632019
0.015792496502399445,0.008113239891827106,-0.007350309286266565,-0.006294564809650183,0.0030119228176772594,0.007642542943358421
0.015581118874251842,0.008239843882620335,-0.00720579456537962,-0.006289415992796421,0.003086566925048828,0.007814173586666584
0.01610976830124855,0.008677547797560692,-0.007064120378345251,-0.006096343509852886,0.0032229446806013584,0.007795889861881733
0.0160630214959383,0.008755667135119438,-0.0075837066397070885,-0.0059766462072730064,0.002949785441160202,0.007454289123415947
0.016191087663173676,0.00816179160028696,-0.007547204848378897,-0.006315859034657478,0.0027959865983575583,0.007895657792687416
0.016293568536639214,0.00865947175770998,-0.006959692109376192,-0.006706257816404104,0.002453108550980687,0.007779343519359827
0.0159000214189291,0.008935104124248028,-0.007241065613925457,-0.006710799410939217,0.0023448984138667583,0.007998147048056126
0.016184773296117783,0.00814814493060112,-0.008049690164625645,-0.006437397096306086,0.002651477698236704,0.0079092588275671
0.016098763793706894,0.008375996723771095,-0.008354141376912594,-0.006314740516245365,0.0025948670227080584,0.00792624894529581
0.01656350865960121,0.009320748038589954,-0.00723994430154562,-0.006871280260384083,0.002511348808184266,0.007838276214897633
0.016303321346640587,0.008406207896769047,-0.006914366036653519,-0.00656749727204442,0.002691806061193347,0.008181968703866005
0.01654018461704254,0.007843902334570885,-0.008338289335370064,-0.0065011209808290005,0.002853936981409788,0.008016194216907024
0.016519561409950256,0.008876986801624298,-0.007878982461988926,-0.006577024236321449,0.0029692554380744696,0.008253104984760284
0.01647399365901947,0.008707479573786259,-0.0075768702663481236,-0.006885783281177282,0.0027927302289754152,0.008200988173484802
0.016794053837656975,0.00852631963789463,-0.007743362337350845,-0.007268523331731558,0.0027875269297510386,0.008179801516234875
0.01615147478878498,0.00859270803630352,-0.008330768905580044,-0.007213391829282045,0.00281848874874413,0.008265870623290539
0.01677171140909195,0.008751156739890575,-0.007627660874277353,-0.0069146594032645226,0.002802979899570346,0.008025974035263062
0.01672256551682949,0.008606626652181149,-0.007363505661487579,-0.00685900216922164,0.0026542325504124165,0.007792280521243811
0.017221612855792046,0.0091486107558012,-0.00828720536082983,-0.007434110622853041,0.002671219641342759,0.008715259842574596
0.016496075317263603,0.008924932219088078,-0.008201051503419876,-0.0072334096767008305,0.0027285306714475155,0.007279775105416775
0.01666075550019741,0.008453333750367165,-0.007687337230890989,-0.007369082886725664,0.002861553570255637,0.008068365976214409
0.01652318798005581,0.008551732636988163,-0.008237314410507679,-0.007721490226686001,0.0028425566852092743,0.008954798802733421
0.017099831253290176,0.00946772750467062,-0.008086766116321087,-0.0073135956190526485,0.0028595239855349064,0.008710676804184914
0.016927756369113922,0.008481395430862904,-0.007905201986432076,-0.006984020583331585,0.0027927791234105825,0.008351531811058521
0.016927756369113922,0.008481395430862904,-0.007905201986432076,-0.006984020583331585,0.0027927791234105825,0.008351531811058521
0.016549628227949142,0.008414492011070251,-0.007758787367492914,-0.006746278144419193,0.0028830720111727715,0.008660833351314068
0.016687780618667603,0.008702698163688183,-0.00841947365552187,-0.0076767620630562305,0.003014269517734647,0.008410829119384289
0.016841961070895195,0.008688793517649174,-0.007809628266841173,-0.007612879388034344,0.0031268573366105556,0.008481921628117561
0.016841961070895195,0.008688793517649174,-0.007809628266841173,-0.007612879388034344,0.0031268573366105556,0.008481921628117561
0.016974525526165962,0.008695277385413647,-0.007696563843637705,-0.006967818830162287,0.0029457281343638897,0.008653631433844566
0.017340324819087982,0.008834773674607277,-0.008051217533648014,-0.007294615730643272,0.0029288423247635365,0.008496480993926525
0.017789065837860107,0.008545737713575363,-0.007669231854379177,-0.007790527306497097,0.0028437699656933546,0.008710206486284733
0.0172900203615427,0.008652299642562866,-0.007367301732301712,-0.007605587597936392,0.0028072288259863853,0.008542872034013271
0.01789245568215847,0.009046090766787529,-0.007761899381875992,-0.007029946427792311,0.0030707221012562513,0.008514008484780788
0.017664575949311256,0.008748704567551613,-0.008239129558205605,-0.007333108689635992,0.002903976012021303,0.008279385976493359
0.017521409317851067,0.008297359570860863,-0.007589328568428755,-0.007875638082623482,0.0027353689074516296,0.008195948787033558
0.017892923206090927,0.008943737484514713,-0.008080418221652508,-0.007523307576775551,0.0026481307577341795,0.008412165567278862
0.01783771626651287,0.008572310209274292,-0.00804627314209938,-0.0072775948792696,0.002569939009845257,0.008466825820505619
0.01790487952530384,0.008732261136174202,-0.007850590161979198,-0.007558005861938,0.0029452231246978045,0.008290856145322323
0.018154801800847054,0.00941940862685442,-0.007319006137549877,-0.008008373901247978,0.002978008007630706,0.008241677656769753
0.018387671560049057,0.008930104784667492,-0.0074418168514966965,-0.008127818815410137,0.002824622904881835,0.008769817650318146
0.018802333623170853,0.009037950076162815,-0.00825375597923994,-0.007854226045310497,0.0031839164439588785,0.00928102619946003
0.018119296059012413,0.008981992490589619,-0.007894410751760006,-0.0077157034538686275,0.0030705593526363373,0.008556120097637177
0.018560657277703285,0.009168815799057484,-0.007970617152750492,-0.007869082503020763,0.0031695254147052765,0.008080333471298218
0.01835118979215622,0.008591068908572197,-0.007866824977099895,-0.007606500294059515,0.003095350693911314,0.008576644584536552
0.017804287374019623,0.008737998083233833,-0.008395441807806492,-0.007770695257931948,0.0031824600882828236,0.008532662875950336
0.018832800909876823,0.009378209710121155,-0.0077798436395823956,-0.007964788004755974,0.0030803887639194727,0.008453264832496643
0.018909871578216553,0.008521968498826027,-0.007538062520325184,-0.008103317581117153,0.0029454396571964025,0.00878965761512518
0.01901293732225895,0.00874058622866869,-0.007642716635018587,-0.007960685528814793,0.003039019647985697,0.008494272828102112
0.018784785643219948,0.009298942051827908,-0.00776176480576396,-0.008101104758679867,0.0031871565151959658,0.008959714323282242
0.018979307264089584,0.008806171827018261,-0.007258891593664885,-0.00766644487157464,0.003082275390625,0.009023688733577728
0.01957976073026657,0.009048670530319214,-0.007549690548330545,-0.007849928922951221,0.0030465498566627502,0.008691642433404922
0.019521508365869522,0.009293786250054836,-0.008213123306632042,-0.008302888832986355,0.003091532737016678,0.009262587875127792
0.0190892331302166,0.009110021404922009,-0.008250793442130089,-0.008448595181107521,0.0033107735216617584,0.008906717412173748
0.0190892331302166,0.009110021404922009,-0.008250793442130089,-0.008448595181107521,0.0033107735216617584,0.008906717412173748
0.019573960453271866,0.00896450411528349,-0.007937882095575333,-0.008227706886827946,0.003165655769407749,0.008855822496116161
0.019038595259189606,0.009410198777914047,-0.00778777152299881,-0.007851342670619488,0.0031251944601535797,0.00902676023542881
0.019186997786164284,0.008674423210322857,-0.007821077480912209,-0.008116131648421288,0.003066582605242729,0.009156543761491776
0.01932419463992119,0.008762996643781662,-0.007585081737488508,-0.009110738523304462,0.0031811827793717384,0.008622643537819386
0.019780240952968597,0.009204869158565998,-0.007842948660254478,-0.0077166142873466015,0.0031937514431774616,0.008343099616467953
0.019917521625757217,0.008786089718341827,-0.008577628061175346,-0.007284386549144983,0.0031911630649119616,0.009100446477532387
0.019839631393551826,0.009416126646101475,-0.007787625305354595,-0.008294605650007725,0.00345736276358366,0.008698944002389908
0.020031312480568886,0.009687991812825203,-0.00813924241811037,-0.008523496799170971,0.0036798762157559395,0.008365957997739315
0.019684476777911186,0.009279504418373108,-0.007858901284635067,-0.00833787489682436,0.003506612731143832,0.008970820344984531
0.019716674461960793,0.009129432961344719,-0.00830459501594305,-0.008690676651895046,0.0029350959230214357,0.00881072599440813
0.02019445039331913,0.009350921027362347,-0.00802623387426138,-0.008673561736941338,0.0026916537899523973,0.008790653198957443
0.020279737189412117,0.009236040525138378,-0.008174411021173,-0.0081816790625453,0.0028329002670943737,0.009023713879287243
0.019801728427410126,0.008963506668806076,-0.008492393419146538,-0.008751168847084045,0.003293821820989251,0.009181101806461811
0.020188620314002037,0.009284209460020065,-0.008287226781249046,-0.008883180096745491,0.003259306540712714,0.009033490903675556
0.020174432545900345,0.00916807260364294,-0.007778349332511425,-0.008813410997390747,0.003048034617677331,0.00877921562641859
0.02091175504028797,0.009167653508484364,-0.007786986418068409,-0.00843220017850399,0.0028366553597152233,0.009556286036968231
0.020246684551239014,0.009206495247781277,-0.00844530574977398,-0.008484275080263615,0.0030692839063704014,0.009097302332520485
0.02052033692598343,0.009334779344499111,-0.008423355408012867,-0.008488385006785393,0.0035300850868225098,0.008914841338992119
0.020776238292455673,0.009090954437851906,-0.00818595290184021,-0.008750323206186295,0.003896123031154275,0.008954759687185287
0.020635049790143967,0.009512275457382202,-0.009083989076316357,-0.009066388942301273,0.0028771739453077316,0.009071425534784794
0.020710188895463943,0.009184988215565681,-0.008089597336947918,-0.008833955973386765,0.0030690378043800592,0.009413229301571846
0.02039402164518833,0.008999085985124111,-0.00759578263387084,-0.00856078416109085,0.0030264665838330984,0.009078563190996647
0.020639268681406975,0.009813702665269375,-0.008664197288453579,-0.009508024901151657,0.003387514967471361,0.009124716743826866
0.0213297288864851,0.009371603839099407,-0.00842856615781784,-0.008703343570232391,0.003453869139775634,0.008412424474954605
0.021053630858659744,0.00927476491779089,-0.008254661224782467,-0.008346234448254108,0.0033545582555234432,0.009300961159169674
0.020361222326755524,0.009715967811644077,-0.008359896950423717,-0.00856639165431261,0.0035430314019322395,0.010549625381827354
0.021082893013954163,0.00945535022765398,-0.008783720433712006,-0.008684538304805756,0.00382538721896708,0.010083758272230625
0.021082893013954163,0.00945535022765398,-0.008783720433712006,-0.008684538304805756,0.00382538721896708,0.010083758272230625
0.02109127677977085,0.009273543022572994,-0.008513006381690502,-0.008363254368305206,0.0035686930641531944,0.009198224171996117
0.021279236301779747,0.009657232090830803,-0.007990904152393341,-0.008759777061641216,0.003063563024625182,0.0092463418841362
0.02069588378071785,0.009619122371077538,-0.008827535435557365,-0.009000090882182121,0.0028918450698256493,0.009457237087190151
0.021489838138222694,0.008920090273022652,-0.008761568926274776,-0.00911058858036995,0.00306447665207088,0.009556928649544716
0.021255092695355415,0.009739601984620094,-0.008367607370018959,-0.008577882312238216,0.003516467520967126,0.009437709115445614
0.021162308752536774,0.009536901488900185,-0.009812641888856888,-0.008770963177084923,0.0036404847633093596,0.009626219049096107
0.021103400737047195,0.00905966479331255,-0.008943242952227592,-0.008688490837812424,0.0034995379392057657,0.009252442046999931
0.021756576374173164,0.009583833627402782,-0.00815186370164156,-0.008358707651495934,0.0033135029952973127,0.009473607875406742
0.021174827590584755,0.0097326235845685,-0.008448081091046333,-0.008894231170415878,0.0031472607515752316,0.009118604473769665
0.021174922585487366,0.009557285346090794,-0.008707398548722267,-0.009112893603742123,0.003475598990917206,0.009417490102350712
0.021424056962132454,0.009731086902320385,-0.008759323507547379,-0.008730227127671242,0.003654042724519968,0.009568041190505028
0.021342454478144646,0.009760372340679169,-0.008532237261533737,-0.009406061843037605,0.0036540802102535963,0.009273138828575611
0.02143905684351921,0.00982589740306139,-0.00916224904358387,-0.009161707013845444,0.0032035685144364834,0.009942333213984966
0.021541092544794083,0.009891572408378124,-0.009111577644944191,-0.00937030091881752,0.0033212867565453053,0.009435279294848442
0.021670525893568993,0.009910824708640575,-0.008440167643129826,-0.009191444143652916,0.0037148315459489822,0.009605968371033669
0.02224966324865818,0.00951173435896635,-0.008832945488393307,-0.009650144726037979,0.003969141747802496,0.01041283831000328
0.022491903975605965,0.010775799863040447,-0.00908639095723629,-0.00920951645821333,0.003954642452299595,0.009915373288094997
0.022019853815436363,0.009455441497266293,-0.009389045648276806,-0.009589673019945621,0.0031659025698900223,0.010123306885361671
0.020362669602036476,0.010695930570363998,-0.009252997115254402,-0.009384606964886189,0.0029695704579353333,0.009788481518626213
0.022032903507351875,0.010258127935230732,-0.009385469369590282,-0.00902120117098093,0.0029637471307069063,0.00975657720118761
0.02222147397696972,0.009758161380887032,-0.008942815475165844,-0.009170540608465672,0.0033146433997899294,0.010232028551399708
0.02215786650776863,0.01059261430054903,-0.009745966643095016,-0.009495462290942669,0.0036230641417205334,0.009886974468827248
0.02185680903494358,0.010049215517938137,-0.009643742814660072,-0.009114359505474567,0.0037162350490689278,0.009641793556511402
0.02185680903494358,0.010049215517938137,-0.009643742814660072,-0.009114359505474567,0.0037162350490689278,0.009641793556511402
0.02230094000697136,0.00969646219164133,-0.00900091603398323,-0.009134088642895222,0.0036613375414162874,0.01007512304931879
0.022827837616205215,0.010170427151024342,-0.009792041033506393,-0.009221232496201992,0.0034354806412011385,0.0100169712677598
0.022827837616205215,0.010170427151024342,-0.009792041033506393,-0.009221232496201992,0.0034354806412011385,0.0100169712677598
0.022450953722000122,0.010006998665630817,-0.009148807264864445,-0.009306500665843487,0.0034335616510361433,0.010570618323981762
0.02286403998732567,0.01005538273602724,-0.00997375138103962,-0.009756735526025295,0.003490774892270565,0.010293224826455116
0.02184510976076126,0.009816939011216164,-0.009590238332748413,-0.009606318548321724,0.0035388576798141003,0.010345766320824623
0.021928885951638222,0.00954462680965662,-0.008891460485756397,-0.009461239911615849,0.0034501051995903254,0.010295813903212547
0.022690527141094208,0.01068461500108242,-0.009784011170268059,-0.009744526818394661,0.0034756972454488277,0.010511446744203568
0.02297893539071083,0.00934789888560772,-0.01066465862095356,-0.009476267732679844,0.0038308422081172466,0.010875158943235874
0.022529413923621178,0.009504802525043488,-0.008930002339184284,-0.00938134454190731,0.003946281503885984,0.010492237284779549
0.02283189818263054,0.009994051419198513,-0.009030422195792198,-0.010224043391644955,0.003848855849355459,0.009805825538933277
0.022690225392580032,0.009826120920479298,-0.009525543078780174,-0.009425858035683632,0.0037652289029210806,0.009993217885494232
0.02277558483183384,0.009561697952449322,-0.00925348699092865,-0.009944280609488487,0.0036875903606414795,0.010464366525411606
0.022573253139853477,0.009888623841106892,-0.010232271626591682,-0.010264291428029537,0.003355423454195261,0.01007604319602251
0.02308100089430809,0.009628520347177982,-0.009282941929996014,-0.009664107114076614,0.0029525267891585827,0.010475891642272472
0.02319321781396866,0.009605294093489647,-0.00947772990912199,-0.010393152944743633,0.0028920320328325033,0.010828469879925251
0.02292655222117901,0.010583542287349701,-0.009728364646434784,-0.009944373741745949,0.0029893757309764624,0.010260927490890026
0.023073380813002586,0.010126784443855286,-0.009656300768256187,-0.009399665519595146,0.003402369562536478,0.010093066841363907
0.023310694843530655,0.010191695764660835,-0.009231762029230595,-0.009920008480548859,0.003774892073124647,0.010550742968916893
0.02325829491019249,0.010153453797101974,-0.009883537888526917,-0.010339166037738323,0.0036441334523260593,0.010844580829143524
0.0232975035905838,0.009667905978858471,-0.009468663483858109,-0.010148626752197742,0.00347608863376081,0.010402488522231579
0.023142628371715546,0.010182314552366734,-0.009314125403761864,-0.00988029409199953,0.0038554484490305185,0.010186458937823772
0.02367262728512287,0.010048136115074158,-0.010021082125604153,-0.009840598329901695,0.0039436290971934795,0.009461456909775734
0.02367262728512287,0.010048136115074158,-0.010021082125604153,-0.009840598329901695,0.0039436290971934795,0.009461456909775734
0.023663567379117012,0.01028632652014494,-0.00977097637951374,-0.00950426422059536,0.0036224767100065947,0.010849692858755589
0.023469598963856697,0.011014376766979694,-0.009345795959234238,-0.010340872220695019,0.0034815615508705378,0.011529211886227131
0.02332339435815811,0.011367196217179298,-0.009697243571281433,-0.009962492622435093,0.003604818368330598,0.01103625912219286
0.021974436938762665,0.011418708600103855,-0.009620987810194492,-0.010554405860602856,0.003970286808907986,0.010271540842950344
0.02417563833296299,0.011071590706706047,-0.00969445239752531,-0.01100852433592081,0.004649630282074213,0.01055811531841755
0.024232717230916023,0.010513358749449253,-0.010192394256591797,-0.010309587232768536,0.00470648892223835,0.010209629312157631
0.024740422144532204,0.01124477107077837,-0.01014766562730074,-0.010885482653975487,0.0036953799426555634,0.010720252990722656
0.024837085977196693,0.011270038783550262,-0.009788837283849716,-0.010539133101701736,0.0029486254788935184,0.011007457971572876
0.023651547729969025,0.011486010625958443,-0.009939458221197128,-0.0101426737383008,0.0026787908282130957,0.010861392132937908
0.023128610104322433,0.011892399750649929,-0.010021049529314041,-0.010895367711782455,0.003024809993803501,0.01099634263664484
0.024198096245527267,0.011040590703487396,-0.00923115387558937,-0.010950487107038498,0.004191412124782801,0.010875902138650417
0.02492554299533367,0.011736532673239708,-0.009648088365793228,-0.010914072394371033,0.004667731001973152,0.01096153724938631
0.024853156879544258,0.011115475557744503,-0.009874626994132996,-0.010465074330568314,0.004527021199464798,0.01124618574976921
0.024417251348495483,0.011169041506946087,-0.009318392723798752,-0.010267039760947227,0.0039865258149802685,0.01041097566485405
0.024852851405739784,0.011346453800797462,-0.009896500036120415,-0.010249095037579536,0.003858020296320319,0.010120764374732971
0.024754613637924194,0.01083042100071907,-0.009513474069535732,-0.010309313423931599,0.0042307376861572266,0.010713009163737297
0.024446610361337662,0.011534133926033974,-0.0094350790604949,-0.009761606343090534,0.004040808882564306,0.011022198013961315
0.024510681629180908,0.011922018602490425,-0.009530503302812576,-0.010384339839220047,0.003607630729675293,0.011138715781271458
0.024580011144280434,0.012079134583473206,-0.009377362206578255,-0.010827824473381042,0.003450697520747781,0.011504326947033405
0.024859337136149406,0.011728471145033836,-0.009639761410653591,-0.010198399424552917,0.004174862988293171,0.011490915901958942
0.02511513978242874,0.011738264933228493,-0.009118447080254555,-0.00986898597329855,0.0042715356685221195,0.010948287323117256
0.024947505444288254,0.011506946757435799,-0.008785863406956196,-0.01043669506907463,0.00398126570507884,0.011093191802501678
0.024874195456504822,0.012182301841676235,-0.009444399736821651,-0.01124731358140707,0.0038025996182113886,0.011622107587754726
0.024983663111925125,0.011854865588247776,-0.009935003705322742,-0.010615133680403233,0.0037622039671987295,0.011480591259896755
0.025140944868326187,0.01161902491003275,-0.009100488387048244,-0.01076954510062933,0.0038472029846161604,0.011982670053839684
0.025140944868326187,0.01161902491003275,-0.009100488387048244,-0.01076954510062933,0.0038472029846161604,0.011982670053839684
0.024998612701892853,0.012420451268553734,-0.009762794710695744,-0.011042993515729904,0.0042563374154269695,0.011886676773428917
0.02539297565817833,0.011966446414589882,-0.009564592503011227,-0.010916059836745262,0.004184247460216284,0.011494476348161697
0.02516045980155468,0.012014176696538925,-0.009363299235701561,-0.011029824614524841,0.004234297666698694,0.011509496718645096
0.025345388799905777,0.012170178815722466,-0.010607816278934479,-0.011241530068218708,0.004206950310617685,0.011507092975080013
0.025003736838698387,0.011666866019368172,-0.009851157665252686,-0.01082312036305666,0.004362989217042923,0.011283393017947674
0.025259947404265404,0.012217702344059944,-0.009391013532876968,-0.011192908510565758,0.004080264829099178,0.011452408507466316
0.025101054459810257,0.011800519190728664,-0.010244128294289112,-0.011068044230341911,0.003884316887706518,0.011090146377682686
0.025862479582428932,0.011577064171433449,-0.009809477254748344,-0.010807839222252369,0.004286839161068201,0.011563495732843876
0.0256222914904356,0.011715205386281013,-0.009396843612194061,-0.011310223489999771,0.00416508037596941,0.011439099907875061
0.025349296629428864,0.011461605317890644,-0.010109785944223404,-0.011544658802449703,0.0042775641195476055,0.011675456538796425
0.026445461437106133,0.012415741570293903,-0.009915528818964958,-0.011777467094361782,0.004177493508905172,0.011602013371884823
0.025847379118204117,0.011995287612080574,-0.00954933650791645,-0.012095406651496887,0.004041620995849371,0.012099839746952057
0.02576165832579136,0.011956374160945415,-0.010139739140868187,-0.011953487060964108,0.004190804436802864,0.012004454620182514
0.025439351797103882,0.012033996172249317,-0.010210268199443817,-0.012105707079172134,0.004133563954383135,0.011841867119073868
0.02570546418428421,0.011728065088391304,-0.009196223691105843,-0.01149635948240757,0.003878897987306118,0.011871006339788437
0.025712745264172554,0.012160995043814182,-0.009960188530385494,-0.011853179894387722,0.0038436444010585546,0.011642120778560638
0.026095090433955193,0.01200558990240097,-0.010362982749938965,-0.012054266408085823,0.004269229248166084,0.01174861565232277
0.025899462401866913,0.012595552019774914,-0.00922310072928667,-0.012068192474544048,0.004346783272922039,0.011061673052608967
0.02594158984720707,0.012019934132695198,-0.009747686795890331,-0.012190752662718296,0.004257000517100096,0.011515406891703606
0.026728203520178795,0.012130456045269966,-0.009666750207543373,-0.011800423264503479,0.004377512726932764,0.012199013493955135
0.026252496987581253,0.012240475043654442,-0.00949957687407732,-0.011703746393322945,0.004230699967592955,0.012329647317528725
0.02604287676513195,0.012136407196521759,-0.010060600936412811,-0.011554132215678692,0.004094072617590427,0.01267835684120655
0.026070421561598778,0.012726935558021069,-0.01039811410009861,-0.011812293902039528,0.00405084015801549,0.012118298560380936
0.026408368721604347,0.01274749543517828,-0.010374980047345161,-0.01208118163049221,0.0038263543974608183,0.01195159088820219
0.0262657031416893,0.012060897424817085,-0.009967864491045475,-0.012110802344977856,0.0043540881015360355,0.011481928639113903
0.026134837418794632,0.011992400512099266,-0.009469880722463131,-0.01186059508472681,0.004223254509270191,0.01179483812302351
0.02635522373020649,0.012701989151537418,-0.010018899105489254,-0.011855329386889935,0.004444587510079145,0.011934643611311913
0.026600949466228485,0.012133813463151455,-0.009912967681884766,-0.012030084617435932,0.004200791474431753,0.01174590177834034
0.02708798088133335,0.012730872258543968,-0.010587337426841259,-0.011991576291620731,0.003923442214727402,0.01196775957942009
0.027429457753896713,0.012503346428275108,-0.010222082957625389,-0.01199999637901783,0.0042707715183496475,0.012002111412584782
0.027429457753896713,0.012503346428275108,-0.010222082957625389,-0.01199999637901783,0.0042707715183496475,0.012002111412584782
0.026596715673804283,0.013287654146552086,-0.009408481419086456,-0.011672795750200748,0.004269373137503862,0.012517346069216728
0.026529615744948387,0.01238944660872221,-0.010306275449693203,-0.012041855603456497,0.004451325163245201,0.012012611143290997
0.027557911351323128,0.013206735253334045,-0.010257884860038757,-0.011944717727601528,0.004990139044821262,0.011985426768660545
0.02770405448973179,0.01256517693400383,-0.009611952118575573,-0.01215328834950924,0.00509263388812542,0.011971263214945793
0.027070125564932823,0.01299162395298481,-0.009976772591471672,-0.012447252869606018,0.004488344304263592,0.011892205104231834
0.027786774560809135,0.012968256138265133,-0.010218316689133644,-0.012137659825384617,0.00400998629629612,0.012430809438228607
0.028078917413949966,0.012374899350106716,-0.009638499468564987,-0.01260764803737402,0.004052256233990192,0.012265552766621113
0.027697401121258736,0.012911946512758732,-0.009639214724302292,-0.012378943152725697,0.004183666314929724,0.012374351732432842
0.02718755044043064,0.0126779954880476,-0.010685769841074944,-0.012604628689587116,0.0044403523206710815,0.012563010677695274
0.026825139299035072,0.013192743062973022,-0.009835327975451946,-0.012244101613759995,0.004556105937808752,0.012299339286983013
0.02754463627934456,0.012992801144719124,-0.00962774083018303,-0.012000572867691517,0.0044564735144376755,0.012463100254535675
0.028005637228488922,0.013220097869634628,-0.010227755643427372,-0.012629697099328041,0.004446335136890411,0.012079142034053802
0.026543166488409042,0.012643974274396896,-0.009778383187949657,-0.01207598578184843,0.004396550823003054,0.012273288331925869
0.02812165766954422,0.012954735197126865,-0.009882918559014797,-0.013722927309572697,0.004079130012542009,0.012331027537584305
0.0284977238625288,0.01318077277392149,-0.010180613957345486,-0.01237776130437851,0.003801250597462058,0.012376693077385426
0.028376812115311623,0.01249960158020258,-0.010601527988910675,-0.012905399315059185,0.0038837986066937447,0.01259138435125351
0.02825811505317688,0.013053483329713345,-0.010106862522661686,-0.013134213164448738,0.0045250714756548405,0.012661218643188477
0.02825811505317688,0.013053483329713345,-0.010106862522661686,-0.013134213164448738,0.0045250714756548405,0.012661218643188477
0.028271930292248726,0.012760494835674763,-0.01052297092974186,-0.013026143424212933,0.004108823835849762,0.012608269229531288
0.028300799429416656,0.013328829780220985,-0.010304841212928295,-0.013043398968875408,0.004290962126106024,0.012414587661623955
0.029150255024433136,0.013034620322287083,-0.009709487669169903,-0.012742160819470882,0.004307280760258436,0.013015059754252434
0.02916688285768032,0.012707788497209549,-0.010122006759047508,-0.013159355148673058,0.004499186761677265,0.01278150174766779
0.02872743085026741,0.012970018200576305,-0.010181724093854427,-0.012805051170289516,0.004953448195010424,0.01273400615900755
0.0292190108448267,0.012752332724630833,-0.009827269241213799,-0.013536663725972176,0.004923274274915457,0.012679165229201317
0.02915632165968418,0.013110163621604443,-0.010647344402968884,-0.013260678388178349,0.004645232111215591,0.012742591090500355
0.02987118996679783,0.013171592727303505,-0.01006561703979969,-0.013724210672080517,0.004564154427498579,0.01285820547491312
0.030418632552027702,0.013793719001114368,-0.01005210168659687,-0.013245437294244766,0.004512972664088011,0.012310507707297802
0.030418632552027702,0.013793719001114368,-0.01005210168659687,-0.013245437294244766,0.004512972664088011,0.012310507707297802
0.029464872553944588,0.012891548685729504,-0.010738738812506199,-0.013530394062399864,0.004465956706553698,0.013961805030703545
0.02876911498606205,0.013595196418464184,-0.010432504117488861,-0.01389858964830637,0.004799388814717531,0.013479599729180336
0.029946768656373024,0.013455510139465332,-0.009823134168982506,-0.014061328023672104,0.004848502576351166,0.01325319055467844
0.03062603250145912,0.013517988845705986,-0.01095354463905096,-0.014286903664469719,0.004730021581053734,0.012842416763305664
0.030095288529992104,0.013106315396726131,-0.010080658830702305,-0.014364625327289104,0.004619109909981489,0.012687548995018005
0.03090888448059559,0.013399383053183556,-0.009949296712875366,-0.01425920706242323,0.004603544250130653,0.012826240621507168
0.03123696707189083,0.013345984742045403,-0.010286371223628521,-0.013619055040180683,0.004411750938743353,0.012852782383561134
0.031104888767004013,0.01323702186346054,-0.009840970858931541,-0.014025812968611717,0.004243196453899145,0.013130107894539833
0.029428670182824135,0.013380252756178379,-0.01052048522979021,-0.013382595032453537,0.004256515298038721,0.013081366196274757
0.03009493462741375,0.0130879832431674,-0.011004392057657242,-0.013834645040333271,0.004469217266887426,0.013581117615103722
0.031148433685302734,0.013635299168527126,-0.009827380068600178,-0.013772990554571152,0.004928047768771648,0.013456855900585651
0.03095782920718193,0.013234678655862808,-0.010658501647412777,-0.01391917746514082,0.004965923726558685,0.013384131714701653
0.030412724241614342,0.013752492144703865,-0.00999892596155405,-0.013722875155508518,0.004981653299182653,0.012908443808555603
0.030641678720712662,0.013487154617905617,-0.01018930971622467,-0.01390086580067873,0.005099172238260508,0.013328745029866695
0.030380873009562492,0.014085516333580017,-0.010436920449137688,-0.013627591542899609,0.004636411089450121,0.013468358665704727
0.03067614696919918,0.013536966405808926,-0.010394163429737091,-0.01380653865635395,0.004948525223881006,0.013762098737061024
0.030474292114377022,0.014008509926497936,-0.009961383417248726,-0.013368998654186726,0.005062474403530359,0.014208396896719933
0.030693214386701584,0.013477196916937828,-0.011570851318538189,-0.013806593604385853,0.004908190108835697,0.013877679593861103
0.030830277130007744,0.013718672096729279,-0.011081700213253498,-0.014237198047339916,0.004460698459297419,0.013351126573979855
0.03100760094821453,0.013908579014241695,-0.011784642934799194,-0.013932108879089355,0.004606890492141247,0.013460500165820122
0.031370796263217926,0.013994359411299229,-0.011391271837055683,-0.01434386521577835,0.004698689561337233,0.013217300176620483
0.0316549576818943,0.014164183288812637,-0.011651841923594475,-0.014057004824280739,0.004685546271502972,0.01342474389821291
0.031585171818733215,0.013858186081051826,-0.011718940921127796,-0.014406928792595863,0.004467448219656944,0.01341688260436058
0.031457655131816864,0.014380667358636856,-0.011923899874091148,-0.014342708513140678,0.004535068292170763,0.013564501889050007
0.031550101935863495,0.013803909532725811,-0.011798501014709473,-0.015042904764413834,0.004483903292566538,0.013701139017939568
0.030912896618247032,0.013840636238455772,-0.011123912408947945,-0.01464382279664278,0.004760808777064085,0.014049754478037357
0.031220771372318268,0.013950916938483715,-0.01170789822936058,-0.014815719798207283,0.005021808203309774,0.01376599632203579
0.031220771372318268,0.013950916938483715,-0.01170789822936058,-0.014815719798207283,0.005021808203309774,0.01376599632203579
0.031665150076150894,0.013925189152359962,-0.01155107468366623,-0.014374565333127975,0.004868463147431612,0.013948203064501286
0.031397100538015366,0.013697376474738121,-0.011704330332577229,-0.014871394261717796,0.004763349890708923,0.013750300742685795
0.031127197667956352,0.013957425020635128,-0.01180641446262598,-0.014411422424018383,0.005020545329898596,0.013793299905955791
0.03163057565689087,0.013902430422604084,-0.011828443966805935,-0.01470185350626707,0.005276189185678959,0.01344270072877407
0.03138628602027893,0.013704946264624596,-0.012349408119916916,-0.014032501727342606,0.005199870094656944,0.0138899190351367
0.03160298988223076,0.013744363561272621,-0.011501127853989601,-0.014687573537230492,0.004824166186153889,0.013972046785056591
0.031795114278793335,0.01394464261829853,-0.011864888481795788,-0.014238703064620495,0.0046325442381203175,0.014104052446782589
0.03171050176024437,0.014310943894088268,-0.012233784422278404,-0.014496647752821445,0.00468711880967021,0.013808019459247589
0.03120223619043827,0.013404279947280884,-0.011470356024801731,-0.014182952232658863,0.005140224471688271,0.013516565784811974
0.031095892190933228,0.014572374522686005,-0.012079079635441303,-0.014534985646605492,0.005019637756049633,0.014174430631101131
0.03096318058669567,0.014110071584582329,-0.011753280647099018,-0.013960333541035652,0.004923042841255665,0.01457657665014267
0.030823636800050735,0.014536201022565365,-0.011957414448261261,-0.014288108795881271,0.00506709236651659,0.01429755613207817
0.0317390002310276,0.014181799255311489,-0.011962225660681725,-0.014065978117287159,0.004955629352480173,0.014448758214712143
0.03203803673386574,0.014834364876151085,-0.01130447257310152,-0.014477448537945747,0.004878074862062931,0.014171233400702477
