davideferrari95/blind_handover_controller/data/Test 50 - [2024-02-07 -- 15-11-08]/joint_states_data.csv
shoulder_pan_joint,shoulder_lift_joint,elbow_joint,wrist_1_joint,wrist_2_joint,wrist_3_joint
0.006652911193668842,-0.007279496174305677,-0.014738528989255428,0.020834188908338547,-0.00018026444013230503,0.006559210363775492
0.006652911193668842,-0.007279496174305677,-0.014738528989255428,0.020834188908338547,-0.00018026444013230503,0.006559210363775492
0.00742766447365284,-0.007036490831524134,-0.015037184581160545,0.020940018817782402,-0.00017679398297332227,0.006753156892955303
0.006567258853465319,-0.006572270765900612,-0.01464400440454483,0.020885970443487167,-0.00017206923803314567,0.0064623295329511166
0.006313661113381386,-0.007176748476922512,-0.01563650369644165,0.0202676709741354,-0.0001675004605203867,0.005631536711007357
0.006313661113381386,-0.007176748476922512,-0.01563650369644165,0.0202676709741354,-0.0001675004605203867,0.005631536711007357
0.006991223432123661,-0.0070974030531942844,-0.015084046870470047,0.020551733672618866,-0.00017877211212180555,0.005894472822546959
0.006991223432123661,-0.0070974030531942844,-0.015084046870470047,0.020551733672618866,-0.00017877211212180555,0.005894472822546959
0.006804656237363815,-0.0067291660234332085,-0.014676442369818687,0.019454574212431908,-0.00017709311214275658,0.005755304824560881
0.006598896346986294,-0.006901411339640617,-0.015517196618020535,0.01936922036111355,-0.0001730148505885154,0.005788630340248346
0.006436518393456936,-0.007163249421864748,-0.015329353511333466,0.019782446324825287,-0.00016896580928005278,0.005936925765126944
0.006583706010133028,-0.007419240195304155,-0.015170261263847351,0.020294029265642166,-0.00016509239503648132,0.005655931308865547
0.007440642453730106,-0.007127207238227129,-0.015276888385415077,0.02065151557326317,-0.00016139165381900966,0.0058503951877355576
0.006540293339639902,-0.007317946758121252,-0.015412762761116028,0.02057620882987976,-0.00015785297728143632,0.005573574919253588
0.006294076330959797,-0.007764806039631367,-0.015524563379585743,0.020357174798846245,-0.00015446648467332125,0.006072019226849079
0.006541374139487743,-0.007616696413606405,-0.016021503135561943,0.02048126608133316,-0.00015122217882890254,0.006234627682715654
0.006603647023439407,-0.007420106325298548,-0.01492992602288723,0.02117900364100933,-0.0001451257267035544,0.006407280918210745
0.006603647023439407,-0.007420106325298548,-0.01492992602288723,0.02117900364100933,-0.0001451257267035544,0.006407280918210745
0.006644590757787228,-0.0077469986863434315,-0.015519366599619389,0.020767126232385635,-0.00013950401626061648,0.00669555738568306
0.006061337888240814,-0.007398624438792467,-0.01603240706026554,0.02071702666580677,-0.00013685051817446947,0.0063360813073813915
0.006277940236032009,-0.008110085502266884,-0.015276401303708553,0.020154936239123344,-0.00013429780665319413,0.006547066383063793
0.007083364762365818,-0.008078976534307003,-0.015506465919315815,0.019574934616684914,-0.0001318386639468372,0.0064058671705424786
0.007005024701356888,-0.007778999861329794,-0.015262368135154247,0.019612716510891914,-0.00012946786591783166,0.006162144243717194
0.005978453438729048,-0.007457101717591286,-0.015445483848452568,0.019443323835730553,-0.00012725337001029402,0.0063574775122106075
0.0064232926815748215,-0.007751919329166412,-0.015894154086709023,0.019632486626505852,-0.00014750230184290558,0.0063128103502094746
0.006844586692750454,-0.007711832877248526,-0.015603509731590748,0.020215187221765518,-0.00014436212950386107,0.006200441159307957
0.006292792037129402,-0.007218795362859964,-0.015389288775622845,0.020066898316144943,-0.00013999069051351398,0.006184609606862068
0.0062220655381679535,-0.007203307002782822,-0.015067633241415024,0.019995661452412605,-0.00013575992488767952,0.006519069895148277
0.005797103513032198,-0.007340313401073217,-0.015944913029670715,0.020006496459245682,-0.00013178333756513894,0.006677973549813032
0.005758058745414019,-0.007375582121312618,-0.015146881341934204,0.020209534093737602,-0.00012804642028640956,0.006756981834769249
0.006082311738282442,-0.007175869308412075,-0.01569894701242447,0.019680457189679146,-0.00012450428039301187,0.006592798512428999
0.006082311738282442,-0.007175869308412075,-0.01569894701242447,0.019680457189679146,-0.00012450428039301187,0.006592798512428999
0.0063562518917024136,-0.006891683675348759,-0.015216043218970299,0.01988535188138485,-0.00012114298442611471,0.006328298710286617
0.0061162617057561874,-0.007043164689093828,-0.015742985531687737,0.020151926204562187,-0.00011797297338489443,0.006940040271729231
0.005830239504575729,-0.0054925065487623215,-0.015298029407858849,0.01983772963285446,-0.0001149591917055659,0.006853949744254351
0.0056986138224601746,-0.004677842371165752,-0.01548977755010128,0.019703606143593788,-0.00013301565195433795,0.006357161793857813
0.0063944365829229355,-0.004602829460054636,-0.014707374386489391,0.01963665522634983,-0.00013114706962369382,0.006005935370922089
0.006357601843774319,-0.00486530689522624,-0.015445524826645851,0.019303198903799057,-0.0001281266158912331,0.006013867910951376
0.006072593852877617,-0.006046513561159372,-0.01525157317519188,0.019809022545814514,-0.00012516265269368887,0.006621093023568392
0.006120787933468819,-0.005322761833667755,-0.015089502558112144,0.020211558789014816,-0.0001223276776727289,0.006783645134419203
0.005921228788793087,-0.004908731207251549,-0.015739228576421738,0.02020954340696335,-0.00011961779091507196,0.00656707352027297
0.0063110594637691975,-0.004758171737194061,-0.015429921448230743,0.020276494324207306,-0.00011702540359692648,0.006227846257388592
0.005913944449275732,-0.004572092089802027,-0.014772061258554459,0.020635198801755905,-0.00011216373241040856,0.005678829737007618
0.005724801681935787,-0.004699142184108496,-0.01538778841495514,0.0217695701867342,-0.0001098814609576948,0.006077693309634924
0.005998809821903706,-0.004806217737495899,-0.014814305119216442,0.02017557993531227,-0.00010769002983579412,0.006418091710656881
0.006132296286523342,-0.004630126059055328,-0.015299187041819096,0.019693223759531975,-0.0001055843968060799,0.006518765352666378
0.0061433520168066025,-0.004359136801213026,-0.014830483123660088,0.01974005438387394,-0.0001120458691730164,0.006551619153469801
0.006316962651908398,-0.004311724565923214,-0.015260528773069382,0.02010137028992176,-0.00011797315528383479,0.006323313806205988
0.0057084145955741405,-0.004096196964383125,-0.01461808755993843,0.020353231579065323,-0.0001163190754596144,0.00627348106354475
0.0063517410308122635,-0.003874974325299263,-0.015157253481447697,0.020151013508439064,-0.00011424410331528634,0.006475741509348154
0.006144091486930847,-0.004267826210707426,-0.014533326029777527,0.019670577719807625,-0.00011221132444916293,0.006724810693413019
0.006409936118870974,-0.004507001023739576,-0.014985335059463978,0.019799891859292984,-0.00011799482308560982,0.0066519128158688545
0.006289513781666756,-0.004270313307642937,-0.01475741807371378,0.020180629566311836,-0.00012330799654591829,0.006387833971530199
0.005790633615106344,-0.004442972596734762,-0.015085123479366302,0.020263493061065674,-0.00012170272384537384,0.00644240528345108
0.005906138103455305,-0.004175014328211546,-0.014840095303952694,0.020537976175546646,-0.00011971047206316143,0.006604370661079884
0.006527332589030266,-0.003989628050476313,-0.014909883961081505,0.020252766087651253,-0.00011775464372476563,0.006727203261107206
0.006527332589030266,-0.003989628050476313,-0.014909883961081505,0.020252766087651253,-0.00011775464372476563,0.006727203261107206
0.006119029130786657,-0.004093531984835863,-0.0149394441395998,0.01933920383453369,-0.00011585986794671044,0.006019336637109518
0.006016806233674288,-0.004789414349943399,-0.015129147097468376,0.019301779568195343,-0.00012806877202820033,0.006599789950996637
0.005964561365544796,-0.004669964779168367,-0.015257729217410088,0.01968611590564251,-0.00012561684707179666,0.006269214674830437
0.005964561365544796,-0.004669964779168367,-0.015257729217410088,0.01968611590564251,-0.00012561684707179666,0.006269214674830437
0.0064471117220819,-0.00445441622287035,-0.014651692472398281,0.019629880785942078,-0.00011904635175596923,0.006040528416633606
0.00611149100586772,-0.004521381575614214,-0.014986652880907059,0.019271165132522583,-0.00011597841512411833,0.006125491578131914
0.00611149100586772,-0.004521381575614214,-0.014986652880907059,0.019271165132522583,-0.00011597841512411833,0.006125491578131914
0.0060172067023813725,-0.004563949536532164,-0.01506942417472601,0.020320136100053787,-0.00012913619866594672,0.006107345689088106
0.0060172067023813725,-0.004563949536532164,-0.01506942417472601,0.020320136100053787,-0.00012913619866594672,0.006107345689088106
0.006527753081172705,-0.004543286748230457,-0.015736542642116547,0.01971309445798397,-0.00012616353342309594,0.006107489578425884
0.006527753081172705,-0.004543286748230457,-0.015736542642116547,0.01971309445798397,-0.00012616353342309594,0.006107489578425884
0.00589747354388237,-0.004759778268635273,-0.014852937310934067,0.020098812878131866,-0.00013852235861122608,0.006541416980326176
0.006299157626926899,-0.004333958961069584,-0.0147787407040596,0.019691046327352524,-0.00013753012171946466,0.006287397816777229
0.006155720911920071,-0.004553560633212328,-0.015367203392088413,0.01997598260641098,-0.00013461214257404208,0.00631463248282671
0.0060919784009456635,-0.005100804381072521,-0.014951124787330627,0.02051055245101452,-0.00013179726374801248,0.006071902811527252
0.00608159601688385,-0.004902202170342207,-0.01563834957778454,0.020000707358121872,-0.00014277735317591578,0.00641527259722352
0.005880542099475861,-0.004884027410298586,-0.014877209439873695,0.019704069942235947,-0.00014426551933865994,0.006610284559428692
0.006380361970514059,-0.004837316926568747,-0.01550153736025095,0.02031387947499752,-0.0001417099847458303,0.006833434570580721
0.0064691114239394665,-0.005071287043392658,-0.015211397781968117,0.020711123943328857,-0.0001389928802382201,0.006383908912539482
0.006239694077521563,-0.005100281909108162,-0.015009338036179543,0.0198298841714859,-0.00013636179210152477,0.006374357268214226
0.0062855607829988,-0.004926861729472876,-0.014635510742664337,0.01963852345943451,-0.0001339250593446195,0.006655220873653889
0.006756272166967392,-0.005343516822904348,-0.015250135213136673,0.01986934430897236,-0.0002098224067594856,0.006230582017451525
0.006899746134877205,-0.005204552318900824,-0.01544166449457407,0.02002931386232376,-0.00020560283155646175,0.006273229606449604
0.006899746134877205,-0.005204552318900824,-0.01544166449457407,0.02002931386232376,-0.00020560283155646175,0.006273229606449604
0.006218567490577698,-0.004586952272802591,-0.01528601348400116,0.019922619685530663,-0.00018871498468797654,0.006229224614799023
0.006490636616945267,-0.005003686062991619,-0.015074403956532478,0.01975870691239834,-0.00018111975805368274,0.006469659972935915
0.006490636616945267,-0.005003686062991619,-0.015074403956532478,0.01975870691239834,-0.00018111975805368274,0.006469659972935915
0.006279035471379757,-0.005358484108000994,-0.01545996218919754,0.019255079329013824,-0.00020055622735526413,0.006602027453482151
0.006363521795719862,-0.005059376358985901,-0.01598905771970749,0.019303124397993088,-0.00019388558575883508,0.006408383138477802
0.0066550723277032375,-0.004894149024039507,-0.014941895380616188,0.01957627572119236,-0.0001871981075964868,0.006811028812080622
0.0066550723277032375,-0.004894149024039507,-0.014941895380616188,0.01957627572119236,-0.0001871981075964868,0.006811028812080622
0.00687070656567812,-0.004967694170773029,-0.01575825735926628,0.019513538107275963,-0.0001809270615922287,0.006630172953009605
0.0066536664962768555,-0.00501736206933856,-0.015192185528576374,0.019059641286730766,-0.0001750615338096395,0.006661571096628904
0.006377847865223885,-0.004963003098964691,-0.01559358462691307,0.019344184547662735,-0.00016956374747678638,0.006727301049977541
0.00657293014228344,-0.0051309349946677685,-0.014946161769330502,0.019168581813573837,-0.00016440091712865978,0.006405613385140896
0.006671719253063202,-0.005005218088626862,-0.015515766106545925,0.01854514889419079,-0.00015954328409861773,0.006273538805544376
0.006456085946410894,-0.004892073571681976,-0.01520762499421835,0.018720751628279686,-0.00015496450942009687,0.005960711278021336
0.006582920905202627,-0.00499715656042099,-0.015550056472420692,0.01912882924079895,-0.00015064128092490137,0.005987265147268772
0.006786777637898922,-0.004971407353878021,-0.01610909029841423,0.01899617537856102,-0.00014655267295893282,0.006427958607673645
0.005984794814139605,-0.005752936936914921,-0.015806570649147034,0.019740870222449303,-0.00016197060176637024,0.00634000776335597
0.006407976616173983,-0.005338984541594982,-0.015150691382586956,0.0194134209305048,-0.00015809136675670743,0.006275528576225042
0.00691491411998868,-0.00513323862105608,-0.01576889120042324,0.019310027360916138,-0.00015423311560880393,0.005829391069710255
0.006267532706260681,-0.004959387239068747,-0.015350515022873878,0.019261928275227547,-0.00015054830873850733,0.00594924995675683
0.006074684672057629,-0.005292008630931377,-0.01588449999690056,0.019198058173060417,-0.00014703426859341562,0.006206304766237736
0.0067241196520626545,-0.005543593317270279,-0.015226615592837334,0.019833534955978394,-0.00014368086704052985,0.006231369450688362
0.0064039090648293495,-0.005549810826778412,-0.015877479687333107,0.01935681700706482,-0.00014047710283193737,0.006530730985105038
0.007067753467708826,-0.005601414944976568,-0.015513826161623001,0.018900688737630844,-0.00013741303700953722,0.006870532874017954
0.0063050370663404465,-0.0048188259825110435,-0.015749923884868622,0.01940165087580681,-0.00013447957462631166,0.0063528036698699
0.006341842003166676,-0.004603749606758356,-0.01593693718314171,0.02023494429886341,-0.00013166890130378306,0.006477436050772667
0.0068060774356126785,-0.004930384457111359,-0.015791118144989014,0.02027520164847374,-0.0001289734209422022,0.00660634646192193
0.006622702814638615,-0.005098056048154831,-0.015885168686509132,0.019687144085764885,-0.00012638600310310721,0.006893124897032976
0.006560538895428181,-0.005131176672875881,-0.01514436025172472,0.019557282328605652,-0.00012390027404762805,0.006797255948185921
0.006447420455515385,-0.004817514214664698,-0.015636734664440155,0.018926873803138733,-0.00012151050759712234,0.007236232981085777
0.006354490760713816,-0.004731311462819576,-0.014867105521261692,0.01902676559984684,-0.00011921133409487084,0.006686268374323845
0.007081878837198019,-0.0046850163489580154,-0.015518603846430779,0.01913159154355526,-0.00011699739116011187,0.006608313415199518
0.006649349816143513,-0.005624824203550816,-0.015165421180427074,0.019851816818118095,-0.00012294031330384314,0.0069208391942083836
0.006192148197442293,-0.005177248269319534,-0.015456357970833778,0.019974378868937492,-0.00012837858230341226,0.007295226212590933
0.006192148197442293,-0.005177248269319534,-0.015456357970833778,0.019974378868937492,-0.00012837858230341226,0.007295226212590933
0.006724772043526173,-0.004967297427356243,-0.014567255973815918,0.020047541707754135,-0.00012661934306379408,0.007136221043765545
0.007023479789495468,-0.005226810462772846,-0.015186050906777382,0.019326530396938324,-0.0001244630984729156,0.0068242815323174
0.006636522710323334,-0.004991248250007629,-0.015334044583141804,0.019471274688839912,-0.0001223501458298415,0.006682561244815588
0.00638021994382143,-0.005467963870614767,-0.015255548991262913,0.0200496856123209,-0.00012030590733047575,0.006743087433278561
0.00644300552085042,-0.005282631143927574,-0.014816389419138432,0.019893212243914604,-0.00011832875316031277,0.006784259807318449
0.006622622720897198,-0.004970003850758076,-0.015340818092226982,0.01912062056362629,-0.00011641555465757847,0.006975266151130199
0.006538901478052139,-0.005283775273710489,-0.014960239641368389,0.019414296373724937,-0.00011456316860858351,0.007011235225945711
0.006720622535794973,-0.005091904196888208,-0.015169051475822926,0.019344208762049675,-0.00011276887380518019,0.0074087814427912235
0.006566628348082304,-0.005290252156555653,-0.015596392564475536,0.019211139529943466,-0.00011102980352006853,0.007394382264465094
0.0067514693364501,-0.005519421771168709,-0.015247151255607605,0.01956385001540184,-0.00010934376041404903,0.0063364398665726185
0.007547416258603334,-0.00510792899876833,-0.015126788057386875,0.0196946170181036,-0.00010770800872705877,0.0064094774425029755
0.007116764318197966,-0.004868476185947657,-0.01479534711688757,0.021133918315172195,-0.00010612048208713531,0.006770015228539705
0.006297650747001171,-0.0046638259664177895,-0.014695961028337479,0.01887430064380169,-0.00010308187484042719,0.007144353352487087
0.006696544121950865,-0.00456865131855011,-0.015420670621097088,0.018875880166888237,-0.00010162694525206462,0.006819070782512426
0.00726875476539135,-0.005012567155063152,-0.014741238206624985,0.019218482077121735,-0.0001002123681246303,0.0067067826166749
0.006954652722924948,-0.005061279516667128,-0.014807715080678463,0.018758662045001984,-9.883685561362654e-05,0.006472828332334757
0.006329062394797802,-0.005183354485780001,-0.014161473140120506,0.018368545919656754,-9.74984432104975e-05,0.007024423684924841
0.0065715378150343895,-0.00493006082251668,-0.01500463206321001,0.019050825387239456,-9.619574848329648e-05,0.006933651398867369
0.0071477205492556095,-0.0048081097193062305,-0.014624212868511677,0.01893790438771248,-9.492754907114431e-05,0.0067673781886696815
0.006953973788768053,-0.005009865388274193,-0.01518278755247593,0.01838950626552105,-9.369226609123871e-05,0.006784982513636351
0.006743885111063719,-0.00503572728484869,-0.014486386440694332,0.018459701910614967,-9.248872083844617e-05,0.007062985561788082
0.007282925304025412,-0.004888619761914015,-0.014547626487910748,0.018260786309838295,-9.131572005571797e-05,0.007403116207569838
0.00789751298725605,-0.005134010687470436,-0.014119542203843594,0.01848810352385044,-9.017212869366631e-05,0.007070641499012709
0.007029442116618156,-0.004931999836117029,-0.014813236892223358,0.01880756951868534,-7.592471229145303e-05,0.0068124039098620415
0.00698862923309207,-0.00486887339502573,-0.014430689625442028,0.018574882298707962,-7.29171370039694e-05,0.007144036702811718
0.006724140606820583,-0.004732200875878334,-0.01505093090236187,0.018860409036278725,-7.164022827055305e-05,0.007610221393406391
0.0071233781054615974,-0.00464156549423933,-0.014028321020305157,0.01907360926270485,-7.051014836179093e-05,0.006915516220033169
0.007329658605158329,-0.005038001574575901,-0.014979400672018528,0.01874348521232605,-6.942189793335274e-05,0.006965124513953924
0.00716105941683054,-0.004651280120015144,-0.014510645531117916,0.018877161666750908,-6.836718966951594e-05,0.00684769544750452
0.007032378111034632,-0.0046341014094650745,-0.015067887492477894,0.019244562834501266,-6.734400085406378e-05,0.007025801111012697
0.007032378111034632,-0.0046341014094650745,-0.015067887492477894,0.019244562834501266,-6.734400085406378e-05,0.007025801111012697
0.007110231090337038,-0.004922398366034031,-0.014085021801292896,0.019346293061971664,-6.635103636654094e-05,0.0069283354096114635
0.007038606330752373,-0.004438492469489574,-0.014631091617047787,0.01953517086803913,-6.538697925861925e-05,0.006763023789972067
0.007212529890239239,-0.004456297028809786,-0.014472180046141148,0.0195988267660141,-6.445041799452156e-05,0.0071631730534136295
0.007264616899192333,-0.00441035907715559,-0.014842559583485126,0.019230851903557777,-6.354045763146132e-05,0.007641371339559555
0.0070217023603618145,-0.004939627833664417,-0.014153655618429184,0.01915421523153782,-6.2655693909619e-05,0.007646920625120401
0.007433486636728048,-0.004856656771153212,-0.014881407842040062,0.01926056295633316,-6.17953555774875e-05,0.007753552868962288
0.00748661532998085,-0.004968548659235239,-0.01560495886951685,0.019127272069454193,-6.095824210206047e-05,0.006904337555170059
0.006862688343971968,-0.004438305739313364,-0.015329276211559772,0.01945066638290882,-6.014350219629705e-05,0.007055121939629316
0.006923706736415625,-0.004248661454766989,-0.014824367128312588,0.019827798008918762,-5.9350310039008036e-05,0.0069650933146476746
0.007431757170706987,-0.003977274522185326,-0.01517846342176199,0.019680988043546677,-5.857773794559762e-05,0.007087248843163252
0.006940459366887808,-0.004582189954817295,-0.014773868955671787,0.01947418600320816,-5.709136530640535e-05,0.007222666405141354
0.007031883113086224,-0.004830053076148033,-0.01484716311097145,0.019457973539829254,-5.637613503495231e-05,0.007509872317314148
0.007527803536504507,-0.004447327461093664,-0.014853701926767826,0.01963121071457863,-5.56786144443322e-05,0.007631777320057154
0.007537824101746082,-0.004419063683599234,-0.01550839189440012,0.01923809014260769,-5.499815597431734e-05,0.007280407939106226
0.007307781837880611,-0.004441391676664352,-0.01559897605329752,0.01938384585082531,-5.433410478872247e-05,0.007203920278698206
0.008026431314647198,-0.004632585681974888,-0.015379294753074646,0.01973525993525982,-5.368590063881129e-05,0.007410116493701935
0.007884596474468708,-0.004744419362396002,-0.01455049216747284,0.020237470045685768,-5.3052965085953474e-05,0.007428611628711224
0.0075235976837575436,-0.00461795786395669,-0.015102853998541832,0.020103586837649345,-5.243479972705245e-05,0.006992083974182606
0.007403378374874592,-0.0047092498280107975,-0.014552279375493526,0.018959447741508484,-5.183086250326596e-05,0.006897178012877703
0.008146991953253746,-0.00430202204734087,-0.015060026198625565,0.018663549795746803,-5.124071321915835e-05,0.00736401230096817
0.00793115422129631,-0.004513799678534269,-0.014588740654289722,0.018293119966983795,-5.0663791625993326e-05,0.007219996768981218
0.007883845828473568,-0.004511950071901083,-0.014725574292242527,0.01875540241599083,-5.009977030567825e-05,0.007101108320057392
0.0075293295085430145,-0.004410207737237215,-0.014264670200645924,0.0195593424141407,-2.5115277821896598e-05,0.007116670720279217
0.008796900510787964,-0.004452030174434185,-0.01523185521364212,0.01886885240674019,-1.639848164813884e-06,0.007422501686960459
0.007683988660573959,-0.004613123834133148,-0.014456732198596,0.018375439569354057,-1.0707036324220098e-07,0.007253199350088835
0.006933103781193495,-0.004635730758309364,-0.014743084087967873,0.018807802349328995,-6.9909296129822e-09,0.0069545721635222435
0.006933103781193495,-0.004635730758309364,-0.014743084087967873,0.018807802349328995,-6.9909296129822e-09,0.0069545721635222435
0.007192931137979031,-0.004360747057944536,-0.01408321037888527,0.01915358565747738,-4.5645776047820164e-10,0.007073050830513239
0.007856550626456738,-0.004523379262536764,-0.014963926747441292,0.019671551883220673,-2.980343055680734e-11,0.007473654113709927
0.008422812446951866,-0.004454361274838448,-0.014789975248277187,0.01942269317805767,-1.9459509958269505e-12,0.007246792782098055
0.0077158366329967976,-0.004819169640541077,-0.01510847918689251,0.018700970336794853,-1.270567174692025e-13,0.007320863660424948
0.008054745383560658,-0.004780393559485674,-0.014164278283715248,0.018490219488739967,-8.295895742550189e-15,0.007135563530027866
0.007831777445971966,-0.004709659144282341,-0.014746165834367275,0.019737932831048965,-5.416626937529889e-16,0.007277947850525379
0.008082730695605278,-0.0044347308576107025,-0.014302468858659267,0.018148580566048622,-3.5366702659745736e-17,0.007687710225582123
0.008068619295954704,-0.004465623293071985,-0.014915763400495052,0.01820792816579342,-2.309193173564525e-18,0.0074335308745503426
0.007699688896536827,-0.004405091516673565,-0.014407344162464142,0.018940581008791924,-1.507738162405232e-19,0.0071600573137402534
0.008344261907041073,-0.0040120226331055164,-0.014650601893663406,0.018483437597751617,-6.427724483807292e-22,0.007491306401789188
0.008344261907041073,-0.0040120226331055164,-0.014650601893663406,0.018483437597751617,-6.427724483807292e-22,0.007491306401789188
0.00807247869670391,-0.0042489441111683846,-0.01485094241797924,0.018689993768930435,-2.7402396996259038e-24,0.007606550119817257
0.008123943582177162,-0.004477556329220533,-0.014923966489732265,0.018857290968298912,-1.789180783207657e-25,0.007846323773264885
0.008324827067553997,-0.004227271303534508,-0.01473570428788662,0.0185148436576128,-1.168207089321088e-26,0.007503765635192394
0.008367951959371567,-0.004233374260365963,-0.014760208316147327,0.01845504343509674,-7.627557433450692e-28,0.007242155726999044
0.008597652427852154,-0.003983683884143829,-0.014514145441353321,0.018564065918326378,-4.980249604275693e-29,0.00727173313498497
0.008375919423997402,-0.0043496680445969105,-0.014782287180423737,0.018371112644672394,-3.25174688895087e-30,0.007860995829105377
0.008126973174512386,-0.004597104620188475,-0.014690211042761803,0.01856405846774578,-2.123158383248992e-31,0.007725274655967951
0.00831642746925354,-0.004993502516299486,-0.014660882763564587,0.018946858122944832,-1.3862709204370872e-32,0.0072988541796803474
0.007991635240614414,-0.0040669976733624935,-0.015153120271861553,0.01833651028573513,-9.051357929209462e-34,0.007187861017882824
0.00837128795683384,-0.003770214505493641,-0.014706852845847607,0.018235618248581886,-5.909889684255208e-35,0.0076479604467749596
0.007806533481925726,-0.004216206260025501,-0.01488424837589264,0.01912069134414196,-3.858735626721117e-36,0.008167525753378868
0.008795673958957195,-0.004319170489907265,-0.014545958489179611,0.01910031959414482,-2.5194788111252024e-37,0.007743139285594225
0.008108929730951786,-0.004426600877195597,-0.014567654579877853,0.018922533839941025,-1.64503975869009e-38,0.0085420161485672
0.008108929730951786,-0.004426600877195597,-0.014567654579877853,0.018922533839941025,-1.64503975869009e-38,0.0085420161485672
0.008048027753829956,-0.004217998590320349,-0.014525732956826687,0.01887490227818489,-1.074093871606508e-39,0.007603987120091915
0.008092059753835201,-0.004310014192014933,-0.014990303665399551,0.018074139952659607,-7.013078424406412e-41,0.006598620675504208
0.009160556830465794,-0.004071324598044157,-0.014458028599619865,0.018044205382466316,-4.579443381413502e-42,0.007209985516965389
0.008126096799969673,-0.004436881747096777,-0.014660950750112534,0.018678084015846252,-1.961817850054744e-44,0.007957872934639454
0.008126096799969673,-0.004436881747096777,-0.014660950750112534,0.018678084015846252,-1.961817850054744e-44,0.007957872934639454
0.008460680954158306,-0.004493375774472952,-0.014570817351341248,0.019731448963284492,-1.401298464324817e-45,0.007913773879408836
0.008766766637563705,-0.004379140678793192,-0.014662768691778183,0.019504278898239136,-0.0,0.007247628644108772
0.008446543477475643,-0.0043033515103161335,-0.01490537729114294,0.01835566759109497,-0.0,0.007020704448223114
0.008259541355073452,-0.004061961080878973,-0.014446291141211987,0.01789517141878605,-0.0,0.0074412208050489426
0.009146046824753284,-0.0037913410924375057,-0.014520503580570221,0.017579590901732445,-0.0,0.008114764466881752
0.008392082527279854,-0.0037647164426743984,-0.014525280334055424,0.017972970381379128,-0.0,0.00790142547339201
0.008319634012877941,-0.004378799349069595,-0.014424329623579979,0.01849347911775112,-0.0,0.008095304481685162
0.008698263205587864,-0.004228399600833654,-0.014382889494299889,0.018010824918746948,-0.0,0.008229714818298817
0.008587361313402653,-0.004538997542113066,-0.014938322827219963,0.017775792628526688,-0.0,0.008337261155247688
0.008641740307211876,-0.004201661329716444,-0.014661132358014584,0.017916303128004074,-0.0,0.008254838176071644
0.008633497171103954,-0.003911821637302637,-0.015592774376273155,0.017894156277179718,-0.0,0.008289146237075329
0.008672278374433517,-0.004181239288300276,-0.015024345368146896,0.01830967888236046,-0.0,0.008087837137281895
0.00863333698362112,-0.004269860684871674,-0.014366182498633862,0.017618563026189804,-0.0,0.008168150670826435
0.008754130452871323,-0.004009331110864878,-0.01484674122184515,0.01810201071202755,-0.0,0.008483780547976494
0.008895285427570343,-0.0038837953470647335,-0.014300447888672352,0.017364997416734695,-0.0,0.007763613015413284
0.009176557883620262,-0.004177603870630264,-0.015065928921103477,0.017449477687478065,-0.0,0.007487465161830187
0.008475474081933498,-0.004478061106055975,-0.014906133525073528,0.01756257563829422,-0.0,0.008079652674496174
0.008663289248943329,-0.004203497897833586,-0.015299754217267036,0.01748422160744667,-0.0,0.008144321851432323
0.008891407400369644,-0.003971391823142767,-0.014652150683104992,0.018947497010231018,-0.0,0.008129982277750969
0.008264797739684582,-0.004255542065948248,-0.014734426513314247,0.019112907350063324,-0.0,0.007851442322134972
0.008756721392273903,-0.004251147620379925,-0.014167450368404388,0.018671205267310143,-0.0,0.008117265067994595
0.00890171155333519,-0.003928612917661667,-0.015343639999628067,0.018505731597542763,-0.0,0.008286599069833755
0.008274149149656296,-0.0033314996398985386,-0.014805938117206097,0.01785718835890293,-0.0,0.00830612052232027
0.00898460578173399,-0.0028839397709816694,-0.015691030770540237,0.01784375309944153,-0.0,0.008704602718353271
0.00873585231602192,-0.0027127424255013466,-0.014676006510853767,0.01776336133480072,-0.0,0.008346017450094223
0.00873585231602192,-0.0027127424255013466,-0.014676006510853767,0.01776336133480072,-0.0,0.008346017450094223
0.008703161031007767,-0.002879128558561206,-0.014779704622924328,0.017607158049941063,-0.0,0.00804041139781475
0.008660494349896908,-0.003450381103903055,-0.014764237217605114,0.018082113936543465,-0.0,0.008098805323243141
0.00885787047445774,-0.0036717441398650408,-0.015535125508904457,0.018089689314365387,-0.0,0.00827180314809084
0.008999231271445751,-0.0036376260686665773,-0.014619504101574421,0.017441844567656517,-0.0,0.008292309939861298
0.008712452836334705,-0.0032405380625277758,-0.014496572315692902,0.017450343817472458,-0.0,0.008181029930710793
0.009278157725930214,-0.0028506543021649122,-0.014474484138190746,0.017530692741274834,-0.0,0.008193659596145153
0.009231213480234146,-0.002992320107296109,-0.014689614996314049,0.01808507926762104,-0.0,0.008979752659797668
0.00857747346162796,-0.0034853185061365366,-0.014924843795597553,0.018026644363999367,-0.0,0.008421208709478378
0.009820626117289066,-0.003761931788176298,-0.014702987857162952,0.01805293746292591,-0.0,0.008579361252486706
0.009660651907324791,-0.003404029179364443,-0.01485708449035883,0.018380550667643547,-0.0,0.00847974605858326
0.009140047244727612,-0.003093104576691985,-0.01455859187990427,0.018047837540507317,-0.0,0.008499777875840664
0.008482825942337513,-0.0028093571309000254,-0.014638291671872139,0.01836237497627735,-0.0,0.008610752411186695
0.009259168058633804,-0.0029511740431189537,-0.01429940015077591,0.018850676715373993,-0.0,0.008433637209236622
0.00908302329480648,-0.003363087074831128,-0.014636470936238766,0.0183095782995224,-0.0,0.008400342427194118
0.009164518676698208,-0.003044744022190571,-0.014672472141683102,0.01823032647371292,-0.0,0.008144363760948181
0.009370909072458744,-0.0028806293848901987,-0.014157027006149292,0.017878292128443718,-0.0,0.008694696240127087
0.008770370855927467,-0.0029956551734358072,-0.014293800108134747,0.0184054933488369,-0.0,0.008711324073374271
0.009090329520404339,-0.003184995846822858,-0.013979598879814148,0.018403412774205208,-0.0,0.008599342778325081
0.009400838986039162,-0.003119017230346799,-0.014684651046991348,0.017876487225294113,-0.0,0.008677991107106209
0.009259244427084923,-0.002705045510083437,-0.01433562021702528,0.018375026062130928,-0.0,0.008752024732530117
0.009057251736521721,-0.0027637898456305265,-0.014461008831858635,0.017889926210045815,-0.0,0.009290442802011967
0.009336612187325954,-0.0027121359016746283,-0.014260533265769482,0.0179988294839859,-0.0,0.008885695599019527
0.008845987729728222,-0.002743230201303959,-0.01392695214599371,0.01845623552799225,-0.0,0.009078686125576496
0.009540333412587643,-0.002703521167859435,-0.014076846651732922,0.018204713240265846,-0.0,0.008834201842546463
0.009422960691154003,-0.002917051548138261,-0.014071857556700706,0.01881721243262291,-0.0,0.008832396939396858
0.009625659324228764,-0.0031680739484727383,-0.014356818981468678,0.018327457830309868,-0.0,0.009112890809774399
0.009515861049294472,-0.0031481303740292788,-0.014059499837458134,0.0177594143897295,-0.0,0.009188834577798843
0.0098038325086236,-0.003084152704104781,-0.014555074274539948,0.018550464883446693,-0.0,0.00914629828184843
0.009956162422895432,-0.002892574528232217,-0.014140688814222813,0.01792329177260399,-0.0,0.008873093873262405
0.009487396106123924,-0.0030392585322260857,-0.014226834289729595,0.017908602952957153,-0.0,0.01015718374401331
0.00947354082018137,-0.0032591423951089382,-0.014188743196427822,0.018369287252426147,-0.0,0.008962214924395084
0.00947354082018137,-0.0032591423951089382,-0.014188743196427822,0.018369287252426147,-0.0,0.008962214924395084
0.009494543075561523,-0.003212066600099206,-0.014833780936896801,0.01814448833465576,-0.0,0.008231841027736664
0.010019594803452492,-0.00288892793469131,-0.014696508646011353,0.01789996027946472,-1.263778699467366e-06,0.008443936705589294
0.010019594803452492,-0.00288892793469131,-0.014696508646011353,0.01789996027946472,-1.263778699467366e-06,0.008443936705589294
0.00938386283814907,-0.0028881796170026064,-0.01425089593976736,0.01760287955403328,-8.251570449147039e-08,0.008587924763560295
0.009375091642141342,-0.0031234556809067726,-0.014351547695696354,0.018250886350870132,-5.387686297098071e-09,0.009138495661318302
0.010491606779396534,-0.003184516215696931,-0.01409930270165205,0.018029503524303436,-3.5177738499925226e-10,0.008805240504443645
0.009278252720832825,-0.0036157018039375544,-0.01453391183167696,0.017493121325969696,-2.2968550672519683e-11,0.008850129321217537
0.009510532952845097,-0.0033412212505936623,-0.01451205275952816,0.018156811594963074,-1.4996822143495403e-12,0.008770592510700226
0.009655564092099667,-0.0029855193570256233,-0.014629090204834938,0.01822357065975666,-9.791853336190218e-14,0.008976063691079617
0.009580214507877827,-0.0029695334378629923,-0.014110619202256203,0.018114442005753517,-6.3933801219199886e-15,0.00915795098990202
0.009865928441286087,-0.0031004745978862047,-0.014324003830552101,0.01800384558737278,-4.1744202978547516e-16,0.008900943212211132
0.009677717462182045,-0.003172589000314474,-0.014197847805917263,0.01801862195134163,-1.779620771674654e-18,0.009048753418028355
0.009689105674624443,-0.002933577634394169,-0.014039087109267712,0.017248699441552162,-1.1619652926246439e-19,0.009683295153081417
0.010983502492308617,-0.0030704811215400696,-0.01432376354932785,0.017219465225934982,-7.58680283531477e-21,0.009828111156821251
0.009933136403560638,-0.003292490728199482,-0.01429342944175005,0.01762099377810955,-4.953640063649584e-22,0.009579760953783989
0.009714171290397644,-0.0036009170580655336,-0.014448193833231926,0.01760837435722351,-3.2343729409837545e-23,0.00949678011238575
0.010400859639048576,-0.0034067335072904825,-0.013909630477428436,0.018259461969137192,-2.1118143670803468e-24,0.009354031644761562
0.00994845386594534,-0.0031159387435764074,-0.014205068349838257,0.018097108229994774,-1.3788639045611643e-25,0.009777003899216652
0.010043663904070854,-0.0033945010509341955,-0.014198263175785542,0.017594914883375168,-9.002995258863327e-27,0.009718811139464378
0.010249979794025421,-0.0030917921103537083,-0.01430547796189785,0.017521260306239128,-5.878312302161541e-28,0.009943489916622639
0.009844432584941387,-0.003126246389001608,-0.013838166370987892,0.017187627032399178,-3.8381174758416073e-29,0.009548702277243137
0.009844432584941387,-0.003126246389001608,-0.013838166370987892,0.017187627032399178,-3.8381174758416073e-29,0.009548702277243137
0.010823224671185017,-0.0030379474628716707,-0.0145505266264081,0.017449315637350082,-2.5060164701338448e-30,0.009413544088602066
0.010216355323791504,-0.0029039408545941114,-0.013804900459945202,0.017552252858877182,-1.6362495801299172e-31,0.01003334578126669
0.009593512862920761,-0.0031619947403669357,-0.01401971373707056,0.01778060756623745,-1.068353991684987e-32,0.00947536714375019
0.0101029546931386,-0.0028677931986749172,-0.013947618193924427,0.017841922119259834,-6.975587811758406e-34,0.009280351921916008
0.010061763226985931,-0.003061640076339245,-0.014960154891014099,0.01726074516773224,-4.5545601949970876e-35,0.009374674409627914
0.009600693359971046,-0.0030518926214426756,-0.014159978367388248,0.017699578776955605,-2.97380232855939e-36,0.009173328056931496
0.01018563099205494,-0.002990012988448143,-0.014193886891007423,0.018435928970575333,-1.941680182187502e-37,0.009107006713747978
0.01016294863075018,-0.0028789571952074766,-0.013625175692141056,0.018535979092121124,-1.267778402618709e-38,0.009407468140125275
0.009680764749646187,-0.002990085631608963,-0.014538276009261608,0.018788693472743034,-8.277694236520986e-40,0.009072693064808846
0.010131814517080784,-0.00292989076115191,-0.014625527895987034,0.018583079800009727,-5.404808176900819e-41,0.009236622601747513
0.010219295509159565,-0.002868655836209655,-0.015127875842154026,0.017872363328933716,-3.5284695331698894e-42,0.009310776367783546
0.009824056178331375,-0.002666228450834751,-0.014065008610486984,0.017791692167520523,-2.2981294814927e-43,0.009727978147566319
0.01091713272035122,-0.002732743974775076,-0.014740119688212872,0.017335081472992897,-1.5414283107572988e-44,0.010403722524642944
0.010316022671759129,-0.003229480469599366,-0.014056900516152382,0.017355075106024742,-1.401298464324817e-45,0.010037311352789402
0.009630336426198483,-0.003203737083822489,-0.014406362548470497,0.01808633841574192,-0.0,0.009411714039742947
0.010036834515631199,-0.003077651606872678,-0.013823280110955238,0.0174049511551857,-0.0,0.008992394432425499
0.010124423541128635,-0.0029313659761101007,-0.014250106178224087,0.01716320775449276,-0.0,0.009534061886370182
0.010544471442699432,-0.002974380739033222,-0.014935309067368507,0.01724766194820404,-0.0,0.00953551847487688
0.01008682418614626,-0.0029813169967383146,-0.01444651372730732,0.017413746565580368,-0.0,0.010229495353996754
0.010297602973878384,-0.0027553746476769447,-0.014501119963824749,0.017220711335539818,-0.0,0.010094421915709972
0.010515263304114342,-0.0027377293445169926,-0.014484474435448647,0.01774415373802185,-0.0,0.00973731093108654
0.010411906987428665,-0.0027748900465667248,-0.014875232242047787,0.017701780423521996,-0.0,0.00982512254267931
0.010164381004869938,-0.0029503931291401386,-0.014417430385947227,0.017202643677592278,-0.0,0.010836629197001457
0.010564502328634262,-0.0027520479634404182,-0.015070735476911068,0.017121663317084312,-0.0,0.010489706881344318
0.009893412701785564,-0.002992830937728286,-0.014644644223153591,0.01677848957479,-0.0,0.009816685691475868
0.010474830865859985,-0.00275326962582767,-0.01474828738719225,0.017260028049349785,-0.0,0.009765073657035828
0.010665467008948326,-0.0026897394564002752,-0.014374984428286552,0.017362287268042564,-0.0,0.010371938347816467
0.010665467008948326,-0.0026897394564002752,-0.014374984428286552,0.017362287268042564,-0.0,0.010371938347816467
0.010284380055963993,-0.002769072074443102,-0.01505743246525526,0.017051411792635918,-0.0,0.010137341916561127
0.011117199435830116,-0.003081400180235505,-0.014137310907244682,0.017135022208094597,-0.0,0.010236263275146484
0.010333225131034851,-0.003040535841137171,-0.013649435713887215,0.016749557107686996,-0.0,0.009162879548966885
0.010333225131034851,-0.003040535841137171,-0.013649435713887215,0.016749557107686996,-0.0,0.009162879548966885
0.010289877653121948,-0.002729446394369006,-0.0139762656763196,0.017289334908127785,-0.0,0.010094319470226765
0.011048468761146069,-0.002677204320207238,-0.01477934792637825,0.017847493290901184,-0.0,0.010616067796945572
0.01176502089947462,-0.003063134616240859,-0.015268865041434765,0.0187296774238348,-0.0,0.010615089908242226
0.012037484906613827,-0.0031122707296162844,-0.014569878578186035,0.018582535907626152,-0.0,0.010571010410785675
0.011237210594117641,-0.0029449178837239742,-0.014601556584239006,0.018403392285108566,-0.0,0.010288993827998638
0.011359687894582748,-0.0029947690200060606,-0.014357282780110836,0.017754431813955307,-2.206528006354347e-05,0.010711832903325558
0.011369778774678707,-0.002892850898206234,-0.014388533309102058,0.0171272661536932,-8.708262612344697e-05,0.010210290551185608
0.011340747587382793,-0.002901266096159816,-0.014154357835650444,0.017407434061169624,-8.989887282950804e-05,0.010196028277277946
0.011439760215580463,-0.002814719919115305,-0.014621345326304436,0.017320016399025917,-8.87008136487566e-05,0.010464503429830074
0.01200962532311678,-0.0031747049652040005,-0.014758160337805748,0.017380790784955025,-8.589792560087517e-05,0.010748947970569134
0.011529716663062572,-0.0027845383156090975,-0.014529328793287277,0.016867632046341896,-8.455309580313042e-05,0.010477235540747643
0.011471979320049286,-0.002732338849455118,-0.014715384691953659,0.017828714102506638,-8.324950613314286e-05,0.010633258149027824
0.011623647063970566,-0.0027331646997481585,-0.014289206825196743,0.017650527879595757,-8.198565046768636e-05,0.010309967212378979
0.011508051306009293,-0.0027831746265292168,-0.014597869478166103,0.017872916534543037,-8.075944060692564e-05,0.009992214851081371
0.01153650414198637,-0.0028406712226569653,-0.015170171856880188,0.017440088093280792,-7.956947229104117e-05,0.010369410738348961
0.011843319982290268,-0.002715275390073657,-0.014863287098705769,0.016754858195781708,-7.841402111807838e-05,0.010335996747016907
0.01197742111980915,-0.00283647608011961,-0.01469818688929081,0.01755400188267231,-8.685811189934611e-05,0.010140386410057545
0.012358984909951687,-0.002918965183198452,-0.014248685911297798,0.016950327903032303,-8.868474105838686e-05,0.01017812080681324
0.011846834793686867,-0.00289389630779624,-0.01463516429066658,0.017003478482365608,-8.764997619437054e-05,0.010411448776721954
0.011953744105994701,-0.0026275217533111572,-0.014704810455441475,0.017228221520781517,-8.646016794955358e-05,0.010470777750015259
0.012262287549674511,-0.002503172028809786,-0.014519266784191132,0.017085915431380272,-8.529049955541268e-05,0.010868717916309834
0.012262287549674511,-0.002503172028809786,-0.014519266784191132,0.017085915431380272,-8.529049955541268e-05,0.010868717916309834
0.012302444316446781,-0.002573240315541625,-0.014366482384502888,0.017972467467188835,-8.415128104388714e-05,0.011341380886733532
0.011874166317284107,-0.002374162431806326,-0.014465517364442348,0.017848948016762733,-8.304209768539295e-05,0.011349206790328026
0.01185772567987442,-0.0025630441959947348,-0.014287110418081284,0.01757154054939747,-8.19617707747966e-05,0.010506926104426384
0.012218383140861988,-0.0027441121637821198,-0.014539502561092377,0.017855649814009666,-8.090914343483746e-05,0.010656013153493404
0.012228816747665405,-0.0025842587929219007,-0.014651445671916008,0.017634734511375427,-8.980695565696806e-05,0.010450223460793495
0.012966590002179146,-0.0026119756512343884,-0.014798936434090137,0.017740286886692047,-9.005483298096806e-05,0.010594573803246021
0.012352616526186466,-0.002373379422351718,-0.014194573275744915,0.01778467372059822,-8.903089474188164e-05,0.010732247494161129
0.012258870527148247,-0.0024511348456144333,-0.013863541185855865,0.017232265323400497,-8.79492363310419e-05,0.010344302281737328
0.012360766530036926,-0.0026131472550332546,-0.013815119862556458,0.017875926569104195,-8.688822708791122e-05,0.010783436708152294
0.012304085306823254,-0.0027830179315060377,-0.01398281380534172,0.01769273355603218,-8.585222531110048e-05,0.01084310095757246
0.012685351073741913,-0.002617765450850129,-0.014539108611643314,0.017571860924363136,-8.484059071633965e-05,0.010690787807106972
0.01222282089293003,-0.0022962295915931463,-0.014256706461310387,0.01768466830253601,-8.385253750020638e-05,0.010900119319558144
0.012823772616684437,-0.0020801895298063755,-0.014392774552106857,0.01737937517464161,-8.28872507554479e-05,0.011089598760008812
0.012924972921609879,-0.0013683739816769958,-0.014284532517194748,0.017678307369351387,-9.110532846534625e-05,0.011326437816023827
0.012924972921609879,-0.0013683739816769958,-0.014284532517194748,0.017678307369351387,-9.110532846534625e-05,0.011326437816023827
0.012310942634940147,-0.0019218308152630925,-0.014563319273293018,0.017621982842683792,-4.518540663411841e-05,0.011114252731204033
0.01232813484966755,-0.0021586937364190817,-0.014082305133342743,0.016776634380221367,-2.950284169855877e-06,0.010835763067007065
0.012243221513926983,-0.002181685296818614,-0.014355137012898922,0.016986912116408348,-1.9263245576439658e-07,0.010935063473880291
0.012880467809736729,-0.001879834569990635,-0.014030497521162033,0.01687476597726345,-4.2602448957040906e-05,0.011625794693827629
0.01300500426441431,-0.0015844266163185239,-0.014116591773927212,0.017461707815527916,-0.00011628251377260312,0.011648006737232208
0.012762107886373997,-0.0014214696129783988,-0.014473953284323215,0.017748145386576653,-0.00011811076547019184,0.0121226217597723
0.013552920892834663,-0.0013752281665802002,-0.014857515692710876,0.017407968640327454,-0.00011540066043380648,0.010579406283795834
0.012760772369801998,-0.001364228199236095,-0.014371994882822037,0.017378706485033035,-0.0001125353155657649,0.010548917576670647
0.013117780908942223,-0.001459516235627234,-0.01493383850902319,0.017139146104454994,-0.00010979110811604187,0.011823026463389397
0.013117780908942223,-0.001459516235627234,-0.01493383850902319,0.017139146104454994,-0.00010979110811604187,0.011823026463389397
0.013411707244813442,-0.0019228209275752306,-0.014197451062500477,0.017354797571897507,-0.00012525728379841894,0.011388889513909817
0.012406030669808388,-0.0018495253752917051,-0.014048323966562748,0.016921522095799446,-0.00012273954052943736,0.011312493123114109
0.013258707709610462,-0.0016149872681125998,-0.014735585078597069,0.017270609736442566,-0.00012003292795270681,0.011231580749154091
0.013258707709610462,-0.0016149872681125998,-0.014735585078597069,0.017270609736442566,-0.00012003292795270681,0.011231580749154091
0.013324475847184658,-0.0014825776452198625,-0.01427819486707449,0.01669926382601261,-0.00011742397327907383,0.011798827908933163
0.013542687520384789,-0.0013136046472936869,-0.014490675181150436,0.0170375294983387,-0.00011492498742882162,0.011545694433152676
0.013224522583186626,-0.0013604926643893123,-0.014162973500788212,0.01743764616549015,-0.00011252998956479132,0.011556162498891354
0.013528233394026756,-0.001398014952428639,-0.01429810281842947,0.01702151447534561,-0.00011023279512301087,0.011956132017076015
0.013285492546856403,-0.001565652433782816,-0.014448200352489948,0.01751076802611351,-0.00011688539234455675,0.011937925592064857
0.013397791422903538,-0.0017366806278005242,-0.015034159645438194,0.017037764191627502,-0.000122963116155006,0.011770853772759438
0.013845291920006275,-0.0016189218731597066,-0.014667918905615807,0.016769634559750557,-0.00012114444689359516,0.01210115011781454
0.013199489563703537,-0.0015927284257486463,-0.015216623432934284,0.0165262334048748,-0.0001188939277199097,0.011497157625854015
0.013785296119749546,-0.0013905779924243689,-0.014748542569577694,0.016601741313934326,-0.00011669398372760043,0.011516138911247253
0.013213096186518669,-0.0012843786971643567,-0.014346757903695107,0.01699049212038517,-0.00011457181972218677,0.011414877139031887
0.013882637955248356,-0.0013267432805150747,-0.015259410254657269,0.01633179746568203,-0.00011252549302298576,0.01205396931618452
0.013948665000498295,-0.001250039436854422,-0.014613274484872818,0.015684492886066437,-0.00010864432988455519,0.011669795960187912
0.01361854001879692,-0.0013377722352743149,-0.01455934438854456,0.016115857288241386,-0.00010680247942218557,0.01176786795258522
0.01364276185631752,-0.0013409462990239263,-0.014555285684764385,0.01620185561478138,-0.00011615934636211023,0.011953738518059254
0.013533124700188637,-0.0012601116904988885,-0.014518780633807182,0.016177678480744362,-0.00011780472414102405,0.012349667027592659
0.013942141085863113,-0.0013066751416772604,-0.015508996322751045,0.016658732667565346,-0.0001161362961283885,0.012263854965567589
0.013887749053537846,-0.0012538692681118846,-0.015159059315919876,0.016204819083213806,-0.00011430746963014826,0.012469218112528324
0.014101493172347546,-0.0012243986129760742,-0.014845281839370728,0.016668958589434624,-0.00011252218973822892,0.011983254924416542
0.013916518539190292,-0.001315464498475194,-0.01415129192173481,0.01656130515038967,-0.00014411486336030066,0.011890033259987831
0.014034098945558071,-0.001379884546622634,-0.014634442515671253,0.016762398183345795,-0.0001501540100434795,0.01192222535610199
0.013873147778213024,-0.0014877618523314595,-0.014120436273515224,0.01686556078493595,-0.00014599118730984628,0.011775001883506775
0.013949143700301647,-0.0013908937107771635,-0.015198693610727787,0.01643775776028633,-0.0001414482539985329,0.01217132993042469
0.014065491035580635,-0.0012883134186267853,-0.014825238846242428,0.016867926344275475,-0.0001609423925401643,0.012179777957499027
0.014056522399187088,-0.0013351496309041977,-0.015147760510444641,0.0163840614259243,-0.0001594643690623343,0.012240974232554436
0.014149680733680725,-0.0012952706310898066,-0.01440130639821291,0.016828831285238266,-0.00015509777585975826,0.012224988080561161
0.014302857220172882,-0.0012015228858217597,-0.014809797517955303,0.01708254963159561,-0.0001507807319285348,0.012351359240710735
0.014082047156989574,-0.0012742121471092105,-0.014459451660513878,0.01742277480661869,-0.0001586899597896263,0.012358313426375389
0.014082047156989574,-0.0012742121471092105,-0.014459451660513878,0.01742277480661869,-0.0001586899597896263,0.012358313426375389
0.014165600761771202,-0.0012466743355616927,-0.014916838146746159,0.017542922869324684,-0.0001657946704654023,0.012658707797527313
0.014187062159180641,-0.0012668801937252283,-0.014427786692976952,0.01670682057738304,-0.00016226131992880255,0.01251605711877346
0.014291476458311081,-0.0013399658491834998,-0.01493083592504263,0.016553828492760658,-0.0001582339173182845,0.01257779449224472
0.014316672459244728,-0.001299412688240409,-0.014470742084085941,0.016243673861026764,-0.00015436008106917143,0.012614681385457516
0.014450098387897015,-0.001254580682143569,-0.014870995655655861,0.0167428907006979,-0.0001707525661913678,0.014267796650528908
0.014548791572451591,-0.0011958370450884104,-0.01397000439465046,0.017063964158296585,-0.00016807652718853205,0.012465574778616428
0.014786235988140106,-0.0012471668887883425,-0.014711710624396801,0.016773568466305733,-0.00016432568372692913,0.01219120342284441
0.014528697356581688,-0.0011090681655332446,-0.014428778551518917,0.01724976859986782,-0.00016066458192653954,0.012505236081779003
0.014338841661810875,-0.0011290293186903,-0.01534642931073904,0.016193551942706108,-0.00024545384803786874,0.013002045452594757
0.014609701931476593,-0.0010884234216064215,-0.014099115505814552,0.01600555144250393,-0.00024473981466144323,0.013181901536881924
0.014755954965949059,-0.0010912491707131267,-0.014390939846634865,0.016257861629128456,-0.00023289589444175363,0.013387165032327175
0.014553448185324669,-0.0012131041148677468,-0.014895453117787838,0.017222005873918533,-0.0002110942587023601,0.01350382436066866
0.014540103264153004,-0.001201949780806899,-0.014208806678652763,0.01698528230190277,-0.00020163336012046784,0.013615713454782963
0.014689669944345951,-0.0012317778309807181,-0.014674419537186623,0.0168597549200058,-0.00019298492406960577,0.01342563796788454
0.014742315746843815,-0.0012225537793710828,-0.014093519188463688,0.016446685418486595,-0.0001850472326623276,0.013593725860118866
0.014863238669931889,-0.0011766933603212237,-0.014916518703103065,0.017051387578248978,-0.00017773699073586613,0.013475867919623852
0.014932907186448574,-0.0011329674161970615,-0.014043680392205715,0.016986602917313576,-0.00017098245734814554,0.013057718053460121
0.014624166302382946,-0.0011939576361328363,-0.014376922510564327,0.017109012231230736,-0.00016472248535137624,0.012726071290671825
0.014637448824942112,-0.001196321565657854,-0.013885466381907463,0.017231334000825882,-0.00015890465874690562,0.013058888725936413
0.015050564892590046,-0.0014357693726196885,-0.014467085711658001,0.016344979405403137,-0.00015348484157584608,0.013508175499737263
0.0149151049554348,-0.001427976181730628,-0.013792536221444607,0.016223309561610222,-0.00017610153008718044,0.01407754048705101
0.015420060604810715,-0.001323780626989901,-0.014401457272469997,0.015300613828003407,-0.00017228738579433411,0.014021794311702251
0.014961987733840942,-0.0012580392649397254,-0.013795635662972927,0.015800459310412407,-0.00016707443865016103,0.013820250518620014
0.015385707840323448,-0.0012822363059967756,-0.014498666860163212,0.016022538766264915,-0.0001620674302102998,0.013329771347343922
0.014816425740718842,-0.00122350687161088,-0.013737648725509644,0.015899894759058952,-0.00015734496992081404,0.013579563237726688
0.014816425740718842,-0.00122350687161088,-0.013737648725509644,0.015899894759058952,-0.00015734496992081404,0.013579563237726688
0.015143780037760735,-0.0011967141181230545,-0.014369312673807144,0.016160622239112854,-0.0001528899447293952,0.013637136667966843
0.015017351135611534,-0.0013629643945023417,-0.013867303729057312,0.01622108370065689,-0.00017179625865537673,0.01326537411659956
0.015500142239034176,-0.0013946029357612133,-0.014549942687153816,0.016775578260421753,-0.0001687030598986894,0.013795520178973675
0.01489840168505907,-0.0013752176892012358,-0.014095866121351719,0.016475815325975418,-0.00016439941828139126,0.013757124543190002
0.015419256873428822,-0.00146924564614892,-0.014516985975205898,0.015331842005252838,-0.00016022418276406825,0.013842996209859848
0.015097839757800102,-0.0014057834632694721,-0.014150682836771011,0.01591835543513298,-0.00015625056403223425,0.013373564928770065
0.015084497630596161,-0.0015098962467163801,-0.015477435663342476,0.016876425594091415,-0.00017279254097957164,0.013514308258891106
0.015066229738295078,-0.001439716899767518,-0.014814719557762146,0.017165925353765488,-0.00017003751418087631,0.013242140412330627
0.015472952276468277,-0.0013525288086384535,-0.015065077692270279,0.016572734341025352,-0.00016619899543002248,0.01338283158838749
0.015710068866610527,-0.001240151235833764,-0.01456716749817133,0.016590606421232224,-0.00016245451115537435,0.013522778637707233
0.01616867072880268,-0.0011790223652496934,-0.015084302052855492,0.016242550686001778,-0.00015892137889750302,0.013784321025013924
0.015615326352417469,-0.0010985441040247679,-0.015468381345272064,0.01646181382238865,-0.00014697627921123058,0.014280060306191444
0.016123592853546143,-0.00115636782720685,-0.015383243560791016,0.016262151300907135,-0.00014232104877009988,0.01399675477296114
0.01541469618678093,-0.0011249205563217402,-0.015067722648382187,0.016186397522687912,-0.00016368969227187335,0.015121106058359146
0.01586482860147953,-0.0013654250651597977,-0.015035497024655342,0.015799501910805702,-0.00016050238627940416,0.013986044563353062
0.015911562368273735,-0.0015772689366713166,-0.01560305804014206,0.01603464037179947,-0.00015597548917867243,0.013290955685079098
0.016069509088993073,-0.001458783750422299,-0.015857702121138573,0.015941422432661057,-0.0001640071568544954,0.013581499457359314
0.01627843640744686,-0.0013804666232317686,-0.014989975839853287,0.016289344057440758,-0.00017120108532253653,0.014234108850359917
0.014305176213383675,-0.0012734467163681984,-0.015153334476053715,0.01574840024113655,-0.00016741240688133985,0.014333932660520077
0.01678740791976452,-0.0011965542798861861,-0.01517405640333891,0.01603204384446144,-0.00018486940825823694,0.014503157697618008
0.016308045014739037,-0.0011487413430586457,-0.015815462917089462,0.01567273959517479,-0.00018162680498789996,0.01418162789195776
0.01631639339029789,-0.0009633114095777273,-0.015083911828696728,0.0156390517950058,-0.00017724839563015848,0.014304784126579762
0.01608169637620449,-0.0009196842438541353,-0.01509832963347435,0.01604480855166912,-0.00032699070288799703,0.014423570595681667
0.016318291425704956,-0.0009271492017433047,-0.014693109318614006,0.015966951847076416,-0.00037330875056795776,0.014772484079003334
0.016199953854084015,-0.0011995671084150672,-0.015813207253813744,0.01654636487364769,-0.00036448947503231466,0.014508778229355812
0.016330743208527565,-0.0012545646168291569,-0.01477835513651371,0.016408497467637062,-0.00034243756090290844,0.014414764009416103
0.016330743208527565,-0.0012545646168291569,-0.01477835513651371,0.016408497467637062,-0.00034243756090290844,0.014414764009416103
0.01656484603881836,-0.0013035716256126761,-0.015689140185713768,0.01638225093483925,-0.00032207323238253593,0.014288832433521748
0.016182592138648033,-0.0011481770779937506,-0.015068398788571358,0.016278736293315887,-0.0003477668506093323,0.014518657699227333
0.016539722681045532,-0.0010546919656917453,-0.01532481424510479,0.016503971070051193,-0.00033525112667120993,0.014516016468405724
0.016392657533288002,-0.0009760252432897687,-0.015145554207265377,0.016781480982899666,-0.0003186795220244676,0.014634051360189915
0.016819210723042488,-0.0008696505101397634,-0.015324362553656101,0.016764381900429726,-0.0003245192638132721,0.014497147873044014
0.016596553847193718,-0.0008724742801859975,-0.014724873937666416,0.01665005087852478,-0.00032931455643847585,0.014855675399303436
0.0166119746863842,-0.0008726625819690526,-0.015218614600598812,0.01575714908540249,-0.0003161379136145115,0.014941958710551262
0.01677730679512024,-0.0008199084550142288,-0.015528624877333641,0.016121910884976387,-0.0003029175859410316,0.015074125491082668
0.01647884212434292,-0.0008342619985342026,-0.014798098243772984,0.015676280483603477,-0.0003210080321878195,0.014736258424818516
0.016992028802633286,-0.0008431162568740547,-0.015539598651230335,0.015941021963953972,-0.000326802022755146,0.014820289798080921
0.016620319336652756,-0.0008528459584340453,-0.01503961905837059,0.015997469425201416,-0.0003064432239625603,0.014521610923111439
0.01700897514820099,-0.0008351056021638215,-0.014560839161276817,0.016975771635770798,-0.0003227750421501696,0.014294244349002838
0.016791844740509987,-0.0008398595964536071,-0.014927318319678307,0.016593534499406815,-0.0003053795371670276,0.014797000214457512
0.016904838383197784,-0.0007313458481803536,-0.014558695256710052,0.016459915786981583,-0.0003339385148137808,0.014814566820859909
0.016508957371115685,-0.0007498307386413217,-0.015356120653450489,0.01570848748087883,-0.0003199059865437448,0.015533700585365295
0.017144186422228813,-0.0007336692651733756,-0.014659946784377098,0.01569901406764984,-0.00032587378518655896,0.015409160405397415
0.01682698354125023,-0.0006928707007318735,-0.015028662979602814,0.015438905917108059,-0.0003306400612927973,0.015334195457398891
0.017039388418197632,-0.0006179440533742309,-0.014743665233254433,0.015405001118779182,-0.0003173541626892984,0.0148150734603405
0.0171494223177433,-0.0005426424322649837,-0.015303677879273891,0.01569521613419056,-0.0003040357551071793,0.01489886175841093
0.01706836000084877,-0.000579589162953198,-0.014694859273731709,0.015884600579738617,-0.0002921816485468298,0.014563010074198246
0.017054811120033264,-0.0006013343227095902,-0.01516985148191452,0.016200095415115356,-0.0003359996771905571,0.016446685418486595
0.016960211098194122,-0.00060958944959566,-0.01483081467449665,0.01589575596153736,-0.0003166475216858089,0.015029252506792545
0.016960211098194122,-0.00060958944959566,-0.01483081467449665,0.01589575596153736,-0.0003166475216858089,0.015029252506792545
0.01746884174644947,-0.0005852365866303444,-0.015152351930737495,0.016246555373072624,-0.0003472581447567791,0.015265390276908875
0.017397217452526093,-0.0006644604727625847,-0.014928712509572506,0.015816587954759598,-0.00033285142853856087,0.0151154650375247
0.017047405242919922,-0.0006979124154895544,-0.015182964503765106,0.016147876158356667,-0.0003626527322921902,0.015054036863148212
0.017508359625935555,-0.0006295208004303277,-0.014724339358508587,0.015920313075184822,-0.00034593886812217534,0.014950823038816452
0.017517754808068275,-0.0006564910290762782,-0.015066033229231834,0.01598147302865982,-0.0003627017140388489,0.015566176734864712
0.017707429826259613,-0.0006771294283680618,-0.014758419245481491,0.015874862670898438,-0.0003556414449121803,0.015627384185791016
0.017576953396201134,-0.0006225820397958159,-0.014862211421132088,0.016307033598423004,-0.00033957467530854046,0.016028741374611855
0.01714017055928707,-0.0006873518577776849,-0.014801726676523685,0.016428133472800255,-0.00043788671609945595,0.015897465869784355
0.01757301762700081,-0.0007124761468730867,-0.014714788645505905,0.015744280070066452,-0.0004148418374825269,0.01526509691029787
0.01792198047041893,-0.0006334063364192843,-0.015211256220936775,0.015940263867378235,-0.00044651576899923384,0.015340862795710564
0.017847804352641106,-0.0006600026972591877,-0.014939534477889538,0.015410172753036022,-0.0004207156307529658,0.015140299685299397
0.018221870064735413,-0.0005985261523164809,-0.015269444324076176,0.0158148892223835,-0.00045139394933357835,0.015343157574534416
0.01796780526638031,-0.000623533793259412,-0.014925948344171047,0.015694253146648407,-0.0004249243065714836,0.01524769514799118
0.018136166036128998,-0.0005747782997786999,-0.014945851638913155,0.01610124297440052,-0.0003983053902629763,0.015864312648773193
0.01743023470044136,-0.0005682286573573947,-0.014672874473035336,0.015924109145998955,-0.0004209064645692706,0.016026603057980537
0.0173849705606699,-0.0005722410860471427,-0.014781303703784943,0.01574530266225338,-0.00040363174048252404,0.016729343682527542
0.01832668110728264,-0.0005457661463879049,-0.014346480369567871,0.0162361990660429,-0.00044708617497235537,0.016465021297335625
0.018308905884623528,-0.0005965236341580749,-0.014711861498653889,0.015916774049401283,-0.0004489875282160938,0.01613755337893963
0.018320070579648018,-0.0005585877224802971,-0.015402030199766159,0.015542550943791866,-0.000430989166488871,0.015630686655640602
0.01810598187148571,-0.0006136724841780961,-0.015116354450583458,0.016086876392364502,-0.00044920557411387563,0.01590203493833542
0.01853935606777668,-0.0005816282355226576,-0.015210751444101334,0.015819502994418144,-0.00046374721569009125,0.015796056017279625
0.018775181844830513,-0.0004140262899454683,-0.01463026087731123,0.016022557392716408,-0.00046260515227913857,0.016459446400403976
0.018733827397227287,-0.00028150822618044913,-0.015336699783802032,0.015926465392112732,-0.0005853766924701631,0.016364356502890587
0.019202902913093567,-0.00025170977460220456,-0.014600789174437523,0.016289789229631424,-0.0006313176709227264,0.0161877628415823
0.018487779423594475,-0.0002802374365273863,-0.0152360824868083,0.01637311652302742,-0.0005777762271463871,0.015980595722794533
0.017919806763529778,-0.0002824475523084402,-0.014489159919321537,0.015274567529559135,-0.0006035243859514594,0.016084715723991394
0.018478842452168465,-0.00026219719438813627,-0.015169729478657246,0.015517744235694408,-0.0006137797026894987,0.0161731019616127
0.01862914115190506,-0.00018583492783363909,-0.015288716182112694,0.015426470898091793,-0.0005824398249387741,0.016242315992712975
0.018795186653733253,0.00014954445941839367,-0.015617458149790764,0.015813738107681274,-0.0006477306596934795,0.01645149476826191
0.019582048058509827,0.00017449152073822916,-0.015810318291187286,0.014882179908454418,-0.0006381734856404364,0.016397297382354736
0.0189139973372221,0.0001595514768268913,-0.015615114010870457,0.015244252979755402,-0.0006159993354231119,0.016503535211086273
0.0189139973372221,0.0001595514768268913,-0.015615114010870457,0.015244252979755402,-0.0006159993354231119,0.016503535211086273
0.018831491470336914,7.435169391101226e-05,-0.015571086667478085,0.015281734056770802,-0.0006417783442884684,0.015581617131829262
0.019145628437399864,6.301682878984138e-05,-0.01560673862695694,0.01549357920885086,-0.0005378372734412551,0.016450775787234306
0.019145628437399864,6.301682878984138e-05,-0.01560673862695694,0.01549357920885086,-0.0005378372734412551,0.016450775787234306
0.01942622661590576,5.88922412134707e-05,-0.014919577166438103,0.015500224195420742,-0.000561291875783354,0.016489921137690544
0.01954742521047592,0.00011733636347344145,-0.015748577192425728,0.015447448939085007,-0.0005246566724963486,0.01668372005224228
0.018993819132447243,0.00010607225704006851,-0.015369835309684277,0.015612954273819923,-0.0005049954634159803,0.016170592978596687
0.019297074526548386,9.491506352787837e-05,-0.016077712178230286,0.015746409073472023,-0.0004690743226092309,0.01625150814652443
0.019713103771209717,8.58560306369327e-05,-0.015556316822767258,0.015803126618266106,-0.0004257399414200336,0.016367685049772263
0.019686803221702576,7.837620796635747e-05,-0.015412561595439911,0.016089648008346558,-0.00038896899786777794,0.01669868640601635
0.019171297550201416,7.20956886652857e-05,-0.015435818582773209,0.015761805698275566,-0.0004245181626174599,0.01672806404531002
0.019857903942465782,6.674726319033653e-05,-0.015841633081436157,0.016069764271378517,-0.0003975856234319508,0.01678440533578396
0.019735336303710938,6.213784217834473e-05,-0.015743928030133247,0.01574513502418995,-0.00042799999937415123,0.017002804204821587
0.019283119589090347,5.8124202041653916e-05,-0.015835443511605263,0.01599297486245632,-0.00040428776992484927,0.016648994758725166
0.019836559891700745,5.459735621116124e-05,-0.015770195052027702,0.01445860043168068,-0.0004306624468881637,0.01702752709388733
0.019991440698504448,4.868942414759658e-05,-0.01593935862183571,0.016003111377358437,-0.0003900477895513177,0.01703903079032898
0.020191749557852745,4.6190260036382824e-05,-0.015138299204409122,0.015429757535457611,-0.0003994802536908537,0.017152421176433563
0.019941359758377075,4.39352443208918e-05,-0.01631050929427147,0.014957037754356861,-0.0004053245356772095,0.017014050856232643
0.020040566101670265,4.1890085412887856e-05,-0.015183810144662857,0.014684539288282394,-0.00040749282925389707,0.017104879021644592
0.020140357315540314,4.0026996430242434e-05,-0.015764959156513214,0.015208439901471138,-0.00041170846088789403,0.016924958676099777
0.02049371600151062,3.8322516047628596e-05,-0.015792179852724075,0.015424489974975586,-0.00041309057269245386,0.016969114542007446
0.020449984818696976,3.6757315683644265e-05,-0.016182290390133858,0.015746276825666428,-0.0004303793830331415,0.017499038949608803
0.020016035065054893,7.013672438915819e-05,-0.01565529964864254,0.015080839395523071,-0.00042093079537153244,0.017509417608380318
0.020235424861311913,6.795630906708539e-05,-0.015617281198501587,0.015717800706624985,-0.0005503327702172101,0.017395388334989548
0.020361388102173805,6.549005775013939e-05,-0.016023127362132072,0.01490949746221304,-0.0005871583707630634,0.01741671748459339
0.020424816757440567,6.319102976704016e-05,-0.015584258362650871,0.015197678469121456,-0.0006067577050998807,0.01756354793906212
0.020424816757440567,6.319102976704016e-05,-0.015584258362650871,0.015197678469121456,-0.0006067577050998807,0.01756354793906212
0.020287131890654564,5.9045178204542026e-05,-0.015649903565645218,0.015596963465213776,-0.0007364721968770027,0.01733580231666565
0.020287131890654564,5.9045178204542026e-05,-0.015649903565645218,0.015596963465213776,-0.0007364721968770027,0.01733580231666565
0.02080925926566124,5.7169927458744496e-05,-0.016137178987264633,0.015324108302593231,-0.0008550956263206899,0.017644178122282028
0.020591050386428833,5.541001883102581e-05,-0.015538766048848629,0.015753064304590225,-0.0008678005542606115,0.017444074153900146
0.021203897893428802,5.3755156841361895e-05,-0.01635950431227684,0.015686159953475,-0.0007900049677118659,0.018254727125167847
0.02115391567349434,5.219641752773896e-05,-0.01614256389439106,0.01508652325719595,-0.0007968068239279091,0.01749185472726822
0.02089681290090084,5.0725451728794724e-05,-0.01607584021985531,0.014854444190859795,-0.000853541016113013,0.016631726175546646
0.019057847559452057,7.110573642421514e-05,-0.01605120114982128,0.014874882996082306,-0.0008644994231872261,0.017444079741835594
0.021217158064246178,7.198972161859274e-05,-0.015809504315257072,0.015219171531498432,-0.0008214740082621574,0.017621010541915894
0.02176729589700699,7.015655137365684e-05,-0.016421908512711525,0.015037942677736282,-0.0007748435600660741,0.01761445961892605
0.021189821884036064,6.838022090960294e-05,-0.015868427231907845,0.01578342355787754,-0.0007781613385304809,0.018081167712807655
0.02036120928823948,6.669115828117356e-05,-0.016308140009641647,0.015930699184536934,-0.0007523951935581863,0.018269233405590057
0.021122798323631287,6.508368096547201e-05,-0.01627518981695175,0.01596755161881447,-0.0007499891798943281,0.018100226297974586
0.02092798240482807,6.355164805427194e-05,-0.016451112926006317,0.01501609105616808,-0.0007114093168638647,0.018161455169320107
0.021667759865522385,8.064843859756365e-05,-0.016261596232652664,0.015363701619207859,-0.0006597047904506326,0.017705414444208145
0.021467173472046852,7.9143195762299e-05,-0.01649625413119793,0.016079654917120934,-0.000676689320243895,0.017576057463884354
0.02071336656808853,7.744428876321763e-05,-0.015917673707008362,0.015920886769890785,-0.0006253125611692667,0.017894865944981575
0.020688233897089958,7.581345562357455e-05,-0.016509152948856354,0.015377639792859554,-0.0006345672882162035,0.018336011096835136
0.02151370607316494,7.424982322845608e-05,-0.016065480187535286,0.015117094852030277,-0.0005616634734906256,0.018459239974617958
0.02203221432864666,7.274941890500486e-05,-0.016292480751872063,0.015313670039176941,-0.0004996065399609506,0.017930086702108383
0.02161601558327675,7.130851736292243e-05,-0.01582091487944126,0.015182792209088802,-0.0005153625970706344,0.01815081760287285
0.021619001403450966,6.992340058786795e-05,-0.016348425298929214,0.015239309519529343,-0.0004889023839496076,0.01828124187886715
0.021866925060749054,8.815809269435704e-05,-0.01682429015636444,0.01567585952579975,-0.0004494976601563394,0.018989255651831627
0.021866925060749054,8.815809269435704e-05,-0.01682429015636444,0.01567585952579975,-0.0004494976601563394,0.018989255651831627
0.02166595868766308,9.610797133063897e-05,-0.016055207699537277,0.01558111421763897,-0.0004657947283703834,0.019129736348986626
0.021617723628878593,9.422742732567713e-05,-0.01659281551837921,0.01645464263856411,-0.0004484024248085916,0.018613014370203018
0.02191859669983387,9.22967228689231e-05,-0.015871433541178703,0.015803039073944092,-0.00041955849155783653,0.01820635050535202
0.02198697067797184,0.00010234259389108047,-0.016615260392427444,0.01577363908290863,-0.0003934106498491019,0.01802155375480652
0.021925458684563637,0.000106308791146148,-0.016528015956282616,0.015395261347293854,-0.0003702811955008656,0.018339693546295166
0.02217479795217514,0.00010433512943563983,-0.016654208302497864,0.01557180006057024,-0.0003929449594579637,0.018568603321909904
0.022235875949263573,0.00011358434858266264,-0.016533948481082916,0.015767335891723633,-0.0003782115818466991,0.01866316795349121
0.022177228704094887,0.00011711853585438803,-0.01601075939834118,0.0157746821641922,-0.00035969814052805305,0.0191367045044899
0.022651616483926773,0.0001150556854554452,-0.016643451526761055,0.01597757078707218,-0.0003426017356105149,0.019199572503566742
0.022750144824385643,0.00011299308971501887,-0.01620444469153881,0.01567530818283558,-0.00032703866600058973,0.01882808841764927
0.022535651922225952,0.00012622616486623883,-0.01644790731370449,0.01575496233999729,-0.0003128263051621616,0.018913960084319115
0.022482791915535927,0.000124654863611795,-0.01586017571389675,0.015197180211544037,-0.0002644583582878113,0.01904934085905552
0.022815555334091187,0.00012254147441126406,-0.016607563942670822,0.015621325932443142,-0.00023992113710846752,0.0189371220767498
0.023064620792865753,0.00030965052428655326,-0.016827136278152466,0.014860052615404129,-0.0002271237608511001,0.01983640156686306
0.022400161251425743,0.0002786657714750618,-0.016961900517344475,0.01560034416615963,-0.00020625206525437534,0.018500952050089836
0.023025598376989365,0.0002624148328322917,-0.015976401045918465,0.01577194407582283,-0.0001972108002519235,0.01886879839003086
0.023428617045283318,0.00028042896883562207,-0.017000367864966393,0.015452432446181774,-0.00018892865045927465,0.019193625077605247
0.02308840863406658,0.00028177472995594144,-0.016782410442829132,0.01557133812457323,-0.00018131545220967382,0.018958574160933495
0.02306324429810047,0.0002680037578102201,-0.016149045899510384,0.015412635169923306,-0.00017429135914426297,0.01922883838415146
0.023148970678448677,0.00029728925437666476,-0.01622752845287323,0.015168619342148304,-0.00019907376554328948,0.019420377910137177
0.023429790511727333,0.0002844315895345062,-0.016534507274627686,0.014768402092158794,-0.0001939625944942236,0.019415605813264847
0.023329028859734535,0.00029765121871605515,-0.018228858709335327,0.014970068819820881,-0.00018736510537564754,0.019811110571026802
0.02361121028661728,0.00029796978924423456,-0.01648600585758686,0.015466189943253994,-0.00018108949007000774,0.01991877146065235
0.023742148652672768,0.00028636265778914094,-0.016097556799650192,0.015412404201924801,-0.00017521344125270844,0.019703218713402748
0.023523638024926186,0.000349784386344254,-0.01628846675157547,0.015799790620803833,-0.00019064800289925188,0.019895285367965698
0.023117508739233017,0.0003256239288020879,-0.017177429050207138,0.015589381568133831,-0.00019147804414387792,0.0199635848402977
0.023117508739233017,0.0003256239288020879,-0.017177429050207138,0.015589381568133831,-0.00019147804414387792,0.0199635848402977
0.021942608058452606,0.00030366110149770975,-0.01738782599568367,0.015690548345446587,-0.0001862499484559521,0.019671602174639702
0.024150848388671875,0.0003405400784686208,-0.017133424058556557,0.014055239968001842,-0.00018092886602971703,0.019586436450481415
0.024528320878744125,0.0003210454888176173,-0.016835836693644524,0.01571773737668991,-0.00017587924958206713,0.0196891687810421
0.024301672354340553,0.000352824165020138,-0.016685117036104202,0.01611119881272316,-0.00017110229237005115,0.01985851116478443
0.023929350078105927,0.00037687766598537564,-0.01760958880186081,0.0164131261408329,-0.00017826516705099493,0.02067057602107525
0.023796241730451584,0.00036322104278951883,-0.016931802034378052,0.015505596995353699,-0.00018467997142579406,0.020747166126966476
0.023471010848879814,0.0004994606133550406,-0.0160062238574028,0.014939431101083755,-0.0001807609514798969,0.02033071778714657
0.023696133866906166,0.0005148861091583967,-0.016992956399917603,0.015134308487176895,-0.00017637944256421179,0.01969524659216404
0.024417061358690262,0.0004960955702699721,-0.016805525869131088,0.015156745910644531,-0.00017216491687577218,0.0193991307169199
0.024487627670168877,0.000504122581332922,-0.01723758690059185,0.015215246006846428,-0.0001685239258222282,0.01968267187476158
0.024000434204936028,0.000488967401906848,-0.0165821872651577,0.014707928523421288,-0.0001706605398794636,0.020105423405766487
0.02426709607243538,0.000511054415255785,-0.016959302127361298,0.014977972954511642,-0.00016496072930749506,0.021038923412561417
0.024203969165682793,0.0005734518053941429,-0.01639711670577526,0.015844780951738358,-0.00015372618508990854,0.02038320153951645
0.024438777938485146,0.0006081056781113148,-0.016863778233528137,0.014887923374772072,-0.00014864804688841105,0.020077761262655258
0.02450517565011978,0.0006378096877597272,-0.01677349954843521,0.015169808641076088,-0.00014389435818884522,0.020793180912733078
0.02390322834253311,0.0006553875864483416,-0.01686517335474491,0.014697721228003502,-0.00013943496742285788,0.020657548680901527
0.02385432831943035,0.0006162400241009891,-0.01686941087245941,0.01538841798901558,-0.00013524408859666437,0.019668811932206154
0.024665609002113342,0.0007615235517732799,-0.016570337116718292,0.014939556829631329,-0.0001312977692577988,0.019629480317234993
0.024533918127417564,0.0007828735979273915,-0.017001481726765633,0.01527538150548935,-0.00012757506920024753,0.01989559642970562
0.02457677759230137,0.00078519870294258,-0.016273971647024155,0.015080367214977741,-0.00013623958511743695,0.019982419908046722
0.024723302572965622,0.0007979899528436363,-0.016949402168393135,0.015482963994145393,-0.00014405054389499128,0.01932539790868759
0.024753494188189507,0.0007392609259113669,-0.01676739752292633,0.015124229714274406,-0.00014103582361713052,0.020328328013420105
0.02425062470138073,0.0008349001873284578,-0.01702253706753254,0.01500485185533762,-0.00013749352365266532,0.021148737519979477
0.024218866601586342,0.0007628729217685759,-0.017199981957674026,0.015117994509637356,-0.00013408246741164476,0.020794754847884178
0.024413974955677986,0.0007786767673678696,-0.01624291017651558,0.01552566047757864,-0.00013083391240797937,0.02059314213693142
0.0250539630651474,0.0007892419234849513,-0.01691679283976555,0.015515866689383984,-0.00012773893831763417,0.02068135142326355
0.024791883304715157,0.0008591749938204885,-0.01650775782763958,0.015172743238508701,-0.00014419459330383688,0.02052830159664154
0.02474677376449108,0.0008806464611552656,-0.016788670793175697,0.015614842064678669,-0.00014220569573808461,0.020651111379265785
0.024844586849212646,0.0009693116298876703,-0.01690000481903553,0.015266282483935356,-0.0001391472469549626,0.0204805675894022
0.024489058181643486,0.0011464538984000683,-0.01624736189842224,0.01574130356311798,-0.0001361454778816551,0.020588921383023262
0.024763233959674835,0.0012105345958843827,-0.016807332634925842,0.01541376393288374,-0.00015103400801308453,0.020632343366742134
0.024921340867877007,0.0012662730878219008,-0.01613508351147175,0.015456212684512138,-0.00014924055722076446,0.021170932799577713
0.024462798610329628,0.0011496406514197588,-0.016651231795549393,0.014934287406504154,-0.00018494001415092498,0.0214900691062212
0.02640354447066784,0.0012755823554471135,-0.01655339077115059,0.015625018626451492,-0.00021390229812823236,0.02165401168167591
0.025585155934095383,0.0012197104515507817,-0.01689765974879265,0.015452133491635323,-0.00024037831462919712,0.021673614159226418
0.025585155934095383,0.0012197104515507817,-0.01689765974879265,0.015452133491635323,-0.00024037831462919712,0.021673614159226418
0.02526901662349701,0.0011823899112641811,-0.017046909779310226,0.015835393220186234,-0.00026486971182748675,0.021516773849725723
0.025324547663331032,0.0012812907807528973,-0.016401663422584534,0.01588517054915428,-0.0008235702407546341,0.021597210317850113
0.025547748431563377,0.001382101560011506,-0.01667270064353943,0.016013622283935547,-0.000906354864127934,0.02198202721774578
0.025073697790503502,0.0016967771807685494,-0.016146352514624596,0.01596265286207199,-0.0007884170627221465,0.02140243910253048
0.02585793472826481,0.0017307586967945099,-0.016758114099502563,0.015589247457683086,-0.0007947540143504739,0.0215303972363472
0.02607683092355728,0.001880211872048676,-0.017056453973054886,0.01588604226708412,-0.0007860062760300934,0.022033972665667534
0.02553350105881691,0.0015969324158504605,-0.016619043424725533,0.015731004998087883,-0.0006659451173618436,0.021431002765893936
0.025246119126677513,0.0017026376444846392,-0.016224194318056107,0.01548786461353302,-0.0005862212856300175,0.021970484405755997
0.02590225078165531,0.0016194307245314121,-0.017058556899428368,0.01581881381571293,-0.0005189435323700309,0.022424926981329918
0.02633676864206791,0.0019337820122018456,-0.01719813607633114,0.015436233952641487,-0.0005331931752152741,0.022369738668203354
0.025900710374116898,0.0023608750198036432,-0.01723555102944374,0.0158148854970932,-0.0005042562261223793,0.022191936150193214
0.026359539479017258,0.002378136618062854,-0.017237043008208275,0.015837593004107475,-0.0005339892231859267,0.021825525909662247
0.026874134317040443,0.002486794488504529,-0.016808122396469116,0.015933837741613388,-0.0005310127162374556,0.022165000438690186
0.026309356093406677,0.00236350204795599,-0.017037371173501015,0.015748556703329086,-0.0005240133032202721,0.0225028358399868
0.02625318616628647,0.002553639467805624,-0.016856782138347626,0.015504518523812294,-0.0004903789958916605,0.022525154054164886
0.026122814044356346,0.0026706503704190254,-0.017295997589826584,0.015542506240308285,-0.0004946341505274177,0.022646719589829445
0.026086755096912384,0.0027526123449206352,-0.01725214347243309,0.015096050687134266,-0.00045771209988743067,0.02291012741625309
0.027218017727136612,0.0026860754005610943,-0.017170578241348267,0.015845390036702156,-0.0004771579406224191,0.02274227701127529
0.027530962601304054,0.0028324644081294537,-0.017359627410769463,0.01564309000968933,-0.0004925749963149428,0.022986648604273796
0.027362072840332985,0.0029598968103528023,-0.01688043214380741,0.015955325216054916,-0.0004890555283054709,0.022765448316931725
0.02716514840722084,0.0029247053898870945,-0.017345041036605835,0.014705388806760311,-0.0005121785798110068,0.0226531233638525
0.027345987036824226,0.003135924693197012,-0.017793754115700722,0.01608099788427353,-0.00048544819583185017,0.022809570655226707
0.02724604122340679,0.0028575665783137083,-0.017154673114418983,0.01609341986477375,-0.0005588880158029497,0.023082099854946136
0.027645226567983627,0.0030446909368038177,-0.017299531027674675,0.015957815572619438,-0.0005289290565997362,0.022401923313736916
0.027645226567983627,0.0030446909368038177,-0.017299531027674675,0.015957815572619438,-0.0005289290565997362,0.022401923313736916
0.028391271829605103,0.003357265843078494,-0.017329880967736244,0.015385146252810955,-0.0005143238813616335,0.023345159366726875
0.028391271829605103,0.003357265843078494,-0.017329880967736244,0.015385146252810955,-0.0005143238813616335,0.023345159366726875
0.028003472834825516,0.0035840116906911135,-0.01707734912633896,0.015662219375371933,-0.0004708422929979861,0.023712243884801865
0.02797097899019718,0.003312108339741826,-0.017034590244293213,0.015349877998232841,-0.0005001983372494578,0.02293679676949978
0.027810152620077133,0.003517713863402605,-0.017514148727059364,0.01574459671974182,-0.0004674420051742345,0.022051429376006126
0.028130631893873215,0.0032795702572911978,-0.017093295231461525,0.015583072789013386,-0.0004932402516715229,0.022342026233673096
0.028143148869276047,0.00333751761354506,-0.017844129353761673,0.016463248059153557,-0.0004962398670613766,0.023514095693826675
0.02812608890235424,0.003452596953138709,-0.017498375847935677,0.016244474798440933,-0.000474860513349995,0.023610176518559456
0.02864883467555046,0.003567162435501814,-0.016949553042650223,0.01672578603029251,-0.0005113935330882668,0.023378372192382812
0.028741806745529175,0.003444058820605278,-0.01730312779545784,0.015735778957605362,-0.0004874828446190804,0.02497655525803566
0.029197368770837784,0.0034786597825586796,-0.01751217059791088,0.015882061794400215,-0.00046776433009654284,0.024306410923600197
0.028843525797128677,0.003704580944031477,-0.017395291477441788,0.015587682835757732,-0.0004902842338196933,0.02317502163350582
0.028920013457536697,0.0038837455213069916,-0.01704391837120056,0.01625574566423893,-0.00046939370804466307,0.022401200607419014
0.029166171327233315,0.004122528247535229,-0.017796704545617104,0.015937896445393562,-0.0005399476503953338,0.023352982476353645
0.029508037492632866,0.003967215307056904,-0.017332538962364197,0.01627744734287262,-0.0005737549508921802,0.024317391216754913
0.0295407697558403,0.0038061426021158695,-0.01738407276570797,0.0157435592263937,-0.0005719899199903011,0.024187011644244194
0.029834525659680367,0.004243409726768732,-0.017621686682105064,0.01572745107114315,-0.0005602950695902109,0.023985154926776886
0.03020414523780346,0.004044773057103157,-0.01724637672305107,0.015555634163320065,-0.0005168653442524374,0.024021975696086884
0.030243368819355965,0.004423844162374735,-0.01781533658504486,0.015541733242571354,-0.0005367088597267866,0.024253666400909424
0.02995922602713108,0.00458214757964015,-0.018044788390398026,0.01615769974887371,-0.0005102417198941112,0.024400761350989342
0.030380461364984512,0.0044530644081532955,-0.018543077632784843,0.016260989010334015,-0.0006104175699874759,0.024525325745344162
0.03140457719564438,0.004530637059360743,-0.01865629479289055,0.017027996480464935,-0.0005980607820674777,0.024515869095921516
0.031532980501651764,0.004955773241817951,-0.018102794885635376,0.01652635633945465,-0.0006193416193127632,0.024521535262465477
0.028878390789031982,0.004984509199857712,-0.018672754988074303,0.01660929061472416,-0.0005736695602536201,0.02449597418308258
0.030668392777442932,0.004516775254160166,-0.018758930265903473,0.016056157648563385,-0.0005263960338197649,0.024523211643099785
0.031671129167079926,0.004278980195522308,-0.01795482635498047,0.01592606119811535,-0.0005194387049414217,0.02477077953517437
0.030830394476652145,0.0042541734874248505,-0.018228381872177124,0.015910428017377853,-0.0005131061188876629,0.024807170033454895
0.030915269628167152,0.00490142684429884,-0.018510017544031143,0.01564997434616089,-0.0004808318626601249,0.024749528616666794
0.031888775527477264,0.004850017838180065,-0.018186645582318306,0.01620200276374817,-0.0004948513233102858,0.024866972118616104
0.031888775527477264,0.004850017838180065,-0.018186645582318306,0.01620200276374817,-0.0004948513233102858,0.024866972118616104
0.03153420239686966,0.0047570872120559216,-0.018205171450972557,0.01588459126651287,-0.00045292277354747057,0.025031425058841705
0.03078402951359749,0.004857796709984541,-0.01835658960044384,0.01600751094520092,-0.0004884029040113091,0.0250694639980793
0.03068985976278782,0.004759634379297495,-0.01867552287876606,0.015700776129961014,-0.00045247358502820134,0.02532987855374813
0.03189340978860855,0.00477901566773653,-0.018914557993412018,0.015986258164048195,-0.00048246965161524713,0.02506960742175579
0.03217077627778053,0.004578622989356518,-0.018359815701842308,0.015452752821147442,-0.00045207186485640705,0.024725602939724922
0.03221007436513901,0.005470679607242346,-0.018851399421691895,0.016098996624350548,-0.0005444040871225297,0.024690136313438416
0.03221007436513901,0.005470679607242346,-0.018851399421691895,0.016098996624350548,-0.0005444040871225297,0.024690136313438416
0.03126125782728195,0.004740342032164335,-0.018585609272122383,0.016437016427516937,-0.0005531710339710116,0.025550097227096558
0.031726956367492676,0.0045793624594807625,-0.018473608419299126,0.015308727510273457,-0.0005660625174641609,0.02539890632033348
0.031579919159412384,0.004977039992809296,-0.018133575096726418,0.015436822548508644,-0.0005369801074266434,0.024629153311252594
0.03178602084517479,0.005566806998103857,-0.019044557586312294,0.01498575508594513,-0.0005570658831857145,0.02409711480140686
0.03200972452759743,0.005264343693852425,-0.019206954166293144,0.0158461295068264,-0.0006084836786612868,0.024769430980086327
0.03219841420650482,0.005253223702311516,-0.018372710794210434,0.016167469322681427,-0.0006968844681978226,0.025802914053201675
0.03172125294804573,0.005359018687158823,-0.01868487149477005,0.016735998913645744,-0.0007246272289194167,0.02567325159907341
0.03183003142476082,0.004832768812775612,-0.018369710072875023,0.01694248802959919,-0.0007437138701789081,0.025856582447886467
0.03148104250431061,0.005616927985101938,-0.018542295321822166,0.01626831293106079,-0.0009662709780968726,0.025953572243452072
0.030371250584721565,0.005374440457671881,-0.01896195113658905,0.017155108973383904,-0.001023382879793644,0.026205945760011673
0.031979285180568695,0.005544513929635286,-0.01934223249554634,0.016430096700787544,-0.0009517850121483207,0.026180488988757133
0.032930366694927216,0.005650556180626154,-0.019211554899811745,0.016571855172514915,-0.0008809003047645092,0.02523641847074032
0.032930366694927216,0.005650556180626154,-0.019211554899811745,0.016571855172514915,-0.0008809003047645092,0.02523641847074032
0.03312186524271965,0.005204657092690468,-0.019571222364902496,0.016441330313682556,-0.0008789165294729173,0.02504788339138031
0.031859029084444046,0.005666004493832588,-0.01855667121708393,0.01683357171714306,-0.000799578323494643,0.02592957392334938
0.031559646129608154,0.0052976119332015514,-0.01837136410176754,0.016707561910152435,-0.0007680337294004858,0.02624606527388096
0.03252311423420906,0.005443823989480734,-0.019175158813595772,0.016057679429650307,-0.0007248835172504187,0.02641957439482212
0.032642096281051636,0.005473956000059843,-0.018931308761239052,0.016425523906946182,-0.0007416250300593674,0.025929201394319534
0.03224053606390953,0.005033385474234819,-0.01923932135105133,0.01608525961637497,-0.0007581626996397972,0.025733234360814095
0.03296133503317833,0.003900966141372919,-0.019164608791470528,0.016276545822620392,-0.0009509010124020278,0.02594144269824028
0.033011943101882935,0.002652555936947465,-0.01840662956237793,0.016098594292998314,-0.0010050070704892278,0.026268497109413147
0.03177400305867195,0.0023060243111103773,-0.019109347835183144,0.01641874760389328,-0.0009941976750269532,0.026123128831386566
0.031840212643146515,0.0022337643895298243,-0.0195853803306818,0.016268422827124596,-0.0010316470870748162,0.026135962456464767
0.032747961580753326,0.003335396759212017,-0.019187945872545242,0.016247697174549103,-0.0009474758990108967,0.02661718800663948
0.0328122116625309,0.003979100845754147,-0.019394919276237488,0.016170712187886238,-0.0009199886699207127,0.026981696486473083
0.03279442712664604,0.0035518715158104897,-0.01852289028465748,0.01634056493639946,-0.0008166005718521774,0.026721395552158356
0.03254512697458267,0.0032687752973288298,-0.018963444977998734,0.015460881404578686,-0.0008124272571876645,0.02792421728372574
0.032188259065151215,0.003395194187760353,-0.019069118425250053,0.015980729833245277,-0.0007335346890613437,0.02627149410545826
0.03251861780881882,0.00326420646160841,-0.019022058695554733,0.015707148239016533,-0.0007432453567162156,0.02634299173951149
0.03312886878848076,0.0035615640226751566,-0.020011141896247864,0.01537887379527092,-0.0007617291994392872,0.02677762135863304
0.033004991710186005,0.0033267000690102577,-0.019805600866675377,0.015345958061516285,-0.0007640565745532513,0.02674202434718609
0.03293925151228905,0.0034356170799583197,-0.019391756504774094,0.015660615637898445,-0.0008533900836482644,0.027086593210697174
0.03334236145019531,0.0031019304879009724,-0.019209356978535652,0.016525691375136375,-0.0008359809871762991,0.027033749967813492
0.0332556776702404,0.0033012351486831903,-0.019457312300801277,0.016246391460299492,-0.0008441704558208585,0.0268404558300972
0.033028244972229004,0.003351462073624134,-0.02045106329023838,0.016375748440623283,-0.0007377873407676816,0.026852423325181007
0.03398837149143219,0.0034583432134240866,-0.019451526924967766,0.015630612149834633,-0.0007282512960955501,0.02721971645951271
0.03374684229493141,0.003213585587218404,-0.01962214522063732,0.01595236174762249,-0.000674319569952786,0.02699384093284607
0.03306051343679428,0.003533611772581935,-0.01993681490421295,0.016112564131617546,-0.0006525118369609118,0.026735711842775345
0.03375712409615517,0.003816575976088643,-0.01996263489127159,0.017301350831985474,-0.000633140210993588,0.02700282260775566
0.03434153273701668,0.00342164421454072,-0.020236097276210785,0.0169921163469553,-0.0005715725710615516,0.02706224098801613
0.03434153273701668,0.00342164421454072,-0.020236097276210785,0.0169921163469553,-0.0005715725710615516,0.02706224098801613
0.033796366304159164,0.003516832133755088,-0.020052440464496613,0.016393475234508514,-0.0005008850712329149,0.026921000331640244
0.034352146089076996,0.003779008286073804,-0.0198015458881855,0.017114263027906418,-0.0005276906886138022,0.02685028687119484
0.03437970578670502,0.004294498357921839,-0.020333044230937958,0.015944570302963257,-0.0005297203897498548,0.027073552832007408
0.03473101928830147,0.004310577642172575,-0.02028224989771843,0.016064772382378578,-0.000522263057064265,0.02776792272925377
0.034966081380844116,0.00403629569336772,-0.019290870055556297,0.01596260257065296,-0.0005442096735350788,0.0282969418913126
0.034576043486595154,0.003971052821725607,-0.02002953737974167,0.01631084457039833,-0.0006157326279208064,0.02781345508992672
0.034712277352809906,0.0038780781906098127,-0.020258627831935883,0.017031751573085785,-0.000629411602858454,0.026468083262443542
0.03441225364804268,0.004177079536020756,-0.019694318994879723,0.016916543245315552,-0.0006611981079913676,0.02651503123342991
0.03483271598815918,0.004109095316380262,-0.01984383352100849,0.016814617440104485,-0.0006874138489365578,0.02736026421189308
0.03608483076095581,0.00408574752509594,-0.019924482330679893,0.016313616186380386,-0.0007093088352121413,0.027214009314775467
0.03554680943489075,0.004470279440283775,-0.01979256235063076,0.01654156669974327,-0.0009590921690687537,0.02740873210132122
0.0357210673391819,0.004200707655400038,-0.020542915910482407,0.01650662161409855,-0.0008945955196395516,0.028459317982196808
0.03546891734004021,0.00409271102398634,-0.0205856803804636,0.0161255095154047,-0.000891165342181921,0.026909606531262398
0.036098744720220566,0.0044714719988405704,-0.019547155126929283,0.015923909842967987,-0.0008613549871370196,0.027306335046887398
0.03669741749763489,0.004205105360597372,-0.019610395655035973,0.01639772206544876,-0.0008907266310416162,0.02817545458674431
0.035779356956481934,0.004478147719055414,-0.020390747115015984,0.016752509400248528,-0.0007971778395585716,0.029010022059082985
0.0349096916615963,0.004685358144342899,-0.0205647312104702,0.016874460503458977,-0.0008040156681090593,0.02869918942451477
0.03563114255666733,0.004674152936786413,-0.020799504593014717,0.016243504360318184,-0.0008075549267232418,0.027997585013508797
0.0364542081952095,0.0045867059379816055,-0.020870139822363853,0.01576557755470276,-0.0008507756283506751,0.02788292057812214
0.035503920167684555,0.004640100058168173,-0.019734147936105728,0.01634732075035572,-0.0008602596935816109,0.027767876163125038
0.036799751222133636,0.004765215329825878,-0.019864415749907494,0.01631934754550457,-0.0008494166540913284,0.02831283211708069
0.03676820918917656,0.004595611244440079,-0.020477797836065292,0.01653861813247204,-0.0008546273456886411,0.028349390253424644
0.0360330231487751,0.004948531277477741,-0.021200500428676605,0.015807662159204483,-0.0009229026618413627,0.02820225991308689
0.0360330231487751,0.004948531277477741,-0.021200500428676605,0.015807662159204483,-0.0009229026618413627,0.02820225991308689
0.03657747060060501,0.004942337051033974,-0.020600998774170876,0.015602121129631996,-0.0009588436223566532,0.028686145320534706
0.03657747060060501,0.004942337051033974,-0.020600998774170876,0.015602121129631996,-0.0009588436223566532,0.028686145320534706
0.036291658878326416,0.004852593410760164,-0.02098657377064228,0.016046715900301933,-0.0009470396908000112,0.028777863830327988
0.037199847400188446,0.004800975788384676,-0.02109655737876892,0.01654929295182228,-0.001100403256714344,0.028783779591321945
0.03677310422062874,0.0049620517529547215,-0.02089395374059677,0.01676626317203045,-0.0010074113961309195,0.028967684134840965
0.03633905202150345,0.005617070477455854,-0.02113470621407032,0.017088791355490685,-0.0009863384766504169,0.02881179191172123
0.036707911640405655,0.005331320222467184,-0.021741336211562157,0.0166131854057312,-0.0009656967013143003,0.02921471744775772
0.037926577031612396,0.005407088901847601,-0.020487355068325996,0.016903463751077652,-0.0008735074079595506,0.028842618688941002
0.0376797653734684,0.005569092929363251,-0.02072572521865368,0.016409536823630333,-0.0007823307532817125,0.02925327979028225
0.035997986793518066,0.005093496758490801,-0.021206611767411232,0.016672596335411072,-0.0007665407611057162,0.02903149649500847
0.03763497620820999,0.005514860153198242,-0.021534886211156845,0.0169789157807827,-0.000697009265422821,0.028917057439684868
0.03730246052145958,0.005477386061102152,-0.021175172179937363,0.016887690871953964,-0.0007144727860577404,0.0286561232060194
0.0373602956533432,0.005830751731991768,-0.02100289985537529,0.017050614580512047,-0.0006473304820246994,0.028917236253619194
0.03853423893451691,0.00540551682934165,-0.021365433931350708,0.016689294949173927,-0.0006651886506006122,0.030190572142601013
0.035986483097076416,0.005266526713967323,-0.020671343430876732,0.016886861994862556,-0.0005663164774887264,0.029010120779275894
0.03791036084294319,0.0051926514133811,-0.021031316369771957,0.016785956919193268,-0.0005530804046429694,0.028348181396722794
0.03832476586103439,0.005410320591181517,-0.021285170689225197,0.01710241660475731,-0.0005411215242929757,0.029296157881617546
0.03712792322039604,0.005448467563837767,-0.021114705130457878,0.016402900218963623,-0.0005653883563354611,0.029430406168103218
0.03782924637198448,0.005407323129475117,-0.021161997690796852,0.01662413962185383,-0.0005278164171613753,0.029286228120326996
0.03763097897171974,0.005127327051013708,-0.02157682552933693,0.016305919736623764,-0.0005523082800209522,0.030309228226542473
0.037860430777072906,0.005690427031368017,-0.02138327807188034,0.01658596657216549,-0.0005845653940923512,0.03039993718266487
0.038022447377443314,0.005402176175266504,-0.0212115291506052,0.0167922992259264,-0.0006595050217583776,0.029643647372722626
0.037957657128572464,0.006166920997202396,-0.020902495831251144,0.016652362421154976,-0.0006893555400893092,0.029467210173606873
0.0375371016561985,0.005153406877070665,-0.021509835496544838,0.017075203359127045,-0.0006437732954509556,0.029248733073472977
0.03776758909225464,0.0050676907412707806,-0.02170008048415184,0.016446422785520554,-0.0006631502765230834,0.0307745561003685
0.03860737383365631,0.005580704193562269,-0.021068856120109558,0.016597595065832138,-0.0007871396956034005,0.03089519962668419
0.03802022337913513,0.005742019508033991,-0.020712437108159065,0.016359202563762665,-0.000792313483543694,0.030108030885457993
0.038072481751441956,0.005575934890657663,-0.021146543323993683,0.016379164531826973,-0.0007469046395272017,0.030128976330161095
0.03792758285999298,0.005060953088104725,-0.021656583994627,0.01650216244161129,-0.0007615379872731864,0.03000517003238201
0.037770502269268036,0.004672656767070293,-0.021205779165029526,0.016179565340280533,-0.0007697092951275408,0.03004838526248932
0.037770502269268036,0.004672656767070293,-0.021205779165029526,0.016179565340280533,-0.0007697092951275408,0.03004838526248932
0.038973744958639145,0.005463680252432823,-0.02105764113366604,0.0166269913315773,-0.0008098320686258376,0.030456727370619774
0.03894297778606415,0.0053429496474564075,-0.021317973732948303,0.016229290515184402,-0.0008243749034591019,0.03071623109281063
0.03817860782146454,0.00548763619735837,-0.02070724219083786,0.016648154705762863,-0.000834957929328084,0.030455173924565315
0.03770480677485466,0.005481168627738953,-0.020729612559080124,0.016500161960721016,-0.0007633225759491324,0.030350977554917336
0.03875502198934555,0.004744239151477814,-0.021096771582961082,0.016610389575362206,-0.0007728158961981535,0.03058590367436409
0.03878217935562134,0.005037728697061539,-0.02116175927221775,0.016017967835068703,-0.0007842150516808033,0.030596166849136353
0.038728393614292145,0.005410667043179274,-0.02100009098649025,0.016315268352627754,-0.0007629214669577777,0.0308719202876091
0.038782909512519836,0.0052910116501152515,-0.020637281239032745,0.017053302377462387,-0.0007211693446151912,0.030807362869381905
0.03854601830244064,0.005843402352184057,-0.021129589527845383,0.01724257506430149,-0.0007172356708906591,0.030939092859625816
0.038264933973550797,0.005459748208522797,-0.021352041512727737,0.01772925816476345,-0.0007112150196917355,0.0311452466994524
0.039831697940826416,0.00530006131157279,-0.02161252312362194,0.017060527577996254,-0.0007038317853584886,0.031230945140123367
