davideferrari95/blind_handover_controller/data/Test 263 - [2024-02-08 -- 12-49-41]/joint_states_data.csv
shoulder_pan_joint,shoulder_lift_joint,elbow_joint,wrist_1_joint,wrist_2_joint,wrist_3_joint
0.0025579663924872875,0.007628883235156536,-0.008411282673478127,0.00223403493873775,-0.0001169636016129516,0.004038725979626179
0.0023597292602062225,0.007515936624258757,-0.008618339896202087,0.0022428547963500023,-0.00011483399430289865,0.0036273389123380184
0.0023597292602062225,0.007515936624258757,-0.008618339896202087,0.0022428547963500023,-0.00011483399430289865,0.0036273389123380184
0.0025784638710319996,0.008160296827554703,-0.009186629205942154,0.002281953813508153,-0.0001127785726566799,0.003342895768582821
0.0029412738513201475,0.00823588389903307,-0.008648937568068504,0.0022144855465739965,-0.00011079508840339258,0.0031808128114789724
0.0029954237397760153,0.007532048970460892,-0.008349424228072166,0.002107845153659582,-0.0001088801072910428,0.00308086141012609
0.0027196884620934725,0.008080351166427135,-0.008891168981790543,0.0020565397571772337,-0.00011838000500574708,0.003195483237504959
0.002578610321506858,0.008540265262126923,-0.008638872765004635,0.0019584728870540857,-0.00012001986033283174,0.00302317226305604
0.002378500299528241,0.007985977455973625,-0.008585158735513687,0.001922725117765367,-0.00011828404967673123,0.0030050065834075212
0.002486375393345952,0.007701509166508913,-0.008943603374063969,0.001904884004034102,-0.00011638744763331488,0.002922206884250045
0.002768994076177478,0.007498650811612606,-0.008861242793500423,0.001895318040624261,-0.0001145370042650029,0.003345407545566559
0.0028002504259347916,0.007876940071582794,-0.008744253776967525,0.0019055681768804789,-0.00011274355347268283,0.0032457977067679167
0.0025966011453419924,0.007976221852004528,-0.008533871732652187,0.0017878580838441849,-0.00011100527626695111,0.0031365056056529284
0.002603148575872183,0.007471765391528606,-0.00995815359055996,0.0017395721515640616,-0.00010931993165286258,0.0030194686260074377
0.002681843703612685,0.007435855455696583,-0.00860387459397316,0.0018049513455480337,-0.00013900290650781244,0.0029880416113883257
0.0025479982141405344,0.008679872378706932,-0.008395763114094734,0.0017969083273783326,-0.0001391875121043995,0.00291237561032176
0.0029528571758419275,0.007896068505942822,-0.009244974702596664,0.001992832636460662,-0.0001352956605842337,0.00307556614279747
0.0030360145028680563,0.007427780888974667,-0.00840720534324646,0.0021200005430728197,-0.00013136479537934065,0.0029129963368177414
0.0026373490691184998,0.007805589586496353,-0.008460134267807007,0.0020861548837274313,-0.00012763975246343762,0.003055386710911989
0.0026253184769302607,0.007727254182100296,-0.00914833601564169,0.0018400673288851976,-0.0001241188874701038,0.003382635535672307
0.0023434716276824474,0.007620927877724171,-0.008868156932294369,0.001631666556932032,-0.00013957828923594207,0.003481769235804677
0.002543490380048752,0.007609001360833645,-0.008576723746955395,0.0015462161973118782,-0.00013745659089181572,0.003633607644587755
0.002765568671748042,0.007484099827706814,-0.009070136584341526,0.0015987771330401301,-0.000134135436383076,0.0033125593326985836
0.0029031934682279825,0.008191502653062344,-0.009311948902904987,0.00171961123123765,-0.0001308901992160827,0.0030846099834889174
0.002673625247552991,0.00785372219979763,-0.008403932675719261,0.001642977586016059,-0.0001277929259231314,0.003031836822628975
0.0025533773005008698,0.008346169255673885,-0.009033581241965294,0.0015516971470788121,-0.00012483843602240086,0.0031372045632451773
0.002668948844075203,0.007785720285028219,-0.008882513269782066,0.0015029615024104714,-0.0001220174744958058,0.003100990317761898
0.002665650798007846,0.00744557986035943,-0.008659717626869678,0.001496833865530789,-0.0001193213538499549,0.0033155425917357206
0.002665650798007846,0.00744557986035943,-0.008659717626869678,0.001496833865530789,-0.0001193213538499549,0.0033155425917357206
0.0029274425469338894,0.007764734793454409,-0.009469187818467617,0.001423755194991827,-0.00013364379992708564,0.0034061498008668423
0.0028852832037955523,0.007919365540146828,-0.009213862009346485,0.00154206994920969,-0.00013314968964550644,0.0035773315466940403
0.0028330206405371428,0.007678134832531214,-0.00869301799684763,0.001473706215620041,-0.00013054277224000543,0.002933511743322015
0.002703050384297967,0.00743055110797286,-0.008718478493392467,0.001748182694427669,-0.00012790237087756395,0.0027272377628833055
0.0028797355480492115,0.007461052853614092,-0.009364058263599873,0.0016455951845273376,-0.0001253578666364774,0.0025909263640642166
0.0028695741202682257,0.008452754467725754,-0.008667481131851673,0.0017317173769697547,-0.00012291209714021534,0.0028424079064279795
0.0029441516380757093,0.007890865206718445,-0.008425140753388405,0.0017644512699916959,-0.00012056015111738816,0.003318703966215253
0.00282207690179348,0.008070617914199829,-0.009770387783646584,0.0017382096266373992,-0.00013298149860929698,0.003680851776152849
0.0028412742540240288,0.007715810090303421,-0.00881737656891346,0.0016600301023572683,-0.0001325593766523525,0.0033676191233098507
0.0027994862757623196,0.007941392250359058,-0.00825521070510149,0.0016386943170800805,-0.00013029274123255163,0.003092167666181922
0.0029463153332471848,0.0076109543442726135,-0.009225084446370602,0.0017354980809614062,-0.00012798533134628087,0.002793902764096856
0.002944984706118703,0.007719649467617273,-0.009366117417812347,0.0016289185732603073,-0.0001257506519323215,0.002993047935888171
0.0029519330710172653,0.007866797968745232,-0.009255732409656048,0.0017975866794586182,-0.000123592049931176,0.00338734220713377
0.002881211694329977,0.008156037889420986,-0.008598809130489826,0.0016765871550887823,-0.0001215063821291551,0.003602121025323868
0.0028464882634580135,0.007909794338047504,-0.009222988970577717,0.0017107281601056457,-0.00011948982864851132,0.0036740615032613277
0.002819892717525363,0.008398295380175114,-0.008786195889115334,0.0015353556955233216,-0.0001417741150362417,0.0030725491233170033
0.0030952610541135073,0.00794067233800888,-0.009307067841291428,0.0015592899871990085,-0.00013789176591672003,0.0029026635456830263
0.003069507423788309,0.007685785181820393,-0.008749498054385185,0.0015263082459568977,-0.0001338211732218042,0.002852863632142544
0.0029786075465381145,0.0074892411939799786,-0.008778423070907593,0.0016806352650746703,-0.0001299581053899601,0.003033982589840889
0.002780289389193058,0.00785093568265438,-0.009580056183040142,0.0016846044454723597,-0.00012631021672859788,0.0032512652687728405
0.002921260194852948,0.0077392891980707645,-0.009497187100350857,0.0017906527500599623,-0.0001228613982675597,0.0032259956933557987
0.003323259064927697,0.007463932037353516,-0.008832520805299282,0.0017377715557813644,-0.0001313420943915844,0.0033733004238456488
0.003323259064927697,0.007463932037353516,-0.008832520805299282,0.0017377715557813644,-0.0001313420943915844,0.0033733004238456488
0.003212755313143134,0.007389246951788664,-0.009781117551028728,0.0017952787457033992,-0.00013900463818572462,0.0031436646822839975
0.0030591597314924,0.007559222634881735,-0.009381162002682686,0.0016812779940664768,-0.00013621935795526952,0.003071052022278309
0.0027964997570961714,0.008090727031230927,-0.009289701469242573,0.0017017793143168092,-0.00013291361392475665,0.0032356835436075926
0.0029731281101703644,0.007904261350631714,-0.009122546762228012,0.0018073655664920807,-0.00012972370313946158,0.0031630846206098795
0.0031339419074356556,0.006923377979546785,-0.009645317681133747,0.0018244562670588493,-0.00012668031558860093,0.0030792662873864174
0.0032978265080600977,0.007326060440391302,-0.008808068931102753,0.0018267654813826084,-0.00012377655366435647,0.003290675114840269
0.003193232463672757,0.007385273464024067,-0.008840533904731274,0.0016899858601391315,-0.00012100290769012645,0.0032131634652614594
0.003151797456666827,0.008079307153820992,-0.009006660431623459,0.001588613959029317,-0.0001329796068603173,0.003306247293949127
0.0031654727645218372,0.00789786409586668,-0.009155367501080036,0.0014987897593528032,-0.0001347818470094353,0.0034140555653721094
0.003224192885681987,0.007785353343933821,-0.008571498095989227,0.0015701219672337174,-0.0001322559401160106,0.003395842155441642
0.0034065470099449158,0.008165090344846249,-0.009033972397446632,0.0016446633962914348,-0.00012955577403772622,0.0035860082134604454
0.00324015854857862,0.007940721698105335,-0.008943687193095684,0.0015866216272115707,-0.00012694671750068665,0.00337410531938076
0.0035185418091714382,0.007665724027901888,-0.008489243686199188,0.0016747766640037298,-0.00013988524733576924,0.003548250999301672
0.0033830965403467417,0.007650192826986313,-0.009691777639091015,0.0017203375464305282,-0.00013930910790804774,0.0036819754168391228
0.0034605374094098806,0.007434166502207518,-0.008430530317127705,0.0018265816615894437,-0.00013680160918738693,0.0035094376653432846
0.0031215196941047907,0.007131934631615877,-0.009207656607031822,0.0017649461515247822,-0.00013425954966805875,0.0033785421401262283
0.003190866205841303,0.007888627238571644,-0.009560031816363335,0.0016647990560159087,-0.00013180241512600332,0.0030321055091917515
0.0030047311447560787,0.00818039383739233,-0.009259071201086044,0.0016909302212297916,-0.0001294329995289445,0.0030604011844843626
0.0032070886809378862,0.007556837517768145,-0.008329877629876137,0.0015721413074061275,-0.00012714740296360105,0.0033882437273859978
0.0030144257470965385,0.0077340868301689625,-0.00953605491667986,0.0015394457150250673,-0.00014020813978277147,0.0034938878379762173
0.00310700130648911,0.008146913722157478,-0.008907419629395008,0.001437805942259729,-0.00015207004616968334,0.003707804949954152
0.003242532489821315,0.007532402873039246,-0.00844387337565422,0.0014834846369922161,-0.00014814762107562274,0.0033704156521707773
0.003191341646015644,0.007442486006766558,-0.009235070087015629,0.001434630947187543,-0.0001434942678315565,0.0030372939072549343
0.002978889038786292,0.008249721489846706,-0.009205850772559643,0.0016167550347745419,-0.0001390637771692127,0.0030673134606331587
0.002845335751771927,0.0077611953020095825,-0.008705142885446548,0.0016839117743074894,-0.00013489519187714905,0.003239495912566781
0.002845335751771927,0.0077611953020095825,-0.008705142885446548,0.0016839117743074894,-0.00013489519187714905,0.003239495912566781
0.0029262208845466375,0.007572962436825037,-0.00903286226093769,0.0018891571089625359,-0.00013096891052555293,0.0035228345077484846
0.0031110309064388275,0.0086234575137496,-0.00842666532844305,0.0016706408932805061,-0.0001468552218284458,0.0033542951568961143
0.0034542602952569723,0.008427678607404232,-0.008348011411726475,0.0016839064192026854,-0.00014443282270804048,0.0031243409030139446
0.0034542602952569723,0.008427678607404232,-0.008348011411726475,0.0016839064192026854,-0.00014443282270804048,0.0031243409030139446
0.003259604563936591,0.00799521617591381,-0.009122796356678009,0.001552134403027594,-0.00014076604566071182,0.0033104289323091507
0.0030021737329661846,0.007970262318849564,-0.0089366864413023,0.0014579036505892873,-0.00013719573325943202,0.003624169621616602
0.0030890314374119043,0.007828508503735065,-0.008349496871232986,0.001419827458448708,-0.00013379690062720329,0.003488043788820505
0.0032780610490590334,0.007496888283640146,-0.00863287877291441,0.0014669650699943304,-0.00013056161697022617,0.003451454220339656
0.0031420181039720774,0.00809590145945549,-0.008760160766541958,0.0015494436956942081,-0.00012747930304612964,0.003547864966094494
0.0030847499147057533,0.007910025306046009,-0.008111804723739624,0.0015276591293513775,-0.00013992987805977464,0.0037059595342725515
0.0028764139860868454,0.0077608185820281506,-0.00849136896431446,0.0017206642078235745,-0.00014166990877129138,0.003666288685053587
0.0030156176071614027,0.007535082288086414,-0.009208185598254204,0.0017170584760606289,-0.00013886629312764853,0.0035636448301374912
0.003354313550516963,0.007892545312643051,-0.008101159706711769,0.0015224148519337177,-0.0001358917070319876,0.003538232995197177
0.003241010243073106,0.008146584965288639,-0.008037758059799671,0.0015630462439730763,-0.00013302374281920493,0.00358324171975255
0.0035100167151540518,0.008298274129629135,-0.008586636744439602,0.0015097372233867645,-0.00013027300883550197,0.003387271659448743
0.0037605068646371365,0.007934329099953175,-0.008729488588869572,0.001695988466963172,-0.00012763377162627876,0.003519228892400861
0.003424854250624776,0.007710402365773916,-0.008521470241248608,0.0016031021950766444,-0.00012509922089520842,0.0037384191527962685
0.0030881338752806187,0.008072249591350555,-0.008842848241329193,0.001733335666358471,-0.00012032077211188152,0.0034623818937689066
0.0033061522990465164,0.007650337647646666,-0.00847679190337658,0.00209082686342299,-0.00011806588008766994,0.003561940509825945
0.0033061522990465164,0.007650337647646666,-0.00847679190337658,0.00209082686342299,-0.00011806588008766994,0.003561940509825945
0.003563408274203539,0.008223661221563816,-0.008899379521608353,0.002074803225696087,-0.00011380037176422775,0.003470510244369507
0.0034902612678706646,0.008109716698527336,-0.008624181151390076,0.0019516085740178823,-0.00011178120621480048,0.0036524625029414892
0.0034948112443089485,0.007479726802557707,-0.008887373842298985,0.0019226886797696352,-0.00010983253014273942,0.003451660741120577
0.0036149220541119576,0.007276554126292467,-0.008683601394295692,0.0017567666945979,-0.00010795052367029712,0.0033986216876655817
0.0036993795074522495,0.008231519721448421,-0.008605122566223145,0.0017146585742011666,-0.00010613187623675913,0.003557005664333701
0.003626969875767827,0.0075640808790922165,-0.008162583224475384,0.0017395379254594445,-0.00010437367018312216,0.004203589167445898
0.003626969875767827,0.0075640808790922165,-0.008162583224475384,0.0017395379254594445,-0.00010437367018312216,0.004203589167445898
0.003687589429318905,0.0080287279561162,-0.0089150071144104,0.0018066553166136146,-0.00010102616943186149,0.003449818352237344
0.003687589429318905,0.0080287279561162,-0.0089150071144104,0.0018066553166136146,-0.00010102616943186149,0.003449818352237344
0.0033998913131654263,0.007380538620054722,-0.008319179527461529,0.0016624520067125559,-0.00011004296538885683,0.0035623754374682903
0.003673853585496545,0.007140090689063072,-0.009269610047340393,0.0015799447428435087,-0.0001100396184483543,0.00346118095330894
0.003673853585496545,0.007140090689063072,-0.009269610047340393,0.0015799447428435087,-0.0001100396184483543,0.00346118095330894
0.0038226989563554525,0.007424050010740757,-0.00858397502452135,0.0014914070488885045,-0.00010849114914890379,0.0033599291928112507
0.0037896817084401846,0.007416522596031427,-0.008216746151447296,0.001546680461615324,-0.00010688767360989004,0.003347592195495963
0.003695671446621418,0.007090921979397535,-0.008323757909238338,0.0016067216638475657,-0.0001053245214279741,0.0036565333139151335
0.003745781723409891,0.0072703598998487,-0.008801191113889217,0.0016800760058686137,-0.00010380610183347017,0.003865051083266735
0.0038390583358705044,0.007772698067128658,-0.00880451686680317,0.0017355482559651136,-0.00010233074863208458,0.003857868257910013
0.003348043654114008,0.007619140204042196,-0.008617543615400791,0.0018407613970339298,-0.00010089675197377801,0.0035824186634272337
0.0033795777708292007,0.006977328564971685,-0.008641972206532955,0.0018010601634159684,-9.950232197297737e-05,0.0034378101117908955
0.0035601607523858547,0.006921666674315929,-0.00819473061710596,0.0017767014214769006,-9.814604709390551e-05,0.003587916260585189
0.003659344743937254,0.007496122736483812,-0.008300120010972023,0.0016812760150060058,-9.682618110673502e-05,0.003340192837640643
0.003690339159220457,0.007714713457971811,-0.00906081311404705,0.0016056556487455964,-9.554134157951921e-05,0.0033616062719374895
0.003652845276519656,0.00702301599085331,-0.008770231157541275,0.0016394101548939943,-9.429021156392992e-05,0.0035684173926711082
0.0036700975615531206,0.007522115483880043,-0.008235224522650242,0.0015329121379181743,-9.307134314440191e-05,0.004202157724648714
0.0035978842061012983,0.00804904568940401,-0.008768211118876934,0.0019946095999330282,-8.857305510900915e-05,0.0035265388432890177
0.003530442714691162,0.0070138066075742245,-0.00840157549828291,0.0020268154330551624,-8.624978363513947e-05,0.0034634412731975317
0.003530442714691162,0.0070138066075742245,-0.00840157549828291,0.0020268154330551624,-8.624978363513947e-05,0.0034634412731975317
0.0038276633713394403,0.007137538865208626,-0.008889004588127136,0.0020106357987970114,-8.302439528051764e-05,0.0036981620360165834
0.0041150422766804695,0.007501988206058741,-0.009033082984387875,0.0019800818990916014,-8.152006921591237e-05,0.003738296451047063
0.0041150422766804695,0.007501988206058741,-0.009033082984387875,0.0019800818990916014,-8.152006921591237e-05,0.003738296451047063
0.003917844034731388,0.00681225024163723,-0.008543919771909714,0.00183725799433887,-8.006954885786399e-05,0.003787791356444359
0.003599376417696476,0.006757237017154694,-0.008096322417259216,0.0017654445255175233,-7.86697564763017e-05,0.003888046368956566
0.0035631346981972456,0.0070821670815348625,-0.00878814049065113,0.0017588725313544273,-7.7318080002442e-05,0.0038693936076015234
0.0035276107955724,0.00706979027017951,-0.008655866608023643,0.0016679737018421292,-7.60121110943146e-05,0.00374996243044734
0.0035398921463638544,0.007279246114194393,-0.008426589891314507,0.0016749728238210082,-7.474937592633069e-05,0.0036889081820845604
0.0036223549395799637,0.006559646222740412,-0.008675161749124527,0.001672949525527656,-7.352806278504431e-05,0.0036507246550172567
0.0038963689003139734,0.006550596095621586,-0.008673598989844322,0.0016948444535955787,-7.234595250338316e-05,0.00408377917483449
0.004024134483188391,0.006724006962031126,-0.008486606180667877,0.0017207713099196553,-7.120124064385891e-05,0.004111056681722403
0.0038050725124776363,0.007282456383109093,-0.009301310405135155,0.0016552094602957368,-7.009221008047462e-05,0.003694596467539668
0.0035826440434902906,0.007021634373813868,-0.008912771008908749,0.0016892673447728157,-8.10168421594426e-05,0.003355936845764518
0.0036818929947912693,0.0062739048153162,-0.008656696416437626,0.0015570448013022542,-8.145177707774565e-05,0.0032429341226816177
0.0038287255447357893,0.00639168918132782,-0.008971982635557652,0.0015278304927051067,-8.034809434320778e-05,0.003714237129315734
0.003918089903891087,0.006715436931699514,-0.00943651795387268,0.0015883466694504023,-7.917707989690825e-05,0.004018082283437252
0.003831281792372465,0.006617663893848658,-0.009002496488392353,0.001809795736335218,-7.803338667144999e-05,0.003899788483977318
0.0042257062159478664,0.0065744491294026375,-0.00864613801240921,0.0018405120354145765,-7.692186773056164e-05,0.0035099047236144543
0.004776814952492714,0.006481139920651913,-0.00961972214281559,0.0018531898967921734,-7.584146806038916e-05,0.0034071383997797966
0.004235127940773964,0.006955819670110941,-0.008824830874800682,0.0018424595473334193,-7.479106716345996e-05,0.0032920949161052704
0.004335449077188969,0.007432625629007816,-0.008469251915812492,0.001867652521468699,-8.44597234390676e-05,0.003705529263243079
0.00410133320838213,0.006920621730387211,-0.008969878777861595,0.0018783952109515667,-8.47995761432685e-05,0.004131784662604332
0.004037035163491964,0.006526518613100052,-0.009320827201008797,0.001710273209027946,-8.376853656955063e-05,0.00411858968436718
0.004036246333271265,0.006749384570866823,-0.00898765679448843,0.0017079462995752692,-8.267554949270561e-05,0.003944224677979946
0.004188190214335918,0.007183601148426533,-0.009012877009809017,0.001616154215298593,-8.16050378489308e-05,0.0038196721579879522
0.004776413552463055,0.006932183168828487,-0.009058192372322083,0.0016649545868858695,-7.954439206514508e-05,0.004086344037204981
0.0043608564883470535,0.0069611212238669395,-0.008587280288338661,0.002033358672633767,-7.855262083467096e-05,0.004371950402855873
0.003965990152209997,0.0067780897952616215,-0.008987058885395527,0.0019001904875040054,-7.758518040645868e-05,0.00416710926219821
0.004271271638572216,0.006779847666621208,-0.008724006824195385,0.0018623973010107875,-7.664143777219579e-05,0.003932229243218899
0.004163307603448629,0.006639067083597183,-0.00871923379600048,0.0018547649960964918,-8.512740168953314e-05,0.004062986467033625
0.004136206582188606,0.006748256739228964,-0.009320507757365704,0.0017505573341622949,-8.541762508684769e-05,0.004230129532516003
0.0042243776842951775,0.007318819873034954,-0.009119422174990177,0.001767183537594974,-8.450003952020779e-05,0.004482966847717762
0.0042243776842951775,0.007318819873034954,-0.009119422174990177,0.001767183537594974,-8.450003952020779e-05,0.004482966847717762
0.004428516142070293,0.007126308511942625,-0.008724580518901348,0.001990630989894271,-8.352538861799985e-05,0.004288373049348593
0.004199072252959013,0.006580598186701536,-0.009081368334591389,0.002276709768921137,-8.163180609699339e-05,0.0040760706178843975
0.004199072252959013,0.006580598186701536,-0.009081368334591389,0.002276709768921137,-8.163180609699339e-05,0.0040760706178843975
0.0043771578930318356,0.006967367138713598,-0.008734146133065224,0.0020858042407780886,-8.071670163189992e-05,0.004019171465188265
0.004124088678508997,0.007222410291433334,-0.008838810957968235,0.0020204968750476837,-7.98218316049315e-05,0.003908681217581034
0.004252619110047817,0.006889009848237038,-0.010012319311499596,0.0018832087516784668,-1.0281944923917763e-05,0.0038954969495534897
0.004550130106508732,0.00657433457672596,-0.008947455324232578,0.0019473896827548742,-6.713376023981255e-07,0.004265209659934044
0.004588440526276827,0.007101311348378658,-0.009141753427684307,0.0018568600062280893,-4.383355189929716e-08,0.004212457221001387
0.004702842328697443,0.007021768484264612,-0.009350777603685856,0.0022129323333501816,-2.86201773391781e-09,0.0043654367327690125
0.00444287434220314,0.006797419395297766,-0.00972103700041771,0.0023184658493846655,-1.8686931169131782e-10,0.004392117727547884
0.004451998509466648,0.0065786344930529594,-0.008528170175850391,0.0023200474679470062,-1.2201231344710628e-11,0.0044834306463599205
0.004622026812285185,0.006721335928887129,-0.010282909497618675,0.0021165807265788317,-8.888422598829493e-05,0.004215836059302092
0.004577978048473597,0.007199553772807121,-0.009224153123795986,0.0020300622563809156,-9.427524491911754e-05,0.003980464767664671
0.004870496224611998,0.006969795562326908,-0.008911286480724812,0.0021587093360722065,-9.280467202188447e-05,0.004182909615337849
0.004746420308947563,0.006422597449272871,-0.009753795340657234,0.0020192235242575407,-9.095975110540166e-05,0.004064895212650299
0.004759708419442177,0.006234303582459688,-0.009380181320011616,0.0021795991342514753,-8.915947546483949e-05,0.0042337095364928246
0.004660502076148987,0.006810513325035572,-0.009142099879682064,0.0023348466493189335,-8.742742647882551e-05,0.004086730536073446
0.004724876023828983,0.007369567174464464,-0.009383943863213062,0.002304969122633338,-8.576114487368613e-05,0.004630980081856251
0.0045126560144126415,0.006906169932335615,-0.008131097070872784,0.0024105312768369913,-8.415729826083407e-05,0.004950093571096659
0.005065953359007835,0.006261717528104782,-0.009926448576152325,0.00232684682123363,-8.261228504125029e-05,0.004591832403093576
0.004878725856542587,0.006508849561214447,-0.01012156531214714,0.0022417826112359762,-9.316392242908478e-05,0.004137350711971521
0.004755111411213875,0.007231040857732296,-0.008576723746955395,0.002199628157541156,-9.39419842325151e-05,0.004210839048027992
0.004882713779807091,0.0067480141296982765,-0.0092783123254776,0.0023809901904314756,-9.235167817678303e-05,0.004631485790014267
0.004915045108646154,0.006592640653252602,-0.00974184088408947,0.002201166469603777,-9.079987648874521e-05,0.004714940674602985
0.00480987224727869,0.006716910749673843,-0.008736317977309227,0.0021564848721027374,-8.929840987548232e-05,0.004673878196626902
0.005249671638011932,0.007157802581787109,-0.008716423064470291,0.0021010497584939003,-8.784572128206491e-05,0.004686655942350626
0.005562587641179562,0.006669146008789539,-0.009290805086493492,0.0020767597015947104,-8.643959154142067e-05,0.004723758902400732
0.005562587641179562,0.006669146008789539,-0.009290805086493492,0.0020767597015947104,-8.643959154142067e-05,0.004723758902400732
0.005271115340292454,0.006798305083066225,-0.00867596734315157,0.0021593382116407156,-8.507766324328259e-05,0.004589438904076815
0.00480143167078495,0.006746617145836353,-0.008488185703754425,0.002138405805453658,-9.679189679445699e-05,0.0046084304340183735
0.005071019288152456,0.007457492873072624,-0.009290087036788464,0.0022401083260774612,-9.61647747317329e-05,0.004434916656464338
0.005638351663947105,0.006396433338522911,-0.008471331559121609,0.002239985391497612,-9.337257506558672e-05,0.004152069799602032
0.005351920612156391,0.006605674047023058,-0.009056059643626213,0.0024489029310643673,-9.200916247209534e-05,0.00429169088602066
0.005351920612156391,0.006605674047023058,-0.009056059643626213,0.0024489029310643673,-9.200916247209534e-05,0.00429169088602066
0.005773712880909443,0.006677929777652025,-0.009108338505029678,0.002389220055192709,-9.068479994311929e-05,0.0045126075856387615
0.005213895812630653,0.00740023935213685,-0.008825408294796944,0.0023016987834125757,-8.939793042372912e-05,0.004673700779676437
0.005465192254632711,0.006566707044839859,-0.00901200994849205,0.0021930327638983727,-8.814713510219008e-05,0.005112218204885721
0.005303072277456522,0.006348557770252228,-0.009191134013235569,0.002320267725735903,-8.69307987159118e-05,0.005084793549031019
0.005330018699169159,0.006880499888211489,-0.009018422104418278,0.0024892750661820173,-9.178369509754702e-05,0.004900176543742418
0.005542728118598461,0.0070283012464642525,-0.009465799666941166,0.002728057326748967,-9.627572580939159e-05,0.004708654247224331
0.005109542049467564,0.006712110713124275,-0.00925977248698473,0.002891835290938616,-9.537387813907117e-05,0.004974605981260538
0.0051492382772266865,0.006174768321216106,-0.008868944831192493,0.0027938459534198046,-9.415110253030434e-05,0.00489564286544919
0.005696537438780069,0.006474422290921211,-0.008550599217414856,0.0027653630822896957,-9.293741459259763e-05,0.004828441888093948
0.006035261787474155,0.006706444546580315,-0.00945907924324274,0.002704889979213476,-9.175318700727075e-05,0.004931862931698561
0.005709934514015913,0.00746963219717145,-0.009138586930930614,0.00279687880538404,-9.05986235011369e-05,0.004844493232667446
0.005717942491173744,0.006493149790912867,-0.00859738327562809,0.002494604792445898,-0.00011921043915208429,0.0047308639623224735
0.005249089561402798,0.006344711873680353,-0.008990212343633175,0.0023964447900652885,-0.00012553621490951627,0.005015562288463116
0.0057226442731916904,0.006645776331424713,-0.009138689376413822,0.002457589842379093,-0.0001227424800163135,0.004977418575435877
0.005659095011651516,0.0064948187209665775,-0.008863435126841068,0.002543738344684243,-0.00011952326167374849,0.004883004818111658
0.005628620740026236,0.006195775233209133,-0.009229140356183052,0.0028990323189646006,-0.00011070435721194372,0.004881263244897127
0.005628620740026236,0.006195775233209133,-0.009229140356183052,0.0028990323189646006,-0.00011070435721194372,0.004881263244897127
0.006398131139576435,0.0059933168813586235,-0.009073605760931969,0.0029103653505444527,-0.00012681286898441613,0.005085003096610308
0.006177945993840694,0.006699107121676207,-0.009523308835923672,0.00284381490200758,-0.00012642961519304663,0.004979755729436874
0.005666642915457487,0.006787690334022045,-0.0091398349031806,0.002958216005936265,-0.00012370226613711566,0.004959342069923878
0.005666642915457487,0.006787690334022045,-0.0091398349031806,0.002958216005936265,-0.00012370226613711566,0.004959342069923878
0.005581723526120186,0.00626879557967186,-0.00875577237457037,0.0028604345861822367,-0.00012094264093320817,0.005121396388858557
0.006045844405889511,0.006298950407654047,-0.009129207581281662,0.0028614909388124943,-0.00011829387949546799,0.005223547108471394
0.006433693692088127,0.006305928807705641,-0.009142204187810421,0.0026855268515646458,-0.00012524527846835554,0.0051819640211761
0.006053260527551174,0.007116695400327444,-0.00909903272986412,0.0027201841585338116,-0.00013157643843442202,0.005305884405970573
0.005684541072696447,0.00649808207526803,-0.009480821900069714,0.0028224200941622257,-0.00012945699563715607,0.005113400984555483
0.005482508800923824,0.006209476385265589,-0.009303590282797813,0.0027954624965786934,-0.00012688770948443562,0.005316884256899357
0.00563755352050066,0.006405322812497616,-0.008789464831352234,0.002794496016576886,-0.0001243848237209022,0.005499956198036671
0.005891457200050354,0.006268459837883711,-0.009612534195184708,0.0027962441090494394,-0.00013490562560036778,0.005245544482022524
0.006322040222585201,0.006481790449470282,-0.00984387006610632,0.00278232479467988,-0.00013646067236550152,0.0053695086389780045
0.006154133938252926,0.0068086786195635796,-0.008946092799305916,0.0031454451382160187,-0.00013418587332125753,0.005208626855164766
0.005843167658895254,0.0063077895902097225,-0.00903049111366272,0.003024598816409707,-0.0001317480782745406,0.005816416349261999
0.006143221631646156,0.00634766137227416,-0.009711173363029957,0.003278826829046011,-0.00012938166037201881,0.00565399369224906
0.005910852923989296,0.006713764276355505,-0.009575461968779564,0.0031154549214988947,-0.00012709781003650278,0.005419206339865923
0.006232532672584057,0.00686400942504406,-0.009347525425255299,0.002934603951871395,-0.00012489318032748997,0.005247850436717272
0.006556089501827955,0.006753696594387293,-0.00934444647282362,0.002815093845129013,-0.00012276360939722508,0.005263230763375759
0.006609810516238213,0.00636152783408761,-0.008908303454518318,0.0029071259777992964,-0.00012070551747456193,0.005803803447633982
0.006143496837466955,0.006534510757774115,-0.009401676245033741,0.003090417245402932,-0.00016418256564065814,0.005967497359961271
0.006556927692145109,0.006919229868799448,-0.009725913405418396,0.002996081719174981,-0.00016468523244839162,0.005952245090156794
0.006381033454090357,0.006461332552134991,-0.00942051038146019,0.0029154950752854347,-0.00015928108769003302,0.005811154376715422
0.006328820716589689,0.006416408345103264,-0.009245826862752438,0.0028709883335977793,-0.00015386201266665012,0.005444659385830164
0.006003942806273699,0.006584315560758114,-0.009639598429203033,0.0030537548009306192,-0.0001487762201577425,0.005684016738086939
0.00654172245413065,0.006777988281100988,-0.00942507479339838,0.003160830121487379,-0.00014401446969714016,0.005728220101445913
0.007021545898169279,0.006640403065830469,-0.00929185003042221,0.0035077291540801525,-0.00013954806490801275,0.00573357380926609
0.006390986032783985,0.006027223076671362,-0.009545056149363518,0.0032714649569243193,-0.00013535033212974668,0.0052259452641010284
0.006264849565923214,0.005958325695246458,-0.009086576290428638,0.003052589949220419,-0.0001313978136749938,0.005233461502939463
0.006154933944344521,0.0066385818645358086,-0.010084223002195358,0.002943487372249365,-0.0001425430818926543,0.006017658859491348
0.006558013614267111,0.006098638288676739,-0.009541189298033714,0.0028865679632872343,-0.00014455652853939682,0.0060052708722651005
0.006626524962484837,0.006377728655934334,-0.009126624092459679,0.0028187697753310204,-0.0001411584671586752,0.0057800691574811935
0.006632233504205942,0.006398812867701054,-0.009651903994381428,0.0031955046579241753,-0.0001375865685986355,0.005560643970966339
0.006632233504205942,0.006398812867701054,-0.009651903994381428,0.0031955046579241753,-0.0001375865685986355,0.005560643970966339
0.006335780024528503,0.007249260786920786,-0.009474391117691994,0.0032995862420648336,-0.00013416941510513425,0.00603832583874464
0.006660821847617626,0.006375777069479227,-0.009778622537851334,0.0032641722355037928,-0.00012781767873093486,0.006112287752330303
0.006660821847617626,0.006375777069479227,-0.009778622537851334,0.0032641722355037928,-0.00012781767873093486,0.006112287752330303
0.006623934023082256,0.006939663551747799,-0.009848790243268013,0.0033193465787917376,-0.00012486214109230787,0.006283357739448547
0.006298842374235392,0.006944497115910053,-0.009392629377543926,0.0032565551809966564,-0.00012204010272398591,0.006086936220526695
0.0062673091888427734,0.007389245554804802,-0.009495813399553299,0.003471903270110488,-0.00011934278882108629,0.005809939932078123
0.006827456410974264,0.006520644761621952,-0.009647308848798275,0.0032678507268428802,-0.0001167621958302334,0.005641432013362646
0.006657300516963005,0.006515802815556526,-0.00949415285140276,0.0030367278959602118,-0.00011429089499870315,0.00622751098126173
0.0071123396046459675,0.006893232464790344,-0.009718450717628002,0.002989279804751277,-0.00011192197416676208,0.006275201682001352
0.006485702469944954,0.007472442928701639,-0.009682932868599892,0.0030806614086031914,-0.00010964930697809905,0.005880324169993401
0.0066736796870827675,0.006985216401517391,-0.00931602530181408,0.0032770049292594194,-0.0001207553650601767,0.0061615267768502235
0.006739006377756596,0.006392601877450943,-0.00965347420424223,0.0032100172247737646,-0.00012262989184819162,0.006543259602040052
0.007119986228644848,0.006521984934806824,-0.010283508338034153,0.0029281408060342073,-0.00012055913248332217,0.006678713485598564
0.0068707638420164585,0.006816878914833069,-0.009263190440833569,0.002851921133697033,-0.00011831300798803568,0.006245908327400684
0.00662245973944664,0.006863217335194349,-0.010101470164954662,0.0029676533304154873,-0.00011613317474257201,0.006057755555957556
0.006836404092609882,0.006804729346185923,-0.01024844590574503,0.0033029329497367144,-0.00011403109965613112,0.005793119315057993
0.006830172147601843,0.006310442462563515,-0.009378233924508095,0.0032310020178556442,-0.00011200386506970972,0.006190897431224585
0.00690064812079072,0.006309612188488245,-0.009435150772333145,0.0033908835612237453,-0.00011004734551534057,0.006864976137876511
0.006918903440237045,0.006612546741962433,-0.009519262239336967,0.0036651822738349438,-0.00010815800487762317,0.006864848546683788
0.007315192371606827,0.006033469457179308,-0.010057898238301277,0.003371334867551923,-0.00010456763266120106,0.006276188418269157
0.007309343665838242,0.006070496514439583,-0.010198719799518585,0.0032823162619024515,-0.00010286030737916008,0.006650804076343775
0.007389881182461977,0.007121689151972532,-0.009619113989174366,0.0035003328230232,-0.00010120785736944526,0.006269813980907202
0.007471149321645498,0.00668783113360405,-0.01020908448845148,0.003559260396286845,-9.96077069430612e-05,0.00585268996655941
0.0072907134890556335,0.0063216546550393105,-0.010377357713878155,0.0034443559125065804,-9.805732406675816e-05,0.006154829170554876
0.007209439761936665,0.006231323350220919,-0.009762883186340332,0.003202388295903802,-0.0001067960329237394,0.00620484771206975
0.006747161038219929,0.006047324743121862,-0.010765097104012966,0.0034098306205123663,-0.00010845034557860345,0.006878958083689213
0.006747161038219929,0.006047324743121862,-0.010765097104012966,0.0034098306205123663,-0.00010845034557860345,0.006878958083689213
0.007221789564937353,0.00654219277203083,-0.009959574788808823,0.003260064171627164,-0.00010705100430641323,0.006965016480535269
0.007488073315471411,0.006469974294304848,-0.010471336543560028,0.0035178326070308685,-0.00010397388541605324,0.006251299753785133
0.007488073315471411,0.006469974294304848,-0.010471336543560028,0.0035178326070308685,-0.00010397388541605324,0.006251299753785133
0.007600410375744104,0.0060982899740338326,-0.01046371553093195,0.003582481760531664,-0.00010249381739413366,0.007061741314828396
0.007905714213848114,0.00635167770087719,-0.009778859093785286,0.0034866938367486,-0.000101055258710403,0.007067669183015823
0.007812062278389931,0.006666162051260471,-0.010282423347234726,0.0034620631486177444,-9.96564922388643e-05,0.007364840712398291
0.007610045839101076,0.006367835681885481,-0.009711354970932007,0.0036798000801354647,-9.829600458033383e-05,0.006900124251842499
0.007524453569203615,0.006103361025452614,-0.01023526955395937,0.0038412311114370823,-9.697212954051793e-05,0.0065994481556117535
0.007704569958150387,0.006136597599834204,-0.010250193066895008,0.0034512586425989866,-9.568345558363944e-05,0.006994524039328098
0.008195278234779835,0.0060172234661877155,-0.010493803769350052,0.003526911837980151,-9.442852751817554e-05,0.007185596041381359
0.007280622608959675,0.006535951513797045,-0.010410458780825138,0.004067547619342804,-9.32061520870775e-05,0.007111511658877134
0.007230467163026333,0.006655965931713581,-0.010327335447072983,0.004195052199065685,-9.201496868627146e-05,0.006864829920232296
0.008270679041743279,0.00658379914239049,-0.01003559771925211,0.0035883288364857435,-9.085392957786098e-05,0.007438176777213812
0.00804958026856184,0.005845862440764904,-0.009906976483762264,0.0035867802798748016,-8.974898082669824e-05,0.0068968175910413265
0.007738879416137934,0.006442875601351261,-0.010515205562114716,0.00409315200522542,-8.154201350407675e-05,0.006895334459841251
0.007482084911316633,0.006701714359223843,-0.009487316012382507,0.004146412946283817,-7.966848352225497e-05,0.006942192558199167
0.008087631314992905,0.005936977919191122,-0.010695677250623703,0.003998704254627228,-7.825497596058995e-05,0.007046569604426622
0.008470063097774982,0.005647503305226564,-0.01025369856506586,0.004155593458563089,-7.691552309552208e-05,0.007272798102349043
0.008183518424630165,0.0063219438306987286,-0.01032986305654049,0.0038589558098465204,-7.437292515533045e-05,0.0072804465889930725
0.008008050732314587,0.006876287050545216,-0.01113938819617033,0.003827461274340749,-7.316377741517499e-05,0.00761221582069993
0.008151941001415253,0.006250810343772173,-0.009630885906517506,0.004368423949927092,-7.199327228590846e-05,0.007762243039906025
0.007891848683357239,0.005997331812977791,-0.009941620752215385,0.004131936002522707,-7.08595835021697e-05,0.007494555786252022
0.007913162000477314,0.006631767842918634,-0.010294269770383835,0.003965307492762804,-6.976108852541074e-05,0.007024177350103855
0.007913162000477314,0.006631767842918634,-0.010294269770383835,0.003965307492762804,-6.976108852541074e-05,0.007024177350103855
0.00890314020216465,0.006899797823280096,-0.009919818490743637,0.003919992595911026,-6.869612116133794e-05,0.007419304456561804
0.008129711262881756,0.006385935936123133,-0.010904157534241676,0.004207390360534191,-6.7663197114598e-05,0.007655368652194738
0.007679067086428404,0.006285458337515593,-0.010228279046714306,0.004344675224274397,-6.666083936579525e-05,0.007546915672719479
0.00842201430350542,0.006354440003633499,-0.009741747751832008,0.004011948127299547,-7.79547990532592e-05,0.007526739500463009
0.008025532588362694,0.00614255852997303,-0.010174551047384739,0.003933060448616743,-7.763443136354908e-05,0.007598742377012968
0.008678028360009193,0.006532073020935059,-0.010899829678237438,0.0039523206651210785,-7.6585631177295e-05,0.007619261741638184
0.008210193365812302,0.0065657938830554485,-0.010147091001272202,0.003831638488918543,-7.55179935367778e-05,0.007455765735358
0.008605483919382095,0.006151708774268627,-0.010224616155028343,0.0041518062353134155,-7.447670941473916e-05,0.007443234324455261
0.008483078330755234,0.006146038882434368,-0.010684198699891567,0.004528824705630541,-7.34635250410065e-05,0.007625979837030172
0.008376802317798138,0.0066379765048623085,-0.011500481516122818,0.004287817515432835,-8.29808777780272e-05,0.0077217500656843185
0.008899776265025139,0.006609674543142319,-0.011343974620103836,0.004063641652464867,-8.333430014317855e-05,0.007542779669165611
0.009254035539925098,0.006486383266746998,-0.010216235183179379,0.003954902291297913,-8.233988774009049e-05,0.00803414173424244
0.008356955833733082,0.006210793275386095,-0.01083108689635992,0.0036554536782205105,-8.128376794047654e-05,0.00783588644117117
0.008982864208519459,0.006468119565397501,-0.01091143861413002,0.0038287427742034197,-8.024878479773179e-05,0.007630964275449514
0.009228217415511608,0.007141680922359228,-0.009564245119690895,0.004158814437687397,-7.923947123344988e-05,0.00786495953798294
0.009300963953137398,0.006265790667384863,-0.010202457197010517,0.004793348256498575,-8.376561163458973e-05,0.007641364820301533
0.00893110316246748,0.005952085368335247,-0.010755844414234161,0.004745509475469589,-8.796712063485757e-05,0.007991626858711243
0.00964684970676899,0.006567070260643959,-0.011020788922905922,0.004450533539056778,-8.724239160073921e-05,0.008261652663350105
0.009089075960218906,0.006939874961972237,-0.01117505133152008,0.004451111890375614,-8.621998131275177e-05,0.008384120650589466
0.009360222145915031,0.0064953104592859745,-0.010219696909189224,0.004578477703034878,-8.520117262378335e-05,0.007942037656903267
0.008934187702834606,0.0064265974797308445,-0.010124819353222847,0.005067489109933376,-8.323144720634446e-05,0.007891776040196419
0.008934187702834606,0.0064265974797308445,-0.010124819353222847,0.005067489109933376,-8.323144720634446e-05,0.007891776040196419
0.009836232289671898,0.006578672211617231,-0.011094874702394009,0.004709727596491575,-0.00012960318417754024,0.007820948958396912
0.009531338699162006,0.006949706934392452,-0.011034573428332806,0.004247730132192373,-0.00012912176316604018,0.00821405928581953
0.008881564252078533,0.006438974756747484,-0.011144107207655907,0.004280276596546173,-0.0001257255207747221,0.008107170462608337
0.008881564252078533,0.006438974756747484,-0.011144107207655907,0.004280276596546173,-0.0001257255207747221,0.008107170462608337
0.009481893852353096,0.00620567612349987,-0.010727574117481709,0.004351986572146416,-0.00012232149310875684,0.00783258955925703
0.009719526395201683,0.006811689585447311,-0.010165450163185596,0.005098144523799419,-0.00013911360292695463,0.008611511439085007
0.009719526395201683,0.006811689585447311,-0.010165450163185596,0.005098144523799419,-0.00013911360292695463,0.008611511439085007
0.009627900086343288,0.006786609534174204,-0.010566344484686852,0.004862240049988031,-0.00013571181625593454,0.008074792101979256
0.009543966501951218,0.006305968388915062,-0.01039007306098938,0.004550399724394083,-0.0001323906471952796,0.00814038049429655
0.00929307471960783,0.0062101432122290134,-0.010415986180305481,0.004656869452446699,-0.00012922279711347073,0.008303550072014332
0.009627064689993858,0.00622662715613842,-0.011024736799299717,0.004635840188711882,-0.00014447083231061697,0.00801276694983244
0.009687773883342743,0.006275692954659462,-0.010337569750845432,0.004424039740115404,-0.00014369311975315213,0.008124120533466339
0.009296351112425327,0.006132655311375856,-0.01070393342524767,0.004603903274983168,-0.00014064955757930875,0.00818822905421257
0.009811008349061012,0.006587187759578228,-0.010696761310100555,0.004752422217279673,-0.00013758854765910655,0.008393296040594578
0.010306847281754017,0.005945469252765179,-0.010965809226036072,0.005155016668140888,-0.00013464843505062163,0.008767563849687576
0.010228985920548439,0.006133395247161388,-0.010618495754897594,0.004954341799020767,-0.00014819229545537382,0.008286723867058754
0.010031488724052906,0.0066472915932536125,-0.010490351356565952,0.005034235306084156,-0.00014741430641151965,0.00869907159358263
0.009643779136240482,0.005816007498651743,-0.010161850601434708,0.004602380096912384,-0.0001446009991923347,0.008456374518573284
0.010035824030637741,0.00588021706789732,-0.011308214627206326,0.004525475669652224,-0.00019409875676501542,0.008917747996747494
0.010073625482618809,0.006444827187806368,-0.010618677362799644,0.00559212826192379,-0.00023332927958108485,0.008719069883227348
0.01003058161586523,0.006467181723564863,-0.010169673711061478,0.00565288495272398,-0.00022489116236101836,0.008631409145891666
0.009865724481642246,0.006487754173576832,-0.010601211339235306,0.005424382630735636,-0.00021438507246784866,0.008552828803658485
0.010577083565294743,0.006584716495126486,-0.010161911137402058,0.005117811728268862,-0.00022464583162218332,0.008857260458171368
0.01059911958873272,0.0062122768722474575,-0.010797757655382156,0.004821633920073509,-0.0002335255703656003,0.009126666001975536
0.009807797148823738,0.006062581203877926,-0.01113882940262556,0.0048697530291974545,-0.00022500910563394427,0.008886560797691345
0.010507079772651196,0.006582054775208235,-0.01085261907428503,0.005084909964352846,-0.00023337869788520038,0.009281567297875881
0.011709416285157204,0.005955881904810667,-0.010780351236462593,0.0047675264067947865,-0.00023283035261556506,0.009505334310233593
0.010062891989946365,0.005668743047863245,-0.010021084919571877,0.004761143587529659,-0.0002250403631478548,0.008896206505596638
0.00988429132848978,0.0056846714578568935,-0.010494695045053959,0.004878408741205931,-0.00021731130254920572,0.009175900369882584
0.010510229505598545,0.00631105899810791,-0.009922332130372524,0.005571403075009584,-0.00023227730707731098,0.009394336491823196
0.01066893432289362,0.006148017477244139,-0.010602041147649288,0.0055123791098594666,-0.00023181943106465042,0.009536593221127987
0.009788070805370808,0.005528382956981659,-0.010412201285362244,0.005204840563237667,-0.0002250320976600051,0.009523381479084492
0.010353979654610157,0.005715962033718824,-0.010085704736411572,0.0048231882974505424,-0.00021871234639547765,0.009368587285280228
0.010353979654610157,0.005715962033718824,-0.010085704736411572,0.0048231882974505424,-0.00021871234639547765,0.009368587285280228
0.010525580495595932,0.0057755568996071815,-0.010287901386618614,0.004719079006463289,-0.0002723846409935504,0.009313116781413555
0.01091514527797699,0.006371557246893644,-0.010438318364322186,0.0048089162446558475,-0.00028641248354688287,0.009361011907458305
0.011483312584459782,0.0062514482997357845,-0.010315225459635258,0.00563493836671114,-0.00029456490301527083,0.009255160577595234
0.010584531351923943,0.005909068044275045,-0.010000268928706646,0.0055348859168589115,-0.0002807995188049972,0.009503776207566261
0.010016363114118576,0.006034123245626688,-0.010035833343863487,0.0052766562439501286,-0.0002670120738912374,0.00975921843200922
0.010527392849326134,0.006438310723751783,-0.010114884935319424,0.005040332674980164,-0.00025443415506742895,0.009803508408367634
0.010229131206870079,0.006471238099038601,-0.011171460151672363,0.005234460812062025,-0.0002807110140565783,0.009522119536995888
0.010294663719832897,0.005886713042855263,-0.011276275850832462,0.005457564257085323,-0.0002710897824726999,0.009856291115283966
0.011280209757387638,0.004752494860440493,-0.010821285657584667,0.005393770523369312,-0.0002600578300189227,0.009374547749757767
0.01115594245493412,0.004531616810709238,-0.011666637845337391,0.005356793291866779,-0.0002672173723112792,0.009521727450191975
0.01039227843284607,0.004946019500494003,-0.010656545870006084,0.005380652844905853,-0.0002733615110628307,0.00959098618477583
0.010833410546183586,0.005565156228840351,-0.010494531132280827,0.0050866249948740005,-0.0002643870539031923,0.009719629772007465
0.010555580258369446,0.005617951974272728,-0.011297355405986309,0.005320931319147348,-0.00025508817634545267,0.009765717200934887
0.010706363245844841,0.005036208778619766,-0.010539336130023003,0.005604127887636423,-0.0003126678057014942,0.010640050284564495
0.010864024981856346,0.005624000448733568,-0.011784296482801437,0.0058462247252464294,-0.00030167720979079604,0.010454853996634483
0.01052799541503191,0.00540259201079607,-0.011970456689596176,0.005271713249385357,-0.0002833274775184691,0.01010175421833992
0.010651561431586742,0.0049767629243433475,-0.011418991722166538,0.005280505865812302,-0.00026657694252207875,0.010021522641181946
0.010608196258544922,0.005301260855048895,-0.011359598487615585,0.005238204728811979,-0.00025166483828797936,0.010198721662163734
0.010333403944969177,0.005317692179232836,-0.010907460935413837,0.006246034521609545,-0.00023833104933146387,0.009967481717467308
0.010305086150765419,0.005189868621528149,-0.010977225378155708,0.006069406401365995,-0.0002154972025891766,0.009813287295401096
0.01112424861639738,0.004986098501831293,-0.01083142776042223,0.005674145184457302,-0.00020564644364640117,0.009510179981589317
0.0112555380910635,0.005750573705881834,-0.012054859660565853,0.0052508339285850525,-0.00019665731815621257,0.009584941901266575
0.010910997167229652,0.005470545496791601,-0.011781000532209873,0.005486525595188141,-0.00021626918169204146,0.009822412393987179
0.011097123846411705,0.005325054284185171,-0.011999804526567459,0.00627537164837122,-0.0002163741592084989,0.010509436950087547
0.010931869968771935,0.00515826977789402,-0.011890090070664883,0.006677031982690096,-0.00020858863717876375,0.010365649126470089
0.010754838585853577,0.004978910554200411,-0.01139332540333271,0.005870318505913019,-0.00020086577569600195,0.010701017454266548
0.010884416289627552,0.0053289891220629215,-0.011991184204816818,0.0055789463222026825,-0.00019366349442861974,0.010201830416917801
0.010884416289627552,0.0053289891220629215,-0.011991184204816818,0.0055789463222026825,-0.00019366349442861974,0.010201830416917801
0.010814841836690903,0.0051451814360916615,-0.012035707011818886,0.00547920074313879,-0.0001869576080935076,0.010381238535046577
0.011104211211204529,0.005019966512918472,-0.01212384458631277,0.006403462495654821,-0.00017484882846474648,0.010575025342404842
0.011104211211204529,0.005019966512918472,-0.01212384458631277,0.006403462495654821,-0.00017484882846474648,0.010575025342404842
0.010860823094844818,0.004950829781591892,-0.011559080332517624,0.005919851828366518,-0.00016936453175731003,0.010160565376281738
0.011037441901862621,0.005740138702094555,-0.012025527656078339,0.005735496990382671,-0.0001642133283894509,0.009944195859134197
0.011250168085098267,0.005397573579102755,-0.011542058549821377,0.005983253940939903,-0.0001593665947439149,0.010043170303106308
0.011169911362230778,0.005354776047170162,-0.011621451936662197,0.006110525224357843,-0.0001547978026792407,0.01054600439965725
0.011861898005008698,0.00536310812458396,-0.012027360498905182,0.00636069243773818,-0.00016906473319977522,0.011079278774559498
0.010976075194776058,0.005168568342924118,-0.011932292021811008,0.0063393451273441315,-0.00017037968791555613,0.009783320128917694
0.011300784535706043,0.005313336383551359,-0.012512752786278725,0.0056392475962638855,-0.00016626752039883286,0.01045321486890316
0.011688117869198322,0.0054457844235002995,-0.011973302811384201,0.005902583245187998,-0.0001620166440261528,0.010505017824470997
0.011153897270560265,0.005567783955484629,-0.012347948737442493,0.0063508665189146996,-0.00015795569925103337,0.010479375720024109
0.012556864880025387,0.005154154729098082,-0.011913860216736794,0.006527723278850317,-0.00015409220941364765,0.010495884343981743
0.01338129211217165,0.005193154327571392,-0.011574341915547848,0.006362557411193848,-0.00016097267507575452,0.010746690444648266
0.013825077563524246,0.005564915016293526,-0.011952273547649384,0.005933825392276049,-0.00016717848484404385,0.01112798135727644
0.013069184496998787,0.00563679076731205,-0.011465592309832573,0.006250027567148209,-0.0001640195696381852,0.011221763677895069
0.013174792751669884,0.006317408289760351,-0.012702599167823792,0.006367658730596304,-0.0001569143933011219,0.011433785781264305
0.013456098735332489,0.005724709946662188,-0.01236376166343689,0.00617595948278904,-0.00013649609172716737,0.011200045235455036
0.013506915420293808,0.005885033402591944,-0.012213468551635742,0.006315006874501705,-0.00013030630361754447,0.011172865517437458
0.01354521606117487,0.005490180104970932,-0.012248784303665161,0.006611454766243696,-0.00013891496928408742,0.011061295866966248
0.01364621426910162,0.005763685330748558,-0.011925206519663334,0.006438605487346649,-0.00014679341984447092,0.010807882063090801
0.01364621426910162,0.005763685330748558,-0.011925206519663334,0.006438605487346649,-0.00014679341984447092,0.010807882063090801
0.013531173579394817,0.005888633895665407,-0.011624827980995178,0.006228237878531218,-0.00014364960952661932,0.01099149789661169
0.014095481485128403,0.005529867485165596,-0.012432482093572617,0.006116670090705156,-0.00013997558562550694,0.010521819815039635
0.013991436921060085,0.004964218474924564,-0.012086722068488598,0.005946995224803686,-0.0001576587528688833,0.010585855692625046
0.014172629453241825,0.005761501379311085,-0.01168993953615427,0.006552430801093578,-0.00015515969425905496,0.010993560776114464
0.013759899884462357,0.005455776117742062,-0.01190862711519003,0.006887758616358042,-0.0001515183103037998,0.011042265221476555
0.0138108404353261,0.006063641980290413,-0.010974136181175709,0.0066968840546905994,-0.00014796537288930267,0.011093021370470524
0.01323274802416563,0.005915340967476368,-0.011666773818433285,0.006201635580509901,-0.00016384288028348237,0.011432373896241188
0.013688835315406322,0.005717787425965071,-0.011295530013740063,0.00611076271161437,-0.00016142637468874454,0.01175303477793932
0.013490372337400913,0.005238051060587168,-0.011388101615011692,0.0064165592193603516,-0.0001579666422912851,0.011500252410769463
0.014053506776690483,0.005861520301550627,-0.01221112534403801,0.0063076987862586975,-0.000283198052784428,0.011155685409903526
0.013601311482489109,0.005980838090181351,-0.01210901327431202,0.0063999430276453495,-0.0003051749081350863,0.01122022420167923
0.013838139362633228,0.006371875759214163,-0.012282605282962322,0.0064024110324680805,-0.0003163673682138324,0.011603486724197865
0.013550423085689545,0.006184414029121399,-0.011937377043068409,0.006353315897285938,-0.000323400687193498,0.011126216500997543
0.013752097263932228,0.0054853917099535465,-0.011719672940671444,0.006778511684387922,-0.0003067255893256515,0.011616716161370277
0.013678801245987415,0.00572150107473135,-0.01175247598439455,0.006711529102176428,-0.00033221609191969037,0.012206817977130413
0.013904239051043987,0.005884755868464708,-0.011359818279743195,0.0068421256728470325,-0.0003210228751413524,0.011638812720775604
0.013664511032402515,0.006417261436581612,-0.012063172645866871,0.006866414565593004,-0.00030581140890717506,0.011280935257673264
0.013729440979659557,0.006033645942807198,-0.012115967459976673,0.007522366940975189,-0.0003304883139207959,0.0112793929874897
0.014193234965205193,0.005632625427097082,-0.012236161157488823,0.007055577822029591,-0.0003184027154929936,0.011325416155159473
0.013851619325578213,0.0061095887795090675,-0.011991951614618301,0.007083183620125055,-0.000394979928387329,0.011676179245114326
0.013366837054491043,0.006164526101201773,-0.011466150172054768,0.007070043124258518,-0.0003909330698661506,0.011539093218743801
0.014209374785423279,0.005871901288628578,-0.011940802447497845,0.0071466160006821156,-0.00039922018186189234,0.011642876081168652
0.014049968682229519,0.005586050916463137,-0.012411493808031082,0.0072182645089924335,-0.0003736796206794679,0.01203550398349762
0.014711318537592888,0.00606755493208766,-0.011891262605786324,0.007009115070104599,-0.0003999675973318517,0.012568478472530842
0.014056987129151821,0.00662623718380928,-0.011961715295910835,0.0072914171032607555,-0.00038255724939517677,0.012535224668681622
0.014056987129151821,0.00662623718380928,-0.011961715295910835,0.0072914171032607555,-0.00038255724939517677,0.012535224668681622
0.013940059579908848,0.006366375833749771,-0.012452802620828152,0.00709637301042676,-0.0003990877012256533,0.012491988949477673
0.013769207522273064,0.006188792642205954,-0.011729574762284756,0.007138334680348635,-0.0003894240071531385,0.01213084440678358
0.014355000108480453,0.005369517952203751,-0.012046813033521175,0.007316757924854755,-0.00037245149724185467,0.013809366151690483
0.013727094978094101,0.005431047640740871,-0.012166852131485939,0.007685413584113121,-0.0004317604179959744,0.012130113318562508
0.013990363106131554,0.0058024367317557335,-0.01172245480120182,0.0077094039879739285,-0.0003996371233370155,0.011689228937029839
0.013660060241818428,0.006260898429900408,-0.011777075007557869,0.007551777642220259,-0.0004029430856462568,0.011978784576058388
0.01391314622014761,0.006042915396392345,-0.011199655011296272,0.007876191288232803,-0.00040511591942049563,0.012181555852293968
0.01380354817956686,0.005782656371593475,-0.012257433496415615,0.00788033101707697,-0.0003788067842833698,0.012624728493392467
0.014117380604147911,0.006109711714088917,-0.01227529440075159,0.007598267402499914,-0.00039751463918946683,0.01261630468070507
0.014027153141796589,0.00563038419932127,-0.012597852386534214,0.00740846199914813,-0.0003866642655339092,0.012833789922297001
0.014996165409684181,0.006181007716804743,-0.01193770207464695,0.0074509489350020885,-0.0003651318547781557,0.012801116332411766
0.013891728594899178,0.0062240054830908775,-0.011832515709102154,0.007661905605345964,-0.00036921026185154915,0.012775185517966747
0.014173177070915699,0.006107587832957506,-0.011965729296207428,0.007663024589419365,-0.0003723420959431678,0.012741128914058208
0.013960289768874645,0.005995145067572594,-0.01223999448120594,0.007519785780459642,-0.00035541242687031627,0.012606153264641762
0.014369546435773373,0.006180339492857456,-0.012265845201909542,0.006889203563332558,-0.00033877947134897113,0.012742653489112854
0.013956170529127121,0.006235609762370586,-0.011946978978812695,0.007048692554235458,-0.0003235568292438984,0.012398893013596535
0.014579785987734795,0.006129467859864235,-0.012723993510007858,0.007484564557671547,-0.0003096395521424711,0.012716059572994709
0.014022664166986942,0.006300800479948521,-0.012375786900520325,0.0074787442572414875,-0.0002968700719065964,0.012614382430911064
0.014721497893333435,0.005942631047219038,-0.012167585082352161,0.007815382443368435,-0.00028157042106613517,0.013119672425091267
0.01440324168652296,0.006239551585167646,-0.012320258654654026,0.007912300527095795,-0.00026501857792027295,0.012860283255577087
0.014832673594355583,0.006680138409137726,-0.011934084817767143,0.007652573753148317,-0.000250275363214314,0.012780675664544106
0.014370887540280819,0.00595305860042572,-0.012750877998769283,0.007444467395544052,-0.00023708479420747608,0.012545421719551086
0.014753674156963825,0.005814367439597845,-0.012615883722901344,0.007775120437145233,-0.0002584519679658115,0.012878174893558025
0.014541061595082283,0.005775109864771366,-0.012955908663570881,0.008214029483497143,-0.00025660183746367693,0.012835136614739895
0.014261285774409771,0.006318988744169474,-0.012033733539283276,0.008137458935379982,-0.0002349660499021411,0.012967695482075214
0.01454943511635065,0.005996228661388159,-0.012940054759383202,0.007855734787881374,-0.00022516882745549083,0.012910911813378334
0.014206163585186005,0.005325504578649998,-0.012670218013226986,0.008143975399434566,-0.0002497292007319629,0.01337509136646986
0.014206163585186005,0.005325504578649998,-0.012670218013226986,0.008143975399434566,-0.0002497292007319629,0.01337509136646986
0.014897811226546764,0.004947728011757135,-0.01289899367839098,0.0077009559608995914,-0.00024231246788986027,0.013184847310185432
0.014427391812205315,0.004940476268529892,-0.012502454221248627,0.00781523808836937,-0.0002334742748644203,0.01308064442127943
0.015007772482931614,0.005900116171687841,-0.01288248598575592,0.007904520258307457,-0.00022513869043905288,0.01308425609022379
0.014752973802387714,0.0053798239678144455,-0.012879871763288975,0.008614645339548588,-0.0002173699758714065,0.013285497203469276
0.014896683394908905,0.005190605763345957,-0.012084710411727428,0.007891029119491577,-0.0002381084195803851,0.013163619674742222
0.014615880325436592,0.004972394090145826,-0.013672021217644215,0.007954024709761143,-0.0002322523359907791,0.013418412767350674
0.014887958765029907,0.005120866000652313,-0.012916740961372852,0.007987803779542446,-0.00022510974667966366,0.013644442893564701
0.014896437525749207,0.005464574322104454,-0.012815158814191818,0.008065369911491871,-0.00021829210163559765,0.013265774585306644
0.015352225862443447,0.00533514516428113,-0.012780978344380856,0.008030850440263748,-0.0002118683187291026,0.013382568955421448
0.01473424956202507,0.005262233782559633,-0.013699265196919441,0.008255451917648315,-0.00022486479429062456,0.013398189097642899
0.015077647753059864,0.00510625634342432,-0.012642070651054382,0.008558600209653378,-0.00021702039521187544,0.013411805033683777
0.01485408190637827,0.005755031947046518,-0.013454822823405266,0.008055589161813259,-0.0002072207280434668,0.012905376963317394
0.015081199817359447,0.00530335633084178,-0.01321354229003191,0.007593916263431311,-0.0001981085370061919,0.013231620192527771
0.015099423937499523,0.005087674129754305,-0.012978103943169117,0.0076628862880170345,-0.0002251175174023956,0.013616875745356083
0.015022859908640385,0.005120877642184496,-0.01304488442838192,0.007817820645868778,-0.00021832068159710616,0.0130862882360816
0.015324264764785767,0.004836725071072578,-0.012857581488788128,0.007639540359377861,-0.0002099804551107809,0.013240192085504532
0.015241997316479683,0.004698510747402906,-0.01334615983068943,0.00765974959358573,-0.0002270444529131055,0.013616920448839664
0.015300349332392216,0.004983943421393633,-0.0128026669844985,0.007644509430974722,-0.000226735181058757,0.013232479803264141
0.015471033751964569,0.0049150194972753525,-0.013089865446090698,0.008081737905740738,-0.0002485747972968966,0.013295239768922329
0.015927718952298164,0.005303284153342247,-0.012917284853756428,0.008311105892062187,-0.00024215324083343148,0.013940584845840931
0.015729635953903198,0.0049646589905023575,-0.013267028145492077,0.00793411023914814,-0.00023439583310391754,0.013807849027216434
0.016217250376939774,0.004700229503214359,-0.012958722189068794,0.008143465965986252,-0.0003191799914930016,0.014205316081643105
0.016130434349179268,0.005131423007696867,-0.012899243272840977,0.008037957362830639,-0.0003059017763007432,0.013569265604019165
0.016130434349179268,0.005131423007696867,-0.012899243272840977,0.008037957362830639,-0.0003059017763007432,0.013569265604019165
0.015903417021036148,0.004980206023901701,-0.013465979136526585,0.008862191811203957,-0.00031952327117323875,0.013904964551329613
0.016440685838460922,0.0051390640437603,-0.012981987558305264,0.008692283183336258,-0.0003047546779271215,0.013611781410872936
0.016386697068810463,0.0048864660784602165,-0.013342348858714104,0.007956083863973618,-0.00028867152286693454,0.013815841637551785
0.016386697068810463,0.0048864660784602165,-0.013342348858714104,0.007956083863973618,-0.00028867152286693454,0.013815841637551785
0.016684284433722496,0.0046592396683990955,-0.012961646541953087,0.007580135017633438,-0.00031356909312307835,0.013585572130978107
0.0166988056153059,0.005168672651052475,-0.012651165947318077,0.008354772813618183,-0.00029021213413216174,0.014101888984441757
0.016294093802571297,0.005065652541816235,-0.013490220531821251,0.008062520995736122,-0.00031437946017831564,0.014819358475506306
0.016294093802571297,0.005065652541816235,-0.013490220531821251,0.008062520995736122,-0.00031437946017831564,0.014819358475506306
0.01614031381905079,0.0049783228896558285,-0.012832584790885448,0.008435599505901337,-0.00030353295733220875,0.014523101039230824
0.01632058061659336,0.004846931900829077,-0.012666959315538406,0.00823549460619688,-0.0003259718941990286,0.014116194099187851
0.01632058061659336,0.004846931900829077,-0.012666959315538406,0.00823549460619688,-0.0003259718941990286,0.014116194099187851
0.016846664249897003,0.004987718537449837,-0.013345827348530293,0.008160660043358803,-0.00031073170248419046,0.014293953776359558
0.016766328364610672,0.004823422525078058,-0.013329758308827877,0.00880573969334364,-0.00034141805372200906,0.013877972960472107
0.01650455966591835,0.0048347460106015205,-0.013126213103532791,0.008534683845937252,-0.00032760188332758844,0.014088066294789314
0.016648216173052788,0.00504059623926878,-0.013275577686727047,0.008058867417275906,-0.00033439259277656674,0.014135723933577538
0.017084771767258644,0.004816632252186537,-0.012852584011852741,0.008763459511101246,-0.0003395818348508328,0.014555997215211391
0.01700557954609394,0.004759192932397127,-0.013289866968989372,0.008823572658002377,-0.00032365048537030816,0.014734708704054356
0.016852661967277527,0.004635482095181942,-0.01290223840624094,0.008269641548395157,-0.0003079258312936872,0.014526022598147392
0.017254412174224854,0.004606018308550119,-0.01360915694385767,0.008559055626392365,-0.00029357950552366674,0.014183764345943928
0.016624826937913895,0.00523676723241806,-0.013110188767313957,0.009137474931776524,-0.00028050498804077506,0.01460857130587101
0.017035499215126038,0.005019755568355322,-0.013538235798478127,0.008410802111029625,-0.0002873044286388904,0.014542976394295692
0.01694645546376705,0.004769671242684126,-0.013176210224628448,0.008564924821257591,-0.0002930789196398109,0.0144707215949893
0.016724200919270515,0.0048243198543787,-0.01329454779624939,0.009222324937582016,-0.0002827114367391914,0.01428477093577385
0.01687704026699066,0.004766965284943581,-0.01334682572633028,0.008818565867841244,-0.0002721000637393445,0.014597008004784584
0.017355961725115776,0.004835563711822033,-0.0129786292091012,0.008531888015568256,-0.0002621943422127515,0.014588621445000172
0.017530152574181557,0.005622411146759987,-0.01336593460291624,0.00881759449839592,-0.00025298079708591104,0.015390818938612938
0.017340872436761856,0.004803793039172888,-0.013593395240604877,0.00851504597812891,-0.000255810737144202,0.014093682169914246
0.017340872436761856,0.004803793039172888,-0.013593395240604877,0.00851504597812891,-0.000255810737144202,0.014093682169914246
0.017134100198745728,0.0047342972829937935,-0.01349195558577776,0.00875711441040039,-0.000252943835221231,0.01490760687738657
0.017496002838015556,0.004847327247262001,-0.013190004043281078,0.00856003537774086,-0.0002615339762996882,0.01463779341429472
0.017461199313402176,0.005599649623036385,-0.013413450680673122,0.008445375598967075,-0.00027117313584312797,0.015014282427728176
0.017455322667956352,0.0052804769948124886,-0.012850504368543625,0.008584595285356045,-0.0002782614901661873,0.014737578108906746
0.018116924911737442,0.0046950895339250565,-0.013863051310181618,0.00935067143291235,-0.0002676833246368915,0.014804690144956112
0.018030494451522827,0.004590130411088467,-0.013422942720353603,0.00926205888390541,-0.00028397084679454565,0.014589915052056313
0.018030494451522827,0.004590130411088467,-0.013422942720353603,0.00926205888390541,-0.00028397084679454565,0.014589915052056313
0.017779411748051643,0.004758902825415134,-0.013665293343365192,0.009770562872290611,-0.0002814219333231449,0.014881896786391735
0.017908602952957153,0.00551387807354331,-0.013390252366662025,0.00929397065192461,-0.00039828813169151545,0.014768855646252632
0.017908602952957153,0.00551387807354331,-0.013390252366662025,0.00929397065192461,-0.00039828813169151545,0.014768855646252632
0.018346458673477173,0.004763423930853605,-0.013288766145706177,0.009534853510558605,-0.000406205072067678,0.015089252032339573
0.018346458673477173,0.004763423930853605,-0.013288766145706177,0.009534853510558605,-0.000406205072067678,0.015089252032339573
0.017949238419532776,0.005142394453287125,-0.013462238013744354,0.009536671452224255,-0.00042631145333871245,0.014775067567825317
0.018269838765263557,0.005128294695168734,-0.0129097206518054,0.009585544466972351,-0.0004129884182475507,0.015199599787592888
0.018209334462881088,0.005244098138064146,-0.0136982761323452,0.009426833130419254,-0.0003884692268911749,0.015124524012207985
0.01825382187962532,0.0051194136030972,-0.013121766969561577,0.009161368012428284,-0.00041461168439127505,0.015522642992436886
0.0186680406332016,0.005269347224384546,-0.013623803853988647,0.008874955587089062,-0.00039669001125730574,0.015608076937496662
0.01825881004333496,0.0052576432935893536,-0.013132818974554539,0.009602323174476624,-0.0004767166101373732,0.016082579270005226
0.01851017214357853,0.005075233522802591,-0.01405123807489872,0.00914442166686058,-0.0004382783663459122,0.016258591786026955
0.01868150196969509,0.0053558349609375,-0.013546467758715153,0.008909609168767929,-0.0004687208856921643,0.01592755876481533
0.0181503277271986,0.00513610290363431,-0.014080166816711426,0.009090312756597996,-0.00047544529661536217,0.015748873353004456
0.018679676577448845,0.0058768317103385925,-0.01338450238108635,0.009235418401658535,-0.00047274029930122197,0.015580963343381882
0.01887267455458641,0.005413430742919445,-0.014036129228770733,0.008856787346303463,-0.00047237734543159604,0.01576145365834236
0.018479835242033005,0.005035500042140484,-0.014155130833387375,0.008918196894228458,-0.00046977566671557724,0.015663206577301025
0.018655186519026756,0.005196315236389637,-0.014055038802325726,0.00925301481038332,-0.0005494438810274005,0.015862569212913513
0.01885090209543705,0.005321377422660589,-0.014035261236131191,0.009256555698812008,-0.0005536960670724511,0.016048407182097435
0.019108403474092484,0.005574560258537531,-0.014172926545143127,0.009629031643271446,-0.0005724659422412515,0.01622527278959751
0.01856360398232937,0.005686539225280285,-0.014487848617136478,0.00952912401407957,-0.0005295116570778191,0.015862923115491867
0.018525952473282814,0.005239400081336498,-0.014526127837598324,0.010335339233279228,-0.0005489831673912704,0.01618318073451519
0.018969954922795296,0.005841268226504326,-0.01483613345772028,0.009855667129158974,-0.0005177160492166877,0.016146736219525337
0.019784916192293167,0.005433089565485716,-0.014360161498188972,0.009983778931200504,-0.0005589515785686672,0.016322487965226173
0.01894591748714447,0.005556517280638218,-0.014752935618162155,0.009942757897078991,-0.0005208911607041955,0.017740527167916298
0.01894591748714447,0.005556517280638218,-0.014752935618162155,0.009942757897078991,-0.0005208911607041955,0.017740527167916298
0.01961161382496357,0.005706767085939646,-0.014519874006509781,0.009549739770591259,-0.0004683524603024125,0.015884384512901306
0.018989069387316704,0.005206275265663862,-0.014698156155645847,0.009199568070471287,-0.00048634118866175413,0.01562773622572422
0.016815699636936188,0.005684276577085257,-0.014838248491287231,0.009542508982121944,-0.0004637121455743909,0.01614217646420002
0.01959197036921978,0.005474152974784374,-0.01483045145869255,0.00988927111029625,-0.0004281704896129668,0.016410687938332558
0.020108843222260475,0.005354485474526882,-0.014880369417369366,0.009669717401266098,-0.0004288344644010067,0.016488824039697647
0.019060131162405014,0.005567491520196199,-0.014720125123858452,0.010336625389754772,-0.0004289732896722853,0.016888029873371124
0.01899372786283493,0.005432608537375927,-0.014395907521247864,0.010059697553515434,-0.00044584437273442745,0.016762064769864082
0.019323129206895828,0.005409772973507643,-0.014908219687640667,0.009900183416903019,-0.00043242870015092194,0.016741454601287842
0.019442670047283173,0.005586328916251659,-0.01489886175841093,0.010104113258421421,-0.000424769998062402,0.016617801040410995
0.019878240302205086,0.005239542108029127,-0.015336419455707073,0.010577295906841755,-0.00039162125904113054,0.0168574508279562
0.019812310114502907,0.005810361821204424,-0.01437472552061081,0.010011703707277775,-0.00042265994125045836,0.016314754262566566
0.019648995250463486,0.005630009341984987,-0.01525820791721344,0.010558251291513443,-0.0003998328174930066,0.01585499383509159
0.01980283483862877,0.005599840544164181,-0.014959665015339851,0.010897873900830746,-0.00042643980123102665,0.016622621566057205
0.01943114772439003,0.005308832041919231,-0.015357560478150845,0.010510078631341457,-0.00043453872785903513,0.01657208614051342
0.019130010157823563,0.005451143253594637,-0.014235993847250938,0.010756839998066425,-0.0004347569774836302,0.016901148483157158
0.01975874789059162,0.0057030632160604,-0.014996819198131561,0.010496210306882858,-0.0005431082099676132,0.017247233539819717
0.02023288607597351,0.005460659042000771,-0.014653372578322887,0.009995969943702221,-0.0005245493375696242,0.016527637839317322
0.019669940695166588,0.0055477069690823555,-0.01526478212326765,0.01001100242137909,-0.0005177977727726102,0.016607506200671196
0.02024362049996853,0.004956996068358421,-0.015489965677261353,0.009795814752578735,-0.0004683542065322399,0.017095321789383888
0.020076721906661987,0.0053330049850046635,-0.015241285786032677,0.010498672723770142,-0.0004838308959733695,0.017114710062742233
0.020076721906661987,0.0053330049850046635,-0.015241285786032677,0.010498672723770142,-0.0004838308959733695,0.017114710062742233
0.019832825288176537,0.005311462562531233,-0.015639111399650574,0.01016408484429121,-0.0004645061562769115,0.01701849140226841
0.02030281536281109,0.005325586535036564,-0.015135602094233036,0.010811296291649342,-0.00048710202099755406,0.01681511662900448
0.02024250663816929,0.00452033057808876,-0.015291275456547737,0.010743716731667519,-0.0004631293413694948,0.016472304239869118
0.019916977733373642,0.004509604535996914,-0.015293780714273453,0.009974092245101929,-0.0004685337480623275,0.01671173982322216
0.02016940899193287,0.004660968203097582,-0.015145067125558853,0.010659968480467796,-0.00047809729585424066,0.016697747632861137
0.02054740861058235,0.00507417693734169,-0.01554183941334486,0.01015926618129015,-0.00047491060104221106,0.01679074391722679
0.02086479775607586,0.00498566497117281,-0.015329285524785519,0.009754261001944542,-0.0004925175453536212,0.0174380075186491
0.02068593166768551,0.0048748282715678215,-0.015092272311449051,0.010382949374616146,-0.00047238016850315034,0.017634427174925804
0.020923059433698654,0.004441536962985992,-0.014747241511940956,0.010550460778176785,-0.0004709819913841784,0.017695583403110504
0.0208810456097126,0.004458129405975342,-0.015755023807287216,0.01111191138625145,-0.00046840982395224273,0.017049739137291908
0.02060292474925518,0.0046335007064044476,-0.015215212479233742,0.01102287508547306,-0.00044151238398626447,0.017239633947610855
0.020993167534470558,0.004618879407644272,-0.015430369414389133,0.0107686473056674,-0.0004727467894554138,0.017340470105409622
0.020877031609416008,0.005135992541909218,-0.015257582999765873,0.010751155205070972,-0.0004767568316310644,0.017346976324915886
0.02102993056178093,0.005204364657402039,-0.015631888061761856,0.011111044324934483,-0.00043426078627817333,0.018813174217939377
0.020834553986787796,0.004687176551669836,-0.014970461837947369,0.01064966805279255,-0.0003962116315960884,0.016987880691885948
0.021076912060379982,0.004886865150183439,-0.015549137257039547,0.011146863922476768,-0.0003641350194811821,0.01714690402150154
0.02109413966536522,0.004852526821196079,-0.015214887447655201,0.01055426336824894,-0.000386338506359607,0.017820337787270546
0.02146252989768982,0.004992031957954168,-0.015506640076637268,0.009564514271914959,-0.00037488600355573,0.017528178170323372
0.02124783582985401,0.0049292827025055885,-0.01532687246799469,0.010218020528554916,-0.00035148061579093337,0.017484676092863083
0.021208588033914566,0.005225065164268017,-0.015713362023234367,0.01033711712807417,-0.0003300517564639449,0.017615409567952156
0.021704163402318954,0.004757244139909744,-0.015506431460380554,0.011317986994981766,-0.00033022891147993505,0.018195252865552902
0.021848998963832855,0.005066950339823961,-0.0156590286642313,0.010717328637838364,-0.00032453719177283347,0.017955994233489037
0.02174833044409752,0.004981335252523422,-0.014828937128186226,0.010868513956665993,-0.00030933888047002256,0.01804317533969879
0.02174833044409752,0.004981335252523422,-0.014828937128186226,0.010868513956665993,-0.00030933888047002256,0.01804317533969879
0.0218511950224638,0.00555063784122467,-0.015339745208621025,0.01108543574810028,-0.0003013838722836226,0.018084881827235222
0.0218511950224638,0.00555063784122467,-0.015339745208621025,0.01108543574810028,-0.0003013838722836226,0.018084881827235222
0.02186185121536255,0.005141154397279024,-0.015888012945652008,0.010599612258374691,-0.0003068336518481374,0.01810195855796337
0.022012770175933838,0.004521546419709921,-0.015119075775146484,0.010823801159858704,-0.00029543694108724594,0.01817849837243557
0.022008392959833145,0.0043684812262654305,-0.015602607280015945,0.010805565863847733,-0.00026407220866531134,0.01805022358894348
0.021660884842276573,0.004762791562825441,-0.015140925534069538,0.011792784556746483,-0.0002472807827871293,0.017993828281760216
0.022558709606528282,0.0048177470453083515,-0.015244466252624989,0.011290796101093292,-0.00023425451945513487,0.017940020188689232
0.022467928007245064,0.004936796613037586,-0.015089625492691994,0.011110392399132252,-0.0002641209284774959,0.018323635682463646
0.022574635222554207,0.004792266059666872,-0.015205254778265953,0.011038240045309067,-0.0002543798473197967,0.01852410100400448
0.022438064217567444,0.004585946444422007,-0.015385238453745842,0.01081386860460043,-0.00026290325331501663,0.018842415884137154
0.022480066865682602,0.004612206481397152,-0.015195988118648529,0.01090995967388153,-0.00027005860465578735,0.0193366389721632
0.021664602681994438,0.004674081690609455,-0.015602165833115578,0.010967698879539967,-0.00029475113842636347,0.018948890268802643
0.021952154114842415,0.004409356974065304,-0.015304626896977425,0.011015541851520538,-0.00028540316270664334,0.018362749367952347
0.02267591841518879,0.004994118586182594,-0.015973644331097603,0.011559235863387585,-0.00036465158336795866,0.017954664304852486
0.022546418011188507,0.005022801458835602,-0.015170857310295105,0.011049826629459858,-0.0004155315982643515,0.01811760663986206
0.021910259500145912,0.004762548487633467,-0.016014503315091133,0.011263013817369938,-0.00045713435974903405,0.01871297135949135
0.022775720804929733,0.0043345363810658455,-0.01562553271651268,0.011348503641784191,-0.00047824750072322786,0.019037440419197083
0.023447519168257713,0.0041063339449465275,-0.016237057745456696,0.011237475089728832,-0.0004598429659381509,0.019113583490252495
0.023092808201909065,0.004549838602542877,-0.01581471785902977,0.012108695693314075,-0.00047469005221500993,0.018462076783180237
0.022482339292764664,0.004739748314023018,-0.015793723985552788,0.011428507044911385,-0.0004605467547662556,0.018491126596927643
0.022707249969244003,0.004858008120208979,-0.016085783019661903,0.01141365710645914,-0.0006141867488622665,0.01888202875852585
0.022636063396930695,0.0044873482547700405,-0.016555851325392723,0.01096546184271574,-0.000663243408780545,0.019426710903644562
0.023076558485627174,0.004465517122298479,-0.016043806448578835,0.011271507479250431,-0.000620438891928643,0.019048769026994705
0.02330203168094158,0.004540446680039167,-0.016500655561685562,0.010859121568500996,-0.0006051555974408984,0.018839383497834206
0.022887438535690308,0.0047325133346021175,-0.01588415913283825,0.010671988129615784,-0.000590958574321121,0.018733125180006027
0.023057501763105392,0.00473355408757925,-0.016261480748653412,0.01141626201570034,-0.0005482547567225993,0.018712302669882774
0.02318606711924076,0.005208369344472885,-0.01602831855416298,0.011496419087052345,-0.0005605698097497225,0.01828165166079998
0.02344881184399128,0.004928988870233297,-0.016287105157971382,0.011878950521349907,-0.0005068119498901069,0.019100327044725418
0.023387650027871132,0.005043277516961098,-0.016601886600255966,0.0117504196241498,-0.0005405772244557738,0.019333334639668465
0.023387650027871132,0.005043277516961098,-0.016601886600255966,0.0117504196241498,-0.0005405772244557738,0.019333334639668465
0.023334749042987823,0.004995500668883324,-0.016877710819244385,0.011791149154305458,-0.0005570187349803746,0.019764035940170288
0.022871989756822586,0.004867154639214277,-0.0170536320656538,0.012591809034347534,-0.0005292734713293612,0.019567150622606277
0.023719539865851402,0.004615606274455786,-0.016035715118050575,0.012192001566290855,-0.0005543542793020606,0.019591931253671646
0.02381475456058979,0.005214180797338486,-0.016716694459319115,0.01252729631960392,-0.0005207271897234023,0.01984723098576069
0.023480094969272614,0.0050569395534694195,-0.016819506883621216,0.011898399330675602,-0.0005751019343733788,0.019953172653913498
0.023497670888900757,0.004513850901275873,-0.017386838793754578,0.012119382619857788,-0.0006058088620193303,0.01992196775972843
0.02317553199827671,0.004473989363759756,-0.017110342159867287,0.012205908074975014,-0.0005559271667152643,0.019878892228007317
0.02355310693383217,0.004601697903126478,-0.016301525756716728,0.01200901996344328,-0.0005662958137691021,0.019892098382115364
0.02402634173631668,0.0046314336359500885,-0.01733168214559555,0.012228749692440033,-0.0005742227076552808,0.019900355488061905
0.022498464211821556,0.004710555542260408,-0.01639949530363083,0.012329301796853542,-0.0005642494070343673,0.01991342380642891
0.024407075718045235,0.004695137497037649,-0.01658937893807888,0.012413360178470612,-0.0005262891063466668,0.0200909785926342
0.02418467588722706,0.004651679191738367,-0.01675570197403431,0.012386397458612919,-0.0005655948771163821,0.02030615322291851
0.024087145924568176,0.00455317972227931,-0.016801204532384872,0.012401380576193333,-0.000602870131842792,0.020159436389803886
0.0244493056088686,0.004647047258913517,-0.017397230491042137,0.012625163421034813,-0.0006150456028990448,0.02013498917222023
0.024248844012618065,0.0044780308380723,-0.016533488407731056,0.012553541921079159,-0.0005794257740490139,0.02030438743531704
0.02415882982313633,0.004535459913313389,-0.01694290153682232,0.013136198744177818,-0.0005973504739813507,0.020632226020097733
0.025073722004890442,0.004885771777480841,-0.016867345198988914,0.01326955109834671,-0.0006564750801771879,0.020313715562224388
0.025073722004890442,0.004885771777480841,-0.016867345198988914,0.01326955109834671,-0.0006564750801771879,0.020313715562224388
0.025182753801345825,0.004818464629352093,-0.016255905851721764,0.012523115612566471,-0.0006145832594484091,0.02061353251338005
0.024472802877426147,0.004785751458257437,-0.016975723206996918,0.012331467121839523,-0.0006374572403728962,0.020413072779774666
0.024346375837922096,0.004841581452637911,-0.016980428248643875,0.012667210772633553,-0.000645022897515446,0.02060529589653015
0.024346375837922096,0.004841581452637911,-0.016980428248643875,0.012667210772633553,-0.000645022897515446,0.02060529589653015
0.02520829811692238,0.005088657606393099,-0.017624640837311745,0.012119333259761333,-0.0005631403182633221,0.021144313737750053
0.024671189486980438,0.0049552107229828835,-0.01713484525680542,0.012673147022724152,-0.0005461866967380047,0.021205095574259758
0.024671189486980438,0.0049552107229828835,-0.01713484525680542,0.012673147022724152,-0.0005461866967380047,0.021205095574259758
0.02502475120127201,0.004369732923805714,-0.01725604571402073,0.012548450380563736,-0.0005392301245592535,0.021260587498545647
0.026014983654022217,0.004396752454340458,-0.016816535964608192,0.013164917007088661,-0.0005291395937092602,0.02045466937124729
0.025556573644280434,0.005060416180640459,-0.01705143414437771,0.012905804440379143,-0.0005234297132119536,0.020690804347395897
0.02619132213294506,0.004989687819033861,-0.017717350274324417,0.012746109627187252,-0.0005160744185559452,0.021099265664815903
0.02477099373936653,0.0045824674889445305,-0.016977177932858467,0.012689555063843727,-0.00047912972513586283,0.021145528182387352
0.0254150852560997,0.0045802355743944645,-0.01702163927257061,0.012511958368122578,-0.00044538493966683745,0.02121717855334282
0.025889866054058075,0.004892650060355663,-0.01678904891014099,0.012996739707887173,-0.00045968760969117284,0.02157631888985634
0.026353340595960617,0.004944654181599617,-0.01728261448442936,0.01277596689760685,-0.0004449083935469389,0.021627401933073997
0.026096537709236145,0.004618037026375532,-0.017447566613554955,0.013419819064438343,-0.0004198469396214932,0.02184377796947956
0.025597430765628815,0.004407180473208427,-0.016677342355251312,0.012962372973561287,-0.0003989335964433849,0.021553898230195045
0.02590363286435604,0.00492894696071744,-0.01744452863931656,0.01337489951401949,-0.00038381252670660615,0.02156025730073452
0.026166504248976707,0.004467687103897333,-0.016993336379528046,0.012971552088856697,-0.000354771560523659,0.021871794015169144
0.026609422639012337,0.004524612799286842,-0.017528757452964783,0.01323571428656578,-0.00038569176103919744,0.022754503414034843
0.026843398809432983,0.004228356294333935,-0.017444008961319923,0.01318108756095171,-0.0003672017192002386,0.02140090987086296
0.026433425024151802,0.0042869532480835915,-0.01673952117562294,0.01330085564404726,-0.00039388533332385123,0.021465715020895004
0.02725966088473797,0.004600183572620153,-0.01759549230337143,0.013547411188483238,-0.0003771092160604894,0.022209446877241135
0.027078621089458466,0.004718275740742683,-0.017087502405047417,0.013533290475606918,-0.0004035941092297435,0.022890349850058556
0.027286624535918236,0.004385035950690508,-0.01724741794168949,0.013807321898639202,-0.0004685111343860626,0.02253543771803379
0.027162080630660057,0.00444445526227355,-0.01766594871878624,0.013005147688090801,-0.0004973660688847303,0.021421484649181366
0.026966100558638573,0.004210440441966057,-0.017321346327662468,0.013531208038330078,-0.0005366214900277555,0.021311359480023384
0.026928361505270004,0.004001259803771973,-0.018083389848470688,0.01315991673618555,-0.0005642705946229398,0.022220337763428688
0.02790788933634758,0.0045926799066364765,-0.01794198900461197,0.012670382857322693,-0.000558377243578434,0.022279975935816765
0.02758512832224369,0.004745732061564922,-0.01785576529800892,0.013003499247133732,-0.0007293647504411638,0.02233019471168518
0.027735769748687744,0.004227594938129187,-0.017074299976229668,0.012850884348154068,-0.0007525441469624639,0.023206032812595367
0.027979273349046707,0.004358598031103611,-0.0179396104067564,0.013086792081594467,-0.0006743824342265725,0.02419261261820793
0.0278745349496603,0.0041353763081133366,-0.01803298480808735,0.013297302648425102,-0.0006733026821166277,0.022930726408958435
0.0278745349496603,0.0041353763081133366,-0.01803298480808735,0.013297302648425102,-0.0006733026821166277,0.022930726408958435
0.028245946392416954,0.004279174376279116,-0.01832002028822899,0.013143617659807205,-0.0006326910806819797,0.021916616708040237
0.028172001242637634,0.004589952062815428,-0.017223447561264038,0.013239124789834023,-0.0005986543837934732,0.022584833204746246
0.028172001242637634,0.004589952062815428,-0.017223447561264038,0.013239124789834023,-0.0005986543837934732,0.022584833204746246
0.028603190556168556,0.004573386628180742,-0.018379265442490578,0.013460869900882244,-0.0005537900724448264,0.023538079112768173
0.02877497859299183,0.004335362929850817,-0.019084518775343895,0.012878311797976494,-0.0005055587971583009,0.023820027709007263
0.029053395614027977,0.004082771949470043,-0.017875293269753456,0.01354923564940691,-0.0005335932946763933,0.023682203143835068
0.028799457475543022,0.003965172450989485,-0.017921913415193558,0.012992186471819878,-0.000555831182282418,0.02350383624434471
0.028716977685689926,0.00437859958037734,-0.018428059294819832,0.013194084167480469,-0.0005285624647513032,0.023204166442155838
0.02890096791088581,0.004436058923602104,-0.01858365349471569,0.013018992729485035,-0.0005400627851486206,0.02341296337544918
0.029521480202674866,0.00429687462747097,-0.017993682995438576,0.013650286011397839,-0.0005205880152061582,0.023492256179451942
0.03077351301908493,0.004406587686389685,-0.017729077488183975,0.013434145599603653,-0.0006684371619485319,0.023518020287156105
0.02989606373012066,0.00415084371343255,-0.018348008394241333,0.013072660192847252,-0.0006969620008021593,0.024062257260084152
0.02767661027610302,0.004441465251147747,-0.018958522006869316,0.013225505128502846,-0.0006302625988610089,0.02373325638473034
0.02975466661155224,0.004537573084235191,-0.018190456554293633,0.013029752299189568,-0.0006461544544436038,0.023492300882935524
0.030454222112894058,0.004368886351585388,-0.018168650567531586,0.013629548251628876,-0.0005960052949376404,0.023826472461223602
0.02974357083439827,0.004050046671181917,-0.01845807395875454,0.014001933857798576,-0.0006122224149294198,0.023698098957538605
0.030546585097908974,0.0037978237960487604,-0.01789151504635811,0.014041497372090816,-0.0005726683884859085,0.02353341318666935
0.03131340816617012,0.003945354837924242,-0.018427908420562744,0.015048100613057613,-0.000555829843506217,0.023683523759245872
0.02974873222410679,0.004453124012798071,-0.01815813221037388,0.015182376839220524,-0.0005201880703680217,0.023950345814228058
0.02974873222410679,0.004453124012798071,-0.01815813221037388,0.015182376839220524,-0.0005201880703680217,0.023950345814228058
0.03127124905586243,0.003937199711799622,-0.017774673178792,0.015146338380873203,-0.0005257815937511623,0.024056142196059227
0.03086378611624241,0.0039034439250826836,-0.018150893971323967,0.014901168644428253,-0.0005476325168274343,0.024068418890237808
0.03135591745376587,0.004433110821992159,-0.01822451502084732,0.014921863563358784,-0.0005166655173525214,0.024097371846437454
0.030705710873007774,0.004187244456261396,-0.017535384744405746,0.014646411873400211,-0.0005816975026391447,0.02391761913895607
0.030593976378440857,0.00442178500816226,-0.018230808898806572,0.014495943672955036,-0.000607101246714592,0.0240715891122818
0.030593976378440857,0.00442178500816226,-0.018230808898806572,0.014495943672955036,-0.000607101246714592,0.0240715891122818
0.030478451400995255,0.004243260715156794,-0.01857394352555275,0.014294739812612534,-0.0006135919829830527,0.024615755304694176
0.030996549874544144,0.003998731728643179,-0.018044788390398026,0.014496375806629658,-0.0005979869747534394,0.02481326088309288
0.03073849342763424,0.003858044510707259,-0.018540531396865845,0.014592924155294895,-0.0006162335630506277,0.02459563873708248
0.030545076355338097,0.003926656674593687,-0.01838039606809616,0.014746193774044514,-0.0005777166807092726,0.02381259575486183
0.030798213556408882,0.0039307125844061375,-0.01821313239634037,0.014843456447124481,-0.0006673926254734397,0.02319084107875824
0.031230822205543518,0.003995715174823999,-0.01853111945092678,0.015051566995680332,-0.0006926272180862725,0.023765133693814278
0.03103819489479065,0.003529671113938093,-0.018168384209275246,0.01475567277520895,-0.0007164106355048716,0.024664439260959625
0.031782232224941254,0.004109744448214769,-0.018656861037015915,0.015280853025615215,-0.0007000044570304453,0.02469436265528202
0.03140962868928909,0.00418173847720027,-0.019042184576392174,0.014747027307748795,-0.0006756617221981287,0.024860860779881477
0.031007271260023117,0.003951706923544407,-0.017918430268764496,0.014959186315536499,-0.0006889076321385801,0.025179047137498856
0.031073102727532387,0.003805997548624873,-0.018579630181193352,0.014571485109627247,-0.0006571422563865781,0.025003433227539062
0.032021645456552505,0.0038429517298936844,-0.01865866780281067,0.014898410998284817,-0.0006840835558250546,0.024903448298573494
0.032154280692338943,0.0038266845513135195,-0.01807413622736931,0.014521594159305096,-0.0006881353328935802,0.02396678738296032
0.03208751976490021,0.004127821885049343,-0.018692782148718834,0.014723636209964752,-0.000641336664557457,0.023770317435264587
0.030623339116573334,0.0040913838893175125,-0.01881120167672634,0.01422911137342453,-0.0006551913684234023,0.02460583671927452
0.03134703263640404,0.0036086528562009335,-0.018552666530013084,0.01475732121616602,-0.0006095341523177922,0.02548900619149208
0.03278237581253052,0.003908895421773195,-0.01867646351456642,0.014570387080311775,-0.0006099435267969966,0.02541459910571575
0.03232633322477341,0.0041490355506539345,-0.018586141988635063,0.015726247802376747,-0.0005533134681172669,0.02540563978254795
0.03300708904862404,0.004097806755453348,-0.01856216974556446,0.015581723302602768,-0.0005411236197687685,0.02553365007042885
0.03258427232503891,0.0035900212824344635,-0.01915694773197174,0.016032785177230835,-0.0005305300001055002,0.025795970112085342
0.03171924129128456,0.003552486887201667,-0.018845289945602417,0.01587032526731491,-0.00048557695117779076,0.025819357484579086
0.03140958398580551,0.0041569434106349945,-0.0187805388122797,0.01585402898490429,-0.0005299731274135411,0.025527920573949814
0.03185136243700981,0.004061808809638023,-0.0182994045317173,0.016223296523094177,-0.0005087329191155732,0.025601781904697418
0.03215048462152481,0.0035620485432446003,-0.01882784627377987,0.01647639460861683,-0.0005215115961618721,0.025654736906290054
0.03228180482983589,0.004067919682711363,-0.019864516332745552,0.016018953174352646,-0.00047509948490187526,0.025910817086696625
0.03228180482983589,0.004067919682711363,-0.019864516332745552,0.016018953174352646,-0.00047509948490187526,0.025910817086696625
0.03240343555808067,0.004176018759608269,-0.019265005365014076,0.01634654402732849,-0.0004301884036976844,0.025936273857951164
0.03199436143040657,0.004275227431207895,-0.019074197858572006,0.015930045396089554,-0.00046031782403588295,0.025543682277202606
0.032111525535583496,0.0041562519036233425,-0.01943402737379074,0.01598794385790825,-0.0004675769596360624,0.026087546721100807
0.0320868045091629,0.00393658597022295,-0.01966444030404091,0.015683168545365334,-0.0004654864314943552,0.025093263015151024
0.03181074932217598,0.004272277466952801,-0.019607409834861755,0.015789739787578583,-0.0004891728167422116,0.02544441819190979
0.03226524218916893,0.004668228793889284,-0.01976250484585762,0.015558036975562572,-0.0005239467136561871,0.025780905038118362
0.03232237324118614,0.00423000194132328,-0.019103173166513443,0.015487724915146828,-0.0005216221325099468,0.02570682391524315
0.03276573866605759,0.0038942298851907253,-0.01903185434639454,0.015562786720693111,-0.0005518358084373176,0.025913549587130547
0.030886555090546608,0.004278858657926321,-0.019732527434825897,0.015370422974228859,-0.0005842425744049251,0.025945495814085007
0.033092789351940155,0.0042090751230716705,-0.019427474588155746,0.01543391589075327,-0.0006115550640970469,0.02592923864722252
0.032752975821495056,0.003993062302470207,-0.01934138312935829,0.014796138741075993,-0.0005727129755541682,0.02589939534664154
0.03248993307352066,0.003961407113820314,-0.019277216866612434,0.015565672889351845,-0.0007042009965516627,0.02588043361902237
0.03225027024745941,0.004091452807188034,-0.019675038754940033,0.015466189943253994,-0.0007415628642775118,0.02614586427807808
0.0327615849673748,0.003988536074757576,-0.02005993016064167,0.016065914183855057,-0.0007196087390184402,0.026361115276813507
0.03298545628786087,0.004234931897372007,-0.020295949652791023,0.015643225982785225,-0.0006892612436786294,0.026438245549798012
0.03282766416668892,0.004184683784842491,-0.019977230578660965,0.0153984185308218,-0.000700823322404176,0.026416519656777382
0.03361742943525314,0.0039826915599405766,-0.019243629649281502,0.015142261050641537,-0.0006531670805998147,0.026501372456550598
0.03354917839169502,0.0043466524221003056,-0.019685745239257812,0.015840042382478714,-0.0006618057377636433,0.026594752445816994
0.0335703082382679,0.0041526793502271175,-0.019198358058929443,0.015163499861955643,-0.0006907734787091613,0.026517074555158615
0.033548980951309204,0.004070154391229153,-0.019082743674516678,0.015399377793073654,-0.0006942434119991958,0.026508675888180733
0.033624134957790375,0.004312159027904272,-0.01930575631558895,0.015602936036884785,-0.0006464621401391923,0.027112262323498726
0.03370590880513191,0.0043118842877447605,-0.020568478852510452,0.016117999330163002,-0.0006599336047656834,0.026823006570339203
0.03363890200853348,0.004075606353580952,-0.02006378211081028,0.016952287405729294,-0.0006782577838748693,0.025991924107074738
0.034924473613500595,0.0040883393958210945,-0.01995234750211239,0.01738947071135044,-0.0007353603723458946,0.02652576193213463
0.034719496965408325,0.004198748152703047,-0.019895561039447784,0.017333906143903732,-0.0007037111790850759,0.027323652058839798
0.03319389745593071,0.004509966354817152,-0.020212166011333466,0.01696775294840336,-0.000679644348565489,0.02716178260743618
0.03475823625922203,0.00418664189055562,-0.02039499022066593,0.017147311940789223,-0.0006571916746906936,0.027839522808790207
0.03478054329752922,0.004437221679836512,-0.019957950338721275,0.016679249703884125,-0.000696896924637258,0.028452707454562187
0.034903980791568756,0.004532704129815102,-0.020074745640158653,0.017311884090304375,-0.0006334537756629288,0.027824634686112404
0.034903980791568756,0.004532704129815102,-0.020074745640158653,0.017311884090304375,-0.0006334537756629288,0.027824634686112404
0.03575645014643669,0.004331847187131643,-0.02035084366798401,0.017332609742879868,-0.0006527254590764642,0.026049403473734856
0.03468406945466995,0.004422892816364765,-0.019923072308301926,0.017277944833040237,-0.000593906210269779,0.02671402134001255
0.0344296395778656,0.004572622943669558,-0.019617322832345963,0.01749684289097786,-0.0006185809033922851,0.027506737038493156
0.03409840911626816,0.004773989319801331,-0.020118847489356995,0.016556255519390106,-0.0006381718558259308,0.027552122250199318
0.03527544438838959,0.004619816318154335,-0.020490627735853195,0.016562629491090775,-0.0006446593324653804,0.026939529925584793
0.03415275737643242,0.004338542930781841,-0.01967160776257515,0.01616239733994007,-0.0006093523115850985,0.026978563517332077
0.03568440303206444,0.00419217674061656,-0.020125072449445724,0.016689850017428398,-0.0006181921344250441,0.027379672974348068
0.03602633625268936,0.004153640940785408,-0.020405417308211327,0.01685507968068123,-0.0006226850091479719,0.02741364762187004
0.035138994455337524,0.004483535885810852,-0.01971304416656494,0.01630754955112934,-0.0006696136551909149,0.027621472254395485
0.0353643037378788,0.00422776211053133,-0.019555862993001938,0.016621988266706467,-0.0006331560434773564,0.027488408610224724
0.035944364964962006,0.003998474217951298,-0.02040872536599636,0.016605067998170853,-0.0007135464693419635,0.02755708061158657
0.03505244106054306,0.004284053575247526,-0.020372362807393074,0.01721015013754368,-0.0007276589749380946,0.027999602258205414
0.03584213927388191,0.00428397161886096,-0.019986595958471298,0.017154119908809662,-0.000667138840071857,0.028117850422859192
0.035949476063251495,0.004083302337676287,-0.020386025309562683,0.01711706630885601,-0.0006873631500639021,0.02833079732954502
0.03567176312208176,0.004283521790057421,-0.02044808492064476,0.01746455952525139,-0.0006905460613779724,0.02807747572660446
0.03562198951840401,0.00432559521868825,-0.019359605386853218,0.017206499353051186,-0.0006501344032585621,0.028277873992919922
0.03579811751842499,0.0043807001784443855,-0.020198604092001915,0.01768515072762966,-0.0006772147025913,0.02814306691288948
0.036976512521505356,0.004213736858218908,-0.02088635228574276,0.01729440689086914,-0.000697823881637305,0.028767285868525505
0.035964034497737885,0.004374729469418526,-0.02031651884317398,0.01679403707385063,-0.0007072477601468563,0.028521325439214706
0.035342637449502945,0.004560989793390036,-0.020141955465078354,0.017100803554058075,-0.0007265539024956524,0.029023582115769386
0.03668495640158653,0.0045401169918477535,-0.020421698689460754,0.016604090109467506,-0.0006874749669805169,0.02876851335167885
0.036290984600782394,0.004365847911685705,-0.0209227055311203,0.01745876669883728,-0.0008372950833290815,0.028667405247688293
0.03702230751514435,0.004255318082869053,-0.020964546129107475,0.017929960042238235,-0.0007784846238791943,0.028332781046628952
0.03661350533366203,0.004521667025983334,-0.020649872720241547,0.018191169947385788,-0.0007650397019460797,0.02964925579726696
0.03528165817260742,0.0047065578401088715,-0.02009492740035057,0.017700159922242165,-0.0007328228675760329,0.029784362763166428
0.03715866804122925,0.004216174595057964,-0.020416252315044403,0.01771661266684532,-0.0008103541913442314,0.02860315516591072
