davideferrari95/blind_handover_controller/data/Test 25 - [2024-02-07 -- 14-21-00]/joint_states_data.csv
shoulder_pan_joint,shoulder_lift_joint,elbow_joint,wrist_1_joint,wrist_2_joint,wrist_3_joint
0.006303231231868267,0.002831852063536644,-0.006406095344573259,0.0025354656390845776,-0.00019259263353887945,0.00610821507871151
0.006303231231868267,0.002831852063536644,-0.006406095344573259,0.0025354656390845776,-0.00019259263353887945,0.00610821507871151
0.006189387757331133,0.0032093962654471397,-0.007160003762692213,0.00249338336288929,-0.00024023596779443324,0.005660237744450569
0.0062653119675815105,0.003065665252506733,-0.006685425527393818,0.002706876490265131,-0.0002353751624468714,0.005724714603275061
0.005626581143587828,0.0029971161857247353,-0.006104194093495607,0.002674836665391922,-0.00022415141575038433,0.005887249484658241
0.005626581143587828,0.0029971161857247353,-0.006104194093495607,0.002674836665391922,-0.00022415141575038433,0.005887249484658241
0.005934834014624357,0.002842271002009511,-0.006010839249938726,0.0025337040424346924,-0.00021354475757107139,0.005895874463021755
0.006332870572805405,0.0029120822437107563,-0.00634520361199975,0.0024441780988126993,-0.00020386939286254346,0.005943934433162212
0.005830352194607258,0.0027875592932105064,-0.006471999920904636,0.00229629292152822,-0.0001950319274328649,0.005517302080988884
0.005877163261175156,0.0030136159621179104,-0.00651800911873579,0.0025094947777688503,-0.0001869282132247463,0.0056956736370921135
0.005725875496864319,0.0029068004805594683,-0.006200090050697327,0.003022393910214305,-0.00017947220476344228,0.0052537196315824986
0.006121912971138954,0.002851299475878477,-0.006105554755777121,0.003088998841121793,-0.0001725874317344278,0.005461950786411762
0.006038994062691927,0.0027074136305600405,-0.006285680923610926,0.0026962715201079845,-0.00016621167014818639,0.005723200272768736
0.006040007341653109,0.003135405480861664,-0.005742555949836969,0.002584173809736967,-0.00016029077232815325,0.0057477159425616264
0.005997173488140106,0.003341998904943466,-0.006478872615844011,0.0025683604180812836,-0.0001836386218201369,0.0053155384957790375
0.005928868893533945,0.003108480479568243,-0.006601587403565645,0.0026966710574924946,-0.0001794187555788085,0.005669401492923498
0.005799183156341314,0.002971568377688527,-0.006178264040499926,0.0025564401876181364,-0.00017376751929987222,0.005438976921141148
0.0064543308690190315,0.002732766093686223,-0.006247630808502436,0.002573993057012558,-0.00016835748101584613,0.005796793848276138
0.006191615015268326,0.003031100146472454,-0.006557405460625887,0.002345277927815914,-0.0001632672647247091,0.005786233581602573
0.005795883480459452,0.0031702376436442137,-0.006319217383861542,0.0024759857915341854,-0.0001584753190400079,0.005610608961433172
0.0056778197176754475,0.003350710729137063,-0.006367197260260582,0.0024845500010997057,-0.00015395677473861724,0.005609153304249048
0.005979754962027073,0.0031508824322372675,-0.006340211722999811,0.0024435040540993214,-0.00014968877076171339,0.005508252885192633
0.006012458819895983,0.0031994315795600414,-0.005973663181066513,0.0027837876696139574,-0.00016525406681466848,0.0055440375581383705
0.0062208897434175014,0.003456285921856761,-0.006399321835488081,0.00281995115801692,-0.0001612144842511043,0.00558679411187768
0.006093369331210852,0.0034268794115632772,-0.006073448807001114,0.0027292631566524506,-0.000157204078277573,0.005964921321719885
0.006325908005237579,0.003045804100111127,-0.006332276854664087,0.0028765443712472916,-0.0001533774338895455,0.005620610434561968
0.0063968682661652565,0.0029436026234179735,-0.005839676596224308,0.0028892578557133675,-0.00014973185898270458,0.005590870976448059
0.006337175145745277,0.0032159120310097933,-0.005730893928557634,0.0025959855411201715,-0.00014625572657678276,0.005389162339270115
0.006337175145745277,0.0032159120310097933,-0.005730893928557634,0.0025959855411201715,-0.00014625572657678276,0.005389162339270115
0.006223274860531092,0.002997046336531639,-0.0062648830935359,0.002590540563687682,-0.00014293723506852984,0.005257525015622377
0.005658838897943497,0.0033180767204612494,-0.006359744817018509,0.00236627203412354,-0.00013673258945345879,0.005566680803894997
0.006405986379832029,0.003168408526107669,-0.005689948331564665,0.0025486969389021397,-0.0001338279398623854,0.005189670715481043
0.0066709211096167564,0.0032251577358692884,-0.005186314228922129,0.0027974897529929876,-0.00013104411482345313,0.005007307045161724
0.0066709211096167564,0.0032251577358692884,-0.005186314228922129,0.0027974897529929876,-0.00013104411482345313,0.005007307045161724
0.0062332795932888985,0.003330299397930503,-0.005507651716470718,0.003236412303522229,-0.00012837392569053918,0.00516720674932003
0.0062443409115076065,0.002954168478026986,-0.006148859392851591,0.00317968288436532,-0.00012581022747326642,0.005357314832508564
0.005731531884521246,0.003020903328433633,-0.0064035700634121895,0.0029090300668030977,-0.00013865790970157832,0.00556041719391942
0.00619185995310545,0.0030146529898047447,-0.006001963280141354,0.0027061128057539463,-0.00013811014650855213,0.005283888429403305
0.006762453820556402,0.0031142281368374825,-0.005429359152913094,0.002952377777546644,-0.00013564605615101755,0.005266780499368906
0.006847586948424578,0.0033112340606749058,-0.005433285143226385,0.0030163980554789305,-0.00013314656098373234,0.005424801725894213
0.005982180126011372,0.0029574872460216284,-0.006176414899528027,0.0028427476063370705,-0.0001307295315200463,0.005344283301383257
0.006398633122444153,0.0030127225909382105,-0.006650739349424839,0.002609917428344488,-0.00012839831470046192,0.005291438195854425
0.00682751415297389,0.003460984444245696,-0.006116605829447508,0.00233125570230186,-0.0001261487923329696,0.005059289280325174
0.00635226396843791,0.003388903336599469,-0.0056017739698290825,0.00242652278393507,-0.0001239764242200181,0.004898984916508198
0.00634458102285862,0.0035453406162559986,-0.005145392846316099,0.002735880436375737,-0.00011144974996568635,0.005152582656592131
0.00622857129201293,0.0032481078524142504,-0.005472478922456503,0.0031795259565114975,-0.00010558981011854485,0.005274442955851555
0.006186949089169502,0.0034208300057798624,-0.0063012223690748215,0.0029806066304445267,-0.00010296169057255611,0.005094620399177074
0.006353672593832016,0.00308303558267653,-0.006494732107967138,0.002830249723047018,-0.00011812930461019278,0.005227561108767986
0.006576692219823599,0.0032339957542717457,-0.005457460414618254,0.002658905927091837,-0.0001179581304313615,0.005485062953084707
0.006149461958557367,0.00337065733037889,-0.00506399804726243,0.0028017351869493723,-0.00011559048289200291,0.005260844714939594
0.005987015087157488,0.003480364102870226,-0.005412344820797443,0.00331388833001256,-0.00011317792814224958,0.00479070283472538
0.006751456297934055,0.003640302224084735,-0.0059091742150485516,0.003031936939805746,-0.00012657124898396432,0.0048308828845620155
0.0063825733959674835,0.0035821993369609118,-0.005607939790934324,0.002506732242181897,-0.00012422006693668664,0.005013381130993366
0.0061326902359724045,0.003489772090688348,-0.005393094848841429,0.0026509698946028948,-0.00012182737555122003,0.005089849699288607
0.0065842983312904835,0.0036101085133850574,-0.005539854057133198,0.0029833712615072727,-0.00012791837798431516,0.005072256084531546
0.006950167007744312,0.003173313569277525,-0.005955720320343971,0.004038803745061159,-0.00013348128413781524,0.00532173179090023
0.006527964025735855,0.0033127949573099613,-0.006081224884837866,0.0035945004783570766,-0.0001315605331910774,0.005030738189816475
0.006269161123782396,0.00342846498824656,-0.005859518889337778,0.003182964166626334,-0.00012923292524646968,0.004624700173735619
0.0066305664367973804,0.0034923229832202196,-0.005209158640354872,0.002915198914706707,-0.0002681588230188936,0.004820587579160929
0.006868965458124876,0.0037180150393396616,-0.0053197769448161125,0.002916057826951146,-0.000271861907094717,0.0050652469508349895
0.00646647484973073,0.00345401419326663,-0.005736479535698891,0.0033888418693095446,-0.00025759582058526576,0.004572967067360878
0.00646647484973073,0.00345401419326663,-0.005736479535698891,0.0033888418693095446,-0.00025759582058526576,0.004572967067360878
0.006336695048958063,0.0035879139322787523,-0.006607321090996265,0.003103527706116438,-0.00026748960954137146,0.004490814637392759
0.006363908294588327,0.0037450429517775774,-0.005630168132483959,0.0028674800414592028,-0.0002758130431175232,0.004869083873927593
0.006082811392843723,0.003792001400142908,-0.0053538307547569275,0.0027027579490095377,-0.00026377581525593996,0.004593844059854746
0.006594692822545767,0.003704033326357603,-0.005251039285212755,0.0030978734139353037,-0.0002515777887310833,0.004379979334771633
0.006433575414121151,0.0036691282875835896,-0.0059828972443938255,0.003040842479094863,-0.00024038217088673264,0.004306619521230459
0.006251209881156683,0.0033494553063064814,-0.007149287965148687,0.0033401434775441885,-0.00023013603640720248,0.004436010029166937
0.006099140737205744,0.0033706717658787966,-0.005811196751892567,0.0032859628554433584,-0.00025261277914978564,0.0046552992425858974
0.00601540831848979,0.0031444095075130463,-0.004937286954373121,0.00304805813357234,-0.0002470795006956905,0.004744731355458498
0.006160025019198656,0.0032024832908064127,-0.005665492732077837,0.0030436136294156313,-0.00023802905343472958,0.004967267159372568
0.006295951083302498,0.0032647296320647,-0.006081463769078255,0.003339880146086216,-0.0002293802535859868,0.004535082262009382
0.006491403561085463,0.0034553895238786936,-0.0061734444461762905,0.0032392190769314766,-0.00022132183948997408,0.00442107766866684
0.005932655651122332,0.003634708933532238,-0.006438549142330885,0.003025912446901202,-0.00021381046099122614,0.0044766501523554325
0.005886607803404331,0.0033463460858911276,-0.0054990691132843494,0.0028660576790571213,-0.00022865754726808518,0.00453295698389411
0.006646453868597746,0.003266304964199662,-0.006105427630245686,0.0032273123506456614,-0.00022832030663266778,0.004346256144344807
0.006872559431940317,0.003354571294039488,-0.00664248364046216,0.003685791976749897,-0.00022173990146256983,0.004445514641702175
0.006227470468729734,0.0031443447805941105,-0.0063306051306426525,0.003677579341456294,-0.0002151427761418745,0.0042716809548437595
0.006302798632532358,0.0032612283248454332,-0.00621998542919755,0.003482005326077342,-0.00020890188170596957,0.004267131444066763
0.00651395320892334,0.003425356699153781,-0.005913279019296169,0.0030082541052252054,-0.00019744377641472965,0.004399565979838371
0.006509281694889069,0.003715741215273738,-0.005464637186378241,0.003190304385498166,-0.0001983639958780259,0.004081745631992817
0.00672048470005393,0.0038485457189381123,-0.007110909558832645,0.003326560603454709,-0.00019112044537905604,0.0038216260727494955
0.005911794025450945,0.0034551036078482866,-0.006576381158083677,0.0031475997529923916,-0.0001834065915318206,0.004049721173942089
0.006201386451721191,0.003482860280200839,-0.0057409158907830715,0.003058199305087328,-0.00017622769519221038,0.004192952997982502
0.0067062778398394585,0.0032191253267228603,-0.006085068453103304,0.0030955206602811813,-0.00019899474864359945,0.004078370984643698
0.0067062778398394585,0.0032191253267228603,-0.006085068453103304,0.0030955206602811813,-0.00019899474864359945,0.004078370984643698
0.006210337858647108,0.003287283470854163,-0.0065657831728458405,0.0033879531547427177,-0.00018921859737019986,0.0040179891511797905
0.006472261622548103,0.00329407537356019,-0.0061419024132192135,0.003203431610018015,-0.0001828287640819326,0.0037600374780595303
0.006472261622548103,0.00329407537356019,-0.0061419024132192135,0.003203431610018015,-0.0001828287640819326,0.0037600374780595303
0.006859876215457916,0.003256876254454255,-0.00529471505433321,0.0030614647548645735,-0.0001912931475089863,0.0035483487881720066
0.006476337555795908,0.0031579099595546722,-0.005852835718542337,0.0032859910279512405,-0.0001987916766665876,0.0036185693461447954
0.006314961239695549,0.003450020682066679,-0.00618761358782649,0.003096961649134755,-0.00019356771372258663,0.0037817147094756365
0.006135786883533001,0.003219984006136656,-0.006572835147380829,0.0033487146720290184,-0.00018785358406603336,0.00391025235876441
0.006647567264735699,0.0034070515539497137,-0.005906798876821995,0.003580008400604129,-0.0001824174396460876,0.0035977321676909924
0.006757660768926144,0.0030798548832535744,-0.005366620607674122,0.0037453181575983763,-0.00017728372768033296,0.0033972051460295916
0.007337603718042374,0.00304283294826746,-0.005661136470735073,0.003658283967524767,-0.00019068221445195377,0.0032601752318441868
0.006480723153799772,0.0033068645279854536,-0.005866489373147488,0.0035791858099400997,-0.00019139742653351277,0.0033685490489006042
0.006286175921559334,0.003262718440964818,-0.006390873808413744,0.003632226726040244,-0.0001868092513177544,0.003615366294980049
0.007135061547160149,0.0034720113035291433,-0.0061411610804498196,0.0034828728530555964,-0.00018210861890111119,0.003781509818509221
0.0074722785502672195,0.0032449953723698854,-0.005229972302913666,0.00350495264865458,-0.00023333875287789851,0.003423836547881365
0.007483345922082663,0.0036240725312381983,-0.005282307509332895,0.00409420533105731,-0.00022956024622544646,0.003148764604702592
0.006362240295857191,0.0033265750389546156,-0.0058653699234128,0.004209800623357296,-0.00021892103541176766,0.002987413201481104
0.006517690606415272,0.003415191313251853,-0.006947899702936411,0.004026990383863449,-0.00024496583500877023,0.0030981546733528376
0.006932002492249012,0.00342361768707633,-0.006325211375951767,0.003468763316050172,-0.00023907973081804812,0.00327772693708539
0.007184379268437624,0.003335657063871622,-0.005247943103313446,0.003314342349767685,-0.00026485833222977817,0.003197954036295414
0.006898888386785984,0.0035043321549892426,-0.00571051798760891,0.0033465465530753136,-0.00025642014225013554,0.003206451889127493
0.006899965927004814,0.003319151233881712,-0.006573409307748079,0.0035946303978562355,-0.00027257794863544405,0.0030783626716583967
0.007279912941157818,0.0034399419091641903,-0.006838619709014893,0.0037028759252279997,-0.0002705558727029711,0.0030121225863695145
0.007476774975657463,0.003204369219020009,-0.006271371617913246,0.003649891121312976,-0.00035826998646371067,0.003075843444094062
0.0069191949442029,0.0034931122791022062,-0.005540024489164352,0.0036619948223233223,-0.0004162628320045769,0.0029757837764918804
0.008007015101611614,0.003700491739436984,-0.006824815180152655,0.0037833284586668015,-0.0003907503851223737,0.0025715865194797516
0.007909403182566166,0.0036339983344078064,-0.0074163260869681835,0.003708259202539921,-0.0003937407454941422,0.002582648303359747
0.007020638789981604,0.003180374624207616,-0.006684028077870607,0.0034052603878080845,-0.00036889410694129765,0.0025840806774795055
0.007180158514529467,0.003315719310194254,-0.0060090855695307255,0.0032792440615594387,-0.0003877916606143117,0.002522510476410389
0.007490247022360563,0.0033819263335317373,-0.006163044832646847,0.003411310724914074,-0.000377766351448372,0.0027420520782470703
0.007536982651799917,0.003434633370488882,-0.007143227383494377,0.003504515392705798,-0.00038207139004953206,0.0026564367581158876
0.007371108513325453,0.0028993445448577404,-0.0075422921217978,0.003511874470859766,-0.0003846745821647346,0.0025425199419260025
0.00746059138327837,0.002519361674785614,-0.006971676368266344,0.003581126220524311,-0.0003665899857878685,0.002672347007319331
0.00746059138327837,0.002519361674785614,-0.006971676368266344,0.003581126220524311,-0.0003665899857878685,0.002672347007319331
0.007446229923516512,0.0023021467495709658,-0.006262465380132198,0.0036991473753005266,-0.00039777823258191347,0.002448267536237836
0.007434250321239233,0.002223327988758683,-0.00681264465674758,0.00380526902154088,-0.00040894735138863325,0.0023598535917699337
0.007344876881688833,0.0023962599225342274,-0.008142216131091118,0.0038792979903519154,-0.0004112011520192027,0.002361095743253827
0.008017325773835182,0.0027112567331641912,-0.007873664610087872,0.0035026196856051683,-0.0004152051405981183,0.0022395532578229904
0.007644541561603546,0.0025008786469697952,-0.0066125113517045975,0.003455884987488389,-0.00041637057438492775,0.0022011608816683292
0.007426535710692406,0.0025652735494077206,-0.006461236625909805,0.0031825443729758263,-0.00041957906796596944,0.002296046819537878
0.0073552499525249004,0.0023876787163317204,-0.007001079618930817,0.0034630862064659595,-0.00042030983604490757,0.002270920667797327
0.007701776456087828,0.0022353539243340492,-0.007245071232318878,0.0037695341743528843,-0.00039868042222224176,0.0024034336674958467
0.008202902041375637,0.0022974812891334295,-0.007565310690551996,0.003920622635632753,-0.0004794388951268047,0.002213094849139452
0.007572397589683533,0.0021932388190180063,-0.007020667195320129,0.0034358494449406862,-0.00046412195661105216,0.002147811697795987
0.0070249540731310844,0.002126915380358696,-0.007316577713936567,0.003356919391080737,-0.0004955442273057997,0.0019435667200013995
0.007743705529719591,0.002284008776769042,-0.00675866287201643,0.0033665611408650875,-0.0004630566108971834,0.0019194495398551226
0.007727405987679958,0.002161311451345682,-0.006836308166384697,0.0035643044393509626,-0.0004932008450850844,0.0018484019674360752
0.008008258417248726,0.002091692527756095,-0.007074303925037384,0.003897124668583274,-0.0004934078315272927,0.002156787319108844
0.007780832704156637,0.0020849669817835093,-0.007120547816157341,0.003641915274783969,-0.0004894104204140604,0.002373809926211834
0.00793373305350542,0.002420281758531928,-0.006808263249695301,0.0036035487428307533,-0.0005784100503660738,0.002269930671900511
0.00767744705080986,0.002663391176611185,-0.0068880473263561726,0.0036602504551410675,-0.0006209042621776462,0.001883274526335299
0.007520042359828949,0.002458918606862426,-0.0068446556106209755,0.0040328362956643105,-0.0006507049547508359,0.0015910555375739932
0.008097592741250992,0.0020350420381873846,-0.006975007709115744,0.00387948052957654,-0.0009334603091701865,0.0014303249772638083
0.008112522773444653,0.0020272580441087484,-0.006542273797094822,0.003564911661669612,-0.0009321959223598242,0.001490230206400156
0.007500439416617155,0.0020345246884971857,-0.006330241449177265,0.003385161515325308,-0.0008275520522147417,0.001425082446075976
0.0077430326491594315,0.0023113570641726255,-0.006529832724481821,0.0035577162634581327,-0.000719511357601732,0.0016033976571634412
0.008473232388496399,0.002143015619367361,-0.007181912194937468,0.003964527044445276,-0.0007328602951020002,0.0016257741954177618
0.007887708954513073,0.002285311697050929,-0.007290197536349297,0.004080405458807945,-0.0006621376960538328,0.0014975648373365402
0.007887708954513073,0.002285311697050929,-0.007290197536349297,0.004080405458807945,-0.0006621376960538328,0.0014975648373365402
0.007487162481993437,0.002156898146495223,-0.006771010346710682,0.003977818414568901,-0.0005994644016027451,0.0014918367378413677
0.008086132816970348,0.002126173349097371,-0.006455324124544859,0.00429462781175971,-0.0005473486962728202,0.0013792912941426039
0.00824433472007513,0.002335510915145278,-0.006699908059090376,0.00412005465477705,-0.0005703867063857615,0.0012499175500124693
0.008207679726183414,0.0023245157208293676,-0.007051149848848581,0.0043703229166567326,-0.0005325328093022108,0.0011019681114703417
0.007436712272465229,0.0024780631065368652,-0.006949090864509344,0.004071677103638649,-0.0004961026133969426,0.0011011954629793763
0.008392219431698322,0.002663673833012581,-0.006454926915466785,0.0034788516350090504,-0.0004641209088731557,0.0010907145915552974
0.008551995269954205,0.0024358867667615414,-0.0067730736918747425,0.00349086313508451,-0.00037706989678554237,0.0010681672720238566
0.008230883628129959,0.0025058509781956673,-0.006708045490086079,0.0042326366528868675,-0.00033205983345396817,0.0010559165384620428
0.007937096059322357,0.002373435301706195,-0.006835176143795252,0.004562642425298691,-0.0003081735339947045,0.0010112992022186518
0.008463187143206596,0.0022850485984236,-0.006956789642572403,0.004318139515817165,-0.0003381854039616883,0.000994121190160513
0.008556232787668705,0.0023223760072141886,-0.006666203495115042,0.0039536054246127605,-0.00032464813557453454,0.0009973995620384812
0.007877019234001637,0.002468616934493184,-0.007250270806252956,0.0037302279379218817,-0.00035422565997578204,0.0009765480645000935
0.009088216349482536,0.0022823249455541372,-0.006990445777773857,0.0036761625669896603,-0.0003383285365998745,0.0009642165387049317
0.00805176142603159,0.0021131313405930996,-0.006384382955729961,0.004017373081296682,-0.00034366946783848107,0.0009244851535186172
0.008036904036998749,0.0021187926176935434,-0.006145166698843241,0.004076291806995869,-0.0003478298895061016,0.0008784468518570065
0.008245453238487244,0.0024174631107598543,-0.007170611526817083,0.004401123616844416,-0.00040359358536079526,0.0008505634614266455
0.008555210195481777,0.0025096656754612923,-0.0074078901670873165,0.004130975343286991,-0.0004324836190789938,0.0008561346912756562
0.008250448852777481,0.002417840762063861,-0.006474715191870928,0.003885607933625579,-0.00043712600017897785,0.0008371565490961075
0.008419509045779705,0.0026293995324522257,-0.006220909766852856,0.0038097400683909655,-0.0004369900852907449,0.0007635639631189406
0.008636290207505226,0.0026040642987936735,-0.00627611530944705,0.00386690441519022,-0.0004561607784125954,0.0007663484429940581
0.00827715452760458,0.0024572587572038174,-0.00715152220800519,0.003869361709803343,-0.0004399091994855553,0.0007029148400761187
0.008378698490560055,0.002504149917513132,-0.007362328469753265,0.004323442466557026,-0.0004407624655868858,0.0006410153582692146
0.008497776463627815,0.00224286294542253,-0.00670318678021431,0.004179266281425953,-0.0004401777114253491,0.0005886038998141885
0.008401277475059032,0.00205637002363801,-0.0068223681300878525,0.0038784609641879797,-0.0004952436429448426,0.000505836505908519
0.008268370293080807,0.0020106853917241096,-0.00702850753441453,0.004296646919101477,-0.0005253030103631318,0.0004726107872556895
0.009030447341501713,0.002248717937618494,-0.006757127121090889,0.004155839327722788,-0.0005277329473756254,0.0004434849543031305
0.008440437726676464,0.00220881006680429,-0.006218430586159229,0.004225049167871475,-0.0005204713088460267,0.0004177415103185922
0.0085739241912961,0.0024340872187167406,-0.006509808823466301,0.0044932919554412365,-0.00048293048166669905,0.0003948248631786555
0.00829116441309452,0.0023282014299184084,-0.0066098240204155445,0.00460801413282752,-0.0005040188552811742,0.00033379331580363214
0.00829116441309452,0.0023282014299184084,-0.0066098240204155445,0.00460801413282752,-0.0005040188552811742,0.00033379331580363214
0.00880112498998642,0.0024330136366188526,-0.007124882657080889,0.004824136849492788,-0.0004780949093401432,0.0003117267624475062
0.009360834024846554,0.00231817620806396,-0.006572657730430365,0.004682119935750961,-0.0005242942133918405,0.0002966791798826307
0.008597806096076965,0.0023060464300215244,-0.006450531538575888,0.004241246730089188,-0.000551087548956275,0.0002833106555044651
0.00826206523925066,0.0027165678329765797,-0.006882898509502411,0.004401823505759239,-0.0005203601322136819,0.0002711141714826226
0.009214545600116253,0.0028971198480576277,-0.006685137748718262,0.004465609323233366,-0.000549579446669668,0.00025992587325163186
0.008760559372603893,0.0025051520206034184,-0.006273779086768627,0.0043610380962491035,-0.0005728433025069535,0.0002496243396308273
0.008678680285811424,0.0023818807676434517,-0.0064195855520665646,0.004452860448509455,-0.0005392094608396292,0.00024010904598981142
0.009006557054817677,0.0020894312765449286,-0.007026343140751123,0.00425523379817605,-0.0006536215078085661,0.00023129252076614648
0.009278508834540844,0.002016719663515687,-0.007128629367798567,0.004371714312583208,-0.0006816304521635175,0.00015078583965077996
0.008932030759751797,0.0022695462685078382,-0.006405364256352186,0.005000296980142593,-0.0006178559269756079,7.706259202677757e-05
0.009176202118396759,0.0022245445288717747,-0.005986582022160292,0.005252005998045206,-0.0006409753696061671,6.966661021579057e-05
0.009192291647195816,0.0022019457537680864,-0.0066497134976089,0.00479667354375124,-0.0006482761818915606,3.784260479733348e-05
0.008587868884205818,0.002170770661905408,-0.0076942890882492065,0.004448586609214544,-0.0006124172359704971,3.248234497732483e-05
0.009829669259488583,0.0021931487135589123,-0.006897966843098402,0.004362466279417276,-0.0006483473698608577,1.5867039110162295e-05
0.009216772392392159,0.0020890722516924143,-0.006645324174314737,0.004166130907833576,-0.000635199889075011,1.036004391608003e-06
0.008849103935062885,0.0022444389760494232,-0.006263289134949446,0.004290486685931683,-0.0006132338312454522,6.764368265521625e-08
0.008986922912299633,0.0026908128056675196,-0.0067548081278800964,0.004267418757081032,-0.0005535855889320374,4.416649268534911e-09
0.0101862121373415,0.0025211728643625975,-0.007335669826716185,0.004486143589019775,-0.0005799254286102951,2.883756289318029e-10
0.00910408515483141,0.0025829828809946775,-0.006698399316519499,0.00418235594406724,-0.0005356620531529188,1.8828870754217242e-11
0.00883545819669962,0.0026106047444045544,-0.00661275302991271,0.0042663197964429855,-0.0005548422341234982,1.2293907211691213e-12
0.009770716540515423,0.0022606707643717527,-0.007432108279317617,0.004306753631681204,-0.0005012570763938129,-0.00026705575874075294
0.008956135250627995,0.002437999239191413,-0.006760040298104286,0.0044856262393295765,-0.00046625343384221196,-0.0010254887165501714
0.009082794189453125,0.002343513537198305,-0.006658611353486776,0.00422285171225667,-0.00048542983131483197,-0.0010670700576156378
0.009120377711951733,0.0024791175965219736,-0.006749490275979042,0.0039825839921832085,-0.00046298152301460505,-0.001046432531438768
0.009086113423109055,0.0022161733359098434,-0.007390712853521109,0.004271022975444794,-0.0004798606096301228,-0.0012495140545070171
0.00924842432141304,0.002195401582866907,-0.0071452464908361435,0.004735905211418867,-0.00046103971544653177,-0.0013715161476284266
0.009844913147389889,0.002306610345840454,-0.006976135075092316,0.005221753381192684,-0.00048372644232586026,-0.001720743253827095
0.009468266740441322,0.0022727784235030413,-0.0065160347148776054,0.00465445825830102,-0.00046012180973775685,-0.0019292021170258522
0.009458555839955807,0.002608377253636718,-0.0072062062099576,0.004511546343564987,-0.0004357568104751408,-0.0025330474600195885
0.009458555839955807,0.002608377253636718,-0.0072062062099576,0.004511546343564987,-0.0004357568104751408,-0.0025330474600195885
0.009588564746081829,0.0032032032031565905,-0.007027714978903532,0.00437499862164259,-0.0004918327322229743,-0.0025574949104338884
0.009193671867251396,0.0027717386838048697,-0.006474662572145462,0.00475330138579011,-0.00044948470895178616,-0.002455500653013587
0.010005283169448376,0.00271243741735816,-0.006505862344056368,0.004952524788677692,-0.00046893488615751266,-0.0023398452904075384
0.009787078015506268,0.0022859303280711174,-0.006445311009883881,0.005177040584385395,-0.00044849677942693233,-0.0022902630735188723
0.009253338910639286,0.0021324092522263527,-0.007277577184140682,0.004953909199684858,-0.000415202637668699,-0.0025557500775903463
0.009704282507300377,0.0023345446679741144,-0.007137146312743425,0.004872143734246492,-0.0003856103285215795,-0.003021097742021084
0.009659554809331894,0.0023995644878596067,-0.006411442533135414,0.004803251940757036,-0.00035989785101264715,-0.0030048061162233353
0.009605704806745052,0.002633866388350725,-0.006590074393898249,0.004799836780875921,-0.0003373997751623392,-0.0028840864542871714
0.009197280742228031,0.0026411928702145815,-0.007520967163145542,0.005213445983827114,-0.0003565379884094,-0.0026817056350409985
0.009591522626578808,0.0024061722215265036,-0.007108921650797129,0.005144287832081318,-0.00034897917066700757,-0.002631178591400385
0.009446042589843273,0.002486950485035777,-0.0075470213778316975,0.0049039451405406,-0.0003314142522867769,-0.002664803760126233
0.0094227846711874,0.0026607513427734375,-0.006723715923726559,0.004691900219768286,-0.0003538427408784628,-0.003245430998504162
0.009978986345231533,0.002950982190668583,-0.006650492083281279,0.004742570221424103,-0.0003423526941332966,-0.0041777207516133785
0.009467200376093388,0.002850600751116872,-0.006942561361938715,0.004745074547827244,-0.0003271441091783345,-0.004931680858135223
0.009097862988710403,0.0028848685324192047,-0.006988366134464741,0.005191091913729906,-0.0003032263193745166,-0.004866249859333038
0.009571323171257973,0.0025195302441716194,-0.006796276196837425,0.004832667764276266,-0.0002821118396241218,-0.004521389026194811
0.009508711285889149,0.0023614605888724327,-0.00711709912866354,0.004531140439212322,-0.00029116933001205325,-0.004214037209749222
0.009769830852746964,0.0023158136755228043,-0.008137275464832783,0.005323334597051144,-0.0002988746273331344,-0.004401610232889652
0.009471149183809757,0.0024457343388348818,-0.0071312920190393925,0.005177326500415802,-0.0003078225126955658,-0.004836972337216139
0.009395006112754345,0.0024964904878288507,-0.008090193383395672,0.004724353086203337,-0.0003404300950933248,-0.004705153405666351
0.009792248718440533,0.0022484613582491875,-0.008533789776265621,0.004799125250428915,-0.00046020111767575145,-0.0047433809377253056
0.009784718975424767,0.002278540749102831,-0.007881591096520424,0.004863808862864971,-0.0005295990267768502,-0.004884765017777681
0.009743773378431797,0.002327784663066268,-0.006617541890591383,0.004977261647582054,-0.0005638729780912399,-0.004903153982013464
0.010160641744732857,0.002309944946318865,-0.007946851663291454,0.00489093828946352,-0.0005630947416648269,-0.005296757910400629
0.00967236328870058,0.0029423257801681757,-0.008578650653362274,0.004795394372195005,-0.0005523383151739836,-0.005410515237599611
0.01028462965041399,0.0030565611086785793,-0.008050129748880863,0.005053963977843523,-0.000545396760571748,-0.005893039051443338
0.009565780870616436,0.002865761751309037,-0.006940866820514202,0.005418923683464527,-0.0005370075232349336,-0.0059347753413021564
0.009837149642407894,0.002506789518520236,-0.008317537605762482,0.0050750235095620155,-0.0005610389052890241,-0.005959829315543175
0.010321644134819508,0.0019465606892481446,-0.008619243279099464,0.0045871795155107975,-0.0005513090873137116,-0.006204412784427404
0.009966786950826645,0.0020332825370132923,-0.007701154798269272,0.004809397738426924,-0.0004945281543768942,-0.006279126275330782
0.009966786950826645,0.0020332825370132923,-0.007701154798269272,0.004809397738426924,-0.0004945281543768942,-0.006279126275330782
0.009847340174019337,0.0021882900036871433,-0.007416961248964071,0.004947364795953035,-0.0005284111830405891,-0.006383261643350124
0.009982064366340637,0.0022245619911700487,-0.008640018291771412,0.005112305749207735,-0.0005253588897176087,-0.006619342602789402
0.010671200230717659,0.0026630316860973835,-0.008555539883673191,0.005865267012268305,-0.000517986249178648,-0.007035547401756048
0.010102037340402603,0.0024907290935516357,-0.008387370966374874,0.005596507806330919,-0.0005312325665727258,-0.006904021371155977
0.010612556710839272,0.002296814462170005,-0.008069297298789024,0.005357716232538223,-0.0005653572152368724,-0.0067223249934613705
0.010235014371573925,0.002277121879160404,-0.008535686880350113,0.005152073223143816,-0.0005526849417947233,-0.006901951041072607
0.009914321824908257,0.0025089846458286047,-0.0077836597338318825,0.005046284291893244,-0.0005873662303201854,-0.007074073422700167
0.010480274446308613,0.0024508920032531023,-0.008164696395397186,0.005655344109982252,-0.0006121576298028231,-0.0068847485817968845
0.010827985592186451,0.002686999272555113,-0.00858843233436346,0.005575354676693678,-0.0006377451354637742,-0.006583624519407749
0.009958675131201744,0.002630456816405058,-0.008373999036848545,0.005432066507637501,-0.0007247990579344332,-0.0070517961867153645
0.009772389195859432,0.0023787571117281914,-0.008064563386142254,0.005103361327201128,-0.0007309091743081808,-0.007027046289294958
0.010072502307593822,0.0018284771358594298,-0.007880449295043945,0.005538132507354021,-0.0007532156887464225,-0.007441931404173374
0.009717071428894997,0.0014706379733979702,-0.00880463421344757,0.005763784516602755,-0.0007712339283898473,-0.006982490420341492
0.009999018162488937,0.0013877088204026222,-0.008402809500694275,0.006222458556294441,-0.000765825214330107,-0.006442591547966003
0.01010020449757576,0.0013182120164856315,-0.008030316792428493,0.005608437117189169,-0.0007141235400922596,-0.006989105138927698
0.010160671547055244,0.0012587520759552717,-0.008507189340889454,0.005357638467103243,-0.0007249078480526805,-0.007534826174378395
0.009986503049731255,0.0020345551893115044,-0.008492507040500641,0.005071203224360943,-0.0007591432076878846,-0.0074495007283985615
0.009966064244508743,0.0018572311382740736,-0.007772567216306925,0.005346799734979868,-0.0007740863948129117,-0.007496784441173077
0.010064375586807728,0.0018023591255769134,-0.008952834643423557,0.005556190852075815,-0.0008676508441567421,-0.007969208061695099
0.010300066322088242,0.0015947010833770037,-0.008431837894022465,0.005375079810619354,-0.0009930107044056058,-0.008255776949226856
0.00965619832277298,0.0014533294597640634,-0.008356641046702862,0.005075625143945217,-0.0009874410461634398,-0.008375177159905434
0.010367167182266712,0.0011479499517008662,-0.009245568886399269,0.004935729317367077,-0.0009214877500198781,-0.008351578377187252
0.010089877061545849,0.0010860007023438811,-0.008608847856521606,0.0051440163515508175,-0.0010731167858466506,-0.008546476252377033
0.009668311104178429,0.0011911708861589432,-0.008258686400949955,0.005188177339732647,-0.0010648824973031878,-0.009498091414570808
0.010150117799639702,0.0014280042378231883,-0.008590677753090858,0.005848765838891268,-0.001040856004692614,-0.008787072263658047
0.010448888875544071,0.0015349171590059996,-0.00882671121507883,0.005490231793373823,-0.0009661350632086396,-0.008846447803080082
0.010448888875544071,0.0015349171590059996,-0.00882671121507883,0.005490231793373823,-0.0009661350632086396,-0.008846447803080082
0.009628416039049625,0.0018808876629918814,-0.008557627908885479,0.0056914882734417915,-0.000943112070672214,-0.008611369878053665
0.009961363859474659,0.001739507308229804,-0.008546659722924232,0.005461269058287144,-0.0008635137346573174,-0.008706577122211456
0.010100308805704117,0.0015636387979611754,-0.00876658409833908,0.005445205140858889,-0.0008004890405572951,-0.009276297874748707
0.010433916933834553,0.0012578440364450216,-0.008696913719177246,0.005744491703808308,-0.0007855778676457703,-0.008898305706679821
0.01122522633522749,0.0013033929280936718,-0.00851722713559866,0.005925620906054974,-0.0007215944933705032,-0.009419864974915981
0.010072926059365273,0.001269875094294548,-0.008539918810129166,0.005763049237430096,-0.0007166026625782251,-0.009215987287461758
0.009782054461538792,0.0011671046959236264,-0.008975213393568993,0.006036343984305859,-0.0006707233842462301,-0.009521611966192722
0.010165346786379814,0.0012442353181540966,-0.008511675521731377,0.005707727745175362,-0.0005864028353244066,-0.009570404887199402
0.010101153515279293,0.0012223782250657678,-0.008277646265923977,0.006031449418514967,-0.0005890632164664567,-0.00965685024857521
0.010453952476382256,0.0014774083392694592,-0.008809953927993774,0.006172526627779007,-0.0006307368166744709,-0.009869744069874287
0.0100883599370718,0.001424192450940609,-0.00853885430842638,0.005952318198978901,-0.0006564322975464165,-0.009701519273221493
0.01002710685133934,0.0015329772140830755,-0.00849842932075262,0.006232207175344229,-0.0009049999061971903,-0.009794213809072971
0.010547991842031479,0.0014589240308851004,-0.008526635356247425,0.006054685916751623,-0.0009583905921317637,-0.01018989086151123
0.009737765416502953,0.0014691947726532817,-0.009049941785633564,0.006423932500183582,-0.0009529347880743444,-0.010181774385273457
0.009807104244828224,0.0013522683875635266,-0.008577526547014713,0.006557630840688944,-0.0009460157598368824,-0.009791293181478977
0.0108336815610528,0.001213309820741415,-0.009312407113611698,0.005740074440836906,-0.0009974711574614048,-0.010471631772816181
0.010110209695994854,0.0011935729999095201,-0.008536646142601967,0.00625640107318759,-0.0009743436821736395,-0.010675276629626751
0.010671303607523441,0.0014368460979312658,-0.008019273169338703,0.006780041381716728,-0.0009475903352722526,-0.010566211305558681
0.012094690464437008,0.0013823033077642322,-0.008303813636302948,0.006650454830378294,-0.0009698498179204762,-0.010703527368605137
0.01231585443019867,0.0016271589556708932,-0.008519362658262253,0.006128618493676186,-0.0009796920930966735,-0.010927781462669373
0.012029935605823994,0.0015154354041442275,-0.008425054140388966,0.005538969300687313,-0.000978379976004362,-0.010869246907532215
0.011790274642407894,0.0014532136265188456,-0.00816687848418951,0.005813872441649437,-0.0009599541081115603,-0.011077279224991798
0.012214835733175278,0.0016216749791055918,-0.0084273312240839,0.006370875518769026,-0.0011150120990350842,-0.01160753145813942
0.011980127543210983,0.001565999467857182,-0.009089932776987553,0.006465333513915539,-0.001142500201240182,-0.011898075230419636
0.012485542334616184,0.0019241421250626445,-0.008136828429996967,0.005884706508368254,-0.0013915635645389557,-0.01223357580602169
0.012179914861917496,0.0017572048818692565,-0.008290600962936878,0.005826974753290415,-0.0014776835450902581,-0.012004316784441471
0.012255828827619553,0.0016847572987899184,-0.00891496054828167,0.006087393965572119,-0.0013782012974843383,-0.01205418724566698
0.012255828827619553,0.0016847572987899184,-0.00891496054828167,0.006087393965572119,-0.0013782012974843383,-0.01205418724566698
0.012568057514727116,0.0015662965597584844,-0.00848189927637577,0.006318732630461454,-0.001292468630708754,-0.011970032937824726
0.012348074465990067,0.0015391546767205,-0.008196375332772732,0.006486718542873859,-0.0011215804843232036,-0.011907815933227539
0.01248632837086916,0.0015788234304636717,-0.008888636715710163,0.006413373630493879,-0.0008955260855145752,-0.012213197536766529
0.012323844246566296,0.0014884785050526261,-0.008502727374434471,0.006185190286487341,-0.0008732751593925059,-0.012292658910155296
0.01262727566063404,0.0016807180363684893,-0.008164874278008938,0.006617323961108923,-0.0008755062008276582,-0.01245821826159954
0.01275615394115448,0.001717870938591659,-0.008438321761786938,0.00677030673250556,-0.0008784334640949965,-0.012159145437180996
0.012660186737775803,0.0017997974064201117,-0.008838650770485401,0.006262097042053938,-0.0008686844957992435,-0.012365262024104595
0.012536118738353252,0.0016664627473801374,-0.008240669034421444,0.005984040908515453,-0.000884461565874517,-0.012527142651379108
0.011847848072648048,0.0016323542222380638,-0.008295225910842419,0.0064698196947574615,-0.0008704464416950941,-0.011915077455341816
0.012566523626446724,0.001649507088586688,-0.00939393974840641,0.0066878460347652435,-0.0007907436811365187,-0.012098629027605057
0.012391682714223862,0.0015608802204951644,-0.008560551330447197,0.006620271597057581,-0.0007973757456056774,-0.01196874026209116
0.012788071297109127,0.0016544959507882595,-0.008199868723750114,0.006247469689697027,-0.0008014363120310009,-0.01203240267932415
0.012595000676810741,0.0016397432191297412,-0.008783777244389057,0.005988834425806999,-0.0008107119356282055,-0.011952796950936317
0.012768497690558434,0.0018136602593585849,-0.008333596400916576,0.006660114508122206,-0.0010664804140105844,-0.011757842265069485
0.012500833719968796,0.002039970364421606,-0.008226938545703888,0.006567851640284061,-0.0013093419838696718,-0.011654886417090893
0.013021629303693771,0.0019860602915287018,-0.008871035650372505,0.0063828276470303535,-0.0013281491119414568,-0.012078854255378246
0.012617649510502815,0.0018745517591014504,-0.008333219215273857,0.006554427556693554,-0.0016354141989722848,-0.012221090495586395
0.013112367130815983,0.0016845408827066422,-0.00789687316864729,0.006814159918576479,-0.0015351701295003295,-0.011846665292978287
0.012620373629033566,0.0016547197010368109,-0.009221919812262058,0.006663174834102392,-0.0014252966502681375,-0.012258005328476429
0.012991052120923996,0.0015074275434017181,-0.008610116317868233,0.006539580412209034,-0.0011965992162004113,-0.012364991940557957
0.012870070524513721,0.0015521276509389281,-0.008381709456443787,0.006631575990468264,-0.0011298881145194173,-0.012140434235334396
0.012870070524513721,0.0015521276509389281,-0.008381709456443787,0.006631575990468264,-0.0011298881145194173,-0.012140434235334396
0.013009222224354744,0.0015931620728224516,-0.008525311015546322,0.006539131049066782,-0.001018043956719339,-0.011986035853624344
0.013363925740122795,0.0016530895372852683,-0.008772039785981178,0.0070287748239934444,-0.0009321222314611077,-0.012629176490008831
0.012980611994862556,0.0016056939493864775,-0.00811715330928564,0.006850096397101879,-0.0009153317078016698,-0.012561149895191193
0.013036933727562428,0.0017223508330062032,-0.008128373883664608,0.006709607318043709,-0.0008164905593730509,-0.012403850443661213
0.012679042294621468,0.0015630671987310052,-0.00873973686248064,0.006685612723231316,-0.0007905230741016567,-0.012272202409803867
0.013036077842116356,0.0015919667202979326,-0.008757859468460083,0.006635305937379599,-0.0008752851863391697,-0.012391144409775734
0.013033399358391762,0.0014549712650477886,-0.0086397435516119,0.006893480662256479,-0.00109209050424397,-0.012824349105358124
0.013267355039715767,0.001394455088302493,-0.008974496275186539,0.00670890836045146,-0.0014227014034986496,-0.012701060622930527
0.013256018981337547,0.0013952999142929912,-0.008860456757247448,0.006677570752799511,-0.0013899628538638353,-0.013082464225590229
0.013566945679485798,0.0014189619105309248,-0.008772416040301323,0.007370577193796635,-0.0015667384723201394,-0.013056141324341297
0.013402351178228855,0.0013657714007422328,-0.008557382971048355,0.007900450378656387,-0.001458734623156488,-0.013237773440778255
0.013671048916876316,0.001455223304219544,-0.009118577465415001,0.006963038817048073,-0.0013682026183232665,-0.013220773078501225
0.01325961109250784,0.0014282058691605926,-0.008907405659556389,0.0064687891863286495,-0.0012872496154159307,-0.013269659131765366
0.013098910450935364,0.0017853121971711516,-0.008522738702595234,0.007366522680968046,-0.001255573472008109,-0.014900065027177334
0.013411483727395535,0.0016594365006312728,-0.009511835873126984,0.007714417763054371,-0.0011972744250670075,-0.013091840781271458
0.013370116241276264,0.001751209725625813,-0.009108793921768665,0.006860095541924238,-0.0011458037188276649,-0.01292572170495987
0.013885922729969025,0.0015673537272959948,-0.008983680978417397,0.0064284102991223335,-0.001122039626352489,-0.013464304618537426
0.01376629900187254,0.0013791498495265841,-0.008975611999630928,0.00732529116794467,-0.0010782068129628897,-0.014179120771586895
0.013633846305310726,0.0014160472201183438,-0.008574415929615498,0.007403932046145201,-0.001156318699941039,-0.01432963740080595
0.014182058162987232,0.001417379011400044,-0.009235511533915997,0.006981761194765568,-0.0011388283455744386,-0.014164846390485764
0.013623950071632862,0.001572580891661346,-0.00947111751884222,0.007096889428794384,-0.0011286798398941755,-0.01451665535569191
0.014501350000500679,0.0014547845348715782,-0.009087244980037212,0.006993037648499012,-0.0013133343309164047,-0.014676879160106182
0.013832391239702702,0.001531134475953877,-0.008540856651961803,0.006823522038757801,-0.0012585620861500502,-0.014737159945070744
0.013703751377761364,0.001441598986275494,-0.009287790395319462,0.006715542171150446,-0.0011995502281934023,-0.015209400095045567
0.013703751377761364,0.001441598986275494,-0.009287790395319462,0.006715542171150446,-0.0011995502281934023,-0.015209400095045567
0.0135304294526577,0.0013398323208093643,-0.009232589974999428,0.006814518943428993,-0.0012277283240109682,-0.01538567990064621
0.01394022349268198,0.0011253140401095152,-0.0093374727293849,0.007251889444887638,-0.0011687838705256581,-0.015160743147134781
0.01394022349268198,0.0011253140401095152,-0.0093374727293849,0.007251889444887638,-0.0011687838705256581,-0.015160743147134781
0.014278248883783817,0.001191281946375966,-0.009058447554707527,0.00746815325692296,-0.001282832003198564,-0.014646702446043491
0.014011562801897526,0.001240552170202136,-0.009576096199452877,0.006926114205271006,-0.0014155770186334848,-0.015079100616276264
0.01416078396141529,0.0012459952849894762,-0.009184049442410469,0.007010878995060921,-0.0018065929180011153,-0.015102936886250973
0.013867453671991825,0.0012957294238731265,-0.009545507840812206,0.007907439954578876,-0.001907448866404593,-0.015048244036734104
0.014759589917957783,0.0013070490676909685,-0.008781836368143559,0.007928665727376938,-0.0016528454143553972,-0.015311002731323242
0.014448325149714947,0.0012724886182695627,-0.009028356522321701,0.007735241204500198,-0.0013561652740463614,-0.015924638137221336
0.014720107428729534,0.0012153147254139185,-0.009333656169474125,0.007764259818941355,-0.0012274954933673143,-0.016098279505968094
0.014333300292491913,0.001165853813290596,-0.009877373464405537,0.0077925389632582664,-0.0011410750448703766,-0.01567472144961357
0.014580157585442066,0.001280711148865521,-0.00868130847811699,0.007709406316280365,-0.0011197897838428617,-0.01612977311015129
0.01452672854065895,0.0013817718718200922,-0.010170175693929195,0.007592249661684036,-0.0009300523670390248,-0.016213268041610718
0.01487874984741211,0.0016998766222968698,-0.009984021075069904,0.0077407886274158955,-0.0009043932077474892,-0.017002809792757034
0.014477923512458801,0.0015946278581395745,-0.00987723283469677,0.007703225128352642,-0.0009966713842004538,-0.016588401049375534
0.014530817046761513,0.0014684501802548766,-0.010451233945786953,0.007525831926614046,-0.0011860374361276627,-0.015908541157841682
0.01445196196436882,0.0012419396080076694,-0.010268590413033962,0.0073890844359993935,-0.0013056111056357622,-0.015776466578245163
0.014828369952738285,0.0011494270293042064,-0.009865882806479931,0.008044380694627762,-0.0012426486937329173,-0.01589041016995907
0.015445281751453876,0.0010848145466297865,-0.010417339392006397,0.007865792140364647,-0.001310933381319046,-0.016228104010224342
0.014545636251568794,0.0011593297822400928,-0.009941157884895802,0.007560477592051029,-0.0012993200216442347,-0.016604848206043243
0.015126325190067291,0.0011545958695933223,-0.010556381195783615,0.0077643925324082375,-0.0013334100367501378,-0.0170300155878067
0.014952674508094788,0.0011265977518633008,-0.010144049301743507,0.00763739924877882,-0.001295248162932694,-0.017201028764247894
0.015309508889913559,0.0013436701847240329,-0.010716273449361324,0.00737887853756547,-0.0013040293706580997,-0.017223231494426727
0.01488267071545124,0.001305155223235488,-0.010922550223767757,0.006924163084477186,-0.0012422612635418773,-0.016650287434458733
0.015572200529277325,0.0012352247722446918,-0.010176470503211021,0.007241355255246162,-0.0012202368816360831,-0.016844749450683594
0.0153404725715518,0.0010891674319282174,-0.01075725257396698,0.007288774475455284,-0.001175104291178286,-0.016720296815037727
0.0153404725715518,0.0010891674319282174,-0.01075725257396698,0.007288774475455284,-0.001175104291178286,-0.016720296815037727
0.015587731264531612,0.0009535038843750954,-0.010809773579239845,0.007263196166604757,-0.0011319887125864625,-0.016943439841270447
0.015553870238363743,0.0009425570024177432,-0.010009953752160072,0.006997640710324049,-0.0010601970134302974,-0.016844667494297028
0.01558025274425745,0.0009322263649664819,-0.010801169089972973,0.007262372877448797,-0.001040263450704515,-0.017017867416143417
0.01565265841782093,0.0009312460315413773,-0.010356771759688854,0.007373125292360783,-0.00102801073808223,-0.017439808696508408
0.015206491574645042,0.0008843118557706475,-0.010451331734657288,0.007767382077872753,-0.0010016374289989471,-0.017726868391036987
0.015419513918459415,0.0008886810392141342,-0.010717113502323627,0.007611692417412996,-0.0009999059839174151,-0.0175238735973835
0.015214301645755768,0.0009726474527269602,-0.010214255191385746,0.0080410772934556,-0.0010018665343523026,-0.01684032939374447
0.015965444967150688,0.0009061594028025866,-0.010547804646193981,0.007863783277571201,-0.0009868431370705366,-0.017216892912983894
0.015598606318235397,0.0010798885487020016,-0.01121907215565443,0.008069816045463085,-0.000974867376498878,-0.018103057518601418
0.015882793813943863,0.0010508918203413486,-0.010532079264521599,0.007904425263404846,-0.00098211329896003,-0.01839078962802887
0.01584349013864994,0.0009415092063136399,-0.011154460720717907,0.007856521755456924,-0.0009656275506131351,-0.017628846690058708
0.016243865713477135,0.0009348368039354682,-0.010533015243709087,0.007708511780947447,-0.0009552460396662354,-0.016152767464518547
0.015921084210276604,0.0008858715300448239,-0.010378008708357811,0.007634674198925495,-0.0009637827752158046,-0.01605108007788658
0.015986841171979904,0.0009859546553343534,-0.01134736929088831,0.007623340934514999,-0.001146631664596498,-0.017112823203206062
0.01638302206993103,0.0010146643035113811,-0.010452037677168846,0.008199757896363735,-0.0012382896384224296,-0.017086535692214966
0.01602756977081299,0.001375474501401186,-0.01059027947485447,0.00787672121077776,-0.0013451139675453305,-0.016980914399027824
0.016231423243880272,0.0013338149292394519,-0.011031216941773891,0.007920468226075172,-0.0014079655520617962,-0.01731012761592865
0.015975922346115112,0.0011181175941601396,-0.010236836038529873,0.008309665136039257,-0.0014144014567136765,-0.018055692315101624
0.016410503536462784,0.0009496146813035011,-0.010471859946846962,0.008566172793507576,-0.0013273133663460612,-0.018501032143831253
0.01604943908751011,0.0008251093095168471,-0.01071227341890335,0.008760463446378708,-0.0012434079544618726,-0.01716151088476181
0.01625709794461727,0.0007294938550330698,-0.010982301086187363,0.009254197590053082,-0.0011773586738854647,-0.017656732350587845
0.01599816605448723,0.0006732761394232512,-0.011199165135622025,0.009561543352901936,-0.0010054308222606778,-0.01844705641269684
0.016492081806063652,0.0005519274855032563,-0.01036670058965683,0.008682494051754475,-0.0008663077605888247,-0.018592922016978264
0.016084687784314156,0.0005254876450635493,-0.011765608564019203,0.008571024052798748,-0.00093187449965626,-0.01834685727953911
0.016737550497055054,0.000559748150408268,-0.010530700907111168,0.00876283086836338,-0.0009628108819015324,-0.01796448789536953
0.016566384583711624,0.0005888892919756472,-0.010723849758505821,0.008449551649391651,-0.0012203698279336095,-0.018066518008708954
0.016727713868021965,0.0005673547857441008,-0.011793429031968117,0.007859471254050732,-0.0014430411392822862,-0.018450981006026268
0.016494955867528915,0.0008695970172993839,-0.010534659028053284,0.007895789109170437,-0.0019655744545161724,-0.01897554285824299
0.016583673655986786,0.0007333735702559352,-0.011014990508556366,0.007764048874378204,-0.0017817136831581593,-0.019398780539631844
0.016583673655986786,0.0007333735702559352,-0.011014990508556366,0.007764048874378204,-0.0017817136831581593,-0.019398780539631844
0.016965627670288086,0.0007121551316231489,-0.011836061254143715,0.00803518109023571,-0.001603832934051752,-0.01925990916788578
0.017000336199998856,0.0006629935232922435,-0.011562253348529339,0.008271953091025352,-0.0012781387194991112,-0.019451774656772614
0.017433419823646545,0.0005909173632971942,-0.011337188072502613,0.007870021276175976,-0.0011440280359238386,-0.01932584121823311
0.01676056906580925,0.0005326077807694674,-0.010968777351081371,0.007919142954051495,-0.0010961003135889769,-0.019356992095708847
0.01700049638748169,0.0005374249303713441,-0.011242324486374855,0.008017574436962605,-0.0010851987171918154,-0.01935853622853756
0.016631292179226875,0.0005185843911021948,-0.011089139617979527,0.00831726286560297,-0.0011325797531753778,-0.019747262820601463
0.01504695788025856,0.0005241722683422267,-0.01009351760149002,0.00839165598154068,-0.0011178262066096067,-0.01993977651000023
0.017392363399267197,0.0005088691250421107,-0.010767792351543903,0.008061601780354977,-0.0013094567693769932,-0.020214803516864777
0.017450273036956787,0.0004800840397365391,-0.01048192661255598,0.00796249695122242,-0.0013901004567742348,-0.020549079403281212
0.01731044054031372,0.00037991878343746066,-0.010377692990005016,0.00801270455121994,-0.0014009266160428524,-0.020158231258392334
0.017338823527097702,0.00039523030864074826,-0.011063743382692337,0.008146408945322037,-0.0012680230429396033,-0.020327821373939514
0.017080144956707954,0.00038892150041647255,-0.010542466305196285,0.008277293294668198,-0.0012981012696400285,-0.02069137990474701
0.01817590557038784,0.00036306551191955805,-0.010453185997903347,0.008550362661480904,-0.001367616350762546,-0.02094096690416336
0.017606602981686592,0.00039454526267945766,-0.01126344595104456,0.008720608428120613,-0.0015972658293321729,-0.02098132111132145
0.017795035615563393,0.00037333538057282567,-0.010465193539857864,0.008604520931839943,-0.001664061681367457,-0.0208374485373497
0.01778624765574932,0.000352474715327844,-0.01042228378355503,0.008934169076383114,-0.0016409162199124694,-0.020799629390239716
0.017288899049162865,0.0003650302824098617,-0.010494029149413109,0.009078558534383774,-0.0016882746713235974,-0.02098204381763935
0.017983857542276382,0.00036206506774760783,-0.010945593006908894,0.008654908277094364,-0.0017207686323672533,-0.021001754328608513
0.0171959288418293,0.00040464699850417674,-0.010951804928481579,0.008858390152454376,-0.0016463961219415069,-0.021571356803178787
0.017902305349707603,0.0004457354370970279,-0.011616853065788746,0.008606196381151676,-0.0015266271075233817,-0.021401606500148773
0.018028624355793,0.00047316771815530956,-0.011496756225824356,0.008616968058049679,-0.001443987712264061,-0.020855724811553955
0.018301576375961304,0.0004471635911613703,-0.011246511712670326,0.009000862017273903,-0.0013708642218261957,-0.021234050393104553
0.018183445557951927,0.0004748043429572135,-0.011609179899096489,0.009179129265248775,-0.0014420764055103064,-0.021725334227085114
0.017978999763727188,0.0004475695895962417,-0.011257955804467201,0.008653439581394196,-0.001518509816378355,-0.022006619721651077
0.017978999763727188,0.0004475695895962417,-0.011257955804467201,0.008653439581394196,-0.001518509816378355,-0.022006619721651077
0.01836513727903366,0.0004214023647364229,-0.010952997021377087,0.008926957845687866,-0.001777500263415277,-0.021711712703108788
0.017497343942523003,0.0004953313618898392,-0.011030507273972034,0.008576951920986176,-0.0015827756142243743,-0.021781163290143013
0.017497343942523003,0.0004953313618898392,-0.011030507273972034,0.008576951920986176,-0.0015827756142243743,-0.021781163290143013
0.018518993631005287,0.0005049640312790871,-0.01081032957881689,0.008680405095219612,-0.0015612079296261072,-0.021896885707974434
0.01852194219827652,0.00048731156857684255,-0.011437099426984787,0.009363045915961266,-0.0015173079445958138,-0.021893709897994995
0.01847473904490471,0.00044730593799613416,-0.011121813207864761,0.009585157036781311,-0.0015653243754059076,-0.0223222766071558
0.018447011709213257,0.0004580336681101471,-0.011313916184008121,0.009027550928294659,-0.0016281346324831247,-0.022522591054439545
0.01841478794813156,0.0004473546869121492,-0.011222670786082745,0.009443637914955616,-0.0018442078726366162,-0.02232978120446205
0.018700461834669113,0.0004179665702395141,-0.010572732426226139,0.008949482813477516,-0.00167465687263757,-0.02218645252287388
0.018851878121495247,0.00039196142461150885,-0.011884275823831558,0.009273591451346874,-0.0015955629060044885,-0.022306818515062332
0.018500415608286858,0.00036900004488416016,-0.011557737365365028,0.009242255240678787,-0.0015928585780784488,-0.022591054439544678
0.01883314549922943,0.00034857960417866707,-0.011420528404414654,0.009520984254777431,-0.00178294547367841,-0.02259412780404091
0.019100328907370567,0.00037187692942097783,-0.011314505711197853,0.00886082835495472,-0.0018713277531787753,-0.02274394780397415
0.018651751801371574,0.00035860625212080777,-0.010987324640154839,0.009621058590710163,-0.0017256701830774546,-0.023207249119877815
0.019139587879180908,0.00034165833494625986,-0.011646115221083164,0.009154959581792355,-0.0014612608356401324,-0.023168720304965973
0.0188571996986866,0.00032618080149404705,-0.011465420946478844,0.008972877636551857,-0.0014441311359405518,-0.022789426147937775
0.0188798438757658,0.000294290017336607,-0.011221242137253284,0.008781202137470245,-0.0014183034654706717,-0.022947074845433235
0.019388262182474136,0.0002756935136858374,-0.011607051827013493,0.009267818182706833,-0.0015841203276067972,-0.023130998015403748
0.01908845640718937,0.00025976833421736956,-0.011239929124712944,0.009019540622830391,-0.001639542169868946,-0.023305892944335938
0.018858077004551888,0.00029401155188679695,-0.011619127355515957,0.008922197856009007,-0.0017875167541205883,-0.02334962785243988
0.019297223538160324,0.00029472456662915647,-0.011524726636707783,0.009483198635280132,-0.0017788764089345932,-0.02342868782579899
0.019297223538160324,0.00029472456662915647,-0.011524726636707783,0.009483198635280132,-0.0017788764089345932,-0.02342868782579899
0.019468307495117188,0.00028221093816682696,-0.011318430304527283,0.00987935345619917,-0.0015470617217943072,-0.022883184254169464
0.019610146060585976,0.00030815915670245886,-0.011776145547628403,0.009004964493215084,-0.0014335064915940166,-0.023505447432398796
0.01930704154074192,0.0002960014098789543,-0.011722375638782978,0.008337904699146748,-0.0013672774657607079,-0.02435591258108616
0.01999993436038494,0.00028467399533838034,-0.01196140144020319,0.009135250002145767,-0.0013138976646587253,-0.02419097349047661
0.02000981941819191,0.0003794554795604199,-0.012172786518931389,0.010090556927025318,-0.001501692458987236,-0.023964976891875267
0.02000981941819191,0.0003794554795604199,-0.012172786518931389,0.010090556927025318,-0.001501692458987236,-0.023964976891875267
0.020403677597641945,0.0003259769291616976,-0.01205659843981266,0.009145572781562805,-0.002296855440363288,-0.02352164499461651
0.020403677597641945,0.0003259769291616976,-0.01205659843981266,0.009145572781562805,-0.002296855440363288,-0.02352164499461651
0.02018226496875286,0.00030395371140912175,-0.011507552117109299,0.009070033207535744,-0.0022613471373915672,-0.02417910471558571
0.019983740523457527,0.0003408476186450571,-0.012027880176901817,0.008853157982230186,-0.0021548266522586346,-0.02480560727417469
0.02028002217411995,0.00035636499524116516,-0.011827103793621063,0.009031039662659168,-0.001777799567207694,-0.02491237409412861
0.019546397030353546,0.0003535776922944933,-0.012414272874593735,0.009567760862410069,-0.0017309878021478653,-0.024982621893286705
0.020026657730340958,0.000382185768103227,-0.012102979235351086,0.009464846923947334,-0.0016348931239917874,-0.025126278400421143
0.02049824967980385,0.00045354568283073604,-0.012162684462964535,0.009601186029613018,-0.0018303830875083804,-0.02581813558936119
0.020418653264641762,0.0004532796156127006,-0.01296110451221466,0.009434552863240242,-0.0018991089891642332,-0.02438768371939659
0.020738089457154274,0.0004660736885853112,-0.01240086555480957,0.009376509115099907,-0.0019366381457075477,-0.023862583562731743
0.02016976848244667,0.00045288619003258646,-0.012409033253788948,0.009260622784495354,-0.0017859829822555184,-0.02405669167637825
0.020360693335533142,0.0004181566764600575,-0.012049141339957714,0.009406543336808681,-0.0016855932772159576,-0.024580664932727814
0.02018245868384838,0.00038810112164355814,-0.012052077800035477,0.009038850665092468,-0.001531074638478458,-0.025397352874279022
0.019523410126566887,0.00041991236503235996,-0.012995520606637001,0.008838597685098648,-0.0014930428005754948,-0.025708595290780067
0.020083436742424965,0.0003958356974180788,-0.012342273257672787,0.009544294327497482,-0.0015162019990384579,-0.025299550965428352
0.021023442968726158,0.00037246220745146275,-0.012487654574215412,0.009611198678612709,-0.00145896861795336,-0.024988872930407524
0.019872108474373817,0.00037499325117096305,-0.012639123946428299,0.00972139835357666,-0.0016099627828225493,-0.02496643364429474
0.020776689052581787,0.0003614641900639981,-0.01282959058880806,0.009885374456644058,-0.0019926740787923336,-0.025457102805376053
0.02119951881468296,0.00034425145713612437,-0.01248000655323267,0.00937660038471222,-0.001990391407161951,-0.025808697566390038
0.02067943662405014,0.000341201142873615,-0.012682213447988033,0.009075545705854893,-0.0022122955415397882,-0.025927700102329254
0.020488791167736053,0.0003178708429913968,-0.012575958855450153,0.010027271695435047,-0.002049317117780447,-0.025606811046600342
0.020488791167736053,0.0003178708429913968,-0.012575958855450153,0.010027271695435047,-0.002049317117780447,-0.025606811046600342
0.02130817249417305,0.000296904006972909,-0.013258072547614574,0.009339788928627968,-0.0020918110385537148,-0.026107892394065857
0.020743070170283318,0.00033192470436915755,-0.01257968507707119,0.00982937216758728,-0.0019350379006937146,-0.026787446811795235
0.020104022696614265,0.0003147146780975163,-0.012802264653146267,0.010550340637564659,-0.001959474990144372,-0.02634025178849697
0.02064686268568039,0.00029740799800492823,-0.012869114987552166,0.009586418978869915,-0.0018466102192178369,-0.02578181028366089
0.02100583165884018,0.00032693377579562366,-0.013204230926930904,0.009793408215045929,-0.001976638101041317,-0.02580801397562027
0.020831793546676636,0.0003125201037619263,-0.013224278576672077,0.010429557412862778,-0.0018328545847907662,-0.025869637727737427
0.020833361893892288,0.0002977718540932983,-0.013485162518918514,0.010072429664433002,-0.0017627335619181395,-0.026822427287697792
0.02125697396695614,0.00032329323585145175,-0.013359944336116314,0.01091598067432642,-0.0017738206079229712,-0.026276711374521255
0.020997654646635056,0.0003108964010607451,-0.012963966466486454,0.010401478968560696,-0.00183379917871207,-0.025993555784225464
0.020959027111530304,0.00026519669336266816,-0.013875171542167664,0.010455832816660404,-0.001841991557739675,-0.026875661686062813
0.021011844277381897,0.00025048284442164004,-0.013159677386283875,0.010089369490742683,-0.001812906819395721,-0.027445491403341293
0.02119523286819458,0.00016864390636328608,-0.01335835736244917,0.010792283341288567,-0.0016924523515626788,-0.026325510814785957
0.021223794668912888,0.00012278076610527933,-0.013049175031483173,0.010483263991773129,-0.0015649482375010848,-0.025866806507110596
0.021086562424898148,0.00017093413043767214,-0.013529458083212376,0.010680201463401318,-0.0015927387867122889,-0.026370981708168983
0.021119948476552963,0.00016146311827469617,-0.013500028289854527,0.01047521736472845,-0.001517951488494873,-0.02725674770772457
0.021100884303450584,0.00015236153558362275,-0.013760934583842754,0.010490911081433296,-0.001905275508761406,-0.027718860656023026
0.020818492397665977,0.00014422170352190733,-0.01305075641721487,0.010616113431751728,-0.0020918173249810934,-0.027552297338843346
0.020942693576216698,0.00013690843479707837,-0.014171238988637924,0.01058800145983696,-0.002389477100223303,-0.027362193912267685
0.02126128040254116,-0.00010963714885292575,-0.013038418255746365,0.010333449579775333,-0.0022343723103404045,-0.027257803827524185
0.021297099068760872,-9.783710265764967e-05,-0.013552523218095303,0.010093457996845245,-0.002072742907330394,-0.027700571343302727
0.02106291614472866,-8.824088581604883e-05,-0.013745863921940327,0.010785040445625782,-0.0019360128790140152,-0.027594413608312607
0.0210532508790493,-8.035881182877347e-05,-0.01415631826967001,0.01036918256431818,-0.0019154124893248081,-0.02753785252571106
0.02242598868906498,-7.376965368166566e-05,-0.012991208583116531,0.01004357822239399,-0.0019059095066040754,-0.027806414291262627
0.021588005125522614,-6.817960093030706e-05,-0.013054394163191319,0.01013375073671341,-0.001885229372419417,-0.028372542932629585
0.02158813737332821,-6.337711965898052e-05,-0.013325467705726624,0.010015586391091347,-0.0018918383866548538,-0.028212999925017357
0.02165311388671398,-5.920733019593172e-05,-0.014239025302231312,0.010321534238755703,-0.0019054478034377098,-0.028122371062636375
0.02165311388671398,-5.920733019593172e-05,-0.014239025302231312,0.010321534238755703,-0.0019054478034377098,-0.028122371062636375
0.021674685180187225,-5.555190364248119e-05,-0.013229119591414928,0.010367291048169136,-0.0019078833283856511,-0.028102321550250053
0.021634479984641075,-5.2322026022011414e-05,-0.013705209828913212,0.01029732171446085,-0.0017417367780581117,-0.028387384489178658
0.021415704861283302,-4.944689862895757e-05,-0.013160753063857555,0.010846112854778767,-0.001798237324692309,-0.02838570438325405
0.022547967731952667,-4.687175896833651e-05,-0.013826476410031319,0.01107749156653881,-0.0017909782472997904,-0.029176490381360054
0.02326056733727455,-4.4551165046868846e-05,-0.013510687276721,0.010292595252394676,-0.0018729094881564379,-0.02936374954879284
0.02274923585355282,-7.027768151601776e-05,-0.013466141186654568,0.01070111058652401,-0.001881929929368198,-0.02879319339990616
0.022547626867890358,-8.087895548669621e-05,-0.013439152389764786,0.0108844805508852,-0.0021305771078914404,-0.028707990422844887
0.02164303883910179,-7.757807179586962e-05,-0.013832059688866138,0.010429460555315018,-0.0023360601626336575,-0.029400769621133804
0.02264389395713806,-7.437470776494592e-05,-0.013723312877118587,0.011472288519144058,-0.002216270426288247,-0.029874194413423538
0.022535666823387146,-7.142367394408211e-05,-0.013263100758194923,0.010992484167218208,-0.0022336666006594896,-0.029807278886437416
0.02278086729347706,-6.869745266158134e-05,-0.01376514881849289,0.01052173413336277,-0.002071081893518567,-0.029764540493488312
0.02225511334836483,-6.617212784476578e-05,-0.013498046435415745,0.010913915932178497,-0.0021635477896779776,-0.030152158811688423
0.0228025633841753,-6.382553692674264e-05,-0.013703844510018826,0.010671460069715977,-0.0020378492772579193,-0.030542120337486267
0.023804841563105583,-6.163983925944194e-05,-0.012974672950804234,0.011097134090960026,-0.002188899088650942,-0.030857834964990616
0.02356955036520958,-5.959886766504496e-05,-0.013885500840842724,0.011342005804181099,-0.0023495443165302277,-0.0306421909481287
0.02315465919673443,-5.7688914239406586e-05,-0.013633879832923412,0.010606964118778706,-0.0023168539628386497,-0.030599787831306458
0.023011377081274986,-5.5897362472023815e-05,-0.01396082155406475,0.011677921749651432,-0.0023476360365748405,-0.03049756959080696
0.02270689606666565,-5.4213713156059384e-05,-0.013212609104812145,0.01171805802732706,-0.0021503507159650326,-0.03062707558274269
0.023212382569909096,-5.26286312378943e-05,-0.013484285213053226,0.01147665735334158,-0.002246604301035404,-0.03046986646950245
0.02387661300599575,-5.113364750286564e-05,-0.013237304985523224,0.011738480068743229,-0.002161730546504259,-0.03062007948756218
0.02409745752811432,-4.972113674739376e-05,-0.014003811404109001,0.011286423541605473,-0.0021724586840718985,-0.03094949573278427
0.02376723103225231,-7.035258022369817e-05,-0.013552569784224033,0.011896941810846329,-0.0025909962132573128,-0.030583012849092484
0.024298464879393578,-6.88700019964017e-05,-0.013676539063453674,0.011579681187868118,-0.0026150718331336975,-0.031972724944353104
0.024120813235640526,-6.716100324410945e-05,-0.013932873494923115,0.011834035627543926,-0.0025549842976033688,-0.03300512582063675
0.023880137130618095,-6.553102139150724e-05,-0.013887991197407246,0.011581513099372387,-0.0024838512763381004,-0.032177459448575974
0.02396802231669426,-6.397836841642857e-05,-0.013406475074589252,0.012047166004776955,-0.0022942698560655117,-0.03088010661303997
0.02241360768675804,-6.249739817576483e-05,-0.013902849517762661,0.011828072369098663,-0.002202108269557357,-0.03107924945652485
0.024701256304979324,-6.108356319600716e-05,-0.013529343530535698,0.011800718493759632,-0.0021911647636443377,-0.03253567963838577
0.024879446253180504,-5.9732199588324875e-05,-0.013888685964047909,0.012235644273459911,-0.002306703943759203,-0.03309560939669609
0.024879446253180504,-5.9732199588324875e-05,-0.013888685964047909,0.012235644273459911,-0.002306703943759203,-0.03309560939669609
0.024646079167723656,-5.843935286975466e-05,-0.013450480997562408,0.01179881114512682,-0.002382065402343869,-0.03371364623308182
0.024921853095293045,-6.97440846124664e-05,-0.014394075609743595,0.012045279145240784,-0.0023247532080858946,-0.033980902284383774
0.024938268586993217,-7.459858170477673e-05,-0.01410101167857647,0.011886502616107464,-0.0024543970357626677,-0.03231523558497429
0.025079693645238876,-7.316700066439807e-05,-0.01436598226428032,0.012429921887814999,-0.002729876199737191,-0.03215062990784645
0.024819092825055122,-7.171070319600403e-05,-0.0136493481695652,0.012210587039589882,-0.002908420981839299,-0.03359810262918472
0.024602696299552917,-7.031013228697702e-05,-0.014340502209961414,0.011482352390885353,-0.002894280944019556,-0.034066494554281235
0.025189034640789032,-6.896323611726984e-05,-0.013841756619513035,0.01216744352132082,-0.0025241493713110685,-0.03383989632129669
0.025284571573138237,-6.766700971638784e-05,-0.014360430650413036,0.011450812220573425,-0.0022933916188776493,-0.03337980434298515
0.025556951761245728,-6.641854997724295e-05,-0.013579703867435455,0.011627715080976486,-0.00197236193343997,-0.033401165157556534
0.025647984817624092,-9.143966599367559e-05,-0.014305616728961468,0.011756394058465958,-0.001910360180772841,-0.03396345302462578
0.02585521712899208,-9.065453195944428e-05,-0.013873947784304619,0.011565901339054108,-0.0020819250494241714,-0.03453434258699417
0.025847846642136574,-8.887829608283937e-05,-0.015026510693132877,0.012128299102187157,-0.0019737749826163054,-0.034281082451343536
0.025986699387431145,-8.715711010154337e-05,-0.014332775957882404,0.012025004252791405,-0.0023166898172348738,-0.034546416252851486
0.026103025302290916,-8.550110214855522e-05,-0.014556186273694038,0.012920894660055637,-0.0024421163834631443,-0.03417331725358963
0.026064535602927208,-8.390691800741479e-05,-0.014070519246160984,0.012005147524178028,-0.0023145577870309353,-0.035495419055223465
0.026398418471217155,-8.237098518293351e-05,-0.015058078803122044,0.011673877015709877,-0.0023046215064823627,-0.035276591777801514
0.026818551123142242,-9.532902913633734e-05,-0.015699900686740875,0.01187142264097929,-0.0024639840703457594,-0.03427119553089142
0.026834089308977127,-9.36995493248105e-05,-0.014853565953671932,0.012056367471814156,-0.0028551097493618727,-0.03565344959497452
0.026644885540008545,-9.210170537699014e-05,-0.014781518839299679,0.011689018458127975,-0.0027750483714044094,-0.03565972298383713
0.02664671465754509,-9.055720875039697e-05,-0.01475345715880394,0.011825235560536385,-0.002591362688690424,-0.035957660526037216
0.02723541669547558,-8.906357834348455e-05,-0.015352480113506317,0.012080132029950619,-0.0024431031197309494,-0.036422163248062134
0.027885138988494873,-0.00010051629942608997,-0.01484540943056345,0.011610781773924828,-0.0025475076399743557,-0.035205792635679245
0.028108958154916763,-0.00010056666360469535,-0.01491793803870678,0.011571875773370266,-0.002429547253996134,-0.0349450558423996
0.026746386662125587,-9.900840814225376e-05,-0.015227100811898708,0.011461553163826466,-0.00252692773938179,-0.03604956716299057
0.02637624181807041,-9.747680451255292e-05,-0.015021633356809616,0.012179828248918056,-0.00231974758207798,-0.036414697766304016
0.027915572747588158,-0.00010810409003170207,-0.015381796285510063,0.012042645364999771,-0.0024912697263062,-0.03626835718750954
0.027811773121356964,-0.00010803680925164372,-0.014927485026419163,0.01180854719132185,-0.0024856487289071083,-0.03614459186792374
0.027811773121356964,-0.00010803680925164372,-0.014927485026419163,0.01180854719132185,-0.0024856487289071083,-0.03614459186792374
0.027800358831882477,-0.00010490939166629687,-0.014772382564842701,0.012555984780192375,-0.0025042123161256313,-0.03675564378499985
0.027800358831882477,-0.00010490939166629687,-0.014772382564842701,0.012555984780192375,-0.0025042123161256313,-0.03675564378499985
0.02852766402065754,-0.00010340272274333984,-0.015235206112265587,0.013093695975840092,-0.0024396420922130346,-0.0364486500620842
0.028031090274453163,-0.0001645097363507375,-0.014883235096931458,0.012887317687273026,-0.0024037028197199106,-0.037327997386455536
0.02742914855480194,-0.00018886754696723074,-0.015489866025745869,0.013378669507801533,-0.002734970301389694,-0.03720888867974281
0.02728293277323246,-0.0001816626900108531,-0.015021744184195995,0.013147507794201374,-0.002908301306888461,-0.03657948970794678
0.028513159602880478,-0.00017461854440625757,-0.015397193841636181,0.013520020060241222,-0.0028894608840346336,-0.03730254992842674
0.02828165329992771,-0.00019016275473404676,-0.014684408903121948,0.013159671798348427,-0.0025922590866684914,-0.03692479804158211
0.02828666754066944,-0.00019429597887210548,-0.015450123697519302,0.013168171979486942,-0.0022321317810565233,-0.03717672824859619
0.028323179110884666,-0.00018769003509078175,-0.015420923009514809,0.013472767546772957,-0.002177559770643711,-0.03802819922566414
0.02826770953834057,-0.00021039528655819595,-0.015770526602864265,0.013428605161607265,-0.0023125126026570797,-0.03837137296795845
0.028004681691527367,-0.00020472455071285367,-0.015238113701343536,0.013732407242059708,-0.0025293068028986454,-0.038270093500614166
0.028059111908078194,-0.00022548018023371696,-0.015470247715711594,0.01352295558899641,-0.002541918773204088,-0.03807735815644264
0.028190674260258675,-0.00021969348017591983,-0.015910884365439415,0.013759719207882881,-0.0026297923177480698,-0.0383228063583374
0.028361305594444275,-0.00021320268569979817,-0.015496280044317245,0.013267937116324902,-0.0026555333752185106,-0.038482584059238434
0.02867799997329712,-0.0002012822515098378,-0.015393800102174282,0.01331365667283535,-0.0026381569914519787,-0.03891934081912041
0.02863306552171707,-0.0003082281327806413,-0.015730172395706177,0.013917484320700169,-0.0025719322729855776,-0.03911743685603142
0.02894233539700508,-0.00029288409859873354,-0.015222866088151932,0.013398751616477966,-0.002584603847935796,-0.03927070274949074
0.029068216681480408,-0.0003110334218945354,-0.015948278829455376,0.01363365724682808,-0.0027374301571398973,-0.03985001891851425
0.029126742854714394,-0.00031078504980541766,-0.015507075935602188,0.013342068530619144,-0.002562559675425291,-0.03891555964946747
0.028862623497843742,-0.0002940939157269895,-0.015932364389300346,0.013605242595076561,-0.002569513162598014,-0.03978351876139641
0.027986114844679832,-0.0002789052959997207,-0.015623737126588821,0.01353839598596096,-0.0027268321719020605,-0.041089147329330444
0.02952641248703003,-0.00030878494726493955,-0.01593746803700924,0.013421685434877872,-0.0030719938222318888,-0.04168977960944176
0.030566541478037834,-0.00033204854116775095,-0.016224471852183342,0.013329298235476017,-0.0030846332665532827,-0.040723394602537155
0.030562110245227814,-0.00032191333593800664,-0.016241680830717087,0.013140651397407055,-0.0030405877623707056,-0.039389465004205704
0.029532182961702347,-0.0003081957984250039,-0.016434961929917336,0.013731857761740685,-0.0029949424788355827,-0.04089271277189255
0.029532182961702347,-0.0003081957984250039,-0.016434961929917336,0.013731857761740685,-0.0029949424788355827,-0.04089271277189255
0.029047446325421333,-0.00040080538019537926,-0.015839632600545883,0.0135086290538311,-0.003008561674505472,-0.041313111782073975
0.029507240280508995,-0.00038086858694441617,-0.01609945483505726,0.013870916329324245,-0.003135153790935874,-0.042371515184640884
0.030387545004487038,-0.0003513142291922122,-0.015801185742020607,0.013456176035106182,-0.0030720578506588936,-0.041480764746665955
0.03010975755751133,-0.0003883261524606496,-0.01659109629690647,0.013666355982422829,-0.003014814108610153,-0.03975605592131615
0.030509550124406815,-0.0003645959368441254,-0.016004040837287903,0.013659767806529999,-0.0026963341515511274,-0.04136046767234802
0.03074459545314312,-0.00039168065995909274,-0.015831151977181435,0.014099488966166973,-0.002462805015966296,-0.041910525411367416
0.031100405380129814,-0.00037469007656909525,-0.01626158505678177,0.01379709504544735,-0.0026559431571513414,-0.04226704314351082
0.030254775658249855,-0.00040218891808763146,-0.01631992496550083,0.014291789382696152,-0.002645805012434721,-0.04212868958711624
0.02987779676914215,-0.0004787003854289651,-0.01694585755467415,0.014037725515663624,-0.002904711291193962,-0.04228293523192406
0.03045537881553173,-0.0004759664589073509,-0.016172287985682487,0.014135303907096386,-0.0027162067126482725,-0.04246802255511284
0.030469441786408424,-0.0005159302963875234,-0.016617324203252792,0.013756390661001205,-0.00262010027654469,-0.042204804718494415
0.030550146475434303,-0.00047197562525980175,-0.016206327825784683,0.014131956733763218,-0.0027531548403203487,-0.042645011097192764
0.030689924955368042,-0.0005053260247223079,-0.01639912649989128,0.01388490293174982,-0.0031631202436983585,-0.041725754737854004
0.030507413670420647,-0.0005124127492308617,-0.016517022624611855,0.014124659821391106,-0.0030200649052858353,-0.042641203850507736
0.03004700131714344,-0.0004982440150342882,-0.016047781333327293,0.013705489225685596,-0.002902200212702155,-0.04459265619516373
0.030493680387735367,-0.0005656566354446113,-0.017001817002892494,0.0139755355194211,-0.002700583077967167,-0.04256388545036316
0.03061547689139843,-0.00058434356469661,-0.0170980803668499,0.013784526847302914,-0.002741806907579303,-0.042134057730436325
0.030739586800336838,-0.0006143124192021787,-0.017011163756251335,0.013891422189772129,-0.0030440324917435646,-0.04309752583503723
0.031144995242357254,-0.000631184782832861,-0.017390519380569458,0.014112918637692928,-0.0029674714896827936,-0.045051753520965576
0.03179166838526726,-0.0005942719290032983,-0.017505664378404617,0.014235515147447586,-0.00304578710347414,-0.04326470196247101
0.029817750677466393,-0.0007993122562766075,-0.01710779033601284,0.014345685951411724,-0.002888523042201996,-0.042668115347623825
0.032012730836868286,-0.0008153349626809359,-0.017750432714819908,0.014698783867061138,-0.0028548729605972767,-0.04382020980119705
0.03169485926628113,-0.0007555248448625207,-0.017490381374955177,0.014212789945304394,-0.0027165808714926243,-0.044723693281412125
0.03169485926628113,-0.0007555248448625207,-0.017490381374955177,0.014212789945304394,-0.0027165808714926243,-0.044723693281412125
0.03144326061010361,-0.000863065361045301,-0.018072471022605896,0.014360248111188412,-0.0030355118215084076,-0.043278418481349945
0.03194688633084297,-0.0008858969085849822,-0.0180803295224905,0.014362899586558342,-0.0031266389414668083,-0.04557625576853752
0.032374944537878036,-0.0008916760561987758,-0.018243487924337387,0.014276633970439434,-0.003047078615054488,-0.04619130492210388
0.03215187415480614,-0.0009052400710061193,-0.01809697598218918,0.014199436642229557,-0.003052470739930868,-0.04571503400802612
0.03215187415480614,-0.0009052400710061193,-0.01809697598218918,0.014199436642229557,-0.003052470739930868,-0.04571503400802612
0.03267436847090721,-0.0011555865639820695,-0.01785942353308201,0.014531285502016544,-0.0031333391088992357,-0.045756980776786804
0.03270724415779114,-0.0011263455962762237,-0.018376629799604416,0.014649794436991215,-0.0030528956558555365,-0.045874979346990585
0.03297074884176254,-0.001109126373194158,-0.01890883594751358,0.01420519407838583,-0.0028610716108232737,-0.04612647742033005
0.03267652541399002,-0.0013058173935860395,-0.01828809455037117,0.014277298003435135,-0.0031771878711879253,-0.04679500311613083
0.032728251069784164,-0.0013632631162181497,-0.019215766340494156,0.014626916497945786,-0.003124222857877612,-0.04679504781961441
0.0326935350894928,-0.0014531789347529411,-0.01847776770591736,0.014667165465652943,-0.0033185104839503765,-0.04629930108785629
0.0323563851416111,-0.001711530378088355,-0.01789708435535431,0.015019974671304226,-0.003458612132817507,-0.0464598573744297
0.03292955458164215,-0.002038040431216359,-0.01868230663239956,0.01467452198266983,-0.003437143750488758,-0.04692507162690163
0.033920418471097946,-0.0020146777387708426,-0.018195753917098045,0.014540273696184158,-0.00305473105981946,-0.04690391570329666
0.034189820289611816,-0.0021923501044511795,-0.018537556752562523,0.014726589433848858,-0.003379584290087223,-0.046784739941358566
0.03246337175369263,-0.002090174937620759,-0.018748022615909576,0.01483834721148014,-0.003261120058596134,-0.04706226661801338
0.03247973322868347,-0.002003889065235853,-0.017995156347751617,0.014765969477593899,-0.0030761694069951773,-0.047562915831804276
0.03376634791493416,-0.0019526162650436163,-0.018726099282503128,0.01485912874341011,-0.003158945357427001,-0.046690117567777634
0.033314093947410583,-0.002184022683650255,-0.019787007942795753,0.014554665423929691,-0.003249929053708911,-0.048564232885837555
0.03436373174190521,-0.002037957776337862,-0.018655339255928993,0.01514274813234806,-0.0030482092406600714,-0.04941089451313019
0.03433696925640106,-0.0024794789496809244,-0.018801063299179077,0.015251454897224903,-0.0033658412285149097,-0.047119446098804474
0.03372488543391228,-0.002369543071836233,-0.01906539499759674,0.015821944922208786,-0.003934680949896574,-0.04681919515132904
0.03286995366215706,-0.002275566104799509,-0.018702656030654907,0.015290561132133007,-0.0037337103858590126,-0.048527441918849945
0.03469766303896904,-0.0021250774152576923,-0.018757451325654984,0.015338834375143051,-0.003214471507817507,-0.04842605069279671
0.033032629638910294,-0.0024592794943600893,-0.018542582169175148,0.016402190551161766,-0.0029641971923410892,-0.048195913434028625
0.03507129102945328,-0.002770972205325961,-0.01929463818669319,0.016108578070998192,-0.0028183618560433388,-0.04881301894783974
0.03477073833346367,-0.002957285614684224,-0.018983475863933563,0.01631292887032032,-0.003000434720888734,-0.04904250428080559
0.03405976668000221,-0.002654322190210223,-0.018959462642669678,0.01605042815208435,-0.0033384275157004595,-0.04902578890323639
0.03462693840265274,-0.002351985312998295,-0.019537346437573433,0.015355154871940613,-0.003682707203552127,-0.04927128180861473
0.03560473769903183,-0.0022309315390884876,-0.019265882670879364,0.015504114329814911,-0.003811458358541131,-0.05018649622797966
0.03560473769903183,-0.0022309315390884876,-0.019265882670879364,0.015504114329814911,-0.003811458358541131,-0.05018649622797966
0.03449806943535805,-0.0023423044476658106,-0.018626131117343903,0.015211755409836769,-0.0033768622670322657,-0.04963849484920502
0.03513322398066521,-0.0025060533080250025,-0.01917891949415207,0.015434212051331997,-0.0030992261599749327,-0.04984649270772934
0.03497704491019249,-0.0024835194926708937,-0.018741438165307045,0.015406749211251736,-0.0029404109809547663,-0.04985623434185982
0.03507918119430542,-0.002479839138686657,-0.01899288408458233,0.01629152148962021,-0.0030178362503647804,-0.05008783936500549
0.03504515066742897,-0.002451683394610882,-0.019531438127160072,0.016284795477986336,-0.003161983098834753,-0.05207395926117897
0.03536556661128998,-0.002275928156450391,-0.019403578713536263,0.016348736360669136,-0.0030336889903992414,-0.05036136507987976
0.036656804382801056,-0.0024985780473798513,-0.019402973353862762,0.01595228537917137,-0.0031094206497073174,-0.04851561412215233
0.035402148962020874,-0.0022623594850301743,-0.019593466073274612,0.015482895076274872,-0.0032657196279615164,-0.05051055923104286
0.03449314460158348,-0.0025594523176550865,-0.019383957609534264,0.015503808856010437,-0.0036032807547599077,-0.05329098179936409
0.03586142137646675,-0.0027486393228173256,-0.019079215824604034,0.015452297404408455,-0.0038065542466938496,-0.05142223834991455
0.03555234521627426,-0.002471352694556117,-0.019677411764860153,0.01578538306057453,-0.0034377689007669687,-0.050083208829164505
0.03612672537565231,-0.0025049534160643816,-0.0197393000125885,0.01538199745118618,-0.003307972801849246,-0.0515325665473938
0.03678066283464432,-0.00233219051733613,-0.019352341070771217,0.015522872097790241,-0.003301061922684312,-0.05203375965356827
0.036216408014297485,-0.002203433308750391,-0.019472572952508926,0.015204516239464283,-0.0035209269262850285,-0.05151725560426712
0.03450557962059975,-0.0023452199529856443,-0.019478965550661087,0.01577213779091835,-0.0032420337665826082,-0.05199039727449417
0.03614884242415428,-0.0025444955099374056,-0.018999407067894936,0.01566143147647381,-0.0033347210846841335,-0.05221400782465935
0.0370103195309639,-0.002440311014652252,-0.019468268379569054,0.016147451475262642,-0.003296337788924575,-0.051997605711221695
0.036014772951602936,-0.0025873754639178514,-0.02046102285385132,0.01607515849173069,-0.0031454162672162056,-0.05248967558145523
0.036341313272714615,-0.0025947745889425278,-0.019410688430070877,0.015952864661812782,-0.0035088658332824707,-0.052691228687763214
0.0358344204723835,-0.0024328185245394707,-0.01972293294966221,0.015790672972798347,-0.004162278492003679,-0.051418889313936234
0.03674693778157234,-0.002413179725408554,-0.020004622638225555,0.015734229236841202,-0.004234414082020521,-0.05243195593357086
0.0363498292863369,-0.0026050726883113384,-0.0193545613437891,0.016170714050531387,-0.0036471488419920206,-0.05321858078241348
0.036240000277757645,-0.0031423664186149836,-0.02011176384985447,0.016091790050268173,-0.0032520988024771214,-0.053354792296886444
0.03672102838754654,-0.0031685291323810816,-0.019837239757180214,0.015693843364715576,-0.0035029100254178047,-0.05338142812252045
0.03704091161489487,-0.002873858902603388,-0.019842498004436493,0.016375746577978134,-0.003698966698721051,-0.05293962359428406
0.03674882650375366,-0.0028404947370290756,-0.020553112030029297,0.01661801151931286,-0.003803902305662632,-0.052733562886714935
0.03674882650375366,-0.0028404947370290756,-0.020553112030029297,0.01661801151931286,-0.003803902305662632,-0.052733562886714935
0.03720344230532646,-0.0030996855348348618,-0.020485486835241318,0.01697179675102234,-0.0033883305732160807,-0.05483196675777435
0.03720344230532646,-0.0030996855348348618,-0.020485486835241318,0.01697179675102234,-0.0033883305732160807,-0.05483196675777435
0.03693804517388344,-0.003172043478116393,-0.020647360011935234,0.016805019229650497,-0.0035678213462233543,-0.053152430802583694
0.03693804517388344,-0.003172043478116393,-0.020647360011935234,0.016805019229650497,-0.0035678213462233543,-0.053152430802583694
0.0381714329123497,-0.0032895454205572605,-0.020141761749982834,0.016236310824751854,-0.003553283866494894,-0.053827639669179916
0.03737267479300499,-0.0036215668078511953,-0.020485777407884598,0.016290662810206413,-0.003355220425873995,-0.056386154145002365
0.03718342259526253,-0.0038667540065944195,-0.021238453686237335,0.016082679852843285,-0.0031788311898708344,-0.053895894438028336
0.03777323290705681,-0.003916868474334478,-0.021414274349808693,0.016036728397011757,-0.003347153775393963,-0.05424389988183975
0.03776358440518379,-0.0034274656791239977,-0.02052442543208599,0.01635439321398735,-0.003704431001096964,-0.054554130882024765
0.03770478814840317,-0.0035467767156660557,-0.020717734470963478,0.016287364065647125,-0.004292615689337254,-0.05512324720621109
0.03798997402191162,-0.003296134527772665,-0.020805956795811653,0.016534924507141113,-0.004417656920850277,-0.05533220246434212
0.03756646811962128,-0.0033919631969183683,-0.020629610866308212,0.016116365790367126,-0.003306187689304352,-0.05492047965526581
0.03748266398906708,-0.0034198323264718056,-0.020991060882806778,0.016299987211823463,-0.0028174633625894785,-0.055681850761175156
0.037645839154720306,-0.0035084497649222612,-0.021257061511278152,0.016736580058932304,-0.002669302746653557,-0.05586440861225128
0.03906047344207764,-0.0035080767702311277,-0.021188367158174515,0.017084185034036636,-0.003207806497812271,-0.05516638234257698
0.03839762508869171,-0.003563412232324481,-0.02035692147910595,0.01762431114912033,-0.00321986828930676,-0.05539915710687637
0.03698783740401268,-0.0036119380965828896,-0.020609308034181595,0.016919031739234924,-0.0035465462133288383,-0.05827592313289642
0.03765994682908058,-0.0037457174621522427,-0.02095024846494198,0.01673065312206745,-0.0038180199917405844,-0.05771853029727936
0.037397351115942,-0.0038253534585237503,-0.02093810774385929,0.01610403135418892,-0.004063366912305355,-0.0554291270673275
0.03852202743291855,-0.0038829960394650698,-0.020619887858629227,0.016699722036719322,-0.004072448238730431,-0.055860936641693115
0.039733096957206726,-0.0034224081318825483,-0.02107137069106102,0.0170145221054554,-0.0036222273483872414,-0.05887075141072273
0.038410820066928864,-0.003270996967330575,-0.021401386708021164,0.01721113920211792,-0.0034416979178786278,-0.05729253217577934
0.03732086345553398,-0.003330785781145096,-0.020476074889302254,0.017908692359924316,-0.0035166158340871334,-0.05651303008198738
0.038849055767059326,-0.004204737488180399,-0.021515708416700363,0.01782555691897869,-0.004208976868540049,-0.056984808295965195
0.03884006291627884,-0.00424727750942111,-0.02137289009988308,0.01751917041838169,-0.00368638732470572,-0.058743324130773544
0.03904358297586441,-0.0042054308578372,-0.02074849233031273,0.017726650461554527,-0.003389726858586073,-0.05889660120010376
0.03841486573219299,-0.004095135722309351,-0.020775089040398598,0.017826834693551064,-0.003408117452636361,-0.05825328826904297
0.03923255205154419,-0.0035085666459053755,-0.021176662296056747,0.01708376593887806,-0.0037455009296536446,-0.05849093198776245
0.039215702563524246,-0.0036061727441847324,-0.021070923656225204,0.01753339357674122,-0.004310734570026398,-0.058488816022872925
0.038713883608579636,-0.0036952414084225893,-0.020499128848314285,0.017838258296251297,-0.0038257287815213203,-0.05891994386911392
0.03925338760018349,-0.004349459428340197,-0.020825659856200218,0.01699395477771759,-0.003469857620075345,-0.059501491487026215
0.03925338760018349,-0.004349459428340197,-0.020825659856200218,0.01699395477771759,-0.003469857620075345,-0.059501491487026215
0.03889753669500351,-0.004435005132108927,-0.021450713276863098,0.017522603273391724,-0.003374823834747076,-0.05954398587346077
0.03963124006986618,-0.004194466397166252,-0.020735332742333412,0.01770757883787155,-0.003384646261110902,-0.05972844362258911
0.04070489853620529,-0.004302415996789932,-0.020723644644021988,0.017720449715852737,-0.0035765257198363543,-0.06050802767276764
0.03846354782581329,-0.004094523377716541,-0.021025734022259712,0.017840193584561348,-0.003649862017482519,-0.05988254025578499
0.03850417584180832,-0.003602136392146349,-0.02104494906961918,0.017500974237918854,-0.003947491757571697,-0.06044691801071167
0.03931640461087227,-0.0035144926514476538,-0.020787714049220085,0.017216455191373825,-0.004132853355258703,-0.06171070784330368
0.03928983211517334,-0.004235475789755583,-0.020991457626223564,0.017072021961212158,-0.0038599958643317223,-0.058512620627880096
0.04117082059383392,-0.004654542077332735,-0.02127683348953724,0.01711256615817547,-0.003435576567426324,-0.05944076552987099
0.03909165784716606,-0.004630106966942549,-0.021097645163536072,0.017098115757107735,-0.003434092504903674,-0.06261061877012253
0.038074735552072525,-0.004182378761470318,-0.020791150629520416,0.016742555424571037,-0.0033490811474621296,-0.0603150837123394
0.04035709798336029,-0.0035259516444057226,-0.021793633699417114,0.01747886650264263,-0.004079990088939667,-0.060878101736307144
0.04045694321393967,-0.00264816265553236,-0.02145571820437908,0.01748882606625557,-0.0041331276297569275,-0.061895303428173065
0.04000809043645859,-0.001985184382647276,-0.021246513351798058,0.017345236614346504,-0.004007356707006693,-0.061844002455472946
0.03982718661427498,-0.0014210734516382217,-0.021498294547200203,0.017615851014852524,-0.0039617279544472694,-0.06201482564210892
0.039657630026340485,-0.0015057597775012255,-0.021505217999219894,0.01677941344678402,-0.003948602359741926,-0.06205751374363899
0.040497761219739914,-0.0022736929822713137,-0.021407268941402435,0.01699746772646904,-0.0038533471524715424,-0.06291794776916504
0.040801629424095154,-0.0034433561377227306,-0.0209843460470438,0.016879919916391373,-0.0035922140814363956,-0.06300149857997894
0.040343284606933594,-0.003322420408949256,-0.022293999791145325,0.01685822568833828,-0.003866837127134204,-0.06267969310283661
0.040475938469171524,-0.002562360605224967,-0.023170020431280136,0.01725105568766594,-0.0038898936472833157,-0.06414405256509781
0.040961816906929016,-0.0022345921024680138,-0.022910844534635544,0.018528956919908524,-0.004339317325502634,-0.06427934020757675
0.04075697809457779,-0.002168899169191718,-0.02189747244119644,0.01927575096487999,-0.004159701522439718,-0.06163019314408302
0.04149574786424637,-0.002426253166049719,-0.02175283432006836,0.01881997101008892,-0.003870359854772687,-0.0628059059381485
0.041140396147966385,-0.0023443701211363077,-0.022178970277309418,0.01902114599943161,-0.003732364159077406,-0.06541880965232849
0.041140396147966385,-0.0023443701211363077,-0.022178970277309418,0.01902114599943161,-0.003732364159077406,-0.06541880965232849
0.041458141058683395,-0.0023283660411834717,-0.021739700809121132,0.017776887863874435,-0.003787156892940402,-0.06253061443567276
0.041458141058683395,-0.0023283660411834717,-0.021739700809121132,0.017776887863874435,-0.003787156892940402,-0.06253061443567276
0.041895896196365356,-0.002409360371530056,-0.0222907867282629,0.018657218664884567,-0.0038549250457435846,-0.06441175937652588
0.041895896196365356,-0.002409360371530056,-0.0222907867282629,0.018657218664884567,-0.0038549250457435846,-0.06441175937652588
0.04178306460380554,-0.0025433041155338287,-0.022644657641649246,0.0189066119492054,-0.003938903100788593,-0.06389184296131134
0.04187227040529251,-0.002534580184146762,-0.022974926978349686,0.018888238817453384,-0.003915924578905106,-0.0639292448759079
0.04149137809872627,-0.002781035378575325,-0.022220047190785408,0.01830245740711689,-0.004137016832828522,-0.06332588195800781
0.042187973856925964,-0.0028805977199226618,-0.02170095592737198,0.018260838463902473,-0.004216867033392191,-0.06400041282176971
0.042163021862506866,-0.0029025389812886715,-0.022271307185292244,0.018395235762000084,-0.004036025144159794,-0.06403116881847382
0.0416802242398262,-0.0028138093184679747,-0.022649947553873062,0.018072066828608513,-0.003922528121620417,-0.06396714597940445
0.042338501662015915,-0.0029349857941269875,-0.02260688506066799,0.01810351014137268,-0.003838091855868697,-0.06515102833509445
0.04332892596721649,-0.002806090284138918,-0.022585665807127953,0.018189718946814537,-0.004164453595876694,-0.06479419767856598
0.042033541947603226,-0.0027646415401250124,-0.02276056446135044,0.01831813156604767,-0.004175507929176092,-0.0638880804181099
0.04107707738876343,-0.0026896081399172544,-0.023175152018666267,0.019050130620598793,-0.004241165705025196,-0.06588289886713028
0.042985714972019196,-0.002793440129607916,-0.0232564527541399,0.0191268902271986,-0.003999872133135796,-0.06437776237726212
0.04278147965669632,-0.0029466203413903713,-0.022996781393885612,0.019098753109574318,-0.003752059768885374,-0.06403806060552597
0.04415469989180565,-0.0032532012555748224,-0.022839345037937164,0.01920771598815918,-0.003492396092042327,-0.0655582994222641
0.04280401021242142,-0.0031322394497692585,-0.023064112290740013,0.018886364996433258,-0.003511348506435752,-0.06599123030900955
0.041740644723176956,-0.00301645346917212,-0.023327438160777092,0.019039619714021683,-0.0037676491774618626,-0.06601779907941818
0.04342406243085861,-0.0032251786906272173,-0.0236970204859972,0.020605191588401794,-0.0041081467643380165,-0.06575305014848709
0.04352590814232826,-0.0033948353957384825,-0.023040827363729477,0.02074432373046875,-0.00435597775503993,-0.06621121615171432
0.04327403008937836,-0.003357959445565939,-0.022896775975823402,0.020040052011609077,-0.004425480961799622,-0.06637536734342575
0.04330777749419212,-0.00332679133862257,-0.023473670706152916,0.019729454070329666,-0.003901703516021371,-0.0667414739727974
0.04371713101863861,-0.0030967185739427805,-0.02348948083817959,0.019065149128437042,-0.003891000058501959,-0.06501714140176773
0.043121617287397385,-0.0029634186066687107,-0.02309110388159752,0.019529173150658607,-0.004296020604670048,-0.0671592503786087
0.04327515885233879,-0.0031656790524721146,-0.022701749578118324,0.019693298265337944,-0.0045743766240775585,-0.06714581698179245
0.0453370064496994,-0.003237576223909855,-0.023118769749999046,0.018994823098182678,-0.004338654689490795,-0.06607610732316971
0.04289008677005768,-0.00344143551774323,-0.023819569498300552,0.01929839700460434,-0.0040649850852787495,-0.0687403455376625
0.042288847267627716,-0.0036435197107493877,-0.023535175248980522,0.01997832953929901,-0.004341496620327234,-0.06624560058116913
0.0438309907913208,-0.0037786883767694235,-0.023135961964726448,0.020038798451423645,-0.004587592091411352,-0.06624005734920502
0.0438309907913208,-0.0037786883767694235,-0.023135961964726448,0.020038798451423645,-0.004587592091411352,-0.06624005734920502
0.04429370537400246,-0.0034846386406570673,-0.023371106013655663,0.020059999078512192,-0.004604327958077192,-0.069596067070961
0.04515872523188591,-0.0034219929948449135,-0.02405022643506527,0.020064055919647217,-0.0041391062550246716,-0.06617158651351929
0.04371875524520874,-0.003158305771648884,-0.024062395095825195,0.01868227683007717,-0.0041037872433662415,-0.06681335717439651
0.04300214350223541,-0.0034953798167407513,-0.023693950846791267,0.01843916065990925,-0.004251769743859768,-0.06825732439756393
0.045328423380851746,-0.0038407102692872286,-0.02350030094385147,0.018962115049362183,-0.0042542037554085255,-0.06867946684360504
0.044964682310819626,-0.003963423427194357,-0.023654161021113396,0.018980711698532104,-0.0042787897400557995,-0.06845860928297043
0.04466918483376503,-0.00402272492647171,-0.024030309170484543,0.020917557179927826,-0.004057510290294886,-0.06823422759771347
0.04479686915874481,-0.004002792295068502,-0.02401077188551426,0.01973356120288372,-0.004218969959765673,-0.06830398738384247
0.04496337100863457,-0.0038647805340588093,-0.024782784283161163,0.019148271530866623,-0.004039207939058542,-0.06884762644767761
0.04496048018336296,-0.0037876598071306944,-0.025410246104002,0.01924493908882141,-0.00441661337390542,-0.06926939636468887
0.04497255012392998,-0.0036947980988770723,-0.025502284988760948,0.019961539655923843,-0.004684935789555311,-0.06775867938995361
0.04479809105396271,-0.00411729933694005,-0.025302549824118614,0.019944004714488983,-0.00462363613769412,-0.06921033561229706
0.0452616848051548,-0.0042677512392401695,-0.024359263479709625,0.019562650471925735,-0.0046454439871013165,-0.0702308639883995
0.045697975903749466,-0.004105755127966404,-0.02406439743936062,0.019568905234336853,-0.00458694901317358,-0.07081218808889389
0.04553861543536186,-0.003979861736297607,-0.02504238300025463,0.019367936998605728,-0.004820866044610739,-0.06837867200374603
0.0457945242524147,-0.0039476025849580765,-0.025681575760245323,0.019178759306669235,-0.004468805156648159,-0.06999034434556961
0.04547535255551338,-0.004345674533396959,-0.02564801275730133,0.0197733286768198,-0.004857114516198635,-0.07134826481342316
0.045727718621492386,-0.004214240238070488,-0.025672676041722298,0.02001079171895981,-0.004811208229511976,-0.06936796009540558
