davideferrari95/blind_handover_controller/data/Test 41 - [2024-02-07 -- 15-00-31]/joint_states_data.csv
shoulder_pan_joint,shoulder_lift_joint,elbow_joint,wrist_1_joint,wrist_2_joint,wrist_3_joint
0.00714929960668087,-0.004893211647868156,-0.013555132783949375,0.0156196104362607,0.0002921880513895303,0.006973030511289835
0.007452577818185091,-0.005441154353320599,-0.013296038843691349,0.015482253395020962,0.000277924322290346,0.006905154790729284
0.007452577818185091,-0.005441154353320599,-0.013296038843691349,0.015482253395020962,0.000277924322290346,0.006905154790729284
0.007027318701148033,-0.005162171088159084,-0.013435496017336845,0.015081745572388172,0.00026436560438014567,0.007112216670066118
0.008027676492929459,-0.004907682538032532,-0.013781679794192314,0.01539793610572815,0.00025202648248523474,0.007286270149052143
0.008027676492929459,-0.004907682538032532,-0.013781679794192314,0.01539793610572815,0.00025202648248523474,0.007286270149052143
0.007906243205070496,-0.005164960864931345,-0.013139637187123299,0.015244689770042896,0.00024078675778582692,0.0077158790081739426
0.007045876234769821,-0.005272258538752794,-0.013572318479418755,0.015749452635645866,0.00023050572781357914,0.008471242152154446
0.0071836188435554504,-0.005522293038666248,-0.012586012482643127,0.015546033158898354,0.00022106716642156243,0.007447780575603247
0.008087263442575932,-0.005174757447093725,-0.01277963723987341,0.01578276790678501,0.0002430557506158948,0.006833645980805159
0.007772977463901043,-0.004913363140076399,-0.012879233807325363,0.015452433377504349,0.00023808165860828012,0.0074049560353159904
0.0068669612519443035,-0.00510079599916935,-0.012352846562862396,0.015785645693540573,0.00022967698168940842,0.007851073518395424
0.007221485022455454,-0.004315420985221863,-0.013165329582989216,0.015355579555034637,0.0002216146094724536,0.007881729863584042
0.008141654543578625,-0.002953633898869157,-0.01333586499094963,0.015768928453326225,0.00021408352768048644,0.007402411662042141
0.007170067168772221,-0.002644215477630496,-0.013057670556008816,0.015615652315318584,0.00020704742928501219,0.007340453565120697
0.0068483250215649605,-0.0025299610570073128,-0.013295747339725494,0.01544186007231474,0.00020045888959430158,0.007997545413672924
0.007317353039979935,-0.0034763996955007315,-0.01299054455012083,0.015320339240133762,0.00019427610095590353,0.008419089950621128
0.007472453638911247,-0.004294383805245161,-0.01267795730382204,0.015344164334237576,0.00018846402235794812,0.00796942412853241
0.007291483227163553,-0.004328593611717224,-0.013596403412520885,0.015407354570925236,0.00020235226838849485,0.007197636179625988
0.00707137119024992,-0.003536563366651535,-0.012693015858530998,0.014966784045100212,0.00020278470765333623,0.0071808029897511005
0.007357144262641668,-0.003367719007655978,-0.012430556118488312,0.01505668181926012,0.00019236518710386008,0.007794429548084736
0.007231425028294325,-0.0036331808660179377,-0.013050840236246586,0.015781665220856667,0.0001873606670415029,0.007698382250964642
0.006997352931648493,-0.0037424275651574135,-0.01275570783764124,0.015451728366315365,0.00018260871001984924,0.007660088129341602
0.007199863903224468,-0.0037693434860557318,-0.013162053190171719,0.01577536016702652,0.0001780917664291337,0.00768236955627799
0.007042508106678724,-0.003263200866058469,-0.013243657536804676,0.015367362648248672,0.00017379286873620003,0.007903614081442356
0.007259665057063103,-0.003282760037109256,-0.01260500866919756,0.01561801228672266,0.00016005529323592782,0.007596834097057581
0.00709670502692461,-0.0033497028052806854,-0.013319610618054867,0.0156300850212574,0.00014604070747736841,0.007977673783898354
0.00709670502692461,-0.0033497028052806854,-0.013319610618054867,0.0156300850212574,0.00014604070747736841,0.007977673783898354
0.007190442178398371,-0.0032551512122154236,-0.012424367479979992,0.01607954129576683,0.00014089098840486258,0.00755738141015172
0.007151149213314056,-0.0034090729895979166,-0.013045637868344784,0.01623021997511387,0.00013657688396051526,0.007243833504617214
0.007102658972144127,-0.0033103004097938538,-0.012657406739890575,0.015971045941114426,0.00013255146041046828,0.007347181439399719
0.00729817571118474,-0.003352352185174823,-0.013101949356496334,0.01622166857123375,0.0001287580089410767,0.007581555750221014
0.007096500601619482,-0.0030048913322389126,-0.012967524118721485,0.015652701258659363,0.0001251760113518685,0.008030175231397152
0.007440328132361174,-0.00317948404699564,-0.013263092376291752,0.01581376977264881,0.0001217880635522306,0.007875516079366207
0.007422926370054483,-0.003377459244802594,-0.013097912073135376,0.015419897623360157,0.00011857865320052952,0.007624769117683172
0.0075469654984772205,-0.003713663900271058,-0.013042747043073177,0.015969062224030495,0.00012370965851005167,0.008132752031087875
0.0075469654984772205,-0.003713663900271058,-0.013042747043073177,0.015969062224030495,0.00012370965851005167,0.008132752031087875
0.00689969165250659,-0.003337035421282053,-0.012334542348980904,0.015804314985871315,0.00013112083252053708,0.0073153129778802395
0.007102173287421465,-0.0035583386197686195,-0.013090181164443493,0.014910110272467136,0.0001286768529098481,0.007161083165556192
0.007083256728947163,-0.0038078248035162687,-0.012649870477616787,0.014953510835766792,0.00012572508421726525,0.007615876849740744
0.006689139641821384,-0.0035863500088453293,-0.013241679407656193,0.015395737253129482,0.0001228671899298206,0.007566001266241074
0.00723772868514061,-0.0034640133380889893,-0.013185813091695309,0.015413940884172916,0.00012013406376354396,0.007027085404843092
0.0073075625114142895,-0.0036220476031303406,-0.012753716669976711,0.01509779505431652,0.00011751943384297192,0.006809802260249853
0.007184668909758329,-0.003726636990904808,-0.012703124433755875,0.015381300821900368,0.00011501629342092201,0.006899693049490452
0.0071089076809585094,-0.004320178180932999,-0.012540257535874844,0.015950677916407585,0.00011261753388680518,0.00771076837554574
0.007536596618592739,-0.004150792490690947,-0.013120818883180618,0.015813130885362625,0.0001103168906411156,0.007606759667396545
0.00738950539380312,-0.003965173847973347,-0.013216468505561352,0.015432539395987988,0.000105986327980645,0.0073558553121984005
0.006978726014494896,-0.003941873088479042,-0.012730153277516365,0.01586912013590336,0.00010394609125796705,0.007593817077577114
0.007773073390126228,-0.0038623549044132233,-0.012957876548171043,0.015197147615253925,0.00011675321729853749,0.007594183087348938
0.007832019589841366,-0.004269483033567667,-0.012483928352594376,0.015469326637685299,0.00011662938049994409,0.007542429491877556
0.007604839280247688,-0.004194248933345079,-0.012760382145643234,0.015232112258672714,0.00011464022099971771,0.008158192969858646
0.007032875902950764,-0.004022019449621439,-0.012616672553122044,0.015293411910533905,0.00011259988968959078,0.007780893240123987
0.007554348092526197,-0.00391165679320693,-0.012810579501092434,0.015378493815660477,0.00011062328849220648,0.007387097459286451
0.007606195751577616,-0.004042280372232199,-0.01277155801653862,0.015823449939489365,0.00010871429549297318,0.007799217477440834
0.0072974758222699165,-0.004047001712024212,-0.012079217471182346,0.015916017815470695,0.00010687015310395509,0.007947503589093685
0.007007451727986336,-0.003969977609813213,-0.01266480889171362,0.014520213007926941,0.000105087565316353,0.0076080430299043655
0.007007451727986336,-0.003969977609813213,-0.01266480889171362,0.014520213007926941,0.000105087565316353,0.0076080430299043655
0.007624856196343899,-0.0038860724307596684,-0.012655157595872879,0.015438802540302277,0.0001033633598126471,0.00743695255368948
0.007610585540533066,-0.0038516237400472164,-0.013095618225634098,0.015614197589457035,0.0001016948590404354,0.007505659945309162
0.007248383481055498,-0.004017316270619631,-0.013004692271351814,0.016238277778029442,0.0001000793999992311,0.007594441529363394
0.006877755746245384,-0.0038854689337313175,-0.01269553229212761,0.015506021678447723,9.851445065578446e-05,0.007406393066048622
0.00744609534740448,-0.0036996568087488413,-0.01293436624109745,0.015819983556866646,9.699766815174371e-05,0.007346096448600292
0.007727080024778843,-0.003808005712926388,-0.01230593491345644,0.01580226793885231,9.552693518344313e-05,0.007354456465691328
0.007139176595956087,-0.003999310079962015,-0.012634294107556343,0.016271626576781273,9.410013444721699e-05,0.00798324029892683
0.007038005627691746,-0.005044534802436829,-0.012087857350707054,0.015579041093587875,9.271518501918763e-05,0.007533838041126728
0.007476008962839842,-0.004247926641255617,-0.012612472288310528,0.015561041422188282,9.137054439634085e-05,0.007760688662528992
0.007644229102879763,-0.00416154507547617,-0.012520822696387768,0.015424909070134163,9.006433538161218e-05,0.0075749424286186695
0.007453909143805504,-0.004275955259799957,-0.012637192383408546,0.015473599545657635,8.879498636815697e-05,0.007552274502813816
0.007072012405842543,-0.00407449621707201,-0.012909343466162682,0.016103927046060562,8.756084571359679e-05,0.007288491819053888
0.007708956487476826,-0.004414139315485954,-0.01221943274140358,0.01561981625854969,8.636054553790018e-05,0.007341514807194471
0.0075759487226605415,-0.004508837591856718,-0.012684243731200695,0.01577889360487461,8.519268885720521e-05,0.007311191875487566
0.00733160600066185,-0.004588442388921976,-0.01218896359205246,0.01547091081738472,8.4056104242336e-05,0.007384987082332373
0.007296669762581587,-0.00460710609331727,-0.012880139984190464,0.016142291948199272,8.294934377772734e-05,0.0073587470687925816
0.007515419740229845,-0.004654083400964737,-0.012918731197714806,0.015557742677628994,8.187142520910129e-05,0.007396696601063013
0.007478081155568361,-0.004439373034983873,-0.013023005798459053,0.015538744628429413,8.082114800345153e-05,0.007388307247310877
0.00817243754863739,-0.004719820339232683,-0.012745761312544346,0.01585853472352028,8.967900794232264e-05,0.007187184877693653
0.007904970087110996,-0.004766068421304226,-0.012995586730539799,0.015550535172224045,8.891925972420722e-05,0.0074708955362439156
0.007542287465184927,-0.004897467326372862,-0.012518692761659622,0.015073468908667564,8.78569990163669e-05,0.007626571226865053
0.007487784139811993,-0.004427636507898569,-0.013202317990362644,0.015402179211378098,8.679930760990828e-05,0.007694947998970747
0.007718930020928383,-0.0044083865359425545,-0.013022453524172306,0.015194183215498924,8.576553227612749e-05,0.007487323600798845
0.007815450429916382,-0.004455607384443283,-0.013308010064065456,0.01571454480290413,8.47559203975834e-05,0.008063716813921928
0.007888667285442352,-0.004622538574039936,-0.01272952277213335,0.015016268007457256,8.376980986213312e-05,0.009460121393203735
0.007881655357778072,-0.00482284976169467,-0.013073026202619076,0.015492921695113182,8.280643669422716e-05,0.007689319085329771
0.007881655357778072,-0.00482284976169467,-0.013073026202619076,0.015492921695113182,8.280643669422716e-05,0.007689319085329771
0.008001451380550861,-0.004532147664576769,-0.012969832867383957,0.015223212540149689,8.18649132270366e-05,0.006531876046210527
0.007777100894600153,-0.004469100385904312,-0.013318376615643501,0.015881188213825226,8.094458462437615e-05,0.006857229862362146
0.007609016727656126,-0.004476390779018402,-0.013241623528301716,0.015716714784502983,8.004473056644201e-05,0.008132809773087502
0.0073489416390657425,-0.004511033650487661,-0.012752735055983067,0.015837211161851883,2.0340343326097354e-05,0.008605715818703175
0.007940022274851799,-0.004651358351111412,-0.013334800489246845,0.015439664013683796,1.3280789517011726e-06,0.007813687436282635
0.007990107871592045,-0.004488028585910797,-0.012600895948708057,0.015279177576303482,8.671406703797402e-08,0.007428111974149942
0.007033659610897303,-0.0044761053286492825,-0.012924491427838802,0.015510006807744503,5.661809243662219e-09,0.0075617297552526
0.007212857715785503,-0.004503787960857153,-0.012558660469949245,0.01550045795738697,3.696756512017174e-10,0.008009555749595165
0.00788772851228714,-0.004163574893027544,-0.013007843866944313,0.015876391902565956,2.413717663241055e-11,0.007950671017169952
0.007813211530447006,-0.0044639455154538155,-0.012938374653458595,0.015383074060082436,1.5759851106425526e-12,0.007364732213318348
0.007926931604743004,-0.00470745749771595,-0.013170687481760979,0.015598613768815994,5.83922301302664e-05,0.00735006108880043
0.006941048428416252,-0.0042541795410215855,-0.0134591581299901,0.015303741209208965,6.462432793341577e-05,0.008031358011066914
0.007083481643348932,-0.004290784243494272,-0.012613115832209587,0.01564612053334713,6.416461110347882e-05,0.007861204445362091
0.007523047272115946,-0.004157450515776873,-0.012975218705832958,0.015499856323003769,6.329230382107198e-05,0.008109262213110924
0.007591980509459972,-0.0042975889518857,-0.012272072024643421,0.015766873955726624,6.241635128390044e-05,0.007767591159790754
0.00801524706184864,-0.004491335712373257,-0.013095938600599766,0.015440008603036404,6.156263407319784e-05,0.007645869627594948
0.007205095607787371,-0.004665215499699116,-0.012570437975227833,0.015472004190087318,6.0731756093446165e-05,0.0075062052346765995
0.00797559879720211,-0.004445162136107683,-0.013008467853069305,0.015196843072772026,5.992308433633298e-05,0.007199062034487724
0.0077891056425869465,-0.004284978378564119,-0.012648828327655792,0.015291335992515087,5.913563654758036e-05,0.0077082072384655476
0.007869313471019268,-0.004441009368747473,-0.012528719380497932,0.015589149668812752,5.7621215091785416e-05,0.007382589858025312
0.007872577756643295,-0.004581773187965155,-0.011983479373157024,0.016332879662513733,5.6892742577474564e-05,0.0071416147984564304
0.00771429343149066,-0.004361080005764961,-0.012773395515978336,0.01574680581688881,5.618242721538991e-05,0.007583305239677429
0.007683212403208017,-0.003972072619944811,-0.012534881941974163,0.01580910012125969,5.5489643273176625e-05,0.00795171782374382
0.007858533412218094,-0.004302369896322489,-0.013140510767698288,0.015105913393199444,6.434734677895904e-05,0.007890201173722744
0.007637248374521732,-0.004122853744775057,-0.012656230479478836,0.01660913974046707,6.489162478828803e-05,0.007523075211793184
0.008128616958856583,-0.004342357628047466,-0.012365635484457016,0.014871818944811821,6.420610588975251e-05,0.007558915764093399
0.007569979876279831,-0.004624911583960056,-0.012378978542983532,0.015066239051520824,6.345722067635506e-05,0.007478591054677963
0.007582203019410372,-0.004634801298379898,-0.012188342399895191,0.014784935861825943,6.272056634770706e-05,0.007565061561763287
0.008326392620801926,-0.004330204799771309,-0.012769070453941822,0.015338030643761158,6.200049392646179e-05,0.00809707771986723
0.008326392620801926,-0.004330204799771309,-0.012769070453941822,0.015338030643761158,6.200049392646179e-05,0.00809707771986723
0.008693056181073189,-0.004462054930627346,-0.012219421565532684,0.015573956072330475,6.12967269262299e-05,0.008463868871331215
0.00793963298201561,-0.004211368504911661,-0.012869145721197128,0.015725281089544296,6.060873784008436e-05,0.007827375084161758
0.00796792097389698,-0.004241944756358862,-0.012381377629935741,0.01606493443250656,5.9936010075034574e-05,0.007570898160338402
0.007753288373351097,-0.004709708038717508,-0.012634874321520329,0.016035916283726692,1.5230617464112584e-05,0.008108070120215416
0.008171936497092247,-0.0048022218979895115,-0.012463750317692757,0.016715748235583305,9.944504881786997e-07,0.008598783053457737
0.0077126119285821915,-0.004429302643984556,-0.01246669702231884,0.016218870878219604,6.493051785128046e-08,0.007897770963609219
0.008082596585154533,-0.004553068429231644,-0.012801224365830421,0.01628965139389038,4.2394985300120425e-09,0.007554436568170786
0.008304192684590816,-0.004284574184566736,-0.012307683937251568,0.015072381123900414,2.768089368831994e-10,0.0076207430101931095
0.00823006872087717,-0.004255350213497877,-0.012733778916299343,0.015240678563714027,1.8073646745886407e-11,0.00798767525702715
0.007928225211799145,-0.004560020752251148,-0.0115338871255517,0.014831149950623512,1.1800800137420908e-12,0.007931878790259361
0.00826926901936531,-0.004745564889162779,-0.011617585085332394,0.015126868151128292,7.705079250412e-14,0.00765886390581727
0.00778460456058383,-0.004385930020362139,-0.011877890676259995,0.015088459476828575,5.0308662163727706e-15,0.008014656603336334
0.007473806384950876,-0.004445862956345081,-0.0122689763084054,0.015125134028494358,3.284796416430137e-16,0.00800914317369461
0.007613673806190491,-0.004230700898915529,-0.012626475654542446,0.01537767518311739,2.1447373841568867e-17,0.007769937627017498
0.008081577718257904,-0.0039830077439546585,-0.012147213332355022,0.015710895881056786,1.4003602185778925e-18,0.007503893226385117
0.007908090949058533,-0.004043117165565491,-0.012559187598526478,0.01555747352540493,9.14335140701485e-20,0.00811656005680561
0.008299248293042183,-0.0039344364777207375,-0.012380993925035,0.015406887046992779,5.969955947354484e-21,0.008168068714439869
0.008679017424583435,-0.0035672399681061506,-0.012092591263353825,0.015545384958386421,3.8979545934111278e-22,0.007916633039712906
0.007672096602618694,-0.0032568704336881638,-0.011565211229026318,0.015549389645457268,1.661759162675218e-24,0.007997304201126099
0.007976566441357136,-0.0032306856010109186,-0.01264119241386652,0.014994563534855843,1.08501001261891e-25,0.007900900207459927
0.008389313705265522,-0.003576160641387105,-0.011652883142232895,0.015320432372391224,7.084339166690053e-27,0.007587957661598921
0.008656811900436878,-0.003695971565321088,-0.011971302330493927,0.014882627874612808,4.625567577193045e-28,0.008172010071575642
0.00812673382461071,-0.003316521644592285,-0.012009059078991413,0.015403115190565586,3.0201650978840725e-29,0.008319939486682415
0.008560248650610447,-0.0030199154280126095,-0.011905025690793991,0.015323256142437458,1.9719521468942455e-30,0.007780903484672308
0.00902051106095314,-0.0028055664151906967,-0.011830643750727177,0.015642089769244194,1.287544000485324e-31,0.0075074718333780766
0.008047760464251041,-0.0029270052909851074,-0.0117412768304348,0.015009375289082527,8.406743275841413e-33,0.008061503060162067
0.008075143210589886,-0.003429595148190856,-0.012177210301160812,0.015308392234146595,5.489003013588327e-34,0.008056496270000935
0.008075143210589886,-0.003429595148190856,-0.012177210301160812,0.015308392234146595,5.489003013588327e-34,0.008056496270000935
0.009408809244632721,-0.0037384156603366137,-0.01175655983388424,0.015404184348881245,3.583926729285537e-35,0.007489374373108149
0.007468969561159611,-0.0033748329151421785,-0.011966812424361706,0.01551160216331482,2.3400477219675337e-36,0.00717516802251339
0.007347460836172104,-0.003102819435298443,-0.012325843796133995,0.015688279643654823,1.5278839203205208e-37,0.007952984422445297
0.008741945028305054,-0.002976727904751897,-0.011761633679270744,0.01563594676554203,9.975990903867127e-39,0.00846912246197462
0.00866194162517786,-0.0032195085659623146,-0.012345656752586365,0.016134899109601974,6.5136136127671174e-40,0.00783583428710699
0.008415373973548412,-0.0031358995474874973,-0.012397510930895805,0.015675552189350128,4.25294083922582e-41,0.007966287434101105
0.008174318820238113,-0.0029200203716754913,-0.012600576505064964,0.01568048819899559,2.7773735562917874e-42,0.008026637136936188
0.00839526578783989,-0.0029694645199924707,-0.012844148091971874,0.015097618103027344,1.807675018979014e-43,0.007862241938710213
0.00873973872512579,-0.0033003464341163635,-0.012210401706397533,0.01549841370433569,1.1210387714598537e-44,0.008698318153619766
0.008436060510575771,-0.0032241034787148237,-0.012590620666742325,0.015051768161356449,1.401298464324817e-45,0.00903689581900835
0.008405700325965881,-0.002968552988022566,-0.012079326435923576,0.015269448980689049,0.0,0.007770664989948273
0.008522260002791882,-0.002878432860597968,-0.012554103508591652,0.015036878176033497,2.7989284717477858e-05,0.007599402219057083
0.008459633216261864,-0.0029683015309274197,-0.011829350143671036,0.015360629186034203,7.146285497583449e-05,0.008116509765386581
0.008734011091291904,-0.003177930135279894,-0.0127374567091465,0.015034428797662258,7.316729170270264e-05,0.008747079409658909
0.00829912070184946,-0.0033924791496247053,-0.01347331702709198,0.015268750488758087,7.218086830107495e-05,0.00860733725130558
0.008643358014523983,-0.003207183675840497,-0.012891490943729877,0.015392810106277466,7.105334952939302e-05,0.008583197370171547
0.008352174423635006,-0.0030245550442487,-0.01258870866149664,0.015668412670493126,6.994973955443129e-05,0.007999701425433159
0.008425727486610413,-0.002846946706995368,-0.012638126499950886,0.016033871099352837,6.887903873575851e-05,0.00814477913081646
0.008421790786087513,-0.003548947861418128,-0.012820160947740078,0.014552987180650234,6.68331776978448e-05,0.007937660440802574
0.008235311135649681,-0.0036272979341447353,-0.013266188092529774,0.01427388470619917,6.585508526768535e-05,0.008211199194192886
0.008391786366701126,-0.0034091584384441376,-0.012494153343141079,0.015230263583362103,6.490522355306894e-05,0.008027919568121433
0.008768398314714432,-0.003529683453962207,-0.012505821883678436,0.015044908970594406,6.398237019311637e-05,0.008225331082940102
0.008595624938607216,-0.0033509312197566032,-0.012726607732474804,0.015204695984721184,6.308541196631268e-05,0.007724250666797161
0.008451506495475769,-0.0034983628429472446,-0.012614907696843147,0.015098263509571552,6.221326475497335e-05,0.008172121830284595
0.008486305363476276,-0.0031634580809623003,-0.012820225208997726,0.015641916543245316,6.136488082120195e-05,0.007847707718610764
0.008374028839170933,-0.00286802276968956,-0.01247747614979744,0.015607980079948902,6.0539368860190734e-05,0.007988466881215572
0.008224274031817913,-0.0030146681237965822,-0.012866505421698093,0.015826713293790817,5.9735713875852525e-05,0.008183717727661133
0.008478487841784954,-0.0033423881977796555,-0.012287232093513012,0.015487411059439182,5.89531337027438e-05,0.008272680453956127
0.008386930450797081,-0.0036578059662133455,-0.012562999501824379,0.015841562300920486,5.81908316235058e-05,0.00822727382183075
0.008282027207314968,-0.0037862116005271673,-0.012328610755503178,0.01595250889658928,6.8177621869836e-05,0.007874185219407082
0.008282027207314968,-0.0037862116005271673,-0.012328610755503178,0.01595250889658928,6.8177621869836e-05,0.007874185219407082
0.00837769266217947,-0.0033447330351918936,-0.012882635928690434,0.015842154622077942,6.801894051022828e-05,0.008221335709095001
0.008575266227126122,-0.003005880629643798,-0.012690146453678608,0.01576031558215618,6.721803947584704e-05,0.008283977396786213
0.008746537379920483,-0.002764833625406027,-0.012386629357933998,0.015352865681052208,6.639451021328568e-05,0.008589080534875393
0.00836931448429823,-0.002849759068340063,-0.01298143994063139,0.015508906915783882,6.558832683367655e-05,0.008642451837658882
0.008755958639085293,-0.0029273261316120625,-0.012308690696954727,0.014959556981921196,6.480125739471987e-05,0.008528973907232285
0.008779803290963173,-0.0033732401207089424,-0.012617208063602448,0.015303604304790497,6.403284351108596e-05,0.008657505735754967
0.008698771707713604,-0.0032129583414644003,-0.012640034779906273,0.015376618131995201,6.328247400233522e-05,0.008075958117842674
0.008599269203841686,-0.003031279193237424,-0.012646108865737915,0.015842407941818237,6.254944310057908e-05,0.00840747356414795
0.008858713321387768,-0.003059207461774349,-0.012800971046090126,0.01580524444580078,6.183325604069978e-05,0.008175591006875038
0.008618921041488647,-0.003217930207028985,-0.012135960161685944,0.015765147283673286,6.113325071055442e-05,0.007668727543205023
0.008816213347017765,-0.003297734772786498,-0.012836232781410217,0.015327125787734985,6.0448928707046434e-05,0.007490520365536213
0.008975660428404808,-0.0034241676330566406,-0.01187058724462986,0.015435617417097092,5.977978798910044e-05,0.008744231425225735
0.008788875304162502,-0.003173705656081438,-0.012563660740852356,0.015407389961183071,7.700329661020078e-06,0.008497395552694798
0.008545994758605957,-0.0029278255533427,-0.012350784614682198,0.01540431845933199,5.027765155318775e-07,0.008313722908496857
0.008608582429587841,-0.0028511518612504005,-0.012919849716126919,0.015461374074220657,3.282771388057881e-08,0.008480518124997616
0.008791419677436352,-0.002988568041473627,-0.012250163592398167,0.0154500100761652,2.143415445132746e-09,0.008476469665765762
0.008603726513683796,-0.003301078686490655,-0.012266228906810284,0.015774428844451904,1.399497046028486e-10,0.008431708440184593
0.008792335167527199,-0.003476032754406333,-0.012167047709226608,0.015590035356581211,5.966276192710673e-13,0.00847190897911787
0.009349522180855274,-0.0033195011783391237,-0.01285596564412117,0.014581737108528614,3.8955516194543946e-14,0.008400849997997284
0.008415505290031433,-0.003280782839283347,-0.012090496718883514,0.01507486216723919,2.543517120827312e-15,0.008350805379450321
0.008863474242389202,-0.0033047364559024572,-0.01252984069287777,0.014855315908789635,1.660734883336348e-16,0.00862813275307417
0.008827418088912964,-0.003364854259416461,-0.012587751261889935,0.015765102580189705,1.0843411388284133e-17,0.008471773006021976
0.008284490555524826,-0.0031550691928714514,-0.012683802284300327,0.015425257384777069,7.079973279690904e-19,0.008274671621620655
0.00888071395456791,-0.0035139783285558224,-0.012398123741149902,0.015546000562608242,4.622716947828495e-20,0.008174708113074303
0.008815129287540913,-0.0032941787503659725,-0.011762138456106186,0.014919506385922432,3.0183036992300042e-21,0.008147494867444038
0.008815129287540913,-0.0032941787503659725,-0.011762138456106186,0.014919506385922432,3.0183036992300042e-21,0.008147494867444038
0.00863937009125948,-0.003491849871352315,-0.01288781501352787,0.015180118381977081,1.970736731044201e-22,0.008562791161239147
0.009101890958845615,-0.0031427121721208096,-0.012362775392830372,0.015069158747792244,1.2867503077790724e-23,0.008608208037912846
0.008476348593831062,-0.0033100731670856476,-0.01255001313984394,0.015193969011306763,8.401559939373292e-25,0.008828206919133663
0.008726450614631176,-0.003509979462251067,-0.01229220349341631,0.015331512317061424,5.485617940580804e-26,0.008738311007618904
0.009341442957520485,-0.003514327108860016,-0.012286335229873657,0.015884647145867348,2.338604972102165e-28,0.00890645757317543
0.009341442957520485,-0.003514327108860016,-0.012286335229873657,0.015884647145867348,2.338604972102165e-28,0.00890645757317543
0.009219512343406677,-0.003279212163761258,-0.012142734602093697,0.015688320621848106,1.5269419591192698e-29,0.008364868350327015
0.008391994051635265,-0.003612661035731435,-0.013056018389761448,0.016090041026473045,9.969840608250591e-31,0.008240675553679466
0.008503939025104046,-0.003386346623301506,-0.01228878740221262,0.015745481476187706,6.509593253518947e-32,0.008632748387753963
0.009065186604857445,-0.0035336236469447613,-0.012662550434470177,0.01713874563574791,4.25029957645744e-33,0.008656577207148075
0.008650535717606544,-0.0036837179213762283,-0.012035008519887924,0.01596427522599697,2.7751419609097964e-34,0.008159104734659195
0.008704571053385735,-0.0038324869237840176,-0.012224136851727962,0.015276944264769554,1.8119694404948614e-35,0.008132574148476124
0.00866538006812334,-0.0034470269456505775,-0.012647664174437523,0.014692823402583599,1.183086563481224e-36,0.008505679666996002
0.008989734575152397,-0.0032609649933874607,-0.012118592858314514,0.015298026613891125,7.724709912893427e-38,0.009196014143526554
0.00842704251408577,-0.003224669024348259,-0.012665444053709507,0.015759246423840523,5.043683753555064e-39,0.008415398187935352
0.008811524137854576,-0.0034663588739931583,-0.012334171682596207,0.01587558723986149,3.293163495040466e-40,0.00764861423522234
0.009190922603011131,-0.0033338312059640884,-0.012960884720087051,0.015961701050400734,2.1501523636599993e-41,0.008106382563710213
0.008526601828634739,-0.0035422544460743666,-0.012447008863091469,0.015318761579692364,1.4041010612534667e-42,0.00849025510251522
0.009538844227790833,-0.0033204772043973207,-0.01268832292407751,0.01566796563565731,5.605193857299268e-45,0.008707541041076183
0.009002313949167728,-0.0030860337428748608,-0.01208437979221344,0.01624702289700508,0.0,0.009010601788759232
0.00885054375976324,-0.003117007203400135,-0.01285406295210123,0.015597466379404068,0.0,0.008630168624222279
0.00909084640443325,-0.003191934898495674,-0.012442371807992458,0.015636509284377098,0.0,0.008933539502322674
0.009775104001164436,-0.003213248448446393,-0.012741804122924805,0.01576331816613674,0.0,0.009004099294543266
0.008799598552286625,-0.0033243608195334673,-0.012608718127012253,0.015770887956023216,0.0,0.008891293779015541
0.009080837480723858,-0.0031824596226215363,-0.012618442997336388,0.016164612025022507,0.0,0.008894292637705803
0.00934356078505516,-0.0029966658912599087,-0.012631389312446117,0.015388308092951775,0.0,0.008742832578718662
0.00934356078505516,-0.0029966658912599087,-0.012631389312446117,0.015388308092951775,0.0,0.008742832578718662
0.009706251323223114,-0.0029987015295773745,-0.012788795866072178,0.015481377951800823,0.0,0.009297008626163006
0.009319889359176159,-0.0032686118502169847,-0.013151689432561398,0.01538063120096922,0.0,0.009507299400866032
0.00953980628401041,-0.003206674475222826,-0.012361266650259495,0.01582595892250538,0.0,0.00913354754447937
0.009077162481844425,-0.0036535519175231457,-0.013139684684574604,0.015183931216597557,0.0,0.00927340891212225
0.009196915663778782,-0.0033712752629071474,-0.012441342696547508,0.015563445165753365,0.0,0.009060418233275414
0.009182673878967762,-0.0031862647738307714,-0.012688989751040936,0.015090393833816051,0.0,0.008983323350548744
0.009168501943349838,-0.0030810884200036526,-0.012773190625011921,0.015458273701369762,0.0,0.008625349961221218
0.009253094904124737,-0.0031632452737540007,-0.012991338968276978,0.01522532943636179,0.0,0.008809195831418037
0.009510455653071404,-0.0031654781196266413,-0.012994157150387764,0.015569465234875679,0.0,0.009770287200808525
0.008948726579546928,-0.003486522939056158,-0.012392919510602951,0.015531539916992188,0.0,0.009878439828753471
0.009051261469721794,-0.0033028260804712772,-0.012890882790088654,0.015698634088039398,0.0,0.009225104935467243
0.009464762173593044,-0.0034979446791112423,-0.012513731606304646,0.01610569842159748,0.0,0.008797853253781796
0.009209566749632359,-0.0030918598640710115,-0.013463666662573814,0.015641389414668083,0.0,0.009449301287531853
0.008990025147795677,-0.003141968511044979,-0.012798266485333443,0.015538967214524746,0.0,0.009414905682206154
0.009021664969623089,-0.0031145703978836536,-0.013512116856873035,0.014739050529897213,0.0,0.009086808189749718
0.009411918930709362,-0.003299006028100848,-0.013204225338995457,0.01467371080070734,0.0,0.008833951316773891
0.00890011340379715,-0.0031315188389271498,-0.013423562049865723,0.014099285937845707,0.0,0.009549080394208431
0.009577127173542976,-0.0029761879704892635,-0.01313359197229147,0.01418954785913229,0.0,0.009534293785691261
0.009530394338071346,-0.002962626051157713,-0.013567446731030941,0.015076651237905025,0.0,0.009122214280068874
0.009717677719891071,-0.002999349497258663,-0.01338893547654152,0.015045315027236938,0.0,0.009639845229685307
0.009407910518348217,-0.003202724503353238,-0.013673456385731697,0.015032694675028324,0.0,0.00922868587076664
0.009370353072881699,-0.0029251661617308855,-0.012869052588939667,0.014303877018392086,0.0,0.009006103500723839
0.009825601242482662,-0.003043397329747677,-0.013819174841046333,0.015157461166381836,0.0,0.008937384933233261
0.010010705329477787,-0.0031144199892878532,-0.013081317767500877,0.014782092534005642,0.0,0.009731054306030273
0.010010705329477787,-0.0031144199892878532,-0.013081317767500877,0.014782092534005642,0.0,0.009731054306030273
0.009160896763205528,-0.0029683790635317564,-0.01375182531774044,0.015956992283463478,0.0,0.00972951203584671
0.009638039395213127,-0.002753377892076969,-0.013394582085311413,0.016088783740997314,0.0,0.009303194470703602
0.009950871579349041,-0.002821365837007761,-0.013815806247293949,0.016058169305324554,0.0,0.009249097667634487
0.009604466147720814,-0.003172470722347498,-0.013036287389695644,0.015041333623230457,0.0,0.009280839934945107
0.009853452444076538,-0.0031729841139167547,-0.013712195679545403,0.014934464357793331,0.0,0.00912388600409031
0.010072858072817326,-0.003061629133298993,-0.013189381919801235,0.016071775928139687,0.0,0.009107048623263836
0.009320472367107868,-0.0028263216372579336,-0.01256498508155346,0.014863848686218262,0.0,0.009467565454542637
0.01003130804747343,-0.002949098590761423,-0.01269227359443903,0.014530899934470654,9.592216883902438e-06,0.009556793607771397
0.009785798378288746,-0.002948332577943802,-0.012842531315982342,0.014630494639277458,6.263033469622314e-07,0.009843192063272
0.009513158351182938,-0.003097633831202984,-0.013361096382141113,0.015160935930907726,4.0893127106755855e-08,0.009225704707205296
0.009948222897946835,-0.0033281161449849606,-0.01259810384362936,0.015586286783218384,2.670029086715431e-09,0.009559446014463902
0.010273109190165997,-0.0029793581925332546,-0.013128186576068401,0.01567569188773632,1.743338112758508e-10,0.00949881598353386
0.009959449991583824,-0.0029756927397102118,-0.01255484763532877,0.015614058822393417,1.1382750644828299e-11,0.00933745689690113
0.010854447260499,-0.0030035555828362703,-0.013317616656422615,0.01601637527346611,7.432122950921938e-13,0.009459840133786201
0.010219368152320385,-0.0030595208518207073,-0.012916184961795807,0.015712063759565353,4.8526453173694875e-14,0.009234585799276829
0.009644338861107826,-0.002917817560955882,-0.013017676770687103,0.015531660057604313,3.1684309242572227e-15,0.009756888262927532
0.010334732942283154,-0.0030097253620624542,-0.012904864735901356,0.015188521705567837,1.3507516950217345e-17,0.008738490752875805
0.010030101984739304,-0.002890058094635606,-0.013110163621604443,0.015036724507808685,8.81944311802254e-19,0.008340138010680676
0.010411844588816166,-0.0027957286220043898,-0.012763682752847672,0.015341208316385746,5.758466301901919e-20,0.009193938225507736
0.010155774652957916,-0.00286298175342381,-0.013225267641246319,0.014930595643818378,3.759866675519175e-21,0.009900914505124092
0.010177426040172577,-0.0031374760437756777,-0.012498140335083008,0.014991354197263718,2.454924282321733e-22,0.009942738339304924
0.010160326026380062,-0.0030958629213273525,-0.012986565940082073,0.014489742927253246,1.602890259850919e-23,0.010205462574958801
0.010649427771568298,-0.0031244128476828337,-0.01290184911340475,0.014998327009379864,1.0465727896639195e-24,0.009282010607421398
0.01031451765447855,-0.0029256874695420265,-0.013269668444991112,0.015011647716164589,6.833372622306512e-26,0.009565132670104504
0.010497109964489937,-0.0029356321319937706,-0.012903505936264992,0.015043213963508606,4.4617036797347456e-27,0.010629677213728428
0.010497109964489937,-0.0029356321319937706,-0.012903505936264992,0.015043213963508606,4.4617036797347456e-27,0.010629677213728428
0.009820127859711647,-0.003061923896893859,-0.013143256306648254,0.015004799701273441,2.9131739116835284e-28,0.010147422552108765
0.010093145072460175,-0.0031096988823264837,-0.013174718245863914,0.01494285836815834,1.9020943043762902e-29,0.009791024029254913
0.010809071362018585,-0.0030994811095297337,-0.012850022874772549,0.014804309234023094,1.241931598818898e-30,0.010071518830955029
0.009987203404307365,-0.0028533567674458027,-0.01324229035526514,0.01489456556737423,8.10892619846242e-32,0.010310265235602856
0.01028537843376398,-0.0028018001466989517,-0.012567149475216866,0.014856903813779354,5.2945496156684346e-33,0.009400863200426102
0.010481382720172405,-0.002894835313782096,-0.013353923335671425,0.014865686185657978,3.456962433931561e-34,0.009560945443809032
0.009842485189437866,-0.003198510268703103,-0.012831730768084526,0.015065129846334457,2.257149326261824e-35,0.009696658700704575
0.010582923889160156,-0.003143152454867959,-0.01297278143465519,0.014869923703372478,1.4737572985751842e-36,0.009602917358279228
0.010929138399660587,-0.003028580453246832,-0.012960408814251423,0.014922618865966797,9.622582029865944e-38,0.009945277124643326
0.010091613046824932,-0.0031021179165691137,-0.013105375692248344,0.014763345010578632,6.282858992049821e-39,0.010336543433368206
0.010164684616029263,-0.0031931642442941666,-0.012799623422324657,0.015115874819457531,4.102259215356972e-40,0.009449824690818787
0.010207711718976498,-0.0030826725997030735,-0.012593071907758713,0.01472274400293827,2.6784418847104553e-41,0.009608177468180656
0.00998025480657816,-0.003067112760618329,-0.01279235165566206,0.014946682378649712,1.7488204834773717e-42,0.009505447931587696
0.010644757188856602,-0.0028641666285693645,-0.012534082867205143,0.01463307160884142,1.1350517561031018e-43,0.009605664759874344
0.009985244832932949,-0.00287498626857996,-0.012829321436583996,0.015535040758550167,7.006492321624085e-45,0.010087168775498867
0.010347533971071243,-0.003114463994279504,-0.012436220422387123,0.014931022189557552,0.0,0.010565623641014099
0.01028320100158453,-0.0031142861116677523,-0.013195517472922802,0.015357095748186111,0.0,0.009930646978318691
0.01061402726918459,-0.002843653317540884,-0.012814424932003021,0.014972696080803871,0.0,0.010007809847593307
0.01103068608790636,-0.0023615765385329723,-0.012852861545979977,0.014906869269907475,0.0,0.009669720195233822
0.01121991965919733,-0.0020974325016140938,-0.012613927945494652,0.015326196327805519,0.0,0.009845372289419174
0.011327069252729416,-0.0017471392638981342,-0.013029595836997032,0.014579675160348415,0.0,0.010324269533157349
0.011058894917368889,-0.0013470189878717065,-0.012101716361939907,0.014820261858403683,0.0,0.009441638365387917
0.011000382713973522,-0.0014481476973742247,-0.013413001783192158,0.0147233996540308,0.0,0.009771890938282013
0.011186374351382256,-0.001972043188288808,-0.012638255953788757,0.014809079468250275,0.0,0.010452601127326488
0.010978707112371922,-0.0024969454389065504,-0.013206908479332924,0.014397375285625458,0.0,0.010158566758036613
0.010961612686514854,-0.002403977792710066,-0.012841349467635155,0.014821860007941723,0.0,0.010290438309311867
0.01127869263291359,-0.002125614555552602,-0.01291018445044756,0.014994584955275059,0.0,0.010203241370618343
0.01127869263291359,-0.002125614555552602,-0.01291018445044756,0.014994584955275059,0.0,0.010203241370618343
0.011032703332602978,-0.002031192881986499,-0.012700596824288368,0.014963745139539242,0.0,0.010122538544237614
0.011637141928076744,-0.0017760584596544504,-0.012293709442019463,0.015464688651263714,0.0,0.010674366727471352
0.01149106863886118,-0.00162383948918432,-0.01312599889934063,0.014460028149187565,0.0,0.010251878760755062
0.012068334966897964,-0.0016249913023784757,-0.0125002171844244,0.01424754224717617,0.0,0.010631176643073559
0.011898399330675602,-0.0017122197896242142,-0.01315001305192709,0.014177758246660233,0.0,0.01008467748761177
0.011529683135449886,-0.0017983592115342617,-0.012490203604102135,0.014332374557852745,0.0,0.009821361862123013
0.011891697533428669,-0.0018763885600492358,-0.013030458241701126,0.014364070259034634,0.0,0.01078280620276928
0.012061667628586292,-0.001836212002672255,-0.012421268969774246,0.014847123064100742,0.0,0.01032673753798008
0.011632189154624939,-0.001872112974524498,-0.012540383264422417,0.015234149061143398,0.0,0.009827913716435432
0.01173523347824812,-0.0016872610431164503,-0.013095824047923088,0.015366232953965664,0.0,0.010194098576903343
0.011731504462659359,-0.0016217767260968685,-0.012937812134623528,0.014848343096673489,0.0,0.010439381934702396
0.012541298754513264,-0.0016132000600919127,-0.012678030878305435,0.014888232573866844,0.0,0.011170119047164917
0.011454125866293907,-0.001467228285036981,-0.012289122678339481,0.01478953193873167,0.0,0.01069292239844799
0.01181702222675085,-0.0015645914245396852,-0.013361373916268349,0.015338994562625885,0.0,0.009890221059322357
0.011990525759756565,-0.0017139852279797196,-0.013093581423163414,0.015340082347393036,0.0,0.010116922669112682
0.011429729871451855,-0.0017776776803657413,-0.013610459864139557,0.01585341989994049,0.0,0.010961219668388367
0.011815248988568783,-0.0016668048920109868,-0.01278654858469963,0.015302148647606373,0.0,0.010709556750953197
0.011518062092363834,-0.0016724932938814163,-0.013272895477712154,0.015543945133686066,0.0,0.010478980839252472
0.011761462315917015,-0.0016523319063708186,-0.013487197458744049,0.014674041420221329,0.0,0.010829977691173553
0.011823480948805809,-0.0014619821449741721,-0.013510498218238354,0.014497941359877586,0.0,0.010272190906107426
0.011974741704761982,-0.0014280815375968814,-0.013102482073009014,0.013980649411678314,0.0,0.010451999492943287
0.011562290601432323,-0.0015718585345894098,-0.01338321715593338,0.014280928298830986,0.0,0.010064417496323586
0.011988352052867413,-0.0016445792280137539,-0.012744205072522163,0.01554829441010952,0.0,0.010587562806904316
0.011745501309633255,-0.0018831308698281646,-0.013817933388054371,0.015231543220579624,0.0,0.01102910190820694
0.012051872909069061,-0.0017325576627627015,-0.013324303552508354,0.014985800720751286,0.0,0.010509653948247433
0.012909268029034138,-0.0016490976558998227,-0.013235185295343399,0.014542635530233383,0.0,0.010726355947554111
0.01183494832366705,-0.0014733129646629095,-0.012736842036247253,0.015199238434433937,0.0,0.010545267723500729
0.012235060334205627,-0.0014902818948030472,-0.013684428296983242,0.015005969442427158,0.0,0.010468999855220318
0.012320094741880894,-0.0014067093143239617,-0.013630621135234833,0.01556242723017931,0.0,0.010853285901248455
0.012477371841669083,-0.0014942849520593882,-0.013057517819106579,0.015289831906557083,0.0,0.010861989110708237
0.012667089700698853,-0.0014020365197211504,-0.013161377981305122,0.014869928359985352,0.0,0.010449545457959175
0.013596197590231895,-0.001558884629048407,-0.012966356240212917,0.01478979829698801,0.0,0.010737529955804348
0.012408747337758541,-0.0015670335851609707,-0.013373847119510174,0.014965007081627846,0.0,0.010878796689212322
0.012408747337758541,-0.0015670335851609707,-0.013373847119510174,0.014965007081627846,0.0,0.010878796689212322
0.01181004662066698,-0.0017092922935262322,-0.01287086308002472,0.014568607322871685,0.0,0.01114069577306509
0.01251869648694992,-0.0015856119571253657,-0.013634334318339825,0.014745647087693214,0.0,0.011099884286522865
0.012636993080377579,-0.0015114381676539779,-0.012657713145017624,0.014916269108653069,0.0,0.010487797670066357
0.01279241219162941,-0.001520998077467084,-0.013577819801867008,0.015207052230834961,0.0,0.010890219360589981
0.012555338442325592,-0.0015187828103080392,-0.013185540214180946,0.016273632645606995,0.0,0.011259331367909908
0.01273740641772747,-0.001427327748388052,-0.013698974624276161,0.01541901659220457,0.0,0.01115016546100378
0.013059818185865879,-0.0014588566264137626,-0.013365122489631176,0.015175902284681797,0.0,0.011081323027610779
0.012506810948252678,-0.001406538300216198,-0.013618191704154015,0.014363916590809822,0.0,0.010931220836937428
0.013102158904075623,-0.0014564704615622759,-0.01356497686356306,0.015525657683610916,0.0,0.011571201495826244
0.012731524184346199,-0.0013862623600289226,-0.013640597462654114,0.015193617902696133,0.0,0.011249258182942867
0.012862259522080421,-0.0013113170862197876,-0.013260209001600742,0.015053370967507362,0.0,0.011045223101973534
0.013272703625261784,-0.001381461275741458,-0.012968271970748901,0.013998482376337051,0.0,0.011670778505504131
0.01321158092468977,-0.0013296741526573896,-0.01327568106353283,0.014387091621756554,0.0,0.011249260045588017
0.012890475802123547,-0.001340998336672783,-0.013656015507876873,0.015021366998553276,0.0,0.011207597330212593
0.013204135932028294,-0.0013142405077815056,-0.01299884170293808,0.014821596443653107,0.0,0.011428953148424625
0.013130647130310535,-0.0014584787422791123,-0.01352077815681696,0.014931397512555122,-0.00022760116553399712,0.011707201600074768
0.013120126910507679,-0.0015647527761757374,-0.012927784584462643,0.014627170749008656,-0.00024169548123609275,0.011615656316280365
0.012804990634322166,-0.001478620688430965,-0.013814227655529976,0.016097290441393852,-0.0002310070558451116,0.011474189348518848
0.013313758186995983,-0.0013907125685364008,-0.013390038162469864,0.014895739033818245,-0.00021983199985697865,0.011596073396503925
0.013066220097243786,-0.0014333035796880722,-0.01391532551497221,0.014321173541247845,-0.00020959711400792003,0.011294931173324585
0.01332751102745533,-0.0013723473530262709,-0.013166367076337337,0.014368599280714989,-0.00020026680431328714,0.011766872368752956
0.013160870410501957,-0.0014461595565080643,-0.013338780961930752,0.014726660214364529,-0.0001917323679663241,0.01239402499049902
0.013126593083143234,-0.0013890962582081556,-0.013525203801691532,0.014471903443336487,-0.0001838954194681719,0.01124875620007515
0.013209231197834015,-0.0013385203201323748,-0.013287709094583988,0.014777018688619137,-0.00020960754773113877,0.011259695515036583
0.013210233300924301,-0.0015016215620562434,-0.013542938977479935,0.014548197388648987,-0.0002038416132563725,0.011673467233777046
0.013614585623145103,-0.0015507311327382922,-0.013355107977986336,0.014805104583501816,-0.00019656088261399418,0.0118790864944458
0.01322320755571127,-0.0014673246769234538,-0.013784987851977348,0.01437158789485693,-0.00018966557399835438,0.01220420841127634
0.01322320755571127,-0.0014673246769234538,-0.013784987851977348,0.01437158789485693,-0.00018966557399835438,0.01220420841127634
0.013722795993089676,-0.0014944671420380473,-0.012985668145120144,0.014531068503856659,-0.00021170360560063273,0.012404368259012699
0.013348808512091637,-0.0014192004455253482,-0.013667595572769642,0.014396341517567635,-0.00020661737653426826,0.012193219736218452
0.013519969768822193,-0.0012727446155622602,-0.013137397356331348,0.014587770216166973,-0.0002001729008043185,0.012285701930522919
0.013007238507270813,-0.0013298107078298926,-0.013475908897817135,0.014011948369443417,-0.00019401551980990916,0.012472586706280708
0.013861540704965591,-0.0013045927044004202,-0.013091227039694786,0.014018332585692406,-0.0002115543175023049,0.01243838481605053
0.012953156605362892,-0.001508800545707345,-0.013834004290401936,0.013972307555377483,-0.0002086348395096138,0.012586046010255814
0.013265268877148628,-0.0013999785296618938,-0.013342460617423058,0.014448482543230057,-0.00020296273578424007,0.012609255500137806
0.013410365208983421,-0.0013185562565922737,-0.013374640606343746,0.014417215250432491,-0.00022489950060844421,0.01200384646654129
0.01365644671022892,-0.0013420996256172657,-0.013131041079759598,0.014588245190680027,-0.00021822612325195223,0.011377993039786816
0.013480898924171925,-0.0012949235970154405,-0.013049883767962456,0.014019415713846684,-0.00020839473290834576,0.011361144483089447
0.013604105450212955,-0.0012398057151585817,-0.013527609407901764,0.014748448505997658,-0.00023370070266537368,0.011834344826638699
0.013715601526200771,-0.0012951769167557359,-0.013155132532119751,0.01431998610496521,-0.00022854346025269479,0.012476961128413677
0.013525818474590778,-0.0012627460528165102,-0.013487664051353931,0.014485922642052174,-0.00021955950069241226,0.01251631323248148
0.013380060903728008,-0.0013568626018241048,-0.013574106618762016,0.014970938675105572,-0.0002367524866713211,0.012446565553545952
0.013541733846068382,-0.001269040396437049,-0.013246078044176102,0.014536213129758835,-0.00025659677339717746,0.012378541752696037
0.013182168826460838,-0.0012046071933582425,-0.013459987007081509,0.014971264638006687,-0.00040981380152516067,0.012106732465326786
0.013969010673463345,-0.00108355435077101,-0.013131340965628624,0.01511815283447504,-0.00048543151933699846,0.01249199453741312
0.013586963526904583,-0.0010710976785048842,-0.013704887591302395,0.014837225899100304,-0.0004661802086047828,0.01249045878648758
0.013993898406624794,-0.0010418170131742954,-0.013381056487560272,0.014782518148422241,-0.00043047437793575227,0.012577638030052185
0.01348150335252285,-0.0010208900785073638,-0.01423670258373022,0.015004622749984264,-0.00046053255209699273,0.012962359935045242
0.013877131044864655,-0.0009462069137953222,-0.013877566903829575,0.015172573737800121,-0.0004784147022292018,0.01272568292915821
0.013635467737913132,-0.0010616341605782509,-0.014028544537723064,0.015422903932631016,-0.0005787364207208157,0.012768666259944439
0.013714374043047428,-0.001001797616481781,-0.013818696141242981,0.015278242528438568,-0.0006714254268445075,0.012504193000495434
0.013714374043047428,-0.001001797616481781,-0.013818696141242981,0.015278242528438568,-0.0006714254268445075,0.012504193000495434
0.01386231742799282,-0.0009868515189737082,-0.01389895100146532,0.014560407027602196,-0.0006502726464532316,0.012588528916239738
0.014404389075934887,-0.0009078893344849348,-0.013704406097531319,0.014431367628276348,-0.0005838061915710568,0.012299480848014355
0.014122849330306053,-0.0009997027227655053,-0.013520436361432076,0.014165830798447132,-0.0005270002875477076,0.012192421592772007
0.014607121236622334,-0.0009847497567534447,-0.014242305420339108,0.014446275308728218,-0.0005490430048666894,0.012346610426902771
0.014083866029977798,-0.0008905348367989063,-0.013971574604511261,0.014199278317391872,-0.000513621955178678,0.012658102437853813
0.014513018541038036,-0.0008905102149583399,-0.014437014237046242,0.014625249430537224,-0.000525329087395221,0.012745292857289314
0.013754322193562984,-0.0008930967887863517,-0.013954691588878632,0.014944806694984436,-0.0005040743853896856,0.01287446916103363
0.013727943412959576,-0.000891080591827631,-0.013935301452875137,0.015787232667207718,-0.0004832889244426042,0.013049173168838024
0.013788074254989624,-0.0008923687855713069,-0.013789217919111252,0.01526547223329544,-0.0004476197063922882,0.012692997232079506
0.014132310636341572,-0.0008675000863149762,-0.014489749446511269,0.015305889770388603,-0.00040782266296446323,0.014149956405162811
0.014166916720569134,-0.0008054068894125521,-0.014096247032284737,0.014451675117015839,-0.0004384335479699075,0.012546636164188385
0.014096400700509548,-0.0008230193634517491,-0.014730212278664112,0.014619496650993824,-0.0004136130155529827,0.012616865336894989
0.014279337599873543,-0.0008341215434484184,-0.01353550236672163,0.014120331965386868,-0.00044007363612763584,0.012602660804986954
0.014192869886755943,-0.0008429496665485203,-0.014243890531361103,0.01446232944726944,-0.00041842227801680565,0.012864500284194946
0.01390847284346819,-0.0008411656017415226,-0.014055394567549229,0.013978415168821812,-0.0004413318820297718,0.013246570713818073
0.014357863925397396,-0.0008724831859581172,-0.014869838953018188,0.01417732983827591,-0.0004221104027237743,0.013467217795550823
0.014555922709405422,-0.0008790189167484641,-0.013798153959214687,0.01370456162840128,-0.0003991379926446825,0.01349481288343668
0.014813660643994808,-0.0008846691926009953,-0.01320493221282959,0.013786828145384789,-0.0004014184814877808,0.01313649583607912
0.014308039098978043,-0.0008304162183776498,-0.013898514211177826,0.014186259359121323,-0.00036947871558368206,0.012771072797477245
0.014090189710259438,-0.0009770408505573869,-0.013858077116310596,0.01428916398435831,-0.0003745823632925749,0.013240382075309753
0.0146067189052701,-0.0009666054975241423,-0.014499974437057972,0.01484153512865305,-0.0003785651351790875,0.01323190052062273
0.014771061018109322,-0.000876390200573951,-0.013785150833427906,0.01473512314260006,-0.00040684043779037893,0.013419182039797306
0.014252405613660812,-0.0008781037176959217,-0.014011488296091557,0.015406215563416481,-0.0004159053205512464,0.013523018918931484
0.014306589961051941,-0.0008764551021158695,-0.0135914646089077,0.01635846123099327,-0.00041719217551872134,0.013720517046749592
0.014566740021109581,-0.0008880360401235521,-0.014336503110826015,0.015028462745249271,-0.0003959052555728704,0.013485617935657501
0.014349725097417831,-0.0008897866937331855,-0.01399074774235487,0.01402271632105112,-0.00046032932004891336,0.013381210155785084
0.014830714091658592,-0.0008565324824303389,-0.014518991112709045,0.01458530593663454,-0.0004297952982597053,0.013402997516095638
0.013488330878317356,-0.0007962273666635156,-0.013376998715102673,0.014278530143201351,-0.00039309661951847374,0.013545279391109943
0.015825871378183365,-0.0008088965550996363,-0.013731052167713642,0.01467586774379015,-0.00042390645830892026,0.013820652849972248
0.015381795354187489,-0.0008257909794338048,-0.013789840042591095,0.014223527163267136,-0.00045007429434917867,0.013802943751215935
0.015252361074090004,-0.0008226127829402685,-0.014261672273278236,0.014935790561139584,-0.0004348403890617192,0.013962073251605034
0.015252361074090004,-0.0008226127829402685,-0.014261672273278236,0.014935790561139584,-0.0004348403890617192,0.013962073251605034
0.01493772678077221,-0.0008315504528582096,-0.01393881905823946,0.014426217414438725,-0.0004619091341737658,0.013720913790166378
0.015404526144266129,-0.0008723139762878418,-0.014154705218970776,0.01474742591381073,-0.00050580152310431,0.013857387937605381
0.015266992151737213,-0.0008828815771266818,-0.014096720144152641,0.014426115900278091,-0.0005155592225492001,0.01373294834047556
0.015518374741077423,-0.0007994580664671957,-0.014078665524721146,0.014693387784063816,-0.0004665101005230099,0.013985570520162582
0.015415018424391747,-0.0008111837087199092,-0.013678174465894699,0.01442249957472086,-0.0004957240889780223,0.01344092097133398
0.01597197726368904,-0.0008183977915905416,-0.013991506770253181,0.014740865677595139,-0.0004630914772860706,0.013754627667367458
0.015622991137206554,-0.000744909280911088,-0.01386639941483736,0.01434256974607706,-0.00042708456749096513,0.013759179040789604
0.015818733721971512,-0.000729753402993083,-0.013719793409109116,0.014858748763799667,-0.00039579873555339873,0.014321242459118366
0.01611616276204586,-0.000752923428080976,-0.013781753368675709,0.014361263252794743,-0.00036875283694826066,0.01433931477367878
0.015991007909178734,-0.0007708973134867847,-0.013703424483537674,0.01449445728212595,-0.0003451689553912729,0.014626307412981987
0.015986232087016106,-0.0007849636604078114,-0.014076737686991692,0.01417363528162241,-0.00032442135852761567,0.014051406644284725
0.015518920496106148,-0.0008727930253371596,-0.013785292394459248,0.014509325847029686,-0.00030602695187553763,0.013984110206365585
0.015947068110108376,-0.0008815535111352801,-0.014053154736757278,0.014365040697157383,-0.0003131411212962121,0.013574239797890186
0.016274631023406982,-0.0007861486519686878,-0.014222967438399792,0.01390374731272459,-0.00030503046582452953,0.014200417324900627
0.01611657254397869,-0.0007002157508395612,-0.01360352709889412,0.014446189627051353,-0.0002910291950684041,0.013750950805842876
0.016234973445534706,-0.0007188399904407561,-0.014289449900388718,0.014007785357534885,-0.0002976060495711863,0.014178532175719738
0.016166333109140396,-0.0006749320891685784,-0.01368817500770092,0.014812191016972065,-0.00030314800096675754,0.014606960117816925
0.01603785529732704,-0.000596693716943264,-0.014241735450923443,0.014677628874778748,-0.00029203222948126495,0.014019335620105267
0.016059281304478645,-0.0006277526263147593,-0.01348019391298294,0.014646640978753567,-0.0002807218406815082,0.01438720989972353
0.015748197212815285,-0.0006272736936807632,-0.014048854820430279,0.014615821652114391,-0.00027093375683762133,0.014588129706680775
0.016390474513173103,-0.0005972072831355035,-0.013666845858097076,0.015244761481881142,-0.0002272218989674002,0.014702824875712395
0.016455698758363724,-0.0006205306854099035,-0.014327768236398697,0.015030977316200733,-0.00021442399884108454,0.015141336247324944
0.016715338453650475,-0.0005740266060456634,-0.013717258349061012,0.015062547288835049,-0.0002045457367785275,0.01489042304456234
0.016420789062976837,-0.000613125623203814,-0.014019194059073925,0.014522287994623184,-0.00022954592714086175,0.014172950759530067
0.01673051342368126,-0.0006385098677128553,-0.013431229628622532,0.015100743621587753,-0.00022464519133791327,0.014237296767532825
0.016466256231069565,-0.0005815188633278012,-0.01409150380641222,0.015116116032004356,-0.0002471680345479399,0.014376454055309296
0.016241252422332764,-0.0005251004477031529,-0.013845168985426426,0.015195749700069427,-0.00024197649327106774,0.014351320452988148
0.017096804454922676,-0.0004785511700902134,-0.013943354599177837,0.014958499930799007,-0.00023329588293563575,0.014426000416278839
0.01684706285595894,-0.00043958009337075055,-0.013832083903253078,0.014898812398314476,-0.00022498145699501038,0.014889813959598541
0.016898108646273613,-0.00040648053982295096,-0.013965165242552757,0.014964045025408268,-0.0002461576950736344,0.014908202923834324
0.016898108646273613,-0.00040648053982295096,-0.013965165242552757,0.014964045025408268,-0.0002461576950736344,0.014908202923834324
0.016782568767666817,-0.00037801903090439737,-0.013734504580497742,0.014988254755735397,-0.00023984418658073992,0.015360886231064796
0.016803426668047905,-0.0003532835398800671,-0.013633503578603268,0.015082141384482384,-0.0003019122523255646,0.015341322869062424
0.017238540574908257,-0.0003315853828098625,-0.01429491676390171,0.014965149573981762,-0.00034429950756020844,0.015550767071545124
0.016668587923049927,-0.00031240141834132373,-0.013929096050560474,0.01523338258266449,-0.000379780336515978,0.01522348914295435
0.017333554103970528,-0.00029531485051847994,-0.013704701326787472,0.01484584528952837,-0.0003622114600148052,0.015474142506718636
0.017104443162679672,-0.0002800004440359771,-0.013627184554934502,0.014942836947739124,-0.0003926293575204909,0.014994202181696892
0.01709195226430893,-0.00022245619038585573,-0.01424820814281702,0.014864112250506878,-0.00041212048381567,0.015152260661125183
0.017208922654390335,-0.00021141620527487248,-0.013974525034427643,0.015146665275096893,-0.00040275647188536823,0.015169077552855015
0.01733362302184105,-0.00020192116789985448,-0.014115668833255768,0.01486264355480671,-0.0006041449960321188,0.015744639560580254
0.01786683313548565,-0.00019324893946759403,-0.01408262737095356,0.01549519132822752,-0.0006415919051505625,0.015594657510519028
0.017496082931756973,-0.0001852916757343337,-0.014327771961688995,0.014870483428239822,-0.0005857523065060377,0.015355570241808891
0.017380911856889725,-0.00017796357860788703,-0.013724998570978642,0.015313108451664448,-0.0006050837109796703,0.015156210400164127
0.01692204922437668,-0.00016491855785716325,-0.013865643180906773,0.014927400276064873,-0.0005161075969226658,0.015415303409099579
0.018150370568037033,-0.00015911211085040122,-0.014422942884266376,0.014644453302025795,-0.0005358562339097261,0.015375658869743347
0.01806468702852726,-0.00015367571904789656,-0.01449181791394949,0.015072451904416084,-0.0005061794654466212,0.015655146911740303
0.017835721373558044,-0.00014860337250865996,-0.014797196723520756,0.015081851743161678,-0.00047340354649350047,0.015573582611978054
0.017956353724002838,-0.00014385272515937686,-0.014466166496276855,0.015488867647945881,-0.0004524253308773041,0.016383269801735878
0.017986340448260307,-0.00013939641939941794,-0.014644899405539036,0.014798561111092567,-0.00041504326509311795,0.014629985205829144
0.01840057782828808,-0.0001352079416392371,-0.014595388434827328,0.014778781682252884,-0.0004508479905780405,0.014811620116233826
0.018367469310760498,-0.0001312642707489431,-0.014944956637918949,0.01480837818235159,-0.00048085421440191567,0.015229891054332256
0.018224423751235008,-0.00012754347699228674,-0.01454971358180046,0.0148475868627429,-0.0004862283531110734,0.015800897032022476
0.018620222806930542,-0.00012402857828419656,-0.014749600552022457,0.014983884990215302,-0.00048575166147202253,0.015581458806991577
0.018262401223182678,-0.00012070171942468733,-0.014708412811160088,0.015463283285498619,-0.000776043045334518,0.01586201786994934
0.01778903603553772,-0.00011754857405321673,-0.015164578333497047,0.015126851387321949,-0.0008079425897449255,0.01562655158340931
0.01817074418067932,-0.00011455646017566323,-0.014538240619003773,0.015110129490494728,-0.0007424168870784342,0.01566747948527336
0.01817074418067932,-0.00011455646017566323,-0.014538240619003773,0.015110129490494728,-0.0007424168870784342,0.01566747948527336
0.018227586522698402,-0.00011171244113938883,-0.014614260755479336,0.015068821609020233,-0.0007539824000559747,0.015972403809428215
0.018705302849411964,-0.00010900636698352173,-0.014871754683554173,0.01413480844348669,-0.0006877595442347229,0.01593342423439026
0.019421003758907318,-0.00010642840788932517,-0.015165780670940876,0.015488171018660069,-0.0006280825473368168,0.0161698330193758
0.018658347427845,-0.00010396938159829006,-0.015002444386482239,0.013918985612690449,-0.0006383340805768967,0.016345100477337837
0.018846262246370316,-0.00010162156831938773,-0.015207800082862377,0.014465898275375366,-0.0006518667796626687,0.0162619911134243
0.019141657277941704,-9.937753202393651e-05,-0.014939768239855766,0.014429541304707527,-0.0006047913338989019,0.015932779759168625
0.01885131001472473,-9.723015682538971e-05,-0.014657815918326378,0.01514656376093626,-0.0006296417559497058,0.016400335356593132
0.019019482657313347,-9.517381840851158e-05,-0.014909469522535801,0.014604581519961357,-0.0006485938210971653,0.01640932448208332
0.019128326326608658,-8.093300857581198e-05,-0.014785456471145153,0.01459432952105999,-0.0006041550077497959,0.016363242641091347
0.018880570307374,-7.313480455195531e-05,-0.014611966907978058,0.01415315829217434,-0.0006070401868782938,0.016375955194234848
0.019173791632056236,-7.159763481467962e-05,-0.014812272042036057,0.014680786989629269,-0.0005797249032184482,0.016401955857872963
0.019012192264199257,-7.020032353466377e-05,-0.013854308053851128,0.014591776765882969,-0.0005164413014426827,0.016478797420859337
0.018909720703959465,-6.885767652420327e-05,-0.014083849266171455,0.01511959545314312,-0.0005310943815857172,0.01630384661257267
0.019442923367023468,-6.756533548468724e-05,-0.015722312033176422,0.01497912872582674,-0.0005024698912166059,0.016249459236860275
0.019824910908937454,-6.632065924350172e-05,-0.01497696153819561,0.015023248270154,-0.0004609052266459912,0.016255002468824387
0.019308719784021378,-6.396400567609817e-05,-0.014620467089116573,0.01543380692601204,-0.0004569630546029657,0.01652955450117588
0.019939640536904335,-6.284729897743091e-05,-0.014801211655139923,0.015213307924568653,-0.0004279552958905697,0.016329621896147728
0.019893212243914604,-6.176910392241552e-05,-0.014427418820559978,0.015250695869326591,-0.00045411853352561593,0.0168024729937315
0.01956610009074211,-4.731873923446983e-05,-0.015043973922729492,0.015262860804796219,-0.0004325012268964201,0.016522619873285294
0.02003011666238308,-4.481362702790648e-05,-0.014742379076778889,0.015015790238976479,-0.00040624651592224836,0.01641145348548889
0.019820192828774452,-4.405925210448913e-05,-0.015363110229372978,0.014492623507976532,-0.0004377453587949276,0.01641831547021866
0.019578609615564346,-4.3351552449166775e-05,-0.014629567973315716,0.01448387186974287,-0.00041306111961603165,0.016658198088407516
0.020189573988318443,-4.266648829798214e-05,-0.015278249979019165,0.014818538911640644,-0.0004437708994373679,0.016813060268759727
0.020311856642365456,-4.200283365207724e-05,-0.01460591983050108,0.015337210148572922,-0.0004622024134732783,0.017890557646751404
0.020007917657494545,-4.135937706450932e-05,-0.015036552213132381,0.015245765447616577,-0.0004474410670809448,0.017109043896198273
0.020012302324175835,-4.073539093951695e-05,-0.014678633771836758,0.015179578214883804,-0.0006156388553790748,0.01623622328042984
0.02036372758448124,2.150059117411729e-05,-0.015489939600229263,0.015222660265862942,-0.0006508285296149552,0.017159808427095413
0.020074201747775078,2.9057711799396202e-05,-0.015013906173408031,0.015190919861197472,-0.0006050865049473941,0.0176242645829916
0.020074201747775078,2.9057711799396202e-05,-0.015013906173408031,0.015190919861197472,-0.0006050865049473941,0.0176242645829916
0.020315539091825485,2.870047501346562e-05,-0.015426944941282272,0.014690576121211052,-0.0006300051463767886,0.017353281378746033
0.02088991552591324,2.8251435651327483e-05,-0.01496915053576231,0.014644746668636799,-0.0006382698193192482,0.017682528123259544
0.02006024681031704,2.781492548820097e-05,-0.0152285723015666,0.015290065668523312,-0.0006037555867806077,0.017737727612257004
0.020201845094561577,2.7391639378038235e-05,-0.014526957646012306,0.014910837635397911,-0.0006510881939902902,0.017520548775792122
0.020610235631465912,2.6981089831679128e-05,-0.014626095071434975,0.01567096821963787,-0.000598077429458499,0.01769772171974182
0.021178200840950012,2.65826365648536e-05,-0.01508672907948494,0.015065401792526245,-0.00052974111167714,0.017599115148186684
0.020593097433447838,3.776537414523773e-05,-0.015027761459350586,0.01517900824546814,-0.0005554825183935463,0.017275119200348854
0.02096308022737503,3.870951331919059e-05,-0.01506752148270607,0.01462075486779213,-0.0005136516410857439,0.017414147034287453
0.020602738484740257,3.8182104617590085e-05,-0.014682519249618053,0.014774203300476074,-0.0004696544201578945,0.01791471801698208
0.020079415291547775,3.7649944715667516e-05,-0.014800967648625374,0.014340808615088463,-0.0004320847219787538,0.01808718405663967
0.02163202129304409,3.7132147554075345e-05,-0.014768017455935478,0.014795088209211826,-0.0004000495537184179,0.01814511977136135
0.021389733999967575,4.466840618988499e-05,-0.015021356754004955,0.014732176437973976,-0.00037244026316329837,0.0179256834089756
0.021152088418602943,4.8128342314157635e-05,-0.015104470774531364,0.015617713332176208,-0.00034839651198126376,0.017953084781765938
0.02102719619870186,4.75471570098307e-05,-0.015626341104507446,0.015373456291854382,-0.0003538128803484142,0.01789572462439537
0.022005954757332802,5.7851608289638534e-05,-0.015532450750470161,0.015021806582808495,-0.0003404025046620518,0.018322259187698364
0.021997855976223946,5.7168956118403e-05,-0.014808022417128086,0.015486272051930428,-0.00032304628985002637,0.018164118751883507
0.021629517897963524,5.64525144000072e-05,-0.015004108659923077,0.015401782467961311,-0.00030729142599739134,0.01766291633248329
0.02058394066989422,0.00021382025443017483,-0.0150273647159338,0.016102341935038567,-0.00031344289891421795,0.017107749357819557
0.020735349506139755,0.00021022635337430984,-0.01565784215927124,0.015603691339492798,-0.0003185714012943208,0.017525525763630867
0.02151108905673027,0.00020092538034077734,-0.014878912828862667,0.01509059313684702,-0.0003062598698306829,0.01784023642539978
0.022249197587370872,0.00019233804778195918,-0.01535638514906168,0.015343760140240192,-0.00029530649771913886,0.018150020390748978
0.021862447261810303,0.0001844540674937889,-0.015247710049152374,0.015000447630882263,-0.00023493944900110364,0.01875341311097145
0.02204146236181259,0.0002004472044063732,-0.015273844823241234,0.014916582964360714,-0.00022047791571822017,0.01865553669631481
0.022157257422804832,0.00020440955995582044,-0.015386165119707584,0.014393831603229046,-0.00024100155860651284,0.01853865012526512
0.02190443128347397,0.0001971040910575539,-0.015464724972844124,0.014808548614382744,-0.00024002252030186355,0.018744012340903282
0.021750638261437416,0.00019016454461961985,-0.015622424893081188,0.014447481371462345,-0.0002587960916571319,0.018422499299049377
0.0221827644854784,0.00021307285351213068,-0.015769749879837036,0.015065044164657593,-0.0002572071098256856,0.018383916467428207
0.0221827644854784,0.00021307285351213068,-0.015769749879837036,0.015065044164657593,-0.0002572071098256856,0.018383916467428207
0.02270623669028282,0.00020724404021166265,-0.01556357741355896,0.014764550141990185,-0.00028066462255083025,0.019274795427918434
0.022396260872483253,0.00020065908029209822,-0.015050237998366356,0.014919443987309933,-0.0004090320144314319,0.01830432377755642
0.022470969706773758,0.00021897803526371717,-0.01583179458975792,0.014468882232904434,-0.000539251952432096,0.018118184059858322
0.022444933652877808,0.00021554775594267994,-0.015545138157904148,0.014621155336499214,-0.0005370850558392704,0.01854531280696392
0.02249975875020027,0.00020932307234033942,-0.016395101323723793,0.014117399230599403,-0.0005621310556307435,0.018842466175556183
0.02276616543531418,0.00028388173086568713,-0.016300972551107407,0.014751637354493141,-0.0005613899556919932,0.019234562292695045
0.02296113409101963,0.00027024088194593787,-0.016174601390957832,0.014626498334109783,-0.0005520256236195564,0.019195012748241425
0.022612720727920532,0.00029988872120156884,-0.01595168374478817,0.015306172892451286,-0.0006955692660994828,0.019195226952433586
0.022329889237880707,0.0002894777280744165,-0.01604953408241272,0.015369066037237644,-0.0007351830136030912,0.01936049945652485
0.022890955209732056,0.0002748199040070176,-0.01654995046555996,0.015845242887735367,-0.0006614354206249118,0.01904398575425148
0.02292066439986229,0.0002999226562678814,-0.016580363735556602,0.015605463646352291,-0.0006812521023675799,0.018776267766952515
0.02261258102953434,0.00029093315242789686,-0.01640702784061432,0.015239804051816463,-0.000662831065710634,0.019126862287521362
0.022666165605187416,0.00031627193675376475,-0.016072936356067657,0.014588759280741215,-0.0006425581523217261,0.01907310076057911
0.023271575570106506,0.00030442801653407514,-0.01721729338169098,0.015004520304501057,-0.0006258362554945052,0.018966151401400566
0.02342984639108181,0.00045090331695973873,-0.016291722655296326,0.01502719521522522,-0.0005815248005092144,0.019215978682041168
0.02295774780213833,0.0004702773585449904,-0.01605241559445858,0.01505628414452076,-0.000517007545568049,0.01909739337861538
0.023199567571282387,0.00045670679537579417,-0.01628292351961136,0.01504224631935358,-0.0005435555358417332,0.019193023443222046
0.02335243858397007,0.0004560115921776742,-0.017120519652962685,0.015352170914411545,-0.0005275578587315977,0.019162913784384727
0.023357434198260307,0.0004851359990425408,-0.016256578266620636,0.015122359618544579,-0.0005294273141771555,0.01962435431778431
0.023681800812482834,0.0006448652129620314,-0.016687612980604172,0.015235649421811104,-0.0005228532245382667,0.02008042484521866
0.02357836812734604,0.0006891103112138808,-0.016479603946208954,0.01500636525452137,-0.0005446758004836738,0.019667014479637146
0.023399606347084045,0.0006226006662473083,-0.016408585011959076,0.015514630824327469,-0.0005673323757946491,0.019257428124547005
0.02336953952908516,0.0006500259041786194,-0.0165250226855278,0.015155652537941933,-0.0005340391071513295,0.019113847985863686
0.0222068689763546,0.0006710937013849616,-0.01644236221909523,0.015245538204908371,-0.0005626978818327188,0.01947847194969654
0.024245785549283028,0.0007994996849447489,-0.016579575836658478,0.014553137123584747,-0.000575773767195642,0.019492384046316147
0.024245785549283028,0.0007994996849447489,-0.016579575836658478,0.014553137123584747,-0.000575773767195642,0.019492384046316147
0.024382708594202995,0.0008339660125784576,-0.01693391613662243,0.015090611763298512,-0.0005112163489684463,0.020258432254195213
0.024382708594202995,0.0008339660125784576,-0.01693391613662243,0.015090611763298512,-0.0005112163489684463,0.020258432254195213
0.024104155600070953,0.0008417067583650351,-0.016699563711881638,0.01581294648349285,-0.0005738422623835504,0.019446996971964836
0.02378115803003311,0.0009225016692653298,-0.016305699944496155,0.015694856643676758,-0.0005994369857944548,0.019823791459202766
0.02337326668202877,0.0009778511011973023,-0.016590537503361702,0.01605123281478882,-0.0006066277273930609,0.020193004980683327
0.02357688546180725,0.0009665813995525241,-0.016532493755221367,0.015611070208251476,-0.0005918272072449327,0.020703498274087906
0.024298328906297684,0.0009576005395501852,-0.017077334225177765,0.015532427467405796,-0.0006004238384775817,0.020097510889172554
0.024432780221104622,0.0009944100165739655,-0.01626722328364849,0.015611983835697174,-0.0005706064403057098,0.019474556669592857
0.02375253103673458,0.0010362542234361172,-0.016755366697907448,0.01583484373986721,-0.0005312912398949265,0.01943415030837059
0.02418971247971058,0.0010190863395109773,-0.016934243962168694,0.016434606164693832,-0.000577238155528903,0.020424889400601387
0.025174884125590324,0.0010230832267552614,-0.016390621662139893,0.015871690586209297,-0.0006072918185964227,0.019279951229691505
0.02436118572950363,0.001226929947733879,-0.016439948230981827,0.015978699550032616,-0.0006250664009712636,0.019868765026330948
0.024434519931674004,0.001182357082143426,-0.01623762771487236,0.015334726311266422,-0.0006500518065877259,0.020195040851831436
0.024511318653821945,0.0011657739523798227,-0.016935426741838455,0.015437699854373932,-0.0007572323665954173,0.02051062136888504
0.024031441658735275,0.001289681764319539,-0.016607627272605896,0.016198821365833282,-0.0007641417323611677,0.020323337987065315
0.023899706080555916,0.0013490330893546343,-0.016527395695447922,0.016000479459762573,-0.0007564518600702286,0.02015042118728161
0.02477237582206726,0.0013176292413845658,-0.016000812873244286,0.015092309564352036,-0.0006128640379756689,0.02016521617770195
0.02486032247543335,0.0013960013166069984,-0.01618838496506214,0.015226760879158974,-0.0006174498121254146,0.020539555698633194
0.024835336953401566,0.001368280383758247,-0.016081994399428368,0.015636149793863297,-0.0005810738075524569,0.020570943132042885
0.02503911964595318,0.0014694934943690896,-0.01663053222000599,0.015729499980807304,-0.0005331997526809573,0.020731575787067413
0.02439703419804573,0.0013851986732333899,-0.016055559739470482,0.015422274358570576,-0.0004916389589197934,0.021110590547323227
0.02451242320239544,0.0015207381220534444,-0.01645956002175808,0.015762049704790115,-0.00045602937461808324,0.021081097424030304
0.024431532248854637,0.0015835127560421824,-0.01618422195315361,0.0157704409211874,-0.00042522771400399506,0.020772989839315414
0.02467799372971058,0.0017974807415157557,-0.016281113028526306,0.016303440555930138,-0.0004402129561640322,0.020796172320842743
0.024844735860824585,0.0018079233122989535,-0.016465624794363976,0.01602061279118061,-0.0004271657671779394,0.0208614319562912
0.02497030980885029,0.0018162837950512767,-0.016068963333964348,0.015729011967778206,-0.0004040411440655589,0.020469646900892258
0.024984953925013542,0.0016606420977041125,-0.01656353287398815,0.015256945043802261,-0.0003343620337545872,0.02083776332437992
0.024500280618667603,0.0016206556465476751,-0.01605057157576084,0.015496792271733284,-0.00029775252914987504,0.021368203684687614
0.024500280618667603,0.0016206556465476751,-0.01605057157576084,0.015496792271733284,-0.00029775252914987504,0.021368203684687614
0.02505047433078289,0.001702218665741384,-0.016630111262202263,0.01574309915304184,-0.00027837365632876754,0.020825685933232307
0.02492014318704605,0.0018318240763619542,-0.016406012699007988,0.015788264572620392,-0.00030742629314772785,0.021014893427491188
0.02447274886071682,0.001928269281052053,-0.016378453001379967,0.01584325172007084,-0.000296724057989195,0.021321991458535194
0.025909872725605965,0.001916305860504508,-0.016519881784915924,0.01582954451441765,-0.00032536021899431944,0.02129739336669445
0.025749022141098976,0.0019496182212606072,-0.01627478189766407,0.016283227130770683,-0.0003338918904773891,0.02140134945511818
0.025501832365989685,0.0018915943801403046,-0.01666906476020813,0.015476386062800884,-0.0003385754826012999,0.021438512951135635
0.025209933519363403,0.0019211542094126344,-0.016289224848151207,0.015735337510704994,-0.0005034944042563438,0.021596580743789673
0.025121694430708885,0.002257455373182893,-0.01684742234647274,0.015752088278532028,-0.0005656139110215008,0.02143244631588459
0.025107484310865402,0.002245354698970914,-0.01727430336177349,0.016029376536607742,-0.0005187857896089554,0.021370649337768555
0.025962602347135544,0.0025397110730409622,-0.016852444037795067,0.016196725890040398,-0.0005417577340267599,0.021302305161952972
0.026035819202661514,0.0026004845276474953,-0.017296141013503075,0.0160099845379591,-0.0005425081471912563,0.021310877054929733
0.026323527097702026,0.002432579407468438,-0.016561685130000114,0.015836499631404877,-0.0005348165286704898,0.02174665406346321
0.025030655786395073,0.002474627923220396,-0.016799861565232277,0.01527857780456543,-0.0005029730382375419,0.021495956927537918
0.025444822385907173,0.002650470705702901,-0.01639220118522644,0.015491977334022522,-0.0005804411484859884,0.02197420410811901
0.026368094608187675,0.00292973592877388,-0.017163990065455437,0.015598062425851822,-0.0006422977312467992,0.02204480953514576
0.025947099551558495,0.0031186139676719904,-0.016817744821310043,0.015533789992332458,-0.0005931454943493009,0.022530239075422287
0.026011230424046516,0.0030634093564003706,-0.016881724819540977,0.016279205679893494,-0.0006095714634284377,0.02247309498488903
0.026712724938988686,0.0029256059788167477,-0.016181521117687225,0.016238588839769363,-0.0005757511244155467,0.022562509402632713
0.026321882382035255,0.0030603273771703243,-0.017488472163677216,0.015949029475450516,-0.0007333896937780082,0.022582804784178734
0.026153044775128365,0.003230428323149681,-0.01687728799879551,0.015796106308698654,-0.000776742585003376,0.022622251883149147
0.02568073943257332,0.0032950753811746836,-0.016846807673573494,0.01612989418208599,-0.0007789710653014481,0.021390050649642944
0.025728192180395126,0.003057643072679639,-0.016902847215533257,0.016620736569166183,-0.0007241282728500664,0.02156176045536995
0.026999324560165405,0.00319666787981987,-0.016450397670269012,0.016647933050990105,-0.0007672854117117822,0.02270292304456234
0.026999324560165405,0.00319666787981987,-0.016450397670269012,0.016647933050990105,-0.0007672854117117822,0.02270292304456234
0.027164312079548836,0.0029859940987080336,-0.017149530351161957,0.016916178166866302,-0.0007455073646269739,0.023268530145287514
0.02701125107705593,0.003487649839371443,-0.01675313711166382,0.016358444467186928,-0.0006467113271355629,0.021572189405560493
0.02701125107705593,0.003487649839371443,-0.01675313711166382,0.016358444467186928,-0.0006467113271355629,0.021572189405560493
0.02710985206067562,0.0035382090136408806,-0.01728243939578533,0.015247941948473454,-0.0005998514825478196,0.021872667595744133
0.026892706751823425,0.0035947065334767103,-0.01711302250623703,0.015551057644188404,-0.0005709580727852881,0.02323835715651512
0.026892706751823425,0.0035947065334767103,-0.01711302250623703,0.015551057644188404,-0.0005709580727852881,0.02323835715651512
0.02776157669723034,0.0037354726810008287,-0.016757065430283546,0.016723817214369774,-0.0005522699793800712,0.02274678461253643
0.02776157669723034,0.0037354726810008287,-0.016757065430283546,0.016723817214369774,-0.0005522699793800712,0.02274678461253643
0.027648793533444405,0.003945305943489075,-0.0166730135679245,0.015987396240234375,-0.000497099885251373,0.023863060399889946
0.027342993766069412,0.0038944922853261232,-0.016849003732204437,0.015904676169157028,-0.00044526971760205925,0.024218251928687096
0.027601664885878563,0.003751564072445035,-0.01696145348250866,0.015280846506357193,-0.0004747453785967082,0.022992290556430817
0.02737293392419815,0.003697057254612446,-0.016506671905517578,0.015577496029436588,-0.00048100025742314756,0.02210843935608864
0.027592122554779053,0.003890612395480275,-0.016980446875095367,0.01568433828651905,-0.0005110971396788955,0.02231472358107567
0.027854984626173973,0.00442842161282897,-0.016765540465712547,0.01593267358839512,-0.0006602146895602345,0.022988222539424896
0.028265204280614853,0.004550321958959103,-0.017037954181432724,0.015946634113788605,-0.0008065375732257962,0.02397260069847107
0.02781641110777855,0.004292858298867941,-0.01726689375936985,0.015764892101287842,-0.0008428291766904294,0.023790718987584114
0.02821788750588894,0.00445899972692132,-0.016795942559838295,0.01576278544962406,-0.0008512779604643583,0.02350785955786705
0.028352897614240646,0.004231845494359732,-0.01653474196791649,0.016320394352078438,-0.0010426179505884647,0.02340787462890148
0.028384104371070862,0.004951918963342905,-0.017111212015151978,0.015708202496170998,-0.0009636158938519657,0.0237568411976099
0.02853497490286827,0.005022065248340368,-0.017148461192846298,0.016011618077754974,-0.0008901081746444106,0.023686399683356285
0.028789879754185677,0.00457993196323514,-0.016717519611120224,0.01582322269678116,-0.0007833319250494242,0.02373811975121498
0.02904595248401165,0.004351847339421511,-0.016815435141324997,0.016304219141602516,-0.000696788018103689,0.02354581281542778
0.028826026245951653,0.004469511564821005,-0.016404317691922188,0.016325416043400764,-0.0007044094381853938,0.02315276302397251
0.029427915811538696,0.004637450445443392,-0.017050087451934814,0.016153506934642792,-0.0006511075189337134,0.023197144269943237
0.029427915811538696,0.004637450445443392,-0.017050087451934814,0.016153506934642792,-0.0006511075189337134,0.023197144269943237
0.029578274115920067,0.00482398085296154,-0.016744939610362053,0.015706241130828857,-0.0005976894753985107,0.02387414313852787
0.029197819530963898,0.005138327367603779,-0.016874145716428757,0.0154635701328516,-0.0005518794641830027,0.023942330852150917
0.02922116592526436,0.004883280955255032,-0.017702225595712662,0.016022557392716408,-0.0005125631578266621,0.02376497909426689
0.029577618464827538,0.004880897700786591,-0.017560599371790886,0.01599794253706932,-0.0004006137023679912,0.023948490619659424
0.030687058344483376,0.004642069805413485,-0.0177154541015625,0.016873084008693695,-0.0003590178384911269,0.0240811537951231
0.029916763305664062,0.004793121479451656,-0.017110195010900497,0.017053969204425812,-0.0003806414606515318,0.02412073127925396
0.02807764708995819,0.004950249567627907,-0.01746627874672413,0.01702471822500229,-0.00036969257052987814,0.024369744583964348
0.029948674142360687,0.004958144389092922,-0.017730729654431343,0.016472920775413513,-0.00039690182893536985,0.024177631363272667
0.030449848622083664,0.0050511485897004604,-0.017400074750185013,0.015750760212540627,-0.0004062994848936796,0.02388889156281948
0.029782716184854507,0.0048731351271271706,-0.017933806404471397,0.01609930954873562,-0.00040809271740727127,0.024036169052124023
0.030399173498153687,0.00508287874981761,-0.017603019252419472,0.016307298094034195,-0.0004851242701988667,0.02379774861037731
0.031041329726576805,0.0055665201507508755,-0.017134085297584534,0.016953714191913605,-0.000521997339092195,0.02405872941017151
0.030942264944314957,0.005392099265009165,-0.01791141927242279,0.01648411713540554,-0.0005423593102023005,0.024554545059800148
0.02989516407251358,0.0053419978357851505,-0.01773727312684059,0.016205985099077225,-0.0005125019233673811,0.024781350046396255
0.029956061393022537,0.0054373107850551605,-0.017945781350135803,0.016072126105427742,-0.000469334569061175,0.024117251858115196
0.03094143234193325,0.005275695119053125,-0.017303958535194397,0.016726678237318993,-0.00046585360541939735,0.02342236414551735
0.03099200129508972,0.005212044343352318,-0.01821175031363964,0.016320055350661278,-0.0004878668987657875,0.024315593764185905
0.03064861334860325,0.005836792290210724,-0.01866173930466175,0.016298288479447365,-0.000507234362885356,0.02483043633401394
0.030328257009387016,0.00538049079477787,-0.01824633963406086,0.015662414953112602,-0.0005435398197732866,0.024586012586951256
0.03083821013569832,0.005083419382572174,-0.018391981720924377,0.016118120402097702,-0.0005354881286621094,0.02466069534420967
0.030774354934692383,0.0052600339986383915,-0.018127482384443283,0.015711195766925812,-0.0005602361634373665,0.024661017581820488
0.03098929300904274,0.00471089081838727,-0.01804957538843155,0.016032550483942032,-0.0005596308037638664,0.02500137872993946
0.030765468254685402,0.0036608432419598103,-0.018109304830431938,0.016553625464439392,-0.0005509101902134717,0.024896321818232536
0.03059381991624832,0.0025081285275518894,-0.017870932817459106,0.016493206843733788,-0.0007199208484962583,0.02391364797949791
0.03059381991624832,0.0025081285275518894,-0.017870932817459106,0.016493206843733788,-0.0007199208484962583,0.02391364797949791
0.031038865447044373,0.002153252251446247,-0.018494607880711555,0.017353374511003494,-0.0007274887175299227,0.024154407903552055
0.03108762763440609,0.002235026564449072,-0.01827259734272957,0.01699068956077099,-0.00071996747283265,0.02529865689575672
0.031297191977500916,0.00319677940569818,-0.01748943142592907,0.01710011065006256,-0.0007379857706837356,0.02557695098221302
0.03130099177360535,0.0037480571772903204,-0.018344303593039513,0.017040329053997993,-0.0007110064616426826,0.025606028735637665
0.03118092752993107,0.0033688966650515795,-0.01819060742855072,0.017010973766446114,-0.0007577169453725219,0.024957697838544846
0.03097962774336338,0.0030554335098713636,-0.01887739822268486,0.017113588750362396,-0.0007794784032739699,0.02491971105337143
0.032116979360580444,0.0027841762639582157,-0.018807020038366318,0.016717877238988876,-0.0006955636199563742,0.025295045226812363
0.032167479395866394,0.0028508803807199,-0.017584914341568947,0.01707548275589943,-0.0007122799288481474,0.0254458487033844
0.03175454959273338,0.002927205990999937,-0.018556462600827217,0.016854725778102875,-0.0007248648325912654,0.025727994740009308
0.030122138559818268,0.0030363621190190315,-0.01901666447520256,0.01681026816368103,-0.0007563842227682471,0.025937363505363464
0.030704664066433907,0.00319820293225348,-0.017964813858270645,0.016725478693842888,-0.0007939565693959594,0.02626429870724678
0.03211500495672226,0.0030077840201556683,-0.018215712159872055,0.016230329871177673,-0.0007935623871162534,0.02601698599755764
0.0318530909717083,0.0029652833472937346,-0.018677156418561935,0.016654979437589645,-0.0007289299974218011,0.025914395228028297
0.03209502622485161,0.0032097012735903263,-0.01895797997713089,0.016557147726416588,-0.0007352916873060167,0.02535846456885338
0.032253753393888474,0.0029726333450526,-0.01897868514060974,0.016826467588543892,-0.000751764455344528,0.025279441848397255
0.03141113370656967,0.003327110316604376,-0.018635381013154984,0.016550665721297264,-0.0007953767781145871,0.025411037728190422
0.031386084854602814,0.003190607763826847,-0.01890096627175808,0.016416169703006744,-0.0008081332198344171,0.02600349299609661
0.03188192844390869,0.0030545915942639112,-0.019077282398939133,0.015978913754224777,-0.0007715464453212917,0.026197530329227448
0.032199930399656296,0.0033914707601070404,-0.019360411912202835,0.01643865369260311,-0.0006997637683525681,0.025898806750774384
0.03214896097779274,0.0037292197812348604,-0.01927936263382435,0.016452930867671967,-0.0007234566146507859,0.025919234380126
0.03236128389835358,0.00331768742762506,-0.019077859818935394,0.01686960458755493,-0.0006374003132805228,0.02581275813281536
0.03203658387064934,0.0033383555710315704,-0.019188130274415016,0.016526371240615845,-0.0006125721847638488,0.025957999750971794
0.032495759427547455,0.0034508847165852785,-0.01939978450536728,0.016529593616724014,-0.0005929044564254582,0.026041196659207344
0.03264757618308067,0.003481881460174918,-0.01925036683678627,0.016591547057032585,-0.0006140400655567646,0.02637248858809471
0.032560497522354126,0.0036188375670462847,-0.01928330399096012,0.016573231667280197,-0.0006288058357313275,0.026453621685504913
0.03244107961654663,0.003757295897230506,-0.01933802291750908,0.01718173921108246,-0.0005958547699265182,0.02628123201429844
0.03244107961654663,0.003757295897230506,-0.01933802291750908,0.01718173921108246,-0.0005958547699265182,0.02628123201429844
0.03343520686030388,0.003849630244076252,-0.01912415586411953,0.0170705858618021,-0.0005773159209638834,0.026212258264422417
0.03343520686030388,0.003849630244076252,-0.01912415586411953,0.0170705858618021,-0.0005773159209638834,0.026212258264422417
0.03223700448870659,0.00403129868209362,-0.019418269395828247,0.017060384154319763,-0.000563129608053714,0.026412921026349068
0.033556923270225525,0.0038524295669049025,-0.019457068294286728,0.016640139743685722,-0.0005862257094122469,0.026442499831318855
0.03378329798579216,0.003653677413240075,-0.019050661474466324,0.01695922389626503,-0.0006028094212524593,0.02655821479856968
0.03318578004837036,0.003671555779874325,-0.019302573055028915,0.01680815778672695,-0.0005731596611440182,0.026832731440663338
0.033295828849077225,0.0037411609664559364,-0.019358297809958458,0.01704772561788559,-0.0005343141965568066,0.0270416047424078
0.033452920615673065,0.003800642443820834,-0.019422827288508415,0.01714196242392063,-0.0006022103480063379,0.026558319106698036
0.03398025035858154,0.003840424120426178,-0.019894052296876907,0.01686430722475052,-0.0006177850300446153,0.025634869933128357
0.033919963985681534,0.004448249936103821,-0.019467709586024284,0.016888165846467018,-0.0006227112608030438,0.025830283761024475
0.034064535051584244,0.004221471957862377,-0.019321508705615997,0.016320345923304558,-0.0006059915176592767,0.026523511856794357
0.03378985822200775,0.0044591692276299,-0.01976829767227173,0.016806768253445625,-0.0006290444289334118,0.026840606704354286
0.0341445729136467,0.004178969655185938,-0.019358376041054726,0.016520962119102478,-0.0007109909201972187,0.026799172163009644
0.03432488068938255,0.004449456464499235,-0.01968989335000515,0.01694994419813156,-0.0007487675757147372,0.027938658371567726
0.03455827757716179,0.004262670874595642,-0.02025315724313259,0.01665928028523922,-0.0007402373012155294,0.027945371344685555
0.034196943044662476,0.004352119285613298,-0.019794771447777748,0.016113221645355225,-0.0007565346313640475,0.02726769633591175
0.034183233976364136,0.004498870577663183,-0.019199859350919724,0.016412463039159775,-0.0007311878725886345,0.02625438943505287
0.03615410625934601,0.004663845524191856,-0.020301317796111107,0.016596747562289238,-0.0008409878937527537,0.02825954370200634
0.034509576857089996,0.004559771623462439,-0.019543344154953957,0.016519658267498016,-0.0007903288351371884,0.02798253856599331
0.034026313573122025,0.004655526485294104,-0.01992855593562126,0.016671093180775642,-0.0007481682114303112,0.02725081890821457
0.03523125872015953,0.0046775019727647305,-0.020014341920614243,0.016822252422571182,-0.0007417635642923415,0.027264680713415146
0.03484198451042175,0.004861302208155394,-0.01988857053220272,0.016491923481225967,-0.0006984432693570852,0.027238477021455765
0.036099985241889954,0.005082408897578716,-0.02009352669119835,0.017362816259264946,-0.0006533490377478302,0.02735660970211029
0.03583601862192154,0.00483339000493288,-0.02051810547709465,0.01715584471821785,-0.0006719886441715062,0.02734740823507309
0.0351799838244915,0.004770869854837656,-0.020297376438975334,0.017044110223650932,-0.0006095541175454855,0.02731342613697052
0.03439336642622948,0.00473854411393404,-0.019296810030937195,0.017212999984622,-0.0006332080229185522,0.027500709518790245
0.035646986216306686,0.004766437225043774,-0.01995275355875492,0.0168931782245636,-0.0006411479553207755,0.027638046070933342
0.03661812096834183,0.005125363823026419,-0.0201650932431221,0.017050117254257202,-0.0006108233355917037,0.027791405096650124
0.03661812096834183,0.005125363823026419,-0.0201650932431221,0.017050117254257202,-0.0006108233355917037,0.027791405096650124
0.03534303605556488,0.005141523666679859,-0.020622998476028442,0.016763659194111824,-0.0007024084334261715,0.02803638204932213
0.03648686036467552,0.004775277338922024,-0.019307076930999756,0.017231114208698273,-0.0007591525209136307,0.02763790264725685
0.03642956167459488,0.005010648630559444,-0.020052235573530197,0.01723759062588215,-0.0007907499093562365,0.027977248653769493
0.03620677813887596,0.004636892583221197,-0.02047085016965866,0.016996294260025024,-0.001270892913453281,0.02805085852742195
0.03656699135899544,0.005080739036202431,-0.021002044901251793,0.017158987000584602,-0.0013495329767465591,0.028483470901846886
0.03608974814414978,0.005606373772025108,-0.020207596942782402,0.016986513510346413,-0.0012352291960269213,0.028246721252799034
0.036348190158605576,0.005564552731812,-0.02006734162569046,0.017437653616070747,-0.0013551965821534395,0.028677836060523987
0.036148764193058014,0.005062473937869072,-0.020409930497407913,0.017264261841773987,-0.0011369879357516766,0.028345230966806412
0.03591020032763481,0.0047991033643484116,-0.02023482508957386,0.016803491860628128,-0.001075785607099533,0.02818930521607399
0.03567462041974068,0.004394082352519035,-0.02001023106276989,0.0172119140625,-0.0009339993121102452,0.028037548065185547
0.036035727709531784,0.00497868936508894,-0.019925875589251518,0.01626562513411045,-0.0008696753066033125,0.02836037427186966
0.037523165345191956,0.005690625868737698,-0.020713821053504944,0.016172252595424652,-0.0008198585128411651,0.029769355431199074
0.036955635994672775,0.005666277837008238,-0.020857052877545357,0.01644330844283104,-0.0006565160001628101,0.02974780648946762
0.03523210808634758,0.0050893197767436504,-0.02021860145032406,0.017159827053546906,-0.0006623815279453993,0.02878798171877861
0.03676630184054375,0.004885485861450434,-0.019800914451479912,0.017518451437354088,-0.0007421901100315154,0.027943039312958717
0.03694132715463638,0.0051328400149941444,-0.020286548882722855,0.017263779416680336,-0.0010734430979937315,0.028720548376441002
0.03700411692261696,0.0054260604083538055,-0.02054551988840103,0.01718038320541382,-0.0012384612346068025,0.02882656455039978
0.03760877624154091,0.005677448119968176,-0.02038964442908764,0.01669725961983204,-0.0011918413219973445,0.02879173867404461
0.037992604076862335,0.005650150123983622,-0.02048749476671219,0.017002465203404427,-0.0010839327005669475,0.029826752841472626
0.036956630647182465,0.005349129904061556,-0.020355945453047752,0.017209798097610474,-0.000998516334220767,0.02911178581416607
0.03794403746724129,0.005173129495233297,-0.02041838876903057,0.017779702320694923,-0.0008598064305260777,0.028776584193110466
0.037035275250673294,0.005959945265203714,-0.020485984161496162,0.01731276325881481,-0.000801498768851161,0.028329063206911087
0.03746405616402626,0.006041454616934061,-0.020407745614647865,0.017058445140719414,-0.0007572024478577077,0.03005955182015896
0.03740639239549637,0.005580572411417961,-0.019940834492444992,0.016534211114048958,-0.0007622909033671021,0.030535954982042313
0.03747205808758736,0.005270908586680889,-0.0202866829931736,0.016268812119960785,-0.000701736833434552,0.0295712873339653
0.037542521953582764,0.005585888400673866,-0.020683428272604942,0.016670849174261093,-0.0005925681907683611,0.02974214218556881
0.03769142925739288,0.005406375043094158,-0.020197803154587746,0.016781035810709,-0.0006121880724094808,0.0295895766466856
0.038036447018384933,0.006406773347407579,-0.02019592560827732,0.017464881762862206,-0.000605616660322994,0.029130058363080025
0.03775104507803917,0.005885499995201826,-0.020471714437007904,0.0177724901586771,-0.0005901350523345172,0.029424402862787247
0.03813401237130165,0.005711916834115982,-0.020028024911880493,0.017565155401825905,-0.0006139537435956299,0.029845932498574257
0.03848377987742424,0.005781129002571106,-0.020007828250527382,0.01747475564479828,-0.0006634843302890658,0.029928607866168022
0.03848377987742424,0.005781129002571106,-0.020007828250527382,0.01747475564479828,-0.0006634843302890658,0.029928607866168022
0.03805093467235565,0.005636532790958881,-0.02074996381998062,0.015479616820812225,-0.0007690119673497975,0.030363496392965317
0.037029918283224106,0.005542026832699776,-0.019686900079250336,0.017601700499653816,-0.0008210145751945674,0.030442720279097557
0.037029918283224106,0.005542026832699776,-0.019686900079250336,0.017601700499653816,-0.0008210145751945674,0.030442720279097557
0.03911205008625984,0.0048611280508339405,-0.02002028003334999,0.01748470589518547,-0.001187938847579062,0.03071627765893936
0.039068061858415604,0.005007544532418251,-0.02064109407365322,0.0174055527895689,-0.0011565271997824311,0.030734015628695488
0.03872542828321457,0.005319538526237011,-0.020168837159872055,0.017052413895726204,-0.0010806117206811905,0.030702142044901848
0.03830805793404579,0.005148476921021938,-0.020011087879538536,0.017329754307866096,-0.0009938121074810624,0.03101295605301857
0.03894858434796333,0.005364098120480776,-0.020280929282307625,0.017220716923475266,-0.0009089738596230745,0.03093082085251808
0.03870891407132149,0.005558060482144356,-0.020032651722431183,0.01708677038550377,-0.0009794606594368815,0.030708398669958115
0.03862553462386131,0.0054191411472857,-0.019872814416885376,0.01729888841509819,-0.0009106117067858577,0.03078121691942215
0.038850609213113785,0.00535039184615016,-0.020627448335289955,0.01724732667207718,-0.0009053275571204722,0.03092474676668644
0.0390949584543705,0.0055754114873707294,-0.02098640613257885,0.017617756500840187,-0.0009532800759188831,0.0312514491379261
0.03847910836338997,0.005639931187033653,-0.01985974982380867,0.01797202229499817,-0.0009482444147579372,0.030775655061006546
0.04023566097021103,0.0062356553971767426,-0.02032523974776268,0.017266802489757538,-0.000941098784096539,0.0315566249191761
0.04052813723683357,0.005557940807193518,-0.02107563056051731,0.017299475148320198,-0.000935626623686403,0.03116721846163273
0.038324080407619476,0.005389553029090166,-0.02079525589942932,0.016508791595697403,-0.0009065152262337506,0.031926192343235016
0.03918443247675896,0.005764307454228401,-0.020607490092515945,0.016965433955192566,-0.0008257950539700687,0.03127913549542427
0.04004485160112381,0.00590149313211441,-0.020467324182391167,0.017608096823096275,-0.0008883979171514511,0.030600089579820633
0.041254594922065735,0.005571544636040926,-0.020431960001587868,0.01834455132484436,-0.000853722624015063,0.031063836067914963
0.03984454274177551,0.0054591004736721516,-0.02165357396006584,0.01819036342203617,-0.0009976873407140374,0.031921014189720154
0.03863511607050896,0.005552048794925213,-0.021248923614621162,0.017469706013798714,-0.0010102565865963697,0.031943608075380325
0.040357232093811035,0.005623711738735437,-0.020929617807269096,0.017418988049030304,-0.0010134163312613964,0.03308435529470444
0.04051107540726662,0.006259013898670673,-0.020181646570563316,0.01749754697084427,-0.0012710160808637738,0.03309454768896103
0.040313780307769775,0.0057298061437904835,-0.020793817937374115,0.018722254782915115,-0.0010854589054360986,0.03193894773721695
0.040383704006671906,0.005748709198087454,-0.021143842488527298,0.01797468587756157,-0.0010463075013831258,0.030986055731773376
0.04029969498515129,0.005368070211261511,-0.020713232457637787,0.01745970919728279,-0.000998729607090354,0.031714826822280884
0.040387626737356186,0.005646009463816881,-0.021025540307164192,0.017651572823524475,-0.0009023298043757677,0.0327417366206646
0.04012104123830795,0.005844321567565203,-0.02123243175446987,0.0173803623765707,-0.0007748491480015218,0.03277594596147537
0.04012104123830795,0.005844321567565203,-0.02123243175446987,0.0173803623765707,-0.0007748491480015218,0.03277594596147537
0.04039258137345314,0.005752870347350836,-0.020938146859407425,0.017669331282377243,-0.0007202834822237492,0.03230183571577072
0.04036303609609604,0.0053586093708872795,-0.020531661808490753,0.017445901408791542,-0.0007384688942693174,0.03214189410209656
0.04050922393798828,0.005436656530946493,-0.020795492455363274,0.017710532993078232,-0.0007565041305497289,0.03167260065674782
0.041406095027923584,0.005462415516376495,-0.021035725250840187,0.018533961847424507,-0.000732333050109446,0.03198181465268135
0.0407024510204792,0.005744118709117174,-0.02118854783475399,0.01822415366768837,-0.0009325863793492317,0.03193340077996254
0.03928474709391594,0.005611584521830082,-0.02102857083082199,0.017810745164752007,-0.000904118234757334,0.032342132180929184
