davideferrari95/blind_handover_controller/data/Test 130 - [2024-02-07 -- 17-03-53]/joint_states_data.csv
shoulder_pan_joint,shoulder_lift_joint,elbow_joint,wrist_1_joint,wrist_2_joint,wrist_3_joint
0.0043821134604513645,0.006404161918908358,-0.010801894590258598,0.003357959445565939,0.0,0.004445086233317852
0.0043821134604513645,0.006404161918908358,-0.010801894590258598,0.003357959445565939,0.0,0.004445086233317852
0.00453509297221899,0.005610075779259205,-0.010004828684031963,0.0032741462346166372,0.0,0.004557698033750057
0.00453509297221899,0.005610075779259205,-0.010004828684031963,0.0032741462346166372,0.0,0.004557698033750057
0.0046279411762952805,0.005369844846427441,-0.009993888437747955,0.003035412635654211,0.0,0.004664288368076086
0.004869756288826466,0.005793659947812557,-0.01057078130543232,0.0028507953975349665,0.0,0.004657872021198273
0.0043139029294252396,0.0061758034862577915,-0.010109483264386654,0.003166823647916317,0.0,0.004653041251003742
0.004104229621589184,0.006271179299801588,-0.010727889835834503,0.003176917554810643,0.0,0.004514175467193127
0.004047221504151821,0.005860445089638233,-0.010408356785774231,0.0033659643959254026,0.0,0.004116430878639221
0.004006552509963512,0.0061331274919211864,-0.010026222094893456,0.0035276885610073805,0.0,0.00436710799112916
0.004381321370601654,0.005943169817328453,-0.01084503997117281,0.003607908496633172,0.0,0.0046029118821024895
0.0046052332036197186,0.006080548278987408,-0.011031627655029297,0.0036115513648837805,0.0,0.00485184183344245
0.004665127955377102,0.006587719079107046,-0.010278423316776752,0.003468368900939822,0.0,0.005188341252505779
0.0044777472503483295,0.006141634192317724,-0.010698840953409672,0.003453704761341214,0.0,0.005086594261229038
0.0046318694949150085,0.005934653803706169,-0.010489250533282757,0.0032932469621300697,0.0,0.004801176022738218
0.004660774953663349,0.006161446683108807,-0.01028413139283657,0.003435833379626274,0.0,0.004302714951336384
0.0043407585471868515,0.007199397776275873,-0.010451962240040302,0.004011555574834347,0.0,0.004445001482963562
0.004543796647340059,0.006586734671145678,-0.010265031829476357,0.0041714999824762344,0.0,0.004603566601872444
0.0046339500695466995,0.006257819477468729,-0.010759570635855198,0.003736031474545598,0.0,0.004609872121363878
0.004706030245870352,0.0062757679261267185,-0.010837990790605545,0.0034894950222223997,-4.0000402805162594e-05,0.00462409807369113
0.004182601813226938,0.0070586311630904675,-0.010397205129265785,0.003602751297876239,-5.895196591154672e-05,0.004606408998370171
0.004302773158997297,0.006274023093283176,-0.01124828401952982,0.003692766884341836,-5.8751655160449445e-05,0.004719053395092487
0.0036674211733043194,0.006568302400410175,-0.010373207740485668,0.0035031402949243784,-5.799980863230303e-05,0.004740525968372822
0.003509077476337552,0.00634701969102025,-0.011906549334526062,0.0036092489026486874,-5.726211020373739e-05,0.00430116755887866
0.004257614258676767,0.006531295366585255,-0.010441352613270283,0.0037934081628918648,-5.654271080857143e-05,0.004143144004046917
0.0042026834562420845,0.006746711675077677,-0.010607653297483921,0.0038703768514096737,-5.584106838796288e-05,0.004186461679637432
0.0038596682716161013,0.006554353516548872,-0.010921197012066841,0.00391880888491869,-5.515663724509068e-05,0.004453819710761309
0.004259699955582619,0.006319176405668259,-0.010004392825067043,0.0035090281162410975,-5.448875162983313e-05,0.004513780120760202
0.004114849958568811,0.006552184000611305,-0.010646664537489414,0.0035378383472561836,-5.383689858717844e-05,0.004386183340102434
0.004114849958568811,0.006552184000611305,-0.010646664537489414,0.0035378383472561836,-5.383689858717844e-05,0.004386183340102434
0.003952158149331808,0.007125556003302336,-0.010893239639699459,0.00414407579228282,-5.3200383263174444e-05,0.004526634234935045
0.0038850465789437294,0.006950908340513706,-0.010461276397109032,0.0041014645248651505,-5.257881275610998e-05,0.004617829341441393
0.004141054581850767,0.007004495710134506,-0.011026776395738125,0.0036407678853720427,-5.197157952352427e-05,0.004711924120783806
0.004826447926461697,0.006923234090209007,-0.010705397464334965,0.003489176044240594,-5.137820335221477e-05,0.004783742129802704
0.004283533431589603,0.007460397202521563,-0.010582178831100464,0.0035523364786058664,-5.079820766695775e-05,0.004641368053853512
0.003908371552824974,0.00746488431468606,-0.011045279912650585,0.00408285204321146,-5.0231206841999665e-05,0.004554991610348225
0.0041799042373895645,0.006790779531002045,-0.010374113917350769,0.003754161996766925,-4.967669156030752e-05,0.004618863109499216
0.004231945611536503,0.006775496993213892,-0.010905277915298939,0.003493502037599683,-3.2435327739221975e-06,0.004690828733146191
0.004436648916453123,0.006905412767082453,-0.010647905990481377,0.00341734173707664,-2.1177952191919758e-07,0.0045745535753667355
0.004136029630899429,0.007016515824943781,-0.010994271375238895,0.0033535726834088564,-1.3827687439516012e-08,0.004413787741214037
0.0041848402470350266,0.0070712086744606495,-0.011526195332407951,0.003216192591935396,-9.028491843032782e-10,0.004506515804678202
0.004138213116675615,0.007214746903628111,-0.011147321201860905,0.003429069882258773,-5.894960214414269e-11,0.004537953529506922
0.0043944502249360085,0.007180342450737953,-0.01117773074656725,0.0036974630784243345,-3.848987968624318e-12,0.004558149725198746
0.00421659741550684,0.0074195400811731815,-0.011376455426216125,0.0038298298604786396,-2.5131142284383345e-13,0.0044271196238696575
0.003951140679419041,0.007502933498471975,-0.011204826645553112,0.004222773481160402,-1.6408839144757027e-14,0.004480118863284588
0.00433289585635066,0.007204769644886255,-0.01165404636412859,0.004188014194369316,-1.0713798936090872e-15,0.004346455447375774
0.004417545162141323,0.00739172613248229,-0.010328051634132862,0.0038088099099695683,-4.5674605591269165e-18,0.005003712140023708
0.004332948941737413,0.007205704692751169,-0.010836645029485226,0.0035984001588076353,-2.982225215149481e-19,0.004727005492895842
0.004172767512500286,0.007330464664846659,-0.010428551584482193,0.0036594844423234463,-1.9471800923342728e-20,0.004550679121166468
0.004509503487497568,0.007496836129575968,-0.010047045536339283,0.003707760712131858,-1.2713695333002928e-21,0.004725323058664799
0.004217943642288446,0.007474411744624376,-0.01058640144765377,0.0037152052391320467,-8.301134080720221e-23,0.004716280847787857
0.004502663388848305,0.007229634560644627,-0.010356200858950615,0.0037532555870711803,-5.420047526315994e-24,0.004716052673757076
0.004205385223031044,0.007334824651479721,-0.010875704698264599,0.00374838849529624,-3.5389037300122905e-25,0.005218267906457186
0.004438359756022692,0.007570657413452864,-0.011435098014771938,0.003822550643235445,-2.3106512448877013e-26,0.0048834178596735
0.004525517113506794,0.00758381187915802,-0.010328143835067749,0.003910526633262634,-1.5086901256663686e-27,0.004125877749174833
0.004675243981182575,0.007288240361958742,-0.010127922520041466,0.003936354536563158,-9.850667636794736e-29,0.004340553190559149
0.004747417289763689,0.007319441065192223,-0.010678989812731743,0.003561777528375387,-6.431782227812311e-30,0.004706795793026686
0.004747417289763689,0.007319441065192223,-0.010678989812731743,0.003561777528375387,-6.431782227812311e-30,0.004706795793026686
0.004770721308887005,0.007549972739070654,-0.010166030377149582,0.0036007401067763567,-4.199494475516031e-31,0.00484956381842494
0.0044339923188090324,0.007787185255438089,-0.010203775949776173,0.004072537645697594,-2.741969877671576e-32,0.005212171468883753
0.004546666983515024,0.007179542910307646,-0.009638861753046513,0.004179081413894892,-1.7903104060679838e-33,0.004663700703531504
0.005072031170129776,0.007084894459694624,-0.011439265683293343,0.004027900286018848,-1.1689447580306698e-34,0.004551795311272144
0.004481308162212372,0.007452106568962336,-0.011528641916811466,0.003888773964717984,-7.632373469350021e-36,0.005095984786748886
0.004548391327261925,0.0073891812935471535,-0.010230504907667637,0.0038709333166480064,-4.983394456581769e-37,0.005048589315265417
0.0046037836000323296,0.00708877993747592,-0.00967355165630579,0.0038760812021791935,-3.2538001803985034e-38,0.004875061102211475
0.004713771399110556,0.007266066037118435,-0.01078787911683321,0.004182376433163881,-2.124498792673605e-39,0.005111468955874443
0.004765124060213566,0.007488049566745758,-0.010394501499831676,0.004051693249493837,-1.3871453498351364e-40,0.00502479262650013
0.0047740088775753975,0.007899852469563484,-0.010187964886426926,0.0035688523203134537,-9.056591974931293e-42,0.004811938386410475
0.005188065581023693,0.00727999908849597,-0.011045853607356548,0.0035097633954137564,-5.913479519450728e-43,0.004738479387015104
0.004917498212307692,0.007168867159634829,-0.011150827631354332,0.003735666163265705,-3.923635700109488e-44,0.005014797672629356
0.004858194384723902,0.007458002306520939,-0.011597554199397564,0.003895530942827463,-2.802596928649634e-45,0.005074516404420137
0.004611881449818611,0.007530010771006346,-0.010681438259780407,0.0040138280019164085,-0.0,0.004787255544215441
0.004895238671451807,0.007299655582755804,-0.010243972763419151,0.004057183396071196,-0.0,0.0047770654782652855
0.005203444976359606,0.007334194611757994,-0.01072185579687357,0.0038875506725162268,-0.0,0.004489278886467218
0.0048428066074848175,0.0076174926944077015,-0.01045404002070427,0.004268285818397999,-0.0,0.004545899573713541
0.005050831940025091,0.00779276667162776,-0.010908971540629864,0.004149640444666147,-0.0,0.0044412761926651
0.004893671255558729,0.006521070841699839,-0.010079917497932911,0.004049352370202541,-0.0,0.004470826126635075
0.0049778069369494915,0.0086068669334054,-0.010680741630494595,0.004045835230499506,-0.0,0.004703310318291187
0.00526711018756032,0.007059099618345499,-0.011403176002204418,0.004051688127219677,-0.0,0.0047504715621471405
0.004704269580543041,0.006929171737283468,-0.011247171089053154,0.0039716362953186035,-0.0,0.004644286353141069
0.0044840117916464806,0.007438318338245153,-0.010451187379658222,0.003912334330379963,-0.0,0.0045641884207725525
0.004552660509943962,0.008199830539524555,-0.01069766003638506,0.004370285198092461,-0.0,0.004582012537866831
0.004531026352196932,0.008383801206946373,-0.010185282677412033,0.004709084518253803,-0.0,0.004641702398657799
0.004810608923435211,0.007942450232803822,-0.010618445463478565,0.0043620276264846325,-0.0,0.004745007026940584
0.004810608923435211,0.007942450232803822,-0.010618445463478565,0.0043620276264846325,-0.0,0.004745007026940584
0.004860431421548128,0.007585496641695499,-0.010313441045582294,0.0039790621958673,-0.0,0.005093344487249851
0.005261541809886694,0.007674374617636204,-0.010046049021184444,0.0040419031865894794,-0.0,0.005008213222026825
0.005004295147955418,0.007577475160360336,-0.010960792191326618,0.004068262875080109,-0.0,0.004811061080545187
0.004669491667300463,0.007678390946239233,-0.011046960018575191,0.004462268203496933,-0.0,0.004718509502708912
0.004764994140714407,0.007272535003721714,-0.010199764743447304,0.004761929158121347,-0.0,0.004448904190212488
0.004767647013068199,0.0076540615409612656,-0.010561859235167503,0.00430336594581604,-0.0,0.004785764496773481
0.004921434447169304,0.0077628567814826965,-0.00992647372186184,0.004383453633636236,-0.0,0.005097439978271723
0.004870804492384195,0.007681002840399742,-0.01029240246862173,0.00444451067596674,-0.0,0.005072705913335085
0.004635967779904604,0.008520354516804218,-0.010772869922220707,0.004384507425129414,-0.0,0.004919436760246754
0.0045546009205281734,0.0085894875228405,-0.010233680717647076,0.004815650638192892,-0.0,0.004789924249053001
0.004600337706506252,0.007866008207201958,-0.0108118811622262,0.004850304219871759,-0.0,0.004564243834465742
0.004329408053308725,0.007345234509557486,-0.010995455086231232,0.004554251674562693,-0.0,0.004757076036185026
0.004483642987906933,0.006064738146960735,-0.01005562674254179,0.004635943099856377,-0.0,0.004965198691934347
0.004937821067869663,0.0066755241714417934,-0.01084933616220951,0.004522013943642378,-0.0,0.0049049630761146545
0.005011589266359806,0.006729669403284788,-0.010227099061012268,0.004573923069983721,-0.0,0.004625448491424322
0.005048881284892559,0.00676311831921339,-0.009801467880606651,0.004481595940887928,-0.0,0.004596134647727013
0.004841935355216265,0.006838401313871145,-0.010532919317483902,0.004354807548224926,-0.0,0.004640213213860989
0.004594291560351849,0.006569813005626202,-0.010127018205821514,0.004629112780094147,-0.0,0.004974772222340107
0.004687854088842869,0.006326902192085981,-0.010598142631351948,0.004223191644996405,-0.0,0.005063578486442566
0.005328092724084854,0.006639022845774889,-0.010049430653452873,0.003987480886280537,-0.0,0.004503423348069191
0.005054169334471226,0.006415720097720623,-0.009864593856036663,0.0038664890453219414,-0.0,0.004485288169234991
0.004603917244821787,0.006575081031769514,-0.010751679539680481,0.004363399930298328,-0.0,0.004518921487033367
0.004613664932549,0.00616187509149313,-0.010101902298629284,0.004224528092890978,-0.0,0.004701652098447084
0.004900036379694939,0.006320002488791943,-0.01027940958738327,0.00443873880431056,-0.0,0.005315464921295643
0.004900036379694939,0.006320002488791943,-0.01027940958738327,0.00443873880431056,-0.0,0.005315464921295643
0.005055747460573912,0.00654786080121994,-0.01072174496948719,0.0042201760224998,-0.0,0.005151217337697744
0.005874755326658487,0.006548991426825523,-0.010395296849310398,0.003986719995737076,-0.0,0.004801322240382433
0.0053662583231925964,0.006346765905618668,-0.010742451064288616,0.004180413205176592,-0.0,0.0045563396997749805
0.005008982960134745,0.00590590899810195,-0.010192843154072762,0.004197852686047554,-0.0,0.004802205599844456
0.005152569618076086,0.006313234101980925,-0.010469616390764713,0.004329759161919355,-0.0,0.004962528590112925
0.005071871913969517,0.006922426633536816,-0.011377583257853985,0.00410957308486104,-0.0,0.0052573042921721935
0.004804573953151703,0.0069508021697402,-0.010466769337654114,0.004476245958358049,-0.0,0.005283314269036055
0.00543538061901927,0.006199355702847242,-0.010240291245281696,0.004232035018503666,-0.0,0.004911777563393116
0.0051418780349195,0.00635492941364646,-0.01099221408367157,0.004493720829486847,-0.0,0.004864266607910395
0.004975240211933851,0.006644067354500294,-0.010104077868163586,0.00453550647944212,-0.0,0.0049628280103206635
0.0050194174982607365,0.006439819931983948,-0.010122379288077354,0.004545013420283794,-0.0,0.005066429264843464
0.0049130902625620365,0.006452133879065514,-0.010951557196676731,0.004250604193657637,-0.0,0.00532139977440238
0.005336698144674301,0.006488973740488291,-0.0104066738858819,0.0043431902304291725,-0.0,0.0053917421028018
0.005568773951381445,0.005859942175447941,-0.010787151753902435,0.004357888363301754,-0.0,0.005311031825840473
0.005122198723256588,0.006040449254214764,-0.010817473754286766,0.0045104497112333775,-0.0,0.005061080679297447
0.005339182447642088,0.006710927002131939,-0.009986271150410175,0.004358144011348486,-0.0,0.0048276339657604694
0.0052214935421943665,0.006271057762205601,-0.010844341479241848,0.004390282556414604,-0.0,0.004805953707545996
0.005105203483253717,0.00592874875292182,-0.010895087383687496,0.004520236514508724,-0.0,0.005325892940163612
0.005663210991770029,0.0060681793838739395,-0.010234682820737362,0.004134287126362324,-0.0,0.005490690004080534
0.005729273892939091,0.006134255789220333,-0.01083241868764162,0.004238365683704615,-0.0,0.005173017270863056
0.005677149631083012,0.006281713489443064,-0.010385293513536453,0.004595125559717417,-0.0,0.004915080964565277
0.005541881080716848,0.005554500035941601,-0.011323650367558002,0.00449836440384388,-0.0,0.005293578375130892
0.005326803307980299,0.006160886492580175,-0.010685974732041359,0.004314256366342306,-0.0,0.00518934428691864
0.006049312651157379,0.006143875420093536,-0.010881662368774414,0.004062069114297628,-0.0,0.00542502710595727
0.005627345759421587,0.0061205970123410225,-0.010993692092597485,0.004221715498715639,-0.0,0.005160776898264885
0.005865240469574928,0.0065543875098228455,-0.010894271545112133,0.004313888028264046,-0.0,0.004827879834920168
0.005814221687614918,0.005989791825413704,-0.011192557401955128,0.004479783587157726,-0.0,0.004707551095634699
0.005809576250612736,0.005815495271235704,-0.01113703940063715,0.0044325259514153,-0.0,0.005316140130162239
0.006238833535462618,0.00619962252676487,-0.010408515110611916,0.0044043282978236675,-0.0,0.005302138160914183
0.005848940461874008,0.0062681143172085285,-0.010928532108664513,0.004433162044733763,-0.0,0.005430289544165134
0.0056561753153800964,0.0063430978916585445,-0.010689111426472664,0.004532176535576582,-0.0,0.005189988296478987
0.005640469957143068,0.006164608523249626,-0.011210420168936253,0.004607217852026224,-0.0,0.005060541909188032
0.005640469957143068,0.006164608523249626,-0.011210420168936253,0.004607217852026224,-0.0,0.005060541909188032
0.006053350865840912,0.00566076347604394,-0.009551809169352055,0.0044259680435061455,-0.0,0.0051609305664896965
0.006572939921170473,0.005985685624182224,-0.01065031811594963,0.004504431504756212,-0.0,0.005081099923700094
0.005822307430207729,0.006520690396428108,-0.011409405618906021,0.004882896784693003,-0.0,0.0057973130606114864
0.005846125539392233,0.006494627334177494,-0.010056322440505028,0.004790420178323984,-0.0,0.005524458363652229
0.005837270524352789,0.006279123947024345,-0.010319550521671772,0.0045406208373606205,-0.0,0.005309892352670431
0.005956267472356558,0.005794084165245295,-0.011373588815331459,0.0043610138818621635,-0.0,0.005444682668894529
0.006490647327154875,0.006066496483981609,-0.011096646077930927,0.004173435270786285,-0.0,0.005164532456547022
0.006110412534326315,0.006848553661257029,-0.011472877115011215,0.0045064883306622505,-0.0,0.00573532423004508
0.006379781290888786,0.00624155392870307,-0.011462175287306309,0.005019870121032,-0.0,0.005633099470287561
0.005939965136349201,0.005868865177035332,-0.010398483835160732,0.00494496850296855,-0.0,0.005731561221182346
0.006042147520929575,0.006015115417540073,-0.01063461136072874,0.004904949571937323,-0.0,0.005537605378776789
0.006617499981075525,0.006015106104314327,-0.010807875543832779,0.004727927036583424,-0.0,0.006197608541697264
0.006577103864401579,0.0065198736265301704,-0.01087027508765459,0.00471153948456049,-0.0,0.006260686554014683
0.00614671315997839,0.006772998720407486,-0.011362393386662006,0.004371253773570061,-0.0,0.005468334071338177
0.006280417088419199,0.006459653843194246,-0.010123786516487598,0.004562008660286665,-0.0,0.005057724192738533
0.006952941417694092,0.005992900114506483,-0.01072485838085413,0.004937059711664915,-0.0,0.004917161073535681
0.0063924165442585945,0.0065169306471943855,-0.010080880485475063,0.004627807531505823,-0.0,0.0063065774738788605
0.006434891372919083,0.006295486818999052,-0.01083818543702364,0.004573188256472349,-0.0,0.006309906020760536
0.006422353442758322,0.005951960105448961,-0.01060593593865633,0.004734373185783625,-0.0,0.0057966578751802444
0.006655799224972725,0.005525191780179739,-0.010938983410596848,0.004833374172449112,-0.0,0.005041118245571852
0.006492077838629484,0.006219400092959404,-0.01110163051635027,0.004861153196543455,-0.0,0.005123873706907034
0.006492077838629484,0.006219400092959404,-0.01110163051635027,0.004861153196543455,-0.0,0.005123873706907034
0.006362237501889467,0.006614058744162321,-0.011019118130207062,0.005037535447627306,-0.0,0.005575106479227543
0.00652758264914155,0.0060243322513997555,-0.011337047442793846,0.0046428800560534,-0.0,0.006433982867747545
0.00652758264914155,0.0060243322513997555,-0.011337047442793846,0.0046428800560534,-0.0,0.006433982867747545
0.006625310517847538,0.006249450147151947,-0.010329321958124638,0.004423659760504961,-0.0,0.006011609919369221
0.006656259763985872,0.00691087543964386,-0.010887756012380123,0.004501407500356436,-0.0,0.005539549048990011
0.006855857092887163,0.007285479921847582,-0.01075142715126276,0.004708819091320038,-0.0,0.0056141638197004795
0.006380625069141388,0.006329840514808893,-0.0105617456138134,0.004681205842643976,-0.0,0.006160209886729717
0.006707693450152874,0.006073597818613052,-0.011163296177983284,0.004257782828062773,-1.5702476957812905e-05,0.006092471070587635
0.006914047524333,0.006522395648062229,-0.010772502049803734,0.004407017957419157,-1.0252596212012577e-06,0.0062321024015545845
0.006382714491337538,0.0065649463795125484,-0.010732181370258331,0.0045690336264669895,-6.694212828506352e-08,0.0054967752657830715
0.0064073652029037476,0.006296612322330475,-0.0107828788459301,0.004978980869054794,-4.370842798806507e-09,0.0054088737815618515
0.006682502571493387,0.006202497519552708,-0.010216169990599155,0.004998612683266401,-2.853847991257652e-10,0.005609770771116018
0.007174915634095669,0.006516467314213514,-0.010850285179913044,0.0048276279121637344,-1.8633587728356105e-11,0.006169634405523539
0.006750328931957483,0.006753193214535713,-0.010435188189148903,0.004860497545450926,-1.2166400699398228e-12,0.005969630554318428
0.006856217049062252,0.006411811336874962,-0.009969482198357582,0.004794116131961346,-7.943790753233565e-14,0.005748758092522621
0.0067738695070147514,0.006203559227287769,-0.010680901817977428,0.004880490247160196,-5.18672705493114e-15,0.005504055880010128
0.0074438732117414474,0.006689809262752533,-0.01073405984789133,0.0052163321524858475,-3.3865621310868207e-16,0.005749472416937351
0.006871117278933525,0.006879992783069611,-0.00985109806060791,0.005536223296076059,-2.2111833138381688e-17,0.005759808234870434
0.006444187369197607,0.006727154366672039,-0.010284677147865295,0.00540269585326314,-1.44374460093538e-18,0.005945760291069746
0.006695774383842945,0.006344136781990528,-0.010097968392074108,0.005112245678901672,-9.426621346488195e-20,0.0063191913068294525
0.007018393836915493,0.006555705331265926,-0.010218420065939426,0.004918387159705162,-6.154909574132863e-21,0.006098394747823477
0.007436726242303848,0.006891937460750341,-0.010809715837240219,0.0049050236120820045,-2.6239342287229155e-23,0.006488009821623564
0.006981161423027515,0.0067146853543818,-0.010319670662283897,0.004897135775536299,-1.7132416058565254e-24,0.006316145416349173
0.006604230031371117,0.006438659504055977,-0.010760219767689705,0.005044275429099798,-1.1186243618665088e-25,0.006130783353000879
0.007291711401194334,0.006870392709970474,-0.009893379174172878,0.005261648911982775,-7.303817372780444e-27,0.006428721360862255
0.007416714448481798,0.007008720189332962,-0.010472724214196205,0.005232126917690039,-4.768871209530038e-28,0.006568430457264185
0.00719574186950922,0.006574524566531181,-0.01056078914552927,0.005030331201851368,-3.113731890333819e-29,0.006354662589728832
0.007093070540577173,0.006404494866728783,-0.010310434736311436,0.0044860802590847015,-2.033044375057893e-30,0.0064589763060212135
0.007452064193785191,0.0068201106041669846,-0.01115808542817831,0.0056256563402712345,-1.3274326380389521e-31,0.006429318338632584
0.007363759446889162,0.0068768770433962345,-0.010259881615638733,0.005795052275061607,-8.6671858042096e-33,0.0056688315235078335
0.007363759446889162,0.0068768770433962345,-0.010259881615638733,0.005795052275061607,-8.6671858042096e-33,0.0056688315235078335
0.007189612369984388,0.00685862684622407,-0.009884020313620567,0.005299737676978111,-5.659052505936675e-34,0.005763399880379438
0.007570483256131411,0.005777349695563316,-0.010615948587656021,0.004658504389226437,-2.412542877874096e-36,0.006185685750097036
0.007570483256131411,0.005777349695563316,-0.010615948587656021,0.004658504389226437,-2.412542877874096e-36,0.006185685750097036
0.006884480360895395,0.006146907806396484,-0.010511067695915699,0.005437138024717569,-1.0285047280173965e-38,0.006144785787910223
0.006884480360895395,0.006146907806396484,-0.010511067695915699,0.005437138024717569,-1.0285047280173965e-38,0.006144785787910223
0.0071840169839560986,0.006397880148142576,-0.01020381785929203,0.0050779180601239204,-6.715400591629891e-40,0.006361890584230423
0.0075467838905751705,0.006129093002527952,-0.010183202102780342,0.0047383359633386135,-4.3846628948723526e-41,0.006599590182304382
0.007400515489280224,0.005998682230710983,-0.010824183002114296,0.0048988740891218185,-2.8628527626156013e-42,0.006434809882193804
0.0072292969562113285,0.0058593531139194965,-0.010189986787736416,0.004985341336578131,-1.8637269575520067e-43,0.006235021166503429
0.006991727743297815,0.0057939812541007996,-0.010702593252062798,0.004989291075617075,-1.2611686178923354e-44,0.0061571309342980385
0.007694528438150883,0.0061878059059381485,-0.010659477673470974,0.005255228374153376,-1.401298464324817e-45,0.006473280489444733
0.007040369790047407,0.005615574307739735,-0.010735929943621159,0.004859384149312973,-0.0,0.0061774845235049725
0.007040369790047407,0.005615574307739735,-0.010735929943621159,0.004859384149312973,-0.0,0.0061774845235049725
0.007345123682171106,0.005696312058717012,-0.010560093447566032,0.005043934099376202,-0.0,0.006209005136042833
0.008054539561271667,0.005932477302849293,-0.010882183909416199,0.005151451099663973,-0.0,0.0061373040080070496
0.007724562659859657,0.006571637466549873,-0.01148246694356203,0.005690233316272497,-0.0,0.006842870730906725
0.007275278214365244,0.006169632077217102,-0.01054777018725872,0.005375864449888468,-0.0,0.006732468493282795
0.00786473136395216,0.005520620383322239,-0.010834962129592896,0.005093710031360388,-0.0,0.006346108857542276
0.008193453773856163,0.005664674565196037,-0.010399785824120045,0.004846944473683834,-0.0,0.006395721808075905
0.007850262336432934,0.005789583083242178,-0.011207981035113335,0.004615165758877993,-0.0,0.006639332510530949
0.007624807767570019,0.006114970427006483,-0.01121522393077612,0.005324486643075943,-0.0,0.0068437522277235985
0.008258356712758541,0.006419953890144825,-0.010795718058943748,0.005323188845068216,-0.0,0.006868257187306881
0.007781402673572302,0.005762083921581507,-0.011329209432005882,0.005221288185566664,-0.0,0.007386977318674326
0.0075862654484808445,0.00587468734011054,-0.011743148788809776,0.005287655629217625,-0.0,0.006938411388546228
0.007580106612294912,0.005939668510109186,-0.010809850879013538,0.004826744552701712,-0.0,0.006872331723570824
0.007639873772859573,0.006098225712776184,-0.011629465036094189,0.0049901800230145454,-0.0,0.006830491591244936
0.0078046866692602634,0.005619025323539972,-0.01058227103203535,0.005319810006767511,-0.0,0.007019269745796919
0.007556726224720478,0.005864277947694063,-0.011952337808907032,0.005258482880890369,-0.0,0.007047113962471485
0.007689155638217926,0.005371548235416412,-0.011118649505078793,0.005345854442566633,-0.0,0.006843104958534241
0.007689155638217926,0.005371548235416412,-0.011118649505078793,0.005345854442566633,-0.0,0.006843104958534241
0.008214343339204788,0.005887699779123068,-0.011075284332036972,0.0052031055092811584,-0.0,0.00704937893897295
0.008291884325444698,0.0063225324265658855,-0.011269529350101948,0.004937824793159962,-0.0,0.006657484918832779
0.007692416664212942,0.005642091389745474,-0.011042739264667034,0.00532127358019352,-0.0,0.006978906691074371
0.007906291633844376,0.005774019751697779,-0.010440334677696228,0.005779231432825327,-0.0,0.0068729291670024395
0.00782622117549181,0.005758773069828749,-0.011713138781487942,0.006119214463979006,-0.0,0.006688190158456564
0.00784358847886324,0.006244207266718149,-0.011543807573616505,0.005406101234257221,-0.0,0.0070808962918818
0.0076322536915540695,0.006326447706669569,-0.010620069690048695,0.00543620390817523,-0.0,0.0076132952235639095
0.00895006861537695,0.005587736610323191,-0.011051715351641178,0.005286866333335638,-0.0,0.0077850488014519215
0.008124501444399357,0.005753088742494583,-0.011256230995059013,0.005434936843812466,-0.0,0.008284964598715305
0.00784826185554266,0.005957596469670534,-0.011344878003001213,0.005682141985744238,-0.0,0.007442686706781387
0.008177711628377438,0.0061433399096131325,-0.010619547218084335,0.0060410937294363976,-0.0,0.00680907629430294
0.008640643209218979,0.00625655148178339,-0.01111272256821394,0.005506068002432585,-4.2443109123269096e-05,0.007336643524467945
0.008483432233333588,0.005900829564779997,-0.010958830825984478,0.004999915603548288,-6.659569771727547e-05,0.007993518374860287
0.007912816479802132,0.006108612287789583,-0.010525522753596306,0.005206001456826925,-6.721875251969323e-05,0.007919961586594582
0.008875278756022453,0.006136238109320402,-0.010620496235787868,0.0057216547429561615,-6.537676381412894e-05,0.007720555178821087
0.007882381789386272,0.006084038410335779,-0.010660678148269653,0.0057330080308020115,-6.444099562941119e-05,0.007920954376459122
0.008134533651173115,0.0059353020042181015,-0.010980924591422081,0.005411058198660612,-6.353121716529131e-05,0.007671029772609472
0.008010112680494785,0.005914755165576935,-0.01061563566327095,0.005362594500184059,-6.264680996537209e-05,0.007888000458478928
0.008512308821082115,0.0058021387085318565,-0.010933930054306984,0.0056593455374240875,-7.253119110828266e-05,0.00762383546680212
0.008291116915643215,0.00630398653447628,-0.010687429457902908,0.005930433049798012,-7.303441816475242e-05,0.00771174393594265
0.008377025835216045,0.006376427132636309,-0.01048804260790348,0.005913136061280966,-7.215548976091668e-05,0.007816287688910961
0.00823266338557005,0.005786580499261618,-0.011033446528017521,0.005574566312134266,-7.121030648704618e-05,0.008771908469498158
0.00804079882800579,0.005758094135671854,-0.010905534960329533,0.005662824027240276,-7.028389518382028e-05,0.008093622513115406
0.007664879783987999,0.005629295948892832,-0.010713034309446812,0.0058280667290091515,-6.938088336028159e-05,0.007970909588038921
0.007664879783987999,0.005629295948892832,-0.010713034309446812,0.0058280667290091515,-6.938088336028159e-05,0.007970909588038921
0.008476436138153076,0.006500835996121168,-0.010961780324578285,0.006391206756234169,-7.881927012931556e-05,0.007927737198770046
0.008476436138153076,0.006500835996121168,-0.010961780324578285,0.006391206756234169,-7.881927012931556e-05,0.007927737198770046
0.007739981170743704,0.006167684681713581,-0.011447559110820293,0.005856810603290796,-7.793382974341512e-05,0.007571980357170105
0.00812968797981739,0.005824898835271597,-0.011154999025166035,0.005333422217518091,-7.698737317696214e-05,0.0074733709916472435
0.008110369555652142,0.0061829281039536,-0.01111868117004633,0.00511036766692996,-7.605825521750376e-05,0.007907758466899395
0.008178303018212318,0.0062350919470191,-0.01157938502728939,0.005669041536748409,-7.515103789046407e-05,0.007849824614822865
0.008281895890831947,0.006104306783527136,-0.01118121761828661,0.005503588821738958,-8.349183190148324e-05,0.0075313434936106205
0.008104060776531696,0.005971431732177734,-0.01118268072605133,0.005675481166690588,-8.379534119740129e-05,0.007995297200977802
0.008552927523851395,0.006056445650756359,-0.011424615979194641,0.005281063728034496,-8.291371341329068e-05,0.0077765928581357
0.00783547107130289,0.006061500869691372,-0.01122214924544096,0.004944810643792152,-8.197514398489147e-05,0.007802125066518784
0.00817015115171671,0.006662106607109308,-0.010644126683473587,0.005004781298339367,-8.105266897473484e-05,0.007565055973827839
0.008728337474167347,0.006159717682749033,-0.011692558415234089,0.005074467975646257,-8.015042112674564e-05,0.007796343415975571
0.008798797614872456,0.005850894842296839,-0.01057803351432085,0.005153642036020756,-0.00016003970813471824,0.00781902763992548
0.008253718726336956,0.006181562785059214,-0.01095380075275898,0.005246717017143965,-0.00016546485130675137,0.008074960671365261
0.00845758244395256,0.0057320366613566875,-0.01175541803240776,0.005156046245247126,-0.00016030877304729074,0.008431248366832733
0.008844997733831406,0.006496812216937542,-0.01046557817608118,0.005327885039150715,-0.00015484051255043596,0.008086826652288437
0.008280064910650253,0.005767508409917355,-0.010913541540503502,0.006216585636138916,-0.00014487249427475035,0.00779204536229372
0.008934502489864826,0.00589451938867569,-0.011006886139512062,0.006212641019374132,-0.0001403538481099531,0.007516606245189905
0.008973325602710247,0.0058873179368674755,-0.011744225397706032,0.005816704127937555,-0.00013610805035568774,0.007695973385125399
0.008973325602710247,0.0058873179368674755,-0.011744225397706032,0.005816704127937555,-0.00013610805035568774,0.007695973385125399
0.008539922535419464,0.0063428618013858795,-0.011318276636302471,0.005668229423463345,-0.00013211187615524977,0.00846054870635271
0.008995664305984974,0.006306952331215143,-0.011339124292135239,0.005807890091091394,-0.00015228689881041646,0.008479037322103977
0.008665734902024269,0.0054728384129703045,-0.011064644902944565,0.006233140826225281,-0.00014962856948841363,0.007922407239675522
0.008264743722975254,0.005542841274291277,-0.010963665321469307,0.005772727075964212,-0.0001456932513974607,0.008007481694221497
0.009126126766204834,0.005774690303951502,-0.010943389497697353,0.005771333817392588,-0.0001418720348738134,0.008232442662119865
0.008648286573588848,0.006302026100456715,-0.010480159893631935,0.006391675211489201,-0.00013824035704601556,0.007897408679127693
0.008276252076029778,0.005878457799553871,-0.011237113736569881,0.006323560606688261,-0.00013478937034960836,0.008115428499877453
0.008086079731583595,0.005666391458362341,-0.011365390382707119,0.006053681019693613,-0.00013150674931239337,0.008345883339643478
0.008803852833807468,0.005336355417966843,-0.010490978136658669,0.005902400705963373,-0.00013889616820961237,0.008063648827373981
0.008655908517539501,0.005772941745817661,-0.010918271727859974,0.005465345922857523,-0.00014558833208866417,0.007754839491099119
0.008876853622496128,0.00605272501707077,-0.010876495391130447,0.005839116405695677,-0.00014293173444457352,0.007973944768309593
0.008877819404006004,0.0060004680417478085,-0.011135603301227093,0.006158325355499983,-0.0001398022286593914,0.008803787641227245
0.00888126716017723,0.006075799465179443,-0.011504619382321835,0.006222594063729048,-0.0001367698860121891,0.008623394183814526
0.008830728940665722,0.005558471195399761,-0.010891222395002842,0.006173316389322281,-0.00013386388309299946,0.007998225279152393
0.008723591454327106,0.005888222251087427,-0.011701518669724464,0.005569858942180872,-0.0001310784718953073,0.007630390580743551
0.008909727446734905,0.006085779517889023,-0.011071063578128815,0.005857342388480902,-0.0001284069148823619,0.00798826664686203
0.008683503605425358,0.0060821338556706905,-0.010636642575263977,0.005952155217528343,-0.00012584173236973584,0.008265922777354717
0.008685165084898472,0.005671292077749968,-0.011285358108580112,0.006171175744384527,-0.00012337733642198145,0.008238598704338074
0.009031145833432674,0.0057683358900249004,-0.011633691377937794,0.005863816011697054,-0.0001338343572570011,0.008358760736882687
0.009051017463207245,0.0057674297131598,-0.011119148693978786,0.005985838361084461,-0.00013315923570189625,0.00819183699786663
0.009271432645618916,0.006200680509209633,-0.010799678973853588,0.006279869936406612,-0.0001307583588641137,0.008281352929770947
0.009271432645618916,0.006200680509209633,-0.010799678973853588,0.006279869936406612,-0.0001307583588641137,0.008281352929770947
0.008906597271561623,0.005413621198385954,-0.011501061730086803,0.006144888699054718,-0.00012617645552381873,0.008672837167978287
0.009154154919087887,0.005525941960513592,-0.011088714003562927,0.006014517042785883,-0.00012400334526319057,0.00851296167820692
0.00915134884417057,0.005375627428293228,-0.01150356326252222,0.006209609564393759,-0.00012210481509100646,0.009321692399680614
0.008934006094932556,0.005941991228610277,-0.010435327887535095,0.006685773842036724,-0.0001291696826228872,0.008983751758933067
0.00938055757433176,0.005403679329901934,-0.011769850738346577,0.006734676659107208,-0.00012623680231627077,0.008221078664064407
0.009294170886278152,0.005162356421351433,-0.01123745832592249,0.0066632977686822414,-0.00012283597607165575,0.008429809473454952
0.008972479961812496,0.005229966249316931,-0.010850708931684494,0.006662544794380665,-0.00011957462265854701,0.008661220781505108
0.008972479961812496,0.005229966249316931,-0.010850708931684494,0.006662544794380665,-0.00011957462265854701,0.008661220781505108
0.009042488411068916,0.0055540683679282665,-0.01172243244946003,0.006849631201475859,-0.00011647931387415156,0.009351334534585476
0.009780512191355228,0.005661042407155037,-0.011151248589158058,0.007140428759157658,-0.0001303717726841569,0.009058550000190735
0.009106002748012543,0.005637756083160639,-0.011129702441394329,0.00723358616232872,-0.00013251154450699687,0.009436049498617649
0.009270315989851952,0.005168289877474308,-0.011321093887090683,0.00696520833298564,-0.00012967796646989882,0.009374577552080154
0.009245703928172588,0.004919958766549826,-0.011217164807021618,0.006680723279714584,-0.00012665898248087615,0.009256880730390549
0.009965264238417149,0.0052571468986570835,-0.011901657097041607,0.006567641161382198,-0.00012375750520732254,0.009180894121527672
0.009111985564231873,0.005209196824580431,-0.011752826161682606,0.006235972512513399,-0.0001209848269354552,0.008868055418133736
0.009564440697431564,0.005779197905212641,-0.011810382828116417,0.006105190608650446,-0.00013546568516176194,0.00882389023900032
0.009522315114736557,0.005489768926054239,-0.012016873806715012,0.005858853459358215,-0.00013492617290467024,0.009246906265616417
0.00936958473175764,0.00498017156496644,-0.01159523893147707,0.006518418435007334,-0.00013224792201071978,0.008882091380655766
0.010447832755744457,0.005240175407379866,-0.012011398561298847,0.006805010139942169,-0.00012953860277775675,0.008919782936573029
0.009934721514582634,0.0052015590481460094,-0.011739900335669518,0.007320836186408997,-0.0001269294589292258,0.009419061243534088
0.009355014190077782,0.005398242734372616,-0.01228247582912445,0.006500436458736658,-0.0001244226732524112,0.009882601909339428
0.010584269650280476,0.005090812686830759,-0.012197442352771759,0.006122275721281767,-0.00013058919284958392,0.009528765454888344
0.010223870165646076,0.005280416924506426,-0.011831417679786682,0.006728325970470905,-0.00013621585094369948,0.0093920286744833
0.009405810385942459,0.005080603063106537,-0.012298345565795898,0.006484460551291704,-0.0001342056057183072,0.00938184279948473
0.010151272639632225,0.004896592814475298,-0.01236275676637888,0.006167535670101643,-0.00013178365770727396,0.009218179620802402
0.00994646642357111,0.005074994172900915,-0.012501703575253487,0.006164876744151115,-0.00012941737077198923,0.008975580334663391
0.009630191139876842,0.005415832623839378,-0.012507854029536247,0.0066862343810498714,-0.00012713221076410264,0.009493669494986534
0.009925104677677155,0.005295342765748501,-0.012764398008584976,0.006771767046302557,-0.00012492630048654974,0.009518795646727085
0.009319182485342026,0.004920930601656437,-0.012289526872336864,0.006628244183957577,-0.0001715573453111574,0.010006424970924854
0.009847767651081085,0.0047738878056406975,-0.01292061060667038,0.006816749460995197,-0.000166928322869353,0.009717220440506935
0.009978515096008778,0.005116518121212721,-0.012024526484310627,0.007083939388394356,-0.00016106646216940135,0.009279051795601845
0.00965929962694645,0.005109996534883976,-0.012457462958991528,0.006889266427606344,-0.00015550697571597993,0.009785683825612068
0.010016868822276592,0.005034451838582754,-0.011978298425674438,0.006714278366416693,-0.00017639202997088432,0.00955891888588667
0.010016868822276592,0.005034451838582754,-0.011978298425674438,0.006714278366416693,-0.00017639202997088432,0.00955891888588667
0.010229240171611309,0.0051197209395468235,-0.01218653004616499,0.006571242120116949,-0.0001742839376674965,0.009653802029788494
0.010246507823467255,0.004841460846364498,-0.012197923846542835,0.00696574104949832,-0.00016906131349969655,0.01062801107764244
0.012274526059627533,0.004761746618896723,-0.011796618811786175,0.007195928134024143,-0.00016394356498494744,0.010066063143312931
0.010914262384176254,0.005117884837090969,-0.01266353391110897,0.006749726831912994,-0.00018384809663984925,0.009291320107877254
0.01170753501355648,0.005209592171013355,-0.012665589340031147,0.006860284600406885,-0.00018020180868916214,0.00966368243098259
0.01180429756641388,0.005705842282623053,-0.012362516485154629,0.007037018891423941,-0.00017529352044221014,0.009448985569179058
0.011117255315184593,0.005297448951750994,-0.011629064567387104,0.006926066242158413,-0.00018251853180117905,0.00969445426017046
0.011491306126117706,0.004807445220649242,-0.010659607127308846,0.007089859340339899,-0.00018897205882240087,0.009606342762708664
0.011860644444823265,0.005249441135674715,-0.012317060492932796,0.006683985237032175,-0.00018485447799321264,0.009250741451978683
0.01156530063599348,0.0050752731040120125,-0.011801564134657383,0.007109564263373613,-0.00018029009515885264,0.009437301196157932
0.011617516167461872,0.005152471363544464,-0.012257601134479046,0.007378187496215105,-0.0002707677776925266,0.009707679972052574
0.011426064185798168,0.005354385357350111,-0.011924496851861477,0.006913421209901571,-0.00026165012968704104,0.00965176522731781
0.011833821423351765,0.004996489733457565,-0.012180005200207233,0.006602617911994457,-0.0002476783120073378,0.009455985389649868
0.011841920204460621,0.00512402830645442,-0.01227911189198494,0.006579992827028036,-0.00027542412863112986,0.009860369376838207
0.011816735379397869,0.005343715660274029,-0.01211403775960207,0.007125472649931908,-0.0002673517738003284,0.010057607665657997
0.011792972683906555,0.004999429918825626,-0.012052219361066818,0.006668916437774897,-0.0002550826466176659,0.009905061684548855
0.011762792244553566,0.005517682060599327,-0.011374770663678646,0.0064107878133654594,-0.0002435974747641012,0.010558967478573322
0.011984961107373238,0.005257968790829182,-0.01179268304258585,0.006703877355903387,-0.00026674283435568213,0.010019293054938316
0.011460554786026478,0.004938981961458921,-0.012210248969495296,0.007400177419185638,-0.00026033620815724134,0.009848346002399921
0.011718815192580223,0.005265975371003151,-0.01177011989057064,0.007541609462350607,-0.0002502930292394012,0.009811756201088428
0.012022768147289753,0.005045541562139988,-0.012437202036380768,0.006893733981996775,-0.00027056524413637817,0.009581414982676506
0.01153686922043562,0.005425156559795141,-0.012371832504868507,0.007816347293555737,-0.00025558285415172577,0.00987321324646473
0.011317250318825245,0.00518407579511404,-0.011916291899979115,0.007736458443105221,-0.00031546104582957923,0.010110043920576572
0.011595675721764565,0.0050963470712304115,-0.011874904856085777,0.007047623861581087,-0.0003044533368665725,0.00913820881396532
0.012129116803407669,0.005418130196630955,-0.01206187717616558,0.006579216104000807,-0.0002857855288311839,0.009464100003242493
0.012129116803407669,0.005418130196630955,-0.01206187717616558,0.006579216104000807,-0.0002857855288311839,0.009464100003242493
0.011224971152842045,0.005089323036372662,-0.011827565729618073,0.006759608164429665,-0.00030834609060548246,0.009828077629208565
0.011794796213507652,0.005006727762520313,-0.012753019109368324,0.007357433438301086,-0.0003033990797121078,0.010535207577049732
0.011696900241076946,0.005283251404762268,-0.012500233948230743,0.0071637253277003765,-0.0002880213432945311,0.010305307805538177
0.011940819211304188,0.005055772606283426,-0.012741190381348133,0.007193695288151503,-0.00031592976301908493,0.009945670142769814
0.01229516975581646,0.004805604927241802,-0.012069043703377247,0.006936284713447094,-0.0003034792316611856,0.010055053047835827
0.01159544475376606,0.005082256160676479,-0.011957075446844101,0.0075928326696157455,-0.0002897010126616806,0.010581410489976406
0.011636248789727688,0.004755924455821514,-0.012262150645256042,0.006970791146159172,-0.00029631651705130935,0.010526621714234352
0.011105570010840893,0.005640205927193165,-0.011833516880869865,0.006948329042643309,-0.0003018886491190642,0.01061938051134348
0.011464543640613556,0.005441281478852034,-0.013139741495251656,0.006749455817043781,-0.0002908673195634037,0.011108520440757275
0.012529999949038029,0.004846803843975067,-0.012151324190199375,0.006994551979005337,-0.000347685330780223,0.011268123984336853
0.011621343903243542,0.004808999598026276,-0.012742831371724606,0.007703807670623064,-0.0003323251730762422,0.010443625971674919
0.011877118609845638,0.00530957942828536,-0.012500515207648277,0.007089892402291298,-0.0003636689216364175,0.009786030277609825
0.011605577543377876,0.0053200749680399895,-0.012326695024967194,0.0066650304943323135,-0.0003476046840660274,0.009813256561756134
0.012514635920524597,0.005374514032155275,-0.012717442587018013,0.007148145232349634,-0.0003777460951823741,0.010653703473508358
0.011649725027382374,0.005346540827304125,-0.011780684813857079,0.007387959863990545,-0.00038455912726931274,0.011129802092909813
0.011628909036517143,0.005491042044013739,-0.012671229429543018,0.007932586595416069,-0.0003872084489557892,0.010189867578446865
0.012412747368216515,0.005036283750087023,-0.011614537797868252,0.007111827842891216,-0.0005222958279773593,0.00996821466833353
0.011835260316729546,0.004856194369494915,-0.012448690831661224,0.007413468789309263,-0.000513976498041302,0.009951962158083916
0.011834507808089256,0.005588267929852009,-0.012642617337405682,0.007552793715149164,-0.0005321347271092236,0.010740567930042744
0.0119704008102417,0.005753174424171448,-0.01249170582741499,0.007519849576056004,-0.0005441834800876677,0.011488774791359901
0.01221402082592249,0.0056241536512970924,-0.01267165970057249,0.007543513085693121,-0.0005359792849048972,0.01064329594373703
0.01214232761412859,0.005053314846009016,-0.012179241515696049,0.007726633455604315,-0.0004962338716723025,0.0106365866959095
0.01191694475710392,0.004891976248472929,-0.012842293828725815,0.008252725005149841,-0.000460126088000834,0.011312350630760193
0.012109071016311646,0.00583456689491868,-0.012898960150778294,0.0075981770642101765,-0.0004014584410469979,0.011075356975197792
0.012539500370621681,0.005910822190344334,-0.01256944052875042,0.00771411182358861,-0.00042756483890116215,0.011645874008536339
0.012325811199843884,0.005806151777505875,-0.012506348080933094,0.008146560750901699,-0.00040667824214324355,0.011357126757502556
0.012325811199843884,0.005806151777505875,-0.012506348080933094,0.008146560750901699,-0.00040667824214324355,0.011357126757502556
0.012545648962259293,0.005273664370179176,-0.012857344001531601,0.008057460188865662,-0.00038513194886036217,0.011402285657823086
0.012591573409736156,0.004915777128189802,-0.012501198798418045,0.007681088987737894,-0.00036558316787704825,0.0105918999761343
0.01203651912510395,0.0053442250937223434,-0.012763218954205513,0.008125731721520424,-0.000347913708537817,0.01059796754270792
0.012533850036561489,0.0057831862941384315,-0.012261888943612576,0.007715449668467045,-0.0003173279110342264,0.011082016862928867
0.012593680061399937,0.00603787787258625,-0.01265020202845335,0.008003582246601582,-0.00029518152587115765,0.011156034655869007
0.012653098441660404,0.0053943488746881485,-0.012268833816051483,0.007777323015034199,-0.0002769191632978618,0.011196676641702652
0.012678923085331917,0.005270032677799463,-0.013210631906986237,0.007644291035830975,-0.0002608539070934057,0.01127778459340334
0.012859638780355453,0.005113870371133089,-0.013203559443354607,0.007400202099233866,-0.00024655513698235154,0.010989701375365257
0.01315019465982914,0.005808035843074322,-0.012730669230222702,0.00725583266466856,-0.0002772719308268279,0.011749912984669209
0.01320791244506836,0.005457681138068438,-0.012686477042734623,0.007322689052671194,-0.0002664302592165768,0.011466777883470058
0.013394127599895,0.005172872915863991,-0.012225725688040257,0.007452866993844509,-0.0002540743153076619,0.011207791045308113
0.012859619222581387,0.004894075449556112,-0.012873527593910694,0.007704742252826691,-0.00024266797117888927,0.01141105592250824
0.013476293534040451,0.005100422538816929,-0.012582792900502682,0.007525311317294836,-0.00023222823801916093,0.011249402537941933
0.013073490001261234,0.004961670842021704,-0.013459030538797379,0.00759090157225728,-0.00022265069128479809,0.011316944845020771
0.012827546335756779,0.005375029053539038,-0.013389931060373783,0.008100147359073162,-0.0002447269216645509,0.01117542665451765
0.012795832008123398,0.005184522829949856,-0.013162776827812195,0.008386372588574886,-0.0002396575000602752,0.011012733913958073
0.01335234846919775,0.00507935369387269,-0.012664591893553734,0.008341188542544842,-0.00023114055511541665,0.011392489075660706
0.01320844329893589,0.004915584810078144,-0.012796808034181595,0.007682621479034424,-0.0002229765523225069,0.011316814459860325
0.01338452659547329,0.005241949576884508,-0.013390034437179565,0.00824581366032362,-0.00021535494306590408,0.012751203961670399
0.013647756539285183,0.005040720570832491,-0.012756293639540672,0.008277596905827522,-0.00023404555395245552,0.011429574340581894
0.013270284980535507,0.005379036068916321,-0.013727116398513317,0.008207818493247032,-0.00023011118173599243,0.01098549272865057
0.013341673649847507,0.005528575275093317,-0.013075792230665684,0.008123313076794147,-0.00022320896096061915,0.011473363265395164
0.013797707855701447,0.005071154795587063,-0.013354174792766571,0.007621173281222582,-0.00021697657939512283,0.012428156100213528
0.01341040339320898,0.005392508115619421,-0.013612519018352032,0.007603680714964867,-0.0002076720556942746,0.012058796361088753
0.01423488836735487,0.004984225146472454,-0.012695548124611378,0.007828050293028355,-0.00019855279242619872,0.011749524623155594
0.013882240280508995,0.005590379703789949,-0.013034194707870483,0.008146446198225021,-0.00020876567577943206,0.012028684839606285
0.013882240280508995,0.005590379703789949,-0.013034194707870483,0.008146446198225021,-0.00020876567577943206,0.012028684839606285
0.014302470721304417,0.005327629391103983,-0.013177914544939995,0.0080897631123662,-0.00021767358703073114,0.011882314458489418
0.014443418011069298,0.005158558953553438,-0.013734857551753521,0.008562108501791954,-0.0002190409431932494,0.012004634365439415
0.014443418011069298,0.005158558953553438,-0.013734857551753521,0.008562108501791954,-0.0002190409431932494,0.012004634365439415
0.013620601035654545,0.005056797992438078,-0.013311892747879028,0.008441162295639515,-0.00022660368995275348,0.011732658371329308
0.01406027190387249,0.005821405444294214,-0.013529026880860329,0.008250190876424313,-0.00021970913803670555,0.011820096522569656
0.014285079203546047,0.005215311422944069,-0.01379003468900919,0.00858018733561039,-0.00023090970353223383,0.011930877342820168
0.014285079203546047,0.005215311422944069,-0.01379003468900919,0.00858018733561039,-0.00023090970353223383,0.011930877342820168
0.0141840148717165,0.005356988869607449,-0.013122509233653545,0.008257829584181309,-0.00022712805366609246,0.012129755690693855
0.014719715341925621,0.004992056638002396,-0.013586919754743576,0.007839759811758995,-0.00022040202748030424,0.012289359234273434
0.014204541221261024,0.004956388380378485,-0.013506358489394188,0.007881071418523788,-0.00031088979449123144,0.012516582384705544
0.01433190144598484,0.00525952223688364,-0.013900880701839924,0.007992426864802837,-0.000304036628222093,0.012191228568553925
0.014079275541007519,0.005272647365927696,-0.012928351759910583,0.00797490868717432,-0.0003277126816101372,0.012422186322510242
0.014440950937569141,0.0052048698998987675,-0.0134196188300848,0.00867090467363596,-0.0003213962772861123,0.012122723273932934
0.014138388447463512,0.004928838461637497,-0.013254341669380665,0.008135994896292686,-0.00034152111038565636,0.012173490598797798
0.01462467946112156,0.0048491558991372585,-0.013402588665485382,0.007901003584265709,-0.00033511038054712117,0.0125708794221282
0.014313548803329468,0.004994720686227083,-0.013456897810101509,0.008100752718746662,-0.00031890912214294076,0.01217576302587986
0.014251729473471642,0.005053970962762833,-0.013718103058636189,0.00897393561899662,-0.00034114730078727007,0.01234392262995243
0.01418282650411129,0.005736205261200666,-0.013728724792599678,0.008327184244990349,-0.00033062879811041057,0.012562845833599567
0.014704703353345394,0.005334719084203243,-0.01317252591252327,0.008047446608543396,-0.00038783487980253994,0.012790038250386715
0.014663401991128922,0.004737620707601309,-0.013540924526751041,0.008226066827774048,-0.00041998206870630383,0.012314901687204838
0.014592809602618217,0.004950414411723614,-0.013127836398780346,0.008591855876147747,-0.00038820976624265313,0.012525011785328388
0.014286098070442677,0.005259224679321051,-0.013532744720578194,0.008474314585328102,-0.00035762411425821483,0.012523315846920013
0.01509679201990366,0.005271139554679394,-0.012559718452394009,0.00821966677904129,-0.00038848971598781645,0.012707453221082687
0.014708939008414745,0.005189999006688595,-0.012635953724384308,0.008388924412429333,-0.0003963809576816857,0.012621026486158371
0.014346196316182613,0.0050288960337638855,-0.013791891746222973,0.008746410720050335,-0.0003793539071921259,0.012713990174233913
0.014998886734247208,0.0053854831494390965,-0.013741343282163143,0.009125909768044949,-0.00035822184872813523,0.012615328654646873
0.01449690479785204,0.005099442787468433,-0.013631511479616165,0.008987138979136944,-0.00038405219675041735,0.01290798932313919
0.01449690479785204,0.005099442787468433,-0.013631511479616165,0.008987138979136944,-0.00038405219675041735,0.01290798932313919
0.015094341710209846,0.005423960275948048,-0.013523292727768421,0.008665191940963268,-0.00036738827475346625,0.012946685776114464
0.014950018376111984,0.005424789153039455,-0.013492688536643982,0.00965196080505848,-0.00036723032826557755,0.012960026040673256
0.014950018376111984,0.005424789153039455,-0.013492688536643982,0.00965196080505848,-0.00036723032826557755,0.012960026040673256
0.01489739865064621,0.0051441132090985775,-0.01317084114998579,0.008826199918985367,-0.0003449015785008669,0.013059797696769238
0.015433797612786293,0.0051414091140031815,-0.013460105285048485,0.009208139963448048,-0.0003206906549166888,0.013013730756938457
0.015179959125816822,0.005275704897940159,-0.01341523602604866,0.008853927254676819,-0.00034341096761636436,0.012736906297504902
0.015113875269889832,0.005225437693297863,-0.013802175410091877,0.008717169053852558,-0.00033579085720703006,0.012978170067071915
0.015172063373029232,0.00525500625371933,-0.013155248947441578,0.008587301708757877,-0.0003169715346302837,0.014276341535151005
0.015344818122684956,0.005131838843226433,-0.013705742545425892,0.008622500114142895,-0.00029944631387479603,0.013195542618632317
0.01549535896629095,0.005730945151299238,-0.012916437350213528,0.008823453448712826,-0.00032463818206451833,0.012468948028981686
0.015285181812942028,0.005364826414734125,-0.013322107493877411,0.008603810332715511,-0.0003140547196380794,0.012942617759108543
0.015374775975942612,0.005770281422883272,-0.013012385927140713,0.009012347087264061,-0.00032038174686022103,0.013360152952373028
0.01511130016297102,0.005277624353766441,-0.013561653904616833,0.009654849767684937,-0.0003253284958191216,0.013320347294211388
0.015491645783185959,0.005240265745669603,-0.013538377359509468,0.009090683422982693,-0.00031248084269464016,0.013154958374798298
0.014786885119974613,0.00502602756023407,-0.013701233081519604,0.00909909512847662,-0.00029955990612506866,0.013055109418928623
0.015369335189461708,0.005113685969263315,-0.013276242651045322,0.009071722626686096,-0.00030836561927571893,0.013247760944068432
0.015369958244264126,0.005553536117076874,-0.012988107278943062,0.00918293371796608,-0.00030822347616776824,0.013035663403570652
0.015599939972162247,0.005358468275517225,-0.013095502741634846,0.00887228548526764,-0.00028974414453841746,0.012987585738301277
0.014718135818839073,0.004981265868991613,-0.013165915384888649,0.008919370360672474,-0.00032296651625074446,0.013135680928826332
0.015195951797068119,0.005143190734088421,-0.013547115959227085,0.008926702663302422,-0.0003078585141338408,0.013505869545042515
0.015677576884627342,0.00510428287088871,-0.013167147524654865,0.008811254054307938,-0.00029145414009690285,0.013430976308882236
0.015637261793017387,0.005027527920901775,-0.013324540108442307,0.009609458036720753,-0.00031643552938476205,0.01312291994690895
0.015618965961039066,0.005485065281391144,-0.013507564552128315,0.009393380023539066,-0.0002926195738837123,0.013662213459610939
0.015741894021630287,0.00528757693246007,-0.012914956547319889,0.010006080381572247,-0.00031686993315815926,0.013837444595992565
0.015781322494149208,0.0050839148461818695,-0.013447754085063934,0.009988145902752876,-0.00030583690386265516,0.013996521010994911
0.015369552187621593,0.005399805959314108,-0.01325851958245039,0.00909340102225542,-0.0002935252559836954,0.014058674685657024
0.013965746387839317,0.005639446433633566,-0.013563252985477448,0.00941570196300745,-0.00032538469531573355,0.014376685954630375
0.016257300972938538,0.0061669303104281425,-0.01328310277312994,0.00942463893443346,-0.00034208109718747437,0.013823398388922215
0.01625322550535202,0.005485809873789549,-0.01317474152892828,0.009432874619960785,-0.00032042741077020764,0.013750937767326832
0.01625322550535202,0.005485809873789549,-0.01317474152892828,0.009432874619960785,-0.00032042741077020764,0.013750937767326832
0.01627376861870289,0.0050268834456801414,-0.013820268213748932,0.00971278827637434,-0.00035100136301480234,0.014013445936143398
0.016143394634127617,0.005193318240344524,-0.013282209634780884,0.00974243227392435,-0.0003362124552950263,0.013933143578469753
0.016003811731934547,0.005147443152964115,-0.013635165989398956,0.008993599563837051,-0.0003426582261454314,0.014305692166090012
0.01620505191385746,0.005657779052853584,-0.012816645205020905,0.009322509169578552,-0.00034751323983073235,0.014286910183727741
0.01616485044360161,0.005383591167628765,-0.013743573799729347,0.009520476683974266,-0.0003538737946655601,0.014359238557517529
0.01593068242073059,0.005257192067801952,-0.013446612283587456,0.008788126520812511,-0.00035773677518591285,0.014061258174479008
0.016259299591183662,0.005364409182220697,-0.013972957618534565,0.009383934549987316,-0.0003421370929572731,0.013983568176627159
0.016416380181908607,0.004827932454645634,-0.013387812301516533,0.009581189602613449,-0.0003267001884523779,0.013914166949689388
0.015935296192765236,0.0045711281709373,-0.013930575922131538,0.009567122906446457,-0.00037706285365857184,0.014188973233103752
0.01649283617734909,0.00443747965618968,-0.01256692036986351,0.0099836066365242,-0.00036841881228610873,0.014181621372699738
0.015856970101594925,0.005011106375604868,-0.014209787361323833,0.010297860018908978,-0.0003418702108319849,0.014401571825146675
0.01616133563220501,0.004685833118855953,-0.01394340768456459,0.009474244900047779,-0.00031780367135070264,0.014373628422617912
0.016559651121497154,0.004992383532226086,-0.013963270001113415,0.009166613221168518,-0.00034813114325515926,0.01478646881878376
0.016494618728756905,0.0048538376577198505,-0.013681317679584026,0.00970521755516529,-0.0003336197405587882,0.014698285609483719
0.0171308945864439,0.00479096220806241,-0.014920004643499851,0.010133256204426289,-0.0003401720314286649,0.014686104841530323
0.01642310805618763,0.004443630576133728,-0.014132562093436718,0.009862368926405907,-0.0003451283264439553,0.014717384241521358
0.016805510967969894,0.004594849888235331,-0.01410484779626131,0.009791276417672634,-0.0003555261646397412,0.014801743440330029
0.016852697357535362,0.004614668898284435,-0.014220234006643295,0.009763036854565144,-0.00034081816556863487,0.014711651019752026
0.016762232407927513,0.004556250758469105,-0.014017656445503235,0.009918889962136745,-0.0003941346367355436,0.014731213450431824
0.01646469533443451,0.004385994281619787,-0.014039251953363419,0.009646456688642502,-0.00036739822826348245,0.01536268275231123
0.01750963181257248,0.004348158370703459,-0.014117133803665638,0.010460971854627132,-0.00033997950959019363,0.01431499607861042
0.01750963181257248,0.004348158370703459,-0.014117133803665638,0.010460971854627132,-0.00033997950959019363,0.01431499607861042
0.017649631947278976,0.004129772074520588,-0.01462006289511919,0.01039354968816042,-0.0003161027852911502,0.014637082815170288
0.017718905583024025,0.004427415318787098,-0.014277729205787182,0.009835761971771717,-0.00029534389614127576,0.014699851162731647
0.017800284549593925,0.004587575793266296,-0.01438236515969038,0.010233142413198948,-0.0003250674926675856,0.014899910427629948
0.0176743995398283,0.00468799751251936,-0.01392157468944788,0.010108438320457935,-0.0003127795353066176,0.0151757150888443
0.018235553056001663,0.004365872126072645,-0.01456393301486969,0.009879132732748985,-0.00029605452436953783,0.014966800808906555
0.01810111477971077,0.004179627168923616,-0.014363137073814869,0.010307836346328259,-0.0002806878765113652,0.015316184610128403
0.017704598605632782,0.004028018098324537,-0.014272358268499374,0.010165059007704258,-0.0002668173983693123,0.015370751731097698
0.01833413355052471,0.003941729664802551,-0.014665773138403893,0.010013874620199203,-0.00025424998602829874,0.015720369294285774
0.018307723104953766,0.004409991670399904,-0.014455249533057213,0.010872917249798775,-0.00027270225109532475,0.015368010848760605
0.018150445073843002,0.004128532018512487,-0.014397014863789082,0.011101116426289082,-0.0002704002254176885,0.015462792478501797
0.018400918692350388,0.004269573371857405,-0.014696457423269749,0.010274786502122879,-0.00025986021501012146,0.015633050352334976
0.01803314872086048,0.004241492599248886,-0.014314722269773483,0.01083685364574194,-0.00024960259906947613,0.015850771218538284
0.01836806908249855,0.0040353513322770596,-0.014504486694931984,0.010486981831490993,-0.0002720619668252766,0.015619168989360332
0.01860477589070797,0.004375350195914507,-0.01443210244178772,0.010001139715313911,-0.00026416333275847137,0.01549256406724453
0.01851656474173069,0.004134080372750759,-0.014717059209942818,0.010232347063720226,-0.0002549444616306573,0.015694962814450264
0.018805326893925667,0.004270443692803383,-0.014336364343762398,0.009824484586715698,-0.00024051262880675495,0.015607384964823723
0.018811272457242012,0.00452483119443059,-0.014887950383126736,0.010080330073833466,-0.0002270621625939384,0.015870191156864166
0.018859291449189186,0.004528429359197617,-0.014178148470818996,0.010500943288207054,-0.00021607064991258085,0.01587727665901184
0.01911798119544983,0.004388398956507444,-0.01438381802290678,0.010508001782000065,-0.0002445738937240094,0.015709346160292625
0.018834644928574562,0.0045817275531589985,-0.014284729957580566,0.011033045127987862,-0.00023637074627913535,0.015593313612043858
0.01959291845560074,0.004254547413438559,-0.014566084370017052,0.009668800979852676,-0.0002352328592678532,0.016301505267620087
0.019696572795510292,0.004844111856073141,-0.01495756022632122,0.010369136929512024,-0.000242709691519849,0.01664051041007042
0.01923045516014099,0.00490204943343997,-0.014879295602440834,0.010984574444591999,-0.00023474635963793844,0.01604091189801693
0.019575482234358788,0.004715182818472385,-0.015034736134111881,0.010231622494757175,-0.00022638072550762445,0.016048846766352654
0.01939798891544342,0.004432089626789093,-0.01466429140418768,0.010116064921021461,-0.00024763878900557756,0.015519753098487854
0.019629893824458122,0.00433974526822567,-0.014687225222587585,0.010582641698420048,-0.0002412391040707007,0.015784578397870064
0.019981004297733307,0.004341408610343933,-0.015015129931271076,0.010942010208964348,-0.00023353760479949415,0.015938518568873405
0.019981004297733307,0.004341408610343933,-0.015015129931271076,0.010942010208964348,-0.00023353760479949415,0.015938518568873405
0.019573191180825233,0.004587884992361069,-0.01485765352845192,0.010554181411862373,-0.0003048307553399354,0.01605134829878807
0.019549299031496048,0.004803636111319065,-0.014422287233173847,0.01057133823633194,-0.00030977046117186546,0.01629810221493244
0.018685918301343918,0.0046724905259907246,-0.01499889511615038,0.011041990481317043,-0.0002914010838139802,0.016478246077895164
0.019993405789136887,0.004427263513207436,-0.014424148015677929,0.01117000263184309,-0.00027377362130209804,0.016324728727340698
0.020024478435516357,0.004606559872627258,-0.014969777315855026,0.01090344786643982,-0.00030272206640802324,0.01636040396988392
0.019943837076425552,0.0047559854574501514,-0.014491355046629906,0.011162144131958485,-0.0002924301952589303,0.016673985868692398
0.020052267238497734,0.00480634206905961,-0.014821640215814114,0.011637337505817413,-0.0002777816844172776,0.016675099730491638
0.02007320523262024,0.005184154491871595,-0.014251588843762875,0.011447257362306118,-0.00030522453016601503,0.016824226826429367
0.02029353380203247,0.0049253287725150585,-0.015114576555788517,0.011308436281979084,-0.0002936696109827608,0.016451550647616386
0.019935041666030884,0.004678534809499979,-0.014524882659316063,0.010368323884904385,-0.0003103783237747848,0.016152778640389442
0.01955299638211727,0.004918003920465708,-0.014929496683180332,0.010582593269646168,-0.0003064990451093763,0.0163582656532526
0.01992214284837246,0.005033232271671295,-0.014390280470252037,0.010941854678094387,-0.00029456664924509823,0.016408514231443405
0.02073407918214798,0.004717884119600058,-0.01511264219880104,0.010143734514713287,-0.00032229264616034925,0.01786339469254017
0.020462948828935623,0.004865007940679789,-0.014643529430031776,0.010486437939107418,-0.0003357768873684108,0.016476262360811234
0.02015835978090763,0.004780311603099108,-0.015382801182568073,0.01079218927770853,-0.000314741802867502,0.01643977500498295
0.020808041095733643,0.004726714920252562,-0.014682980254292488,0.01065976545214653,-0.0003451735829003155,0.017040448263287544
0.021979469805955887,0.004602539818733931,-0.015583222731947899,0.011241722851991653,-0.0003309659368824214,0.01711987517774105
0.021174192428588867,0.004700702149420977,-0.014997935853898525,0.01098668947815895,-0.00035062775714322925,0.017293274402618408
0.02029474265873432,0.004773786757141352,-0.01543230377137661,0.010719925165176392,-0.00034353401861153543,0.017346320673823357
0.021087847650051117,0.004953446798026562,-0.015465979464352131,0.011252747848629951,-0.0003668951103463769,0.017186643555760384
0.020649230107665062,0.004854326602071524,-0.016385933384299278,0.011131541803479195,-0.0004669911868404597,0.01717064157128334
0.02069968916475773,0.00482076033949852,-0.015678558498620987,0.011177398264408112,-0.000440711883129552,0.017300648614764214
0.021488867700099945,0.004797717556357384,-0.01601121388375759,0.010978019796311855,-0.0004772777028847486,0.017452310770750046
0.021512484177947044,0.005219385027885437,-0.015538685023784637,0.011634106747806072,-0.00044305046321824193,0.01720629259943962
0.02101658284664154,0.005166552495211363,-0.015730077400803566,0.011716934852302074,-0.00047319824807345867,0.017600415274500847
0.02111237682402134,0.004909009672701359,-0.015303444117307663,0.01135583408176899,-0.00047479983186349273,0.017695438116788864
0.021471666172146797,0.004765552934259176,-0.016077006235718727,0.011332899332046509,-0.00047215636004693806,0.017961401492357254
0.021471666172146797,0.004765552934259176,-0.016077006235718727,0.011332899332046509,-0.00047215636004693806,0.017961401492357254
0.021550366654992104,0.004672816023230553,-0.015880698338150978,0.011116291396319866,-0.0005431746831163764,0.018069708719849586
0.021160811185836792,0.004687828477472067,-0.016173124313354492,0.011642836034297943,-0.0005908507155254483,0.017732487991452217
0.021285472437739372,0.004692422691732645,-0.016042737290263176,0.011959023773670197,-0.0005554198869504035,0.018192250281572342
0.021622879430651665,0.004718158394098282,-0.01603861339390278,0.01189335249364376,-0.0005667009972967207,0.018018901348114014
0.021885044872760773,0.005107857286930084,-0.0165956262499094,0.011934438720345497,-0.000537445186637342,0.01793011836707592
0.021371815353631973,0.004600886255502701,-0.016248047351837158,0.011368009261786938,-0.0005575038376264274,0.018130755051970482
0.021269921213388443,0.004512362647801638,-0.01676337793469429,0.011393356136977673,-0.0005252239061519504,0.018232887610793114
0.021904844790697098,0.0045141177251935005,-0.016013240441679955,0.011391636915504932,-0.0005753914592787623,0.018264804035425186
0.0219840370118618,0.004622479900717735,-0.017006129026412964,0.011219985783100128,-0.0005372852901928127,0.018007801845669746
0.02148933708667755,0.004647835157811642,-0.016836103051900864,0.011615867726504803,-0.000571024022065103,0.01806691288948059
0.021610895171761513,0.004875810816884041,-0.01644054427742958,0.011189838871359825,-0.0005854226765222847,0.018803702667355537
0.021929293870925903,0.0051223100163042545,-0.016655664891004562,0.011625939048826694,-0.00055392284411937,0.01866733282804489
0.02047278918325901,0.004889448639005423,-0.01596413552761078,0.011708845384418964,-0.0005456165526993573,0.018390363082289696
0.022342899814248085,0.004712407477200031,-0.016734210774302483,0.01200779341161251,-0.0005371277220547199,0.01872154325246811
0.022583866491913795,0.004928186070173979,-0.016853900626301765,0.011795254424214363,-0.0005512467469088733,0.018848730251193047
0.022425299510359764,0.004958088975399733,-0.01710181124508381,0.011142284609377384,-0.000535184342879802,0.018654128536581993
0.022405212745070457,0.004924250766634941,-0.01737116277217865,0.011688615195453167,-0.0005639022565446794,0.018979893997311592
0.021991649642586708,0.005094616673886776,-0.016561320051550865,0.012004265561699867,-0.0005208819056861103,0.018787268549203873
0.022387322038412094,0.004801009315997362,-0.016775917261838913,0.011759701184928417,-0.0005093413055874407,0.01889423094689846
0.022787684574723244,0.0051934318616986275,-0.017203930765390396,0.01137061882764101,-0.0005299585172906518,0.018800517544150352
0.023568512871861458,0.005087333731353283,-0.01708233542740345,0.012168905697762966,-0.000501031638123095,0.01874811016023159
0.022842412814497948,0.005437504965811968,-0.016697285696864128,0.01253905426710844,-0.00046890528756193817,0.019114788621664047
0.022882727906107903,0.0055123683996498585,-0.017772363498806953,0.012007033452391624,-0.0004845293296966702,0.019406653940677643
0.022212715819478035,0.004718618001788855,-0.01693548820912838,0.012141832150518894,-0.00044484538375400007,0.01958879455924034
0.022633330896496773,0.00453612906858325,-0.017679424956440926,0.011570945382118225,-0.0004052749718539417,0.019534790888428688
0.023040637373924255,0.005037012510001659,-0.01731213927268982,0.01206774078309536,-0.00043591385474428535,0.019752681255340576
0.02324627712368965,0.005155406426638365,-0.017476458102464676,0.011519688181579113,-0.000411409477237612,0.01945403963327408
0.0226129163056612,0.005052883643656969,-0.017834587022662163,0.01179761253297329,-0.00043789850315079093,0.019119445234537125
0.0226129163056612,0.005052883643656969,-0.017834587022662163,0.01179761253297329,-0.00043789850315079093,0.019119445234537125
0.02335488051176071,0.005214489996433258,-0.017028868198394775,0.012488423846662045,-0.0004164896672591567,0.01936715468764305
0.023790059611201286,0.004879605025053024,-0.017655184492468834,0.012208240106701851,-0.0003911143576260656,0.02012847177684307
0.02429462969303131,0.004404554143548012,-0.018230324611067772,0.01251254603266716,-0.00036827276926487684,0.019701974466443062
0.023549815639853477,0.004577549174427986,-0.017320340499281883,0.012002011761069298,-0.000347928493283689,0.01922157220542431
0.023357976227998734,0.004993452690541744,-0.017092058435082436,0.012611118145287037,-0.0003526862128637731,0.019380558282136917
0.023599112406373024,0.005077076610177755,-0.017163462936878204,0.012775293551385403,-0.0003564924991223961,0.020531974732875824
0.024005545303225517,0.004925877787172794,-0.017523201182484627,0.012949611991643906,-0.0003409965429455042,0.0207067858427763
0.024677900597453117,0.00469243573024869,-0.017545020207762718,0.012913508340716362,-0.0003256599011365324,0.02015659771859646
0.025062307715415955,0.004774048924446106,-0.01727348007261753,0.012087189592421055,-0.00031157044577412307,0.019248709082603455
0.024384990334510803,0.004737803712487221,-0.017667517066001892,0.012478863820433617,-0.00029100189567543566,0.01955048181116581
0.02448996901512146,0.0046102688647806644,-0.017248349264264107,0.012424261309206486,-0.0002728530380409211,0.020224353298544884
0.024417443200945854,0.004748552571982145,-0.01750251278281212,0.012975284829735756,-0.00025721656857058406,0.02099294401705265
0.024453675374388695,0.004842015914618969,-0.01763652265071869,0.012874245643615723,-0.00026702607283368707,0.020486153662204742
0.024502551183104515,0.00486620981246233,-0.01710478775203228,0.012509181164205074,-0.0002753527951426804,0.019842950627207756
0.024582570418715477,0.005072432104498148,-0.017312580719590187,0.013125003315508366,-0.0002633575932122767,0.01989862322807312
0.024266988039016724,0.004888364113867283,-0.017281241714954376,0.013917376287281513,-0.0002511963539291173,0.02138340286910534
0.025321114808321,0.0047804201021790504,-0.017759310081601143,0.013396280817687511,-0.00027469327324070036,0.021544428542256355
0.024968618527054787,0.004518494941294193,-0.017686743289232254,0.012980888597667217,-0.00026776985032483935,0.02042519487440586
0.024822546169161797,0.005037605296820402,-0.01702016219496727,0.013182763010263443,-0.0002571498043835163,0.020078562200069427
0.02543579414486885,0.005234485026448965,-0.01733884960412979,0.013229265809059143,-0.00027998184668831527,0.0199884045869112
0.025199271738529205,0.004647632595151663,-0.01705540344119072,0.013361144810914993,-0.00027156592113897204,0.020335357636213303
0.025355486199259758,0.004430572967976332,-0.017419666051864624,0.013299050740897655,-0.00032530887983739376,0.02132108248770237
0.025727014988660812,0.0045083072036504745,-0.01706456020474434,0.012715348973870277,-0.00035880421637557447,0.02134992554783821
0.025823406875133514,0.004666516091674566,-0.017542870715260506,0.01312366221100092,-0.00034337706165388227,0.021204065531492233
0.02553698606789112,0.00470013776794076,-0.01722710020840168,0.012941284105181694,-0.00036989551153965294,0.02130328118801117
0.025501655414700508,0.004885734524577856,-0.017251277342438698,0.013382820412516594,-0.00035542313707992435,0.021424083039164543
0.026089318096637726,0.004859842360019684,-0.01740158349275589,0.013472655788064003,-0.0003816347452811897,0.021528661251068115
0.026037069037556648,0.004518811125308275,-0.017299041152000427,0.013383551500737667,-0.0005490583716891706,0.021382084116339684
0.025993309915065765,0.00449737161397934,-0.017803892493247986,0.013456515967845917,-0.0006229889113456011,0.021218761801719666
0.025993309915065765,0.00449737161397934,-0.017803892493247986,0.013456515967845917,-0.0006229889113456011,0.021218761801719666
0.026522917672991753,0.005003117490559816,-0.017044367268681526,0.013181190937757492,-0.0005839231889694929,0.0217355415225029
0.026209326460957527,0.005136690102517605,-0.01746976003050804,0.013515176251530647,-0.0006043894100002944,0.021592509001493454
0.026499640196561813,0.004857268184423447,-0.01793680526316166,0.013149169273674488,-0.0005609388463199139,0.021337343379855156
0.02672349289059639,0.004744268488138914,-0.017458826303482056,0.013521446846425533,-0.00058410206111148,0.02167445421218872
0.02681617997586727,0.004810959566384554,-0.017971312627196312,0.013333122245967388,-0.0006121767219156027,0.02182011492550373
0.026989294216036797,0.00478515587747097,-0.0187421552836895,0.01387989055365324,-0.0005978141562081873,0.021909525617957115
0.026779482141137123,0.004550063982605934,-0.01748913712799549,0.013640055432915688,-0.0006299985107034445,0.02172493003308773
0.026766007766127586,0.004732792731374502,-0.018136609345674515,0.014097997918725014,-0.0006582877249456942,0.02177119068801403
0.026989169418811798,0.004787721671164036,-0.018158601596951485,0.013722795061767101,-0.0006644824170507491,0.021889571100473404
0.027146805077791214,0.004646982066333294,-0.0180806964635849,0.014244903810322285,-0.000739028793759644,0.021853452548384666
0.028164301067590714,0.004374705255031586,-0.01799589954316616,0.013556917198002338,-0.0007983244140632451,0.02184581197798252
0.027783162891864777,0.004278657026588917,-0.017661934718489647,0.01388980820775032,-0.0008150142966769636,0.02204987034201622
0.024716123938560486,0.003680738853290677,-0.018946567550301552,0.013916446827352047,-0.0007726430776529014,0.022200802341103554
0.027927355840802193,0.0034549797419458628,-0.018871253356337547,0.014212062582373619,-0.0007764188339933753,0.022442908957600594
0.028567129746079445,0.0036734461318701506,-0.017683427780866623,0.013966109603643417,-0.0007808919763192534,0.022209960967302322
0.027659572660923004,0.004163992591202259,-0.018321210518479347,0.014078062027692795,-0.0007276851683855057,0.021957848221063614
0.02815597876906395,0.004047263413667679,-0.018263541162014008,0.01386809628456831,-0.0007382615585811436,0.022282009944319725
0.02896030619740486,0.004342903383076191,-0.018699947744607925,0.01422901451587677,-0.0007153088226914406,0.02277740091085434
0.02895222045481205,0.004117227625101805,-0.018552307039499283,0.013884485699236393,-0.0006854814710095525,0.022956743836402893
0.027216637507081032,0.003796195611357689,-0.018269160762429237,0.013677291572093964,-0.000710518448613584,0.021551460027694702
0.028031261637806892,0.004183968063443899,-0.018354369327425957,0.013855407945811749,-0.0007289150962606072,0.021309660747647285
0.02860230766236782,0.004262575414031744,-0.01732422411441803,0.014334646053612232,-0.0006683824467472732,0.022057117894291878
0.028358936309814453,0.004031338728964329,-0.01849495805799961,0.01471501775085926,-0.0006885165348649025,0.02295777201652527
0.02864338457584381,0.0039054981898516417,-0.019334852695465088,0.014595437794923782,-0.0007031704299151897,0.0226795244961977
0.028334960341453552,0.003949332516640425,-0.01844327338039875,0.014516741037368774,-0.0006569284596480429,0.022677043452858925
0.028575073927640915,0.003954275511205196,-0.018545741215348244,0.014549620449543,-0.0007590060122311115,0.02322917804121971
0.028561115264892578,0.003996122628450394,-0.018123002722859383,0.014374645426869392,-0.0007245212909765542,0.023256223648786545
0.028561115264892578,0.003996122628450394,-0.018123002722859383,0.014374645426869392,-0.0007245212909765542,0.023256223648786545
0.02856220304965973,0.0039060807321220636,-0.01813720166683197,0.014230706728994846,-0.0007418038439936936,0.02271357923746109
0.028559576719999313,0.003905600169673562,-0.018900854513049126,0.014009617269039154,-0.0006696239579468966,0.022560205310583115
0.02878561057150364,0.00394905311986804,-0.0185123011469841,0.014264389872550964,-0.0006800810224376619,0.021939674392342567
0.028870485723018646,0.0039990064688026905,-0.01848156377673149,0.014515027403831482,-0.0006306019495241344,0.022367607802152634
0.02906070649623871,0.0034783491864800453,-0.018839238211512566,0.014949576929211617,-0.0006337046506814659,0.02324802614748478
0.028954636305570602,0.0035843499936163425,-0.018618877977132797,0.014591259881854057,-0.0005647713551297784,0.02396950125694275
0.02894015796482563,0.0037336149252951145,-0.01880710758268833,0.01413742732256651,-0.000550526543520391,0.024048374965786934
0.02949492260813713,0.00419720308855176,-0.01905680261552334,0.014163987711071968,-0.0005387906567193568,0.02371883951127529
0.029287947341799736,0.004257435444742441,-0.018172213807702065,0.014653077349066734,-0.0004924497334286571,0.02350667491555214
0.029276413843035698,0.0040482813492417336,-0.018517617136240005,0.014454376883804798,-0.0004878136096522212,0.023401351645588875
0.028780851513147354,0.0039984011091291904,-0.01920362003147602,0.015134843997657299,-0.00048347259871661663,0.023243064060807228
0.029936378821730614,0.004016581457108259,-0.018340760841965675,0.014650866389274597,-0.0004510116996243596,0.023280879482626915
0.03068508580327034,0.00408940901979804,-0.018577272072434425,0.014568480663001537,-0.00045021652476862073,0.023535214364528656
0.030331626534461975,0.004134887829422951,-0.01900601200759411,0.014482616446912289,-0.00044897603220306337,0.023460788652300835
0.02901538833975792,0.004055418539792299,-0.018861327320337296,0.014624153263866901,-0.0004242654249537736,0.02389160916209221
0.029462717473506927,0.0043649873696267605,-0.018756598234176636,0.013991966843605042,-0.00038817067979834974,0.023974718526005745
0.030539177358150482,0.004179093055427074,-0.01832542195916176,0.014600812457501888,-0.0003566526575013995,0.024244122207164764
0.030266048386693,0.00415358692407608,-0.01858721859753132,0.014933496713638306,-0.00039181939791888,0.023922616615891457
0.030089495703577995,0.004029883537441492,-0.019144563004374504,0.015084821730852127,-0.0003690309531521052,0.023931479081511497
0.030096912756562233,0.0037843058817088604,-0.018682485446333885,0.015053748153150082,-0.0004183835117146373,0.023457342758774757
0.02995477057993412,0.0037764639127999544,-0.019305096939206123,0.015630731359124184,-0.0005937141831964254,0.024196218699216843
0.029728909954428673,0.004266026895493269,-0.018525753170251846,0.015576770529150963,-0.0006804637960158288,0.024355066940188408
0.030277766287326813,0.004133609123528004,-0.01864907704293728,0.01622113771736622,-0.0006954377749934793,0.02415052242577076
0.030477873980998993,0.004404541105031967,-0.0193692147731781,0.015774136409163475,-0.0006927623762749135,0.024288196116685867
0.03091081790626049,0.004360794555395842,-0.019464127719402313,0.015923360362648964,-0.0006701145903207362,0.02431483566761017
0.03111184947192669,0.004073260352015495,-0.01903100311756134,0.01574886403977871,-0.000835675629787147,0.024255691096186638
0.03097938746213913,0.004265489988029003,-0.01947934925556183,0.016175420954823494,-0.0008440936217084527,0.024036308750510216
0.03090866282582283,0.00429528346285224,-0.019078735262155533,0.016086604446172714,-0.0008354572346433997,0.02427106723189354
0.03090866282582283,0.00429528346285224,-0.019078735262155533,0.016086604446172714,-0.0008354572346433997,0.02427106723189354
0.031253881752491,0.0044672018848359585,-0.018725888803601265,0.015242647379636765,-0.0007627271697856486,0.02443585731089115
0.03134596347808838,0.004551070276647806,-0.019504593685269356,0.015086537227034569,-0.0007530081202276051,0.02455970272421837
0.031281232833862305,0.004576751962304115,-0.019612712785601616,0.01523024495691061,-0.0007015088340267539,0.024628883227705956
0.031099282205104828,0.004292917903512716,-0.019899405539035797,0.01596994884312153,-0.0006404761224985123,0.024831438437104225
0.03116694465279579,0.004470282234251499,-0.019680190831422806,0.015520783141255379,-0.0005801887018606067,0.02489510178565979
0.03181379660964012,0.004346250090748072,-0.019254643470048904,0.01589300110936165,-0.0005904171266593039,0.02488076128065586
0.030366534367203712,0.004773288499563932,-0.019913645461201668,0.015499327331781387,-0.0005530009511858225,0.024898463860154152
0.03223083168268204,0.004819466266781092,-0.020921126008033752,0.01585693098604679,-0.0005751478020101786,0.025163117796182632
0.03186549246311188,0.0047534918412566185,-0.019825637340545654,0.015177049674093723,-0.0005731506389565766,0.025131938979029655
0.03184632584452629,0.004685830324888229,-0.01938055269420147,0.015519265085458755,-0.0005626819911412895,0.025491610169410706
0.03166881576180458,0.004547346383333206,-0.02065865322947502,0.015520003624260426,-0.000635951932054013,0.02542557567358017
0.03194013983011246,0.004375020042061806,-0.020056812092661858,0.01585543341934681,-0.000693338515702635,0.024708539247512817
0.03223405405879021,0.0045735519379377365,-0.0189810860902071,0.015674114227294922,-0.0007053533918224275,0.024252992123365402
0.031800463795661926,0.004648474510759115,-0.019791673868894577,0.015574341639876366,-0.0007014954462647438,0.024685116484761238
0.03211713954806328,0.004650557413697243,-0.02023291401565075,0.016049930825829506,-0.0007110470905900002,0.025382857769727707
0.03211713954806328,0.004650557413697243,-0.02023291401565075,0.016049930825829506,-0.0007110470905900002,0.025382857769727707
0.032337792217731476,0.004704506602138281,-0.019811954349279404,0.01643834263086319,-0.0006890117074362934,0.025535788387060165
0.0324288010597229,0.004549910314381123,-0.01990491710603237,0.01579633355140686,-0.0007137924549169838,0.026600124314427376
0.03275778144598007,0.0040924642235040665,-0.020210063084959984,0.016112158074975014,-0.0006583092035725713,0.025530582293868065
0.03251058608293533,0.004276524297893047,-0.020395226776599884,0.01644793152809143,-0.0006751958280801773,0.02503005973994732
0.03198201581835747,0.004526440519839525,-0.020061112940311432,0.016658291220664978,-0.0006267912103794515,0.02618154138326645
0.033012233674526215,0.004626221023499966,-0.019346898421645164,0.016491586342453957,-0.0006197999464347959,0.02649463713169098
0.033773794770240784,0.004857796244323254,-0.02008994109928608,0.016914641484618187,-0.0006548539386130869,0.026334011927247047
0.03299003466963768,0.00436154892668128,-0.020211150869727135,0.016503384336829185,-0.0006817106623202562,0.025864247232675552
0.03205014765262604,0.004333816934376955,-0.019790152087807655,0.016670791432261467,-0.0006972739938646555,0.025694264099001884
0.03205014765262604,0.004333816934376955,-0.019790152087807655,0.016670791432261467,-0.0006972739938646555,0.025694264099001884
0.033301860094070435,0.004464585799723864,-0.020120998844504356,0.016553152352571487,-0.0009049408254213631,0.025904985144734383
0.03327517583966255,0.004753707442432642,-0.020505065098404884,0.01657230779528618,-0.0009357380331493914,0.025890100747346878
0.03317785635590553,0.004637229721993208,-0.020342525094747543,0.01699591428041458,-0.0008078599348664284,0.025943070650100708
0.034176744520664215,0.004427622072398663,-0.019858652725815773,0.016597846522927284,-0.000703174970112741,0.026013562455773354
0.03328854963183403,0.004555514082312584,-0.020027363672852516,0.01668085716664791,-0.0007180591346696019,0.026182260364294052
0.03285471349954605,0.004468896891921759,-0.020160377025604248,0.016195079311728477,-0.0006501288735307753,0.02635926939547062
0.03253895044326782,0.004470514599233866,-0.019845303148031235,0.01637861505150795,-0.0006621454958803952,0.026264669373631477
0.03385787457227707,0.004804263822734356,-0.020283062011003494,0.01664673537015915,-0.0006153776193968952,0.02634603902697563
0.033715587109327316,0.004736264236271381,-0.02034907042980194,0.016605615615844727,-0.000536422710865736,0.026392871513962746
0.03348580375313759,0.0048258122988045216,-0.019489070400595665,0.016912665218114853,-0.00047352659748867154,0.02608904428780079
0.034529075026512146,0.004876924678683281,-0.020110398530960083,0.016460202634334564,-0.0004906281246803701,0.0266520157456398
0.03445891663432121,0.004743342287838459,-0.020629389211535454,0.01668766513466835,-0.00046741770347580314,0.026716478168964386
0.0338379330933094,0.004546024836599827,-0.020278559997677803,0.01665465161204338,-0.000466129306005314,0.026770124211907387
0.034408729523420334,0.0042641861364245415,-0.020024333149194717,0.01694827899336815,-0.00046362588182091713,0.026944957673549652
0.03401428088545799,0.0048189288936555386,-0.020438766106963158,0.017579521983861923,-0.0004873143625445664,0.02729228511452675
0.03385069966316223,0.0048907180316746235,-0.020696956664323807,0.017013482749462128,-0.00046448162174783647,0.02713915705680847
0.034762315452098846,0.004839572124183178,-0.0198702123016119,0.01752200536429882,-0.000585116446018219,0.027023745700716972
0.03454280644655228,0.0049967095255851746,-0.020217454060912132,0.016889171674847603,-0.0005770949646830559,0.026740282773971558
0.03455466032028198,0.004848228767514229,-0.02056470327079296,0.016640955582261086,-0.0006057033315300941,0.027129845693707466
0.033954985439777374,0.004654626362025738,-0.020530318841338158,0.01648935116827488,-0.0006159819895401597,0.02812187187373638
0.03620191663503647,0.004554757848381996,-0.02038636803627014,0.01718372292816639,-0.0008368160342797637,0.02721538208425045
0.03383969888091087,0.0049481880851089954,-0.02017020620405674,0.01725875772535801,-0.0007879833574406803,0.026483984664082527
0.03405078500509262,0.004993862006813288,-0.020128145813941956,0.017652755603194237,-0.000746765814255923,0.027222972363233566
0.03561581298708916,0.004759400151669979,-0.021059397608041763,0.017438670620322227,-0.0007115497719496489,0.02809983678162098
0.034984830766916275,0.004744497127830982,-0.020967701449990273,0.017418354749679565,-0.000709216168615967,0.027488356456160545
0.034984830766916275,0.004744497127830982,-0.020967701449990273,0.017418354749679565,-0.000709216168615967,0.027488356456160545
0.03614609315991402,0.004780919291079044,-0.020260527729988098,0.01807546615600586,-0.0006645410321652889,0.02772606909275055
0.03618017956614494,0.0044394261203706264,-0.02085351012647152,0.017909489572048187,-0.0006184855592437088,0.028952494263648987
0.0355515219271183,0.004294483456760645,-0.021921129897236824,0.01806679181754589,-0.0006028769421391189,0.02788054756820202
0.0341070182621479,0.004253799561411142,-0.021466823294758797,0.017921268939971924,-0.0005849396693520248,0.027649525552988052
0.0360712967813015,0.004107976332306862,-0.020200038328766823,0.01738225854933262,-0.0006066409405320883,0.026995187625288963
0.036407649517059326,0.004125325474888086,-0.02073419652879238,0.0175006203353405,-0.0005629242514260113,0.02711273916065693
0.03542381152510643,0.003994007594883442,-0.02120974287390709,0.016913121566176414,-0.0005860013770870864,0.028522830456495285
0.03588203340768814,0.003855927148833871,-0.021071230992674828,0.017556652426719666,-0.0006200765492394567,0.028565911576151848
0.035946279764175415,0.0038971423637121916,-0.02100388891994953,0.01850946620106697,-0.0006683454266749322,0.028108850121498108
0.03625766187906265,0.0042782858945429325,-0.02104082517325878,0.01813564822077751,-0.0006970218964852393,0.028124738484621048
0.03592316806316376,0.004566151183098555,-0.021648362278938293,0.018111469224095345,-0.0007189610623754561,0.027858935296535492
0.03582756221294403,0.004535231739282608,-0.02109576389193535,0.0179129708558321,-0.0006945416680537164,0.027530651539564133
0.03611444681882858,0.004297801759094,-0.021658137440681458,0.01729382947087288,-0.0008102701976895332,0.027860771864652634
0.03611193224787712,0.004053909797221422,-0.02160666510462761,0.017565293237566948,-0.000845776463393122,0.028295418247580528
0.03638868033885956,0.003954767715185881,-0.021418942138552666,0.017101414501667023,-0.0008549652411602437,0.028275709599256516
0.03636002168059349,0.003944628871977329,-0.020411957055330276,0.017591020092368126,-0.0008607193012721837,0.0283379927277565
0.03690003976225853,0.003908567130565643,-0.021494479849934578,0.017688754945993423,-0.0009395752567797899,0.02843056619167328
0.03687339648604393,0.004101636819541454,-0.020745674148201942,0.01739468239247799,-0.0009451905498281121,0.02829340659081936
0.03628780320286751,0.0041326479986310005,-0.022138133645057678,0.01740330457687378,-0.0009042057208716869,0.02852800115942955
0.036638982594013214,0.004321558866649866,-0.02181439846754074,0.01716042309999466,-0.0008436620119027793,0.029022982344031334
0.03750723600387573,0.00399933522567153,-0.020972076803445816,0.01775134727358818,-0.0008390503935515881,0.02886405773460865
0.036674801260232925,0.004243225324898958,-0.021538572385907173,0.018203791230916977,-0.0007627008599229157,0.0289638452231884
0.03695756569504738,0.004086799453943968,-0.021154068410396576,0.017976071685552597,-0.0006796028465032578,0.02882304973900318
0.03684188425540924,0.003906717989593744,-0.02141648530960083,0.017543215304613113,-0.0006504018092527986,0.029007572680711746
0.03703157603740692,0.004332579672336578,-0.02207629568874836,0.01771167479455471,-0.0006671046139672399,0.029266906902194023
0.03683822974562645,0.0042466032318770885,-0.02189548686146736,0.017982322722673416,-0.0006778151728212833,0.02926146797835827
0.03713825345039368,0.00412544421851635,-0.021130802109837532,0.017562326043844223,-0.0006390541675500572,0.02923646755516529
0.03713825345039368,0.00412544421851635,-0.021130802109837532,0.017562326043844223,-0.0006390541675500572,0.02923646755516529
0.036830976605415344,0.0039018625393509865,-0.02150234393775463,0.017954295501112938,-0.0006827028701081872,0.028935687616467476
0.036380983889102936,0.0038302091415971518,-0.021688904613256454,0.018406985327601433,-0.0006880520959384739,0.02987990342080593
0.03844531252980232,0.003861399833112955,-0.02169613540172577,0.018275484442710876,-0.0006342935957945883,0.02964223176240921
0.038070980459451675,0.0038496528286486864,-0.02115039713680744,0.01824021525681019,-0.0006384025327861309,0.030048009008169174
0.035749401897192,0.0044070882722735405,-0.0215405635535717,0.01768757402896881,-0.000640411046333611,0.030632052570581436
0.03619400039315224,0.0046586813405156136,-0.02187201753258705,0.018129998818039894,-0.0006236941553652287,0.030041374266147614
0.03762165457010269,0.004358587320894003,-0.02146824449300766,0.01821291819214821,-0.0006488715880550444,0.02938685566186905
0.03762810677289963,0.004058917984366417,-0.02079276368021965,0.017707038670778275,-0.0006633188459090889,0.029259001836180687
0.0386597104370594,0.003494902513921261,-0.021714812144637108,0.018062863498926163,-0.0006143509526737034,0.030339892953634262
0.03867132216691971,0.004201040603220463,-0.02178405039012432,0.018232863396406174,-0.0006385754095390439,0.02977612055838108
0.03654098883271217,0.0041179717518389225,-0.021625854074954987,0.01794547215104103,-0.0006461347220465541,0.03033852018415928
0.037111539393663406,0.003902534721419215,-0.021047454327344894,0.018198616802692413,-0.0006149607943370938,0.030960120260715485
0.03838988021016121,0.004177472088485956,-0.02151094749569893,0.018232222646474838,-0.0007345157791860402,0.030685704201459885
0.03784804791212082,0.004277772735804319,-0.02148851938545704,0.018447283655405045,-0.0007050450658425689,0.029618695378303528
0.0377359539270401,0.004061925690621138,-0.02194800414144993,0.019196724519133568,-0.000717192713636905,0.029213374480605125
0.038150254637002945,0.0038698131684213877,-0.021374134346842766,0.018471550196409225,-0.0007355538546107709,0.03036394715309143
0.037634581327438354,0.003859064308926463,-0.021679183468222618,0.018151061609387398,-0.0009274687618017197,0.031126201152801514
0.03801226615905762,0.0038981325924396515,-0.02206459455192089,0.018010826781392097,-0.0009765027207322419,0.031100263819098473
0.03773031383752823,0.0039032259956002235,-0.02216019108891487,0.017462925985455513,-0.0009691307786852121,0.030772922560572624
0.03796730563044548,0.0038019991479814053,-0.02111927419900894,0.01907500810921192,-0.0009062560275197029,0.030595004558563232
0.037713672965765,0.0040139988996088505,-0.021978992968797684,0.019281718879938126,-0.0009681641240604222,0.03002336621284485
0.038107044994831085,0.003915114793926477,-0.022003917023539543,0.01871485263109207,-0.0009727684664539993,0.0302676260471344
0.03907880559563637,0.0036825828719884157,-0.021849242970347404,0.018510550260543823,-0.0009528295486234128,0.03034290485084057
0.03844424709677696,0.003486759029328823,-0.021457646042108536,0.018751075491309166,-0.0009451232617720962,0.030311189591884613
0.036652565002441406,0.0037651900202035904,-0.021908212453126907,0.018976133316755295,-0.0009193529840558767,0.02993149869143963
0.03772444278001785,0.004004254005849361,-0.02178150974214077,0.019908271729946136,-0.0009222982334904373,0.031015098094940186
0.03796222433447838,0.004246903117746115,-0.021976953372359276,0.01883149892091751,-0.0009052203968167305,0.03106972947716713
0.039452116936445236,0.004061455838382244,-0.02276347018778324,0.019057368859648705,-0.0008362317457795143,0.030677134171128273
0.038091953843832016,0.00389655539765954,-0.02218458615243435,0.018846439197659492,-0.0009280341328121722,0.03181424364447594
0.03681100532412529,0.003811428090557456,-0.022525925189256668,0.018505873158574104,-0.0009650627034716308,0.03130222484469414
0.03891705349087715,0.0042956010438501835,-0.02160562202334404,0.018944866955280304,-0.0009751493926160038,0.03111273981630802
0.03891705349087715,0.0042956010438501835,-0.02160562202334404,0.018944866955280304,-0.0009751493926160038,0.03111273981630802
0.03813407942652702,0.003985332325100899,-0.021866410970687866,0.019011221826076508,-0.0010846483055502176,0.031082993373274803
0.03813407942652702,0.003985332325100899,-0.021866410970687866,0.019011221826076508,-0.0010846483055502176,0.031082993373274803
0.03852887824177742,0.0038841012865304947,-0.022855255752801895,0.019332263618707657,-0.0010442394996061921,0.031150100752711296
0.03857368230819702,0.0038651726208627224,-0.022731570526957512,0.019151438027620316,-0.0010226150043308735,0.030668022111058235
0.03879307582974434,0.004364384803920984,-0.022369559854269028,0.01887410879135132,-0.0010666087036952376,0.032150134444236755
0.039602961391210556,0.004199444781988859,-0.022386880591511726,0.01962948776781559,-0.001047466299496591,0.03277255967259407
0.03871297463774681,0.003994928672909737,-0.02281748130917549,0.019381990656256676,-0.0010256560053676367,0.032001350075006485
0.03863147273659706,0.003461475484073162,-0.0225980207324028,0.018733199685811996,-0.0009519897284917533,0.030416494235396385
0.039131443947553635,0.003571799723431468,-0.02184644341468811,0.018946586176753044,-0.0009192622383125126,0.03090108186006546
0.03939931094646454,0.0040755495429039,-0.022182196378707886,0.019022855907678604,-0.0007918808842077851,0.0319199338555336
0.039786193519830704,0.004204145632684231,-0.02247857302427292,0.018614431843161583,-0.0007996070780791342,0.032034505158662796
0.040061406791210175,0.0037609823048114777,-0.02279776893556118,0.018855024129152298,-0.0007595301722176373,0.03313862159848213
0.0403163805603981,0.003520946716889739,-0.022732216864824295,0.01821458712220192,-0.0007225303561426699,0.032521236687898636
0.039999332278966904,0.003665381111204624,-0.022350620478391647,0.01820041798055172,-0.000737326277885586,0.03133228421211243
0.040016982704401016,0.003913249354809523,-0.022465398535132408,0.018943045288324356,-0.000690334418322891,0.030769526958465576
0.04031337425112724,0.004005915485322475,-0.022864334285259247,0.0189143568277359,-0.0007082899683155119,0.03209816291928291
0.041110098361968994,0.0039480021223425865,-0.022683367133140564,0.01883072406053543,-0.0007308810018002987,0.03310536965727806
0.04010970890522003,0.0038666920736432076,-0.02217046171426773,0.018882395699620247,-0.0007491701398976147,0.03142426908016205
0.04082909971475601,0.003818932920694351,-0.02224535122513771,0.018815696239471436,-0.0007064337842166424,0.03316659852862358
0.040935955941677094,0.0038761815521866083,-0.022848714143037796,0.019542146474123,-0.0008881539106369019,0.03297804296016693
0.041142288595438004,0.0038105242419987917,-0.022673102095723152,0.019298473373055458,-0.0008859143126755953,0.03279607370495796
0.04114130884408951,0.0037389013450592756,-0.022541318088769913,0.01935410127043724,-0.0008371941512450576,0.032965999096632004
0.04048174247145653,0.004221994895488024,-0.022231223061680794,0.01987088844180107,-0.0007974200998432934,0.03303814306855202
0.041902121156454086,0.004109462723135948,-0.022634180262684822,0.019739767536520958,-0.0007521312218159437,0.03321027755737305
0.04283193498849869,0.003966158721596003,-0.022734414786100388,0.019699394702911377,-0.0007602710393257439,0.033073898404836655
0.040167186409235,0.0038359949830919504,-0.022367652505636215,0.019591620191931725,-0.000762264768127352,0.032801683992147446
0.04065690189599991,0.004092584364116192,-0.02207350544631481,0.019281184300780296,-0.0007515859324485064,0.03300585597753525
