davideferrari95/blind_handover_controller/data/Test 8 - [2024-02-07 -- 13-10-20]/joint_states_data.csv
shoulder_pan_joint,shoulder_lift_joint,elbow_joint,wrist_1_joint,wrist_2_joint,wrist_3_joint
0.010816908441483974,-0.009168365970253944,-0.013543861918151379,0.01771228201687336,-0.0,0.010897374711930752
0.010816908441483974,-0.009168365970253944,-0.013543861918151379,0.01771228201687336,-0.0,0.010897374711930752
0.010320480912923813,-0.008893238380551338,-0.01383215095847845,0.018215646967291832,-0.0,0.010853221639990807
0.011035796254873276,-0.009382398799061775,-0.013515100814402103,0.017729194834828377,-0.0,0.01025102287530899
0.010632887482643127,-0.009043076075613499,-0.013855648227036,0.017736312001943588,-0.0,0.009935140609741211
0.011068697087466717,-0.008823203854262829,-0.013820051215589046,0.017428351566195488,-0.0,0.010537487454712391
0.01119608897715807,-0.009480387903749943,-0.014418927021324635,0.018012959510087967,-0.0,0.011108958162367344
0.011072679422795773,-0.009288706816732883,-0.014033528044819832,0.01759139820933342,-0.0,0.010451373644173145
0.011017613112926483,-0.009053898975253105,-0.014021450653672218,0.017755651846528053,-0.0,0.010784902609884739
0.01079579722136259,-0.009377659298479557,-0.013647185638546944,0.01790481060743332,-0.0,0.010197320953011513
0.01107516884803772,-0.008955012075603008,-0.014240087941288948,0.017466774210333824,-0.0,0.010002082213759422
0.010965338908135891,-0.008857513777911663,-0.014582355506718159,0.017969079315662384,-0.0,0.010579218156635761
0.010896311141550541,-0.009256379678845406,-0.01471907552331686,0.01766643114387989,-0.0,0.010609256103634834
0.011103213764727116,-0.00928632915019989,-0.014461416751146317,0.017636220902204514,-0.0,0.010963626205921173
0.010779421776533127,-0.009280042722821236,-0.014282066375017166,0.018321949988603592,-0.0,0.010465225204825401
0.010779421776533127,-0.009280042722821236,-0.014282066375017166,0.018321949988603592,-0.0,0.010465225204825401
0.010859640315175056,-0.009031044319272041,-0.014142562635242939,0.01811729557812214,-0.0,0.010376977734267712
0.010970111936330795,-0.006703600287437439,-0.014704938046634197,0.018437335267663002,-0.0,0.010121503844857216
0.010746537707746029,-0.0060460553504526615,-0.014239747077226639,0.018146423622965813,-0.0,0.010056234896183014
0.01116615254431963,-0.006260146386921406,-0.014274821616709232,0.017770113423466682,-0.0,0.010542035102844238
0.01058878656476736,-0.0067821647971868515,-0.013830034993588924,0.019024841487407684,-0.0,0.011574662290513515
0.010485151782631874,-0.006978135090321302,-0.014129109680652618,0.01869102753698826,-0.0,0.009967269375920296
0.011033005081117153,-0.0069067892618477345,-0.013575222343206406,0.018235884606838226,-0.0,0.009624617174267769
0.010869140736758709,-0.005815538577735424,-0.01443886011838913,0.018694525584578514,-0.0,0.010486919432878494
0.010126695036888123,-0.006097401026636362,-0.013819989748299122,0.019155198708176613,-0.0,0.010280618444085121
0.010836994275450706,-0.006905918475240469,-0.013835226185619831,0.018909776583313942,-0.0,0.010406172834336758
0.01070612296462059,-0.006304320879280567,-0.013109967112541199,0.019300417974591255,-0.0,0.010929611511528492
0.010384894907474518,-0.005894495639950037,-0.014014850370585918,0.01913439854979515,-0.0,0.010280480608344078
0.010749581269919872,-0.0059678019024431705,-0.014151574112474918,0.018736056983470917,-0.0,0.01001307275146246
0.010560022667050362,-0.006316999904811382,-0.013554476201534271,0.01875300146639347,-0.0,0.010633966885507107
0.01126466877758503,-0.005732277873903513,-0.014074118807911873,0.018556645140051842,-0.0,0.010179844684898853
0.010107212699949741,-0.005727227311581373,-0.013652916066348553,0.01903475448489189,-0.0,0.010060525499284267
0.01013431791216135,-0.005171275231987238,-0.013890223577618599,0.01873210445046425,-0.0,0.01029561273753643
0.010482169687747955,-0.005523423198610544,-0.013212239369750023,0.01835557445883751,-0.0,0.010253090411424637
0.010171156376600266,-0.0056083351373672485,-0.013947438448667526,0.01802421174943447,-0.0,0.010352243669331074
0.011023787781596184,-0.00557567086070776,-0.013779455795884132,0.017846478149294853,-0.0,0.01058572344481945
0.011373148299753666,-0.0054829856380820274,-0.014016499742865562,0.018484540283679962,-0.0,0.010266384109854698
0.010204493068158627,-0.005627050064504147,-0.013754955492913723,0.019346829503774643,-0.0,0.010121959261596203
0.010023972019553185,-0.005427276249974966,-0.013967509381473064,0.019024964421987534,-0.0,0.009922212921082973
0.009863534942269325,-0.00584196113049984,-0.013745241798460484,0.01895757019519806,-0.0,0.010451768524944782
0.010547474026679993,-0.006330603267997503,-0.014134516008198261,0.018293488770723343,-0.0,0.009958824142813683
0.011348742991685867,-0.006038076709955931,-0.01400793343782425,0.01800411008298397,-0.0,0.009636731818318367
0.011348742991685867,-0.006038076709955931,-0.01400793343782425,0.01800411008298397,-0.0,0.009636731818318367
0.010429313406348228,-0.005324224475771189,-0.013703099451959133,0.01839829608798027,-0.0,0.00994737446308136
0.010097671300172806,-0.005437385756522417,-0.01384648121893406,0.01853290945291519,-0.0,0.009911894798278809
0.010800151154398918,-0.005643131211400032,-0.013591728173196316,0.018947523087263107,-0.0,0.009661856107413769
0.01032222155481577,-0.00583280436694622,-0.0140561917796731,0.0190244410187006,-0.0,0.009811481460928917
0.01028197817504406,-0.0060247317887842655,-0.013783824630081654,0.018063217401504517,-0.0,0.010410641320049763
0.010583785362541676,-0.0054144831374287605,-0.01427534781396389,0.01834811642765999,-0.0,0.009410112164914608
0.010136011987924576,-0.005817974917590618,-0.013501541689038277,0.019074104726314545,-0.0,0.009425705298781395
0.010659478604793549,-0.00555822066962719,-0.014367060735821724,0.019136717543005943,-0.0,0.00959718693047762
0.010787829756736755,-0.006440147291868925,-0.0137930978089571,0.01859387569129467,-0.0,0.009862317703664303
0.009700431488454342,-0.006157945841550827,-0.014318992383778095,0.01875314675271511,-0.0,0.010029420256614685
0.010226771235466003,-0.005866886582225561,-0.013618487864732742,0.018141135573387146,-0.0,0.009485091082751751
0.01094423420727253,-0.005659481510519981,-0.0142369931563735,0.018746882677078247,-0.0,0.009237370453774929
0.01048404723405838,-0.006530053447932005,-0.013864781707525253,0.019003309309482574,-0.0,0.009617606177926064
0.010083571076393127,-0.006757303141057491,-0.01310533657670021,0.019526198506355286,-0.0,0.009216345846652985
0.010309906676411629,-0.006072253920137882,-0.013761342503130436,0.019642164930701256,-0.0,0.00936358142644167
0.010719417594373226,-0.005756691563874483,-0.013543282635509968,0.01916588470339775,-0.0,0.009712526574730873
0.010304986499249935,-0.00575565779581666,-0.014065057970583439,0.020427042618393898,-0.0,0.009938695468008518
0.01093713566660881,-0.006324045825749636,-0.013653158210217953,0.01923680119216442,-0.0,0.009573211893439293
0.010390140116214752,-0.006323662586510181,-0.01350759994238615,0.018443096429109573,-0.0,0.009221307933330536
0.010337221436202526,-0.005608568899333477,-0.013727006502449512,0.01913895457983017,-0.0,0.009391432628035545
0.010337221436202526,-0.005608568899333477,-0.013727006502449512,0.01913895457983017,-0.0,0.009391432628035545
0.010644739493727684,-0.005714270751923323,-0.013951130211353302,0.019560974091291428,-0.0,0.009402024559676647
0.0106539037078619,-0.005810985341668129,-0.01375522743910551,0.01927097514271736,-0.0,0.00937569234520197
0.010263707488775253,-0.006195892579853535,-0.013647176325321198,0.019270405173301697,-0.0,0.009241047315299511
0.010374532081186771,-0.00572664849460125,-0.013948754407465458,0.01910807564854622,-0.0,0.00933337677270174
0.010419102385640144,-0.005923547316342592,-0.01336393691599369,0.01918998546898365,-0.0,0.009204665198922157
0.010892041958868504,-0.005345900543034077,-0.013759958557784557,0.019892707467079163,-0.0,0.00970886368304491
0.011426887474954128,-0.005705717019736767,-0.01427926030009985,0.019553087651729584,-0.0,0.00921944621950388
0.010264926590025425,-0.005904327612370253,-0.014275298453867435,0.01886666566133499,-0.0,0.009532260708510876
0.010108551010489464,-0.005868366453796625,-0.01359246950596571,0.0191455390304327,-0.0,0.00896933302283287
0.010685832239687443,-0.006088948342949152,-0.014218025840818882,0.019368842244148254,-0.0,0.00891039241105318
0.010200554504990578,-0.005537858232855797,-0.013123533688485622,0.018775304779410362,-0.0,0.009030810557305813
0.010660374537110329,-0.005806519649922848,-0.013762013986706734,0.01893290877342224,-0.0,0.009170700795948505
0.010713046416640282,-0.0057141841389238834,-0.013492266647517681,0.01900234818458557,-0.0,0.008832539431750774
0.0106287756934762,-0.006024210713803768,-0.014373552985489368,0.018511727452278137,-0.0,0.008858632296323776
0.01122779306024313,-0.005847098771482706,-0.013674507848918438,0.018704853951931,-0.0,0.008863176219165325
0.010651769116520882,-0.005712421610951424,-0.013735485263168812,0.018917137756943703,-0.0,0.00912636611610651
0.010466359555721283,-0.0061640492640435696,-0.013440742157399654,0.018676940351724625,-0.0,0.00919418316334486
0.010737473145127296,-0.005825629457831383,-0.014130632393062115,0.019396653398871422,-0.0,0.008933127857744694
0.010663649998605251,-0.005649483297020197,-0.014118531718850136,0.019003579393029213,-0.0,0.008674985729157925
0.01098793838173151,-0.0055244374088943005,-0.014193355105817318,0.019477756693959236,-0.0,0.00887959636747837
0.01060745120048523,-0.005544436629861593,-0.014066162519156933,0.019435912370681763,-0.0,0.00887544360011816
0.010953717865049839,-0.005635515321046114,-0.014538340270519257,0.018730178475379944,-0.0,0.008546319790184498
0.010965668596327305,-0.005517883691936731,-0.014355028048157692,0.018854795023798943,-0.0,0.00839835312217474
0.010684911161661148,-0.005589628592133522,-0.014113854616880417,0.01867740787565708,-0.0,0.008851611986756325
0.010891489684581757,-0.00525938393548131,-0.01443598885089159,0.018393499776721,-0.0,0.008611316792666912
0.010891489684581757,-0.00525938393548131,-0.01443598885089159,0.018393499776721,-0.0,0.008611316792666912
0.010557903908193111,-0.0057455794885754585,-0.014122264459729195,0.019101029261946678,-0.0,0.008357289247214794
0.010487097315490246,-0.0054289367981255054,-0.013892676681280136,0.018809407949447632,-0.0,0.008477865718305111
0.010920719243586063,-0.005484697408974171,-0.014048132114112377,0.018170170485973358,-0.0,0.008568158373236656
0.010531453415751457,-0.00580299086868763,-0.014516551047563553,0.018892817199230194,-0.0,0.00857847835868597
0.010709847323596478,-0.005669017788022757,-0.014590593054890633,0.018490541726350784,-0.0,0.008476543240249157
0.010596306063234806,-0.005125208757817745,-0.014504137448966503,0.018880516290664673,-0.0,0.00820668414235115
0.010785388760268688,-0.005316920578479767,-0.014035583473742008,0.01922900602221489,-0.0,0.008335228078067303
0.011318748816847801,-0.006166013889014721,-0.013837399892508984,0.01847461611032486,-0.0,0.008160061202943325
0.011254137381911278,-0.005601156037300825,-0.014302345924079418,0.018374038860201836,-0.0,0.008505057543516159
0.011153319850564003,-0.005915732588618994,-0.014139635488390923,0.018966229632496834,-0.0,0.00835968554019928
0.011557183228433132,-0.0053337388671934605,-0.014125486835837364,0.017132893204689026,-0.0,0.00926207099109888
0.010537272319197655,-0.00548378424718976,-0.013842174783349037,0.01767810247838497,-0.0,0.008015180006623268
0.010723364539444447,-0.005281695164740086,-0.0140038151293993,0.018396299332380295,-0.0,0.007461654022336006
0.011262164451181889,-0.005825049709528685,-0.013835915364325047,0.018643349409103394,-0.0,0.007502113468945026
0.010648949071764946,-0.005907039623707533,-0.014374662190675735,0.018916776403784752,-0.0,0.007605890277773142
0.01055908203125,-0.006104052532464266,-0.014166685752570629,0.01848972961306572,-0.0,0.008032018318772316
0.010832627303898335,-0.005290126893669367,-0.01442917063832283,0.018493492156267166,-0.0,0.007974040694534779
0.010546610690653324,-0.005477536004036665,-0.013598433695733547,0.018632270395755768,-0.0,0.007974235340952873
0.010949053801596165,-0.00578445615246892,-0.01326057594269514,0.01893266662955284,-0.0,0.007858892902731895
0.010836170054972172,-0.005742828827351332,-0.013820940628647804,0.019030459225177765,-0.0,0.007916045375168324
0.010818586684763432,-0.005509976763278246,-0.013665655627846718,0.018617503345012665,-0.0,0.007687917910516262
0.010550185106694698,-0.005203410517424345,-0.01410195603966713,0.01884419098496437,-0.0,0.007356005720794201
0.010980183258652687,-0.0058709983713924885,-0.013317598961293697,0.019142337143421173,-0.0,0.007819109596312046
0.011109431274235249,-0.005485424306243658,-0.014022297225892544,0.01897485926747322,-0.0,0.007482254412025213
0.01080311369150877,-0.005913467612117529,-0.014006898738443851,0.01922360248863697,-0.0,0.007338318508118391
0.011113060638308525,-0.005705987103283405,-0.014344439841806889,0.019067399203777313,-0.0,0.007069791667163372
0.01123823132365942,-0.005650646984577179,-0.013395396992564201,0.018406515941023827,-0.0,0.007796246092766523
0.01123823132365942,-0.005650646984577179,-0.013395396992564201,0.018406515941023827,-0.0,0.007796246092766523
0.01121404580771923,-0.005455999635159969,-0.013701226562261581,0.018514208495616913,-0.0,0.007783025968819857
0.011254491284489632,-0.00581009965389967,-0.013503320515155792,0.018619652837514877,-0.0,0.007986214011907578
0.011046581901609898,-0.0057623423635959625,-0.013934705406427383,0.018351562321186066,-0.0,0.007757268380373716
0.011814677156507969,-0.005993200931698084,-0.013887807726860046,0.01861593686044216,-0.0,0.0076301912777125835
0.011399522423744202,-0.005494439974427223,-0.014077977277338505,0.018410515040159225,-0.0,0.007570839021354914
0.01123657077550888,-0.005280170124024153,-0.013875104486942291,0.018100375309586525,-0.0,0.007495374884456396
0.011305027641355991,-0.005301357712596655,-0.013723078183829784,0.01858575828373432,-0.0,0.007423568516969681
0.011228140443563461,-0.005515000782907009,-0.013625218532979488,0.018412085250020027,-0.0,0.00801549106836319
0.011280584149062634,-0.005623966921120882,-0.013363931328058243,0.018629180267453194,-0.0,0.007832181639969349
0.011538275517523289,-0.005434377584606409,-0.013993407599627972,0.019206508994102478,-0.0,0.00709471246227622
0.011920728720724583,-0.00540606863796711,-0.013676564209163189,0.018992144614458084,-0.0,0.006612921133637428
0.011788795702159405,-0.0055807591415941715,-0.01377088762819767,0.01887018419802189,-0.0,0.006842911243438721
0.011251682415604591,-0.006332309916615486,-0.012955979444086552,0.019010299816727638,-0.0,0.006682184524834156
0.011417821049690247,-0.005546439904719591,-0.013716005720198154,0.018890317529439926,-0.0,0.006836106069386005
0.011213335208594799,-0.005834728945046663,-0.013846763409674168,0.019258730113506317,-0.0,0.007617550436407328
0.011236867867410183,-0.005923135671764612,-0.013057690113782883,0.018909987062215805,-0.0,0.007014882285147905
0.011563017964363098,-0.006066570058465004,-0.01336096040904522,0.018987493589520454,-0.0,0.007286630570888519
0.011298293247818947,-0.005872055888175964,-0.013212893158197403,0.019159557297825813,-0.0,0.006815105210989714
0.011369721964001656,-0.005900787189602852,-0.01383248995989561,0.01878211833536625,-0.0,0.0067371497862041
0.011100083589553833,-0.006525712553411722,-0.013238656334578991,0.01864469423890114,-0.0,0.006763211451470852
0.011100083589553833,-0.006525712553411722,-0.013238656334578991,0.01864469423890114,-0.0,0.006763211451470852
0.011193729005753994,-0.0059967851266264915,-0.01334860548377037,0.017594685778021812,-0.0,0.006877031642943621
0.01159029919654131,-0.0063915252685546875,-0.013126451522111893,0.018674597144126892,-0.0,0.007285162806510925
0.012071176432073116,-0.005796985235065222,-0.01341896504163742,0.018820881843566895,-0.0,0.006731872446835041
0.011570397764444351,-0.005948866717517376,-0.01321551576256752,0.018378514796495438,-0.0,0.006450500804930925
0.011460675857961178,-0.0062856958247721195,-0.013578101992607117,0.018983040004968643,-0.0,0.006788152735680342
0.011460675857961178,-0.0062856958247721195,-0.013578101992607117,0.018983040004968643,-0.0,0.006788152735680342
0.011455309577286243,-0.005677145440131426,-0.013044968247413635,0.019019676372408867,-0.0,0.00682695209980011
0.011318917386233807,-0.005753860808908939,-0.01319877803325653,0.01851770281791687,-0.0,0.006356095429509878
0.011889535933732986,-0.005743609741330147,-0.012960704043507576,0.018614131957292557,-0.0,0.0058474172838032246
0.012203734368085861,-0.005982785485684872,-0.013978962786495686,0.018711693584918976,-0.0,0.005834339652210474
0.011447335593402386,-0.005906497128307819,-0.013725653290748596,0.018968941643834114,-0.0,0.0061196996830403805
0.011687878519296646,-0.00595100549980998,-0.013874088414013386,0.019704341888427734,-0.0,0.006737792864441872
0.013100194744765759,-0.006409548223018646,-0.013509074226021767,0.01906657963991165,-7.487482434953563e-06,0.006363140419125557
0.011742842383682728,-0.005703289993107319,-0.013703237287700176,0.018677162006497383,-4.88879095428274e-07,0.005928991828113794
0.011035675182938576,-0.005986582953482866,-0.013829973526299,0.018584363162517548,-3.1920318832590056e-08,0.005521991290152073
0.01188348326832056,-0.006656409706920385,-0.013805835507810116,0.01822364702820778,-2.0841688375128342e-09,0.005879589822143316
0.011783557012677193,-0.006413375027477741,-0.013531491160392761,0.0184914693236351,-1.3608132676257156e-10,0.006520197726786137
0.011764660477638245,-0.006393443793058395,-0.013566471636295319,0.01885678805410862,-8.885138284842053e-12,0.006516964174807072
0.011788003146648407,-0.006240579765290022,-0.013944515027105808,0.018471939489245415,-5.801360368658248e-13,0.005837194621562958
0.01193348690867424,-0.006509638857096434,-0.014573411084711552,0.018547555431723595,-2.4732106333481265e-15,0.005890292581170797
0.011732859537005424,-0.0066439867950975895,-0.013863785192370415,0.018936125561594963,-1.6148299327599011e-16,0.006165639963001013
0.011867090128362179,-0.006235765293240547,-0.013589080423116684,0.019730685278773308,-1.0543684974867382e-17,0.006035331636667252
0.012013515457510948,-0.0061390516348183155,-0.013936666771769524,0.019244516268372536,-6.884272686518514e-19,0.0058341664262115955
0.011548242531716824,-0.006067464128136635,-0.01419560145586729,0.018181856721639633,-4.494937899586939e-20,0.0054746707901358604
0.01192400697618723,-0.006121500860899687,-0.013457701541483402,0.018630580976605415,-2.9348733659970465e-21,0.005424450617283583
0.01249676663428545,-0.006514100823551416,-0.014148950576782227,0.017623689025640488,-1.1173064194736071e-05,0.0054601323790848255
0.011793110519647598,-0.0065508559346199036,-0.013527746312320232,0.017809459939599037,-0.0002843455004040152,0.005947738420218229
0.012051976285874844,-0.005959824193269014,-0.013675377704203129,0.018324708566069603,-0.00028426252538338304,0.006086457055062056
0.012051976285874844,-0.005959824193269014,-0.013675377704203129,0.018324708566069603,-0.00028426252538338304,0.006086457055062056
0.011980269104242325,-0.006210447754710913,-0.013232598081231117,0.018470242619514465,-0.0003149161348119378,0.005459747742861509
0.012257515452802181,-0.007089827209711075,-0.014067551121115685,0.018615372478961945,-0.0003036306006833911,0.004857263527810574
0.01204160787165165,-0.007044138852506876,-0.013541520573198795,0.01880941167473793,-0.00031125659006647766,0.004793296568095684
0.012104534544050694,-0.006106555461883545,-0.014078430831432343,0.017955420538783073,-0.0003172610595356673,0.004759351257234812
0.01201870758086443,-0.005107115022838116,-0.01349239144474268,0.01915552094578743,-0.0003409425844438374,0.005015157163143158
0.011886539869010448,-0.005387217737734318,-0.013795615173876286,0.019343841820955276,-0.00033110237563960254,0.005200869869440794
0.012415546923875809,-0.006132459733635187,-0.013492698781192303,0.018380891531705856,-0.0004933181335218251,0.004803747404366732
0.011800749227404594,-0.0060523455031216145,-0.014120860025286674,0.018454659730196,-0.0005411443999037147,0.004557003267109394
0.012133359909057617,-0.00600249320268631,-0.013815578073263168,0.01883302815258503,-0.0006147394306026399,0.004232931416481733
0.0119790555909276,-0.005242052488029003,-0.013633296824991703,0.018691282719373703,-0.0008586114854551852,0.0042614443227648735
0.01192938070744276,-0.005405273754149675,-0.014302676543593407,0.018895404413342476,-0.001164496410638094,0.004636624827980995
0.012021783739328384,-0.005505803972482681,-0.01425075251609087,0.018495356664061546,-0.001188810565508902,0.004946069326251745
0.012118625454604626,-0.005679156631231308,-0.013891980051994324,0.01904972270131111,-0.0012989566894248128,0.0048012882471084595
0.012504043988883495,-0.0055337930098176,-0.013590684160590172,0.017747007310390472,-0.0012815170921385288,0.004159355536103249
0.012039718218147755,-0.005037333816289902,-0.013806700706481934,0.017699331045150757,-0.001211659167893231,0.0034987707622349262
0.01196254137903452,-0.005228601861745119,-0.013421441428363323,0.01855280064046383,-0.0010102464584633708,0.0038522682152688503
0.011918898671865463,-0.005631269421428442,-0.013034004718065262,0.01817507855594158,-0.0009853625670075417,0.004285826347768307
0.012400219216942787,-0.005431666970252991,-0.013644380494952202,0.018350636586546898,-0.0009617937612347305,0.004410737659782171
0.011872192844748497,-0.005236820783466101,-0.013258775696158409,0.018684132024645805,-0.0008487198501825333,0.004032067023217678
0.012223864905536175,-0.004829762037843466,-0.013641227968037128,0.018323328346014023,-0.0008477670489810407,0.0037507384549826384
0.011727611534297466,-0.004863298963755369,-0.013158700428903103,0.018718911334872246,-0.0007641952252015471,0.003672452177852392
0.01213112659752369,-0.005104532465338707,-0.013830949552357197,0.018251627683639526,-0.0006810545455664396,0.0036381748504936695
0.012530931271612644,-0.005200966726988554,-0.013141383416950703,0.017956573516130447,-0.0006494952249340713,0.003651656676083803
0.012350514531135559,-0.004999919794499874,-0.013664939440786839,0.018582740798592567,-0.0006245595286600292,0.003668441902846098
0.012476264499127865,-0.004756520967930555,-0.01317017711699009,0.018347105011343956,-0.0006078100414015353,0.0037115165032446384
0.012257950380444527,-0.004602373111993074,-0.013425768353044987,0.01834089681506157,-0.0005914999055676162,0.0036559312138706446
0.012257950380444527,-0.004602373111993074,-0.013425768353044987,0.01834089681506157,-0.0005914999055676162,0.0036559312138706446
0.012193957343697548,-0.005197322461754084,-0.013143159449100494,0.01772143878042698,-0.000568986579310149,0.003611621679738164
0.012193957343697548,-0.005197322461754084,-0.013143159449100494,0.01772143878042698,-0.000568986579310149,0.003611621679738164
0.012064462527632713,-0.005115331616252661,-0.01342733297497034,0.017618753015995026,-0.0005304423975758255,0.003336306195706129
0.012418553233146667,-0.005281600635498762,-0.013251389376819134,0.01732488162815571,-0.0005129406927153468,0.0029955527279525995
0.012244181707501411,-0.005274799186736345,-0.013529016636312008,0.017655842006206512,-0.00046293437480926514,0.002682459307834506
0.012536829337477684,-0.004692429210990667,-0.013102015480399132,0.018335269764065742,-0.0004977943608537316,0.0025175767950713634
0.01236118283122778,-0.005030578467994928,-0.013338825665414333,0.018165234476327896,-0.0004604172718245536,0.0023901097010821104
0.012637782841920853,-0.005344395991414785,-0.012985078617930412,0.017991915345191956,-0.00047645694576203823,0.0025118542835116386
0.012581473216414452,-0.005186277441680431,-0.013510767370462418,0.01830596849322319,-0.0004579467640724033,0.002588312840089202
0.012645774520933628,-0.00528271310031414,-0.013327904045581818,0.018429404124617577,-0.0004278822452761233,0.0025788976345211267
0.012498846277594566,-0.005011002998799086,-0.013852630741894245,0.01911100745201111,-0.0004539739165920764,0.002671095309779048
0.012251095846295357,-0.005312675144523382,-0.01333882100880146,0.018753904849290848,-0.0004303105815779418,0.0025376491248607635
0.012348845601081848,-0.005579015240073204,-0.013488862663507462,0.01787112094461918,-0.0004062485240865499,0.0024228033144026995
0.0124044893309474,-0.005417356267571449,-0.013368139043450356,0.017885809764266014,-0.00038046317058615386,0.0021127809304744005
0.0124044893309474,-0.005417356267571449,-0.013368139043450356,0.017885809764266014,-0.00038046317058615386,0.0021127809304744005
0.01233882736414671,-0.005296789109706879,-0.013657034374773502,0.01764627732336521,-0.0003517245058901608,0.0018657759064808488
0.012526184320449829,-0.005184097681194544,-0.013337553478777409,0.018398452550172806,-0.0003628504346124828,0.0017285775393247604
0.012411431409418583,-0.004985755775123835,-0.013005386106669903,0.018545912578701973,-0.000341772916726768,0.001811236492358148
0.012871398590505123,-0.0054303910583257675,-0.013690009713172913,0.018733683973550797,-0.00037140693166293204,0.0020307768136262894
0.012937030754983425,-0.005267131607979536,-0.013125196099281311,0.018011394888162613,-0.00035380173358134925,0.0020042501855641603
0.012758608907461166,-0.004960185848176479,-0.0139851626008749,0.017997510731220245,-0.0003351864870637655,0.00194058776833117
0.01290225051343441,-0.00458536297082901,-0.012915602885186672,0.01783963292837143,-0.0003182609216310084,0.001911776140332222
0.012325224466621876,-0.0046369768679142,-0.013888712972402573,0.017755180597305298,-0.00032408698461949825,0.0018266794504597783
0.012728641740977764,-0.004882300738245249,-0.013488217256963253,0.018436461687088013,-0.0003288960724603385,0.0016978074563667178
0.012162256054580212,-0.005626911763101816,-0.013711105100810528,0.018034713342785835,-0.0003157524624839425,0.0015825998270884156
0.012588683515787125,-0.005367009900510311,-0.013261168263852596,0.01798727549612522,-0.0003025651094503701,0.0014807357219979167
0.012588683515787125,-0.005367009900510311,-0.013261168263852596,0.01798727549612522,-0.0003025651094503701,0.0014807357219979167
0.012346922419965267,-0.004849403630942106,-0.013747887685894966,0.017966533079743385,-0.00030370638705790043,0.0014639506116509438
0.012627231888473034,-0.004767389502376318,-0.013887728564441204,0.017558777704834938,-0.00029784635989926755,0.0014253772096708417
0.012400737032294273,-0.005418190732598305,-0.01435865182429552,0.01804027147591114,-0.00028022314654663205,0.0015052319504320621
0.012535055167973042,-0.005186134018003941,-0.01364411972463131,0.01816835068166256,-0.000263846741290763,0.0014579750131815672
0.012772436253726482,-0.004895101301372051,-0.013431331142783165,0.01887466385960579,-0.0002956319658551365,0.0015590023249387741
0.012264672666788101,-0.00512140104547143,-0.013945904560387135,0.01797250099480152,-0.0002831528545357287,0.0014384720707312226
0.012732150964438915,-0.004618900362402201,-0.013380113989114761,0.017202941700816154,-0.0002692290872801095,0.001359055982902646
0.012230414897203445,-0.004528409335762262,-0.013490680605173111,0.017854534089565277,-0.00029626410105265677,0.001310114050284028
0.012742727063596249,-0.004535820335149765,-0.01295503694564104,0.017847726121544838,-0.0002854354097507894,0.0012306096032261848
0.012324021197855473,-0.0050411224365234375,-0.013513760641217232,0.017455879598855972,-0.0003070460807066411,0.001174690667539835
0.012510153464972973,-0.005075366236269474,-0.012835387140512466,0.018015695735812187,-0.0002989451459143311,0.0010462129721418023
0.012576663866639137,-0.005377144552767277,-0.013577278703451157,0.018246041610836983,-0.0003911597596015781,0.0009132853010669351
0.012864908203482628,-0.004991425201296806,-0.01350694801658392,0.018043767660856247,-0.00043888750951737165,0.0008730560075491667
0.013217562809586525,-0.004522700794041157,-0.014178747311234474,0.018183670938014984,-0.0004658426041714847,0.0007800040184520185
0.01240104716271162,-0.004550892394036055,-0.013694318942725658,0.017571166157722473,-0.000480280868941918,0.0006832558428868651
0.012815624475479126,-0.004939189180731773,-0.014630598947405815,0.01760759949684143,-0.00048015511129051447,0.0007001440390013158
0.012594028376042843,-0.004957562778145075,-0.013816973194479942,0.017618641257286072,-0.0008789671119302511,0.0006355438963510096
0.012667002156376839,-0.0049097901210188866,-0.014131776988506317,0.01759994775056839,-0.0009204590460285544,0.0006018634885549545
0.013166269287467003,-0.004866717383265495,-0.014392824843525887,0.01743672788143158,-0.001208368455991149,0.0005575871327891946
0.011508505791425705,-0.004809957463294268,-0.014681440778076649,0.017490370199084282,-0.001233462244272232,0.0004894053563475609
0.013287384063005447,-0.005117285531014204,-0.01481857243925333,0.01725655421614647,-0.0012025999603793025,0.00041815967415459454
0.01328530628234148,-0.004943601321429014,-0.013857091777026653,0.016952428966760635,-0.0011780153727158904,0.00038101646350696683
0.012639898806810379,-0.004791526589542627,-0.014432319439947605,0.017516108229756355,-0.0011463495902717113,0.0003511473478283733
0.012797976844012737,-0.005003343336284161,-0.014271988533437252,0.01718403957784176,-0.0011150820646435022,0.000325702567351982
0.012731879018247128,-0.0049155037850141525,-0.01488560065627098,0.01782880164682865,-0.001073517370969057,0.0003037058631889522
0.013033772818744183,-0.004713264759629965,-0.014279820956289768,0.018012095242738724,-0.0010219346731901169,0.0002844952105078846
0.012891826219856739,-0.005111147183924913,-0.014960801228880882,0.017837030813097954,-0.0010054002050310373,0.0002675711293704808
0.013136629946529865,-0.004974811803549528,-0.014145483262836933,0.018364090472459793,-0.0009789165342226624,0.000252547295531258
0.012959119863808155,-0.004592118784785271,-0.014664720743894577,0.018172025680541992,-0.0009673888562247157,0.00023912252800073475
0.012959119863808155,-0.004592118784785271,-0.014664720743894577,0.018172025680541992,-0.0009673888562247157,0.00023912252800073475
0.013136422261595726,-0.005047100596129894,-0.01412452757358551,0.017711129039525986,-0.0009154835133813322,0.00022705305309500545
0.013191154226660728,-0.004722163081169128,-0.014329257421195507,0.017756592482328415,-0.0008124617743305862,0.0001757745776558295
0.013191154226660728,-0.004722163081169128,-0.014329257421195507,0.017756592482328415,-0.0008124617743305862,0.0001757745776558295
0.01350611075758934,-0.004652723670005798,-0.014627554453909397,0.017990296706557274,-0.0007998349028639495,0.00015846117457840592
0.013270419090986252,-0.004656428471207619,-0.014224260114133358,0.018284104764461517,-0.0007334301481023431,0.00015117847942747176
0.013314863666892052,-0.004627146292477846,-0.014853570610284805,0.017859555780887604,-0.0007456441526301205,0.00014504532737191767
0.013119619339704514,-0.004652499221265316,-0.014184931293129921,0.018336661159992218,-0.0007124008261598647,0.00012236135080456734
0.013486774638295174,-0.004574551712721586,-0.015107599087059498,0.018295947462320328,-0.0006885937182232738,0.0001018303883029148
0.01295497640967369,-0.004580255132168531,-0.01451127789914608,0.018166743218898773,-0.0006584976799786091,9.712558676255867e-05
0.013241203501820564,-0.004773803986608982,-0.015014136210083961,0.0186076108366251,-0.0006745277787558734,9.368691826239228e-05
0.013065680861473083,-0.004814717452973127,-0.014206541702151299,0.01788356341421604,-0.000684608647134155,2.8982251478737453e-06
0.013411002233624458,-0.004689313471317291,-0.014736181125044823,0.01794036105275154,-0.0006440537981688976,-7.879565964685753e-05
0.013405689038336277,-0.004764004144817591,-0.014107095077633858,0.018694063648581505,-0.0006862595328129828,-0.00011830918811028823
0.013348117470741272,-0.004771580919623375,-0.014522852376103401,0.018466144800186157,-0.0006104375352151692,-0.00014960658154450357
0.01340918242931366,-0.004891317803412676,-0.013694528490304947,0.018468009307980537,-0.0005383838433772326,-0.00014823566016275436
0.013685870915651321,-0.004413743503391743,-0.013924829661846161,0.017665967345237732,-0.0005091142375022173,-0.0005676972214132547
0.01312896329909563,-0.00509395357221365,-0.014575443230569363,0.017667856067419052,-0.00047449147677980363,-0.0007204026915132999
0.013568682596087456,-0.005117394961416721,-0.013753710314631462,0.01755335181951523,-0.00043674654443748295,-0.0007568391156382859
0.013242539949715137,-0.004899897612631321,-0.01395394466817379,0.01776868849992752,-0.0004622096021194011,-0.0007667175377719104
0.013619455508887768,-0.004725485574454069,-0.01416928693652153,0.01856161281466484,-0.0004379865131340921,-0.0010807275539264083
0.013339960016310215,-0.004633046220988035,-0.014479565434157848,0.018190011382102966,-0.00045308846165426075,-0.0010886478703469038
0.013802662491798401,-0.004783340729773045,-0.014146010391414165,0.01801358535885811,-0.0004389391397126019,-0.0010615718783810735
0.013337909244000912,-0.004862375557422638,-0.014499272219836712,0.017814381048083305,-0.0004160624521318823,-0.0010999799706041813
0.013433598913252354,-0.005059556569904089,-0.014356963336467743,0.018022257834672928,-0.00036165642086416483,-0.0013960207579657435
0.013569831848144531,-0.00496373325586319,-0.014354432001709938,0.018515292555093765,-0.00039100757567211986,-0.0023396885953843594
0.013503964990377426,-0.004770497791469097,-0.014093409292399883,0.018093379214406013,-0.0004254388913977891,-0.0032736905850470066
0.013503964990377426,-0.004770497791469097,-0.014093409292399883,0.018093379214406013,-0.0004254388913977891,-0.0032736905850470066
0.013222459703683853,-0.004590864758938551,-0.014258498325943947,0.017830727621912956,-0.000459899049019441,-0.0036374630872160196
0.013615958392620087,-0.004740176722407341,-0.013807936571538448,0.018023047596216202,-0.0009324795682914555,-0.0030327066779136658
0.013485233299434185,-0.00476390914991498,-0.014211803674697876,0.016942845657467842,-0.0010218911338597536,-0.0025317813269793987
0.013426220044493675,-0.005206243600696325,-0.014312570914626122,0.01739644445478916,-0.0010105948895215988,-0.00239771232008934
0.01383819431066513,-0.004989253357052803,-0.014704233035445213,0.01647092029452324,-0.0010521623771637678,-0.0029742817860096693
0.01383022777736187,-0.004757109098136425,-0.014057964086532593,0.01666533201932907,-0.001054799067787826,-0.0035826810635626316
0.014027934521436691,-0.0045144991017878056,-0.014250712469220161,0.017886441200971603,-0.0010294244857504964,-0.0038070976734161377
0.01361131202429533,-0.004741935059428215,-0.014180121012032032,0.01746881566941738,-0.0009458501590415835,-0.0037654004991054535
0.014005097560584545,-0.004821928683668375,-0.01407224964350462,0.017482096329331398,-0.0009353619534522295,-0.003702237270772457
0.013586655259132385,-0.004795541986823082,-0.014156430028378963,0.017271921038627625,-0.0008594375103712082,-0.0037298998795449734
0.0140291228890419,-0.00442681647837162,-0.013820170424878597,0.01741410791873932,-0.000865380628965795,-0.004092578776180744
0.013526550494134426,-0.004495821427553892,-0.01402495987713337,0.017738811671733856,-0.0009297343203797936,-0.004226449877023697
0.013804104179143906,-0.004589257761836052,-0.013711957260966301,0.01741844415664673,-0.001048745820298791,-0.004521457478404045
0.013783564791083336,-0.0044992780312895775,-0.014150353148579597,0.017721114680171013,-0.0011597402626648545,-0.00455125467851758
0.014064143411815166,-0.004295792430639267,-0.013963659293949604,0.017788462340831757,-0.001133589306846261,-0.0046474444679915905
0.014183701947331429,-0.004401220940053463,-0.01397996861487627,0.017808547243475914,-0.001076871412806213,-0.004745634272694588
0.014133109711110592,-0.004224944394081831,-0.014159509912133217,0.018119342625141144,-0.0010528757702559233,-0.0050339484587311745
0.014741005375981331,-0.004423452075570822,-0.013489194214344025,0.01808803901076317,-0.001018008915707469,-0.005805110093206167
0.014277713373303413,-0.004209631588310003,-0.014109387993812561,0.018072567880153656,-0.0009839001577347517,-0.006410554051399231
0.014163022860884666,-0.0044424207881093025,-0.013511350378394127,0.017908746376633644,-0.0008911069016903639,-0.0057891723699867725
0.014003628864884377,-0.004610956646502018,-0.014422107487916946,0.018236860632896423,-0.000791982572991401,-0.0053273653611540794
0.01450120098888874,-0.004298058338463306,-0.013771547004580498,0.01808946765959263,-0.0007384277996607125,-0.005271569825708866
0.01450120098888874,-0.004298058338463306,-0.013771547004580498,0.01808946765959263,-0.0007384277996607125,-0.005271569825708866
0.014199533499777317,-0.004321759101003408,-0.014178533107042313,0.017345622181892395,-0.0006990064866840839,-0.005420805420726538
0.014735081233084202,-0.004477493930608034,-0.013497360050678253,0.017761044204235077,-0.0007181167602539062,-0.006214017979800701
0.014583325944840908,-0.0045257932506501675,-0.014469009824097157,0.017396315932273865,-0.0007365788333117962,-0.006919993087649345
0.01459596212953329,-0.0048210653476417065,-0.013877619989216328,0.01738426648080349,-0.0008038979722186923,-0.006822581402957439
0.014226200990378857,-0.0043750642798841,-0.014359920285642147,0.017889894545078278,-0.0008456954383291304,-0.0068244230933487415
0.014773641712963581,-0.004391710739582777,-0.013810469768941402,0.017890937626361847,-0.000807718897704035,-0.006640710402280092
0.014494908042252064,-0.004486181773245335,-0.014629288576543331,0.01887502335011959,-0.000763561634812504,-0.006682422012090683
0.014822433702647686,-0.004742146469652653,-0.014698322862386703,0.017651284113526344,-0.0007036171737127006,-0.006868110969662666
0.014822433702647686,-0.004742146469652653,-0.014698322862386703,0.017651284113526344,-0.0007036171737127006,-0.006868110969662666
0.01543151494115591,-0.004448752384632826,-0.014059154316782951,0.017155172303318977,-0.0006833415245637298,-0.007726151030510664
0.014533312059938908,-0.004312167875468731,-0.014973482117056847,0.016194261610507965,-0.0006887161871418357,-0.007710615638643503
0.015276958234608173,-0.004075176082551479,-0.014260314404964447,0.016342151910066605,-0.0006858115084469318,-0.00753135746344924
0.014555005356669426,-0.00442793034017086,-0.014868474565446377,0.016270974650979042,-0.0007066595135256648,-0.007384669501334429
0.014976447448134422,-0.004228044766932726,-0.01410626620054245,0.016779370605945587,-0.0006909302319400012,-0.007426012773066759
0.014900613576173782,-0.004458263982087374,-0.014945004135370255,0.017097091302275658,-0.0008972060168161988,-0.007841929793357849
0.015107052400708199,-0.004491449799388647,-0.01434236578643322,0.016625145450234413,-0.0009091542451642454,-0.007729543372988701
0.015398730523884296,-0.004317756276577711,-0.01490324828773737,0.017228737473487854,-0.0009089714731089771,-0.0074255866929888725
0.015293043106794357,-0.004054618999361992,-0.014279026538133621,0.016973726451396942,-0.0009589821565896273,-0.00796695239841938
0.015476342290639877,-0.004252782091498375,-0.014172163791954517,0.01781773753464222,-0.0010325637413188815,-0.008262353017926216
0.015666963532567024,-0.004490729421377182,-0.01462147943675518,0.016977453604340553,-0.0010239995317533612,-0.00830025039613247
0.01529599167406559,-0.004505275283008814,-0.014207735657691956,0.017398754134774208,-0.0010763948084786534,-0.008557518944144249
0.015338923782110214,-0.004644487984478474,-0.015411889180541039,0.016585493460297585,-0.0011457118671387434,-0.008733214810490608
0.01543241087347269,-0.004421441815793514,-0.014743063598871231,0.016632674261927605,-0.0011119323316961527,-0.008237402886152267
0.015771521255373955,-0.0040758512914180756,-0.01453477330505848,0.016930926591157913,-0.0011204611510038376,-0.008237726986408234
0.015376386232674122,-0.0038414066657423973,-0.014141503721475601,0.017064351588487625,-0.0011242176406085491,-0.008925425820052624
0.015376386232674122,-0.0038414066657423973,-0.014141503721475601,0.017064351588487625,-0.0011242176406085491,-0.008925425820052624
0.015844374895095825,-0.004198094829916954,-0.01471387967467308,0.01787502132356167,-0.0010872582206502557,-0.009492353536188602
0.015871986746788025,-0.004568024538457394,-0.014291555620729923,0.016904201358556747,-0.001037486596032977,-0.009089731611311436
0.015871986746788025,-0.004568024538457394,-0.014291555620729923,0.016904201358556747,-0.001037486596032977,-0.009089731611311436
0.015827547758817673,-0.004547648597508669,-0.013948705047369003,0.016821179538965225,-0.0010361511958763003,-0.008732112124562263
0.016022581607103348,-0.004469533450901508,-0.014658458530902863,0.01693238876760006,-0.0010153120383620262,-0.008974939584732056
0.01585562154650688,-0.004609717987477779,-0.014644601382315159,0.017206978052854538,-0.0010080102365463972,-0.009225398302078247
0.016000937670469284,-0.004911614581942558,-0.014646407216787338,0.016828330233693123,-0.0011568735353648663,-0.009360101073980331
0.01592574082314968,-0.004821914713829756,-0.014258842915296555,0.01724538393318653,-0.0011429530568420887,-0.008880255743861198
0.01565859653055668,-0.004566899500787258,-0.01445219200104475,0.01722077839076519,-0.0012936129933223128,-0.009325901977717876
0.016088103875517845,-0.004896394908428192,-0.014029608108103275,0.017298338934779167,-0.001458225422538817,-0.009601585566997528
0.01576566882431507,-0.004818961024284363,-0.014406364411115646,0.017223229631781578,-0.001420746324583888,-0.009522529318928719
0.01626802422106266,-0.004675791598856449,-0.014135302044451237,0.016141777858138084,-0.001240385347045958,-0.009928934276103973
0.01627308316528797,-0.004500643350183964,-0.01458656881004572,0.016535969451069832,-0.001105308998376131,-0.010442174039781094
0.016528388485312462,-0.005267752800136805,-0.014380739070475101,0.01663527823984623,-0.0010600790847092867,-0.010928415693342686
0.01595473848283291,-0.005314445588737726,-0.014716709032654762,0.01695806346833706,-0.0010028774850070477,-0.010226709768176079
0.016216889023780823,-0.004846126306802034,-0.014615766704082489,0.01634928770363331,-0.0008878160733729601,-0.010639742016792297
0.015980783849954605,-0.004828658886253834,-0.014621996320784092,0.016914810985326767,-0.0007697843830101192,-0.010731576941907406
0.016452770680189133,-0.004655570723116398,-0.014413516968488693,0.016577329486608505,-0.0007500929059460759,-0.010879161767661572
0.016081755980849266,-0.004589126445353031,-0.014056617394089699,0.01695234328508377,-0.0007381546893157065,-0.010541612282395363
0.016551511362195015,-0.00479000573977828,-0.01448852475732565,0.01691417768597603,-0.0007057852926664054,-0.010868917219340801
0.01653045043349266,-0.004768009297549725,-0.014539429917931557,0.017309991642832756,-0.0007243427680805326,-0.01062876358628273
0.016165422275662422,-0.004827786702662706,-0.014723214320838451,0.017346590757369995,-0.0008951423806138337,-0.01028171181678772
0.01626540906727314,-0.005001562647521496,-0.01429031789302826,0.016695542261004448,-0.0009054273250512779,-0.010457376018166542
0.01627170294523239,-0.004808064084500074,-0.014603357762098312,0.016962863504886627,-0.0009054271504282951,-0.010188971646130085
0.01670687086880207,-0.004413401708006859,-0.014233298599720001,0.01676119491457939,-0.0009910735534504056,-0.010630297474563122
0.01670687086880207,-0.004413401708006859,-0.014233298599720001,0.01676119491457939,-0.0009910735534504056,-0.010630297474563122
0.015920910984277725,-0.004635429475456476,-0.01442078035324812,0.01746544986963272,-0.0010637843515723944,-0.010851207189261913
0.016558224335312843,-0.005058897193521261,-0.014027828350663185,0.017502982169389725,-0.0010621772380545735,-0.010963399894535542
0.016735900193452835,-0.005385117139667273,-0.01429035421460867,0.016981709748506546,-0.0010490568820387125,-0.011242503300309181
0.01661176048219204,-0.005000249948352575,-0.014093178324401379,0.017537273466587067,-0.0011839974904432893,-0.011371196247637272
0.017217831686139107,-0.004451449029147625,-0.014119246043264866,0.016975298523902893,-0.0011969624320045114,-0.011585919186472893
0.016386358067393303,-0.004417600110173225,-0.013859165832400322,0.017286201938986778,-0.0011522045824676752,-0.011358088813722134
0.01695282943546772,-0.004552316386252642,-0.01434011198580265,0.01752154715359211,-0.0011460362002253532,-0.012075771577656269
0.01668289117515087,-0.004848742391914129,-0.013734117150306702,0.016872795298695564,-0.0012692076852545142,-0.011495293118059635
0.016463370993733406,-0.005208433140069246,-0.01450107991695404,0.017274748533964157,-0.0012369364267215133,-0.01127700787037611
0.01594926416873932,-0.00483293179422617,-0.014091347344219685,0.01694917120039463,-0.0013820127351209521,-0.012033211998641491
0.01784956082701683,-0.0037734319921582937,-0.014476614072918892,0.01752466894686222,-0.0013070498825982213,-0.01260313205420971
0.01740366593003273,-0.0036114342510700226,-0.01390124298632145,0.01835021562874317,-0.0012753314804285765,-0.011950734071433544
0.01690363511443138,-0.004421013407409191,-0.014504026621580124,0.01690843515098095,-0.001207598950713873,-0.011903014965355396
0.01702260598540306,-0.005110733211040497,-0.013656634837388992,0.01694539189338684,-0.001263367710635066,-0.011921984143555164
0.017044732347130775,-0.004867332987487316,-0.014234875328838825,0.01621421054005623,-0.0012678905623033643,-0.011901548132300377
0.017375998198986053,-0.004794430453330278,-0.013917111791670322,0.016880063340067863,-0.001490273280069232,-0.011704777367413044
0.016949638724327087,-0.0044085257686674595,-0.01438386645168066,0.017191998660564423,-0.0013398058945313096,-0.011764989234507084
0.017614224925637245,-0.004032868891954422,-0.015089811757206917,0.017351506277918816,-0.0011979787377640605,-0.011826451867818832
0.017372755333781242,-0.003960736095905304,-0.01423739455640316,0.017335373908281326,-0.00110002257861197,-0.01213752944022417
0.016944145783782005,-0.0044096712954342365,-0.014826416037976742,0.017813416197896004,-0.0009482017485424876,-0.0124492347240448
0.017014294862747192,-0.004571644589304924,-0.014665542170405388,0.01757386326789856,-0.0009329023887403309,-0.012559319846332073
0.016708504408597946,-0.004600642714649439,-0.014659306034445763,0.016778599470853806,-0.0009305106359533966,-0.012955606915056705
0.01750354655086994,-0.004643687978386879,-0.014388452284038067,0.01718495413661003,-0.0009239832288585603,-0.013093291781842709
0.018040630966424942,-0.004193465691059828,-0.015163227915763855,0.017230911180377007,-0.0010034553706645966,-0.01370022352784872
0.017796965315937996,-0.004313694313168526,-0.014789915643632412,0.01734650321304798,-0.001228072913363576,-0.013527472503483295
0.017796965315937996,-0.004313694313168526,-0.014789915643632412,0.01734650321304798,-0.001228072913363576,-0.013527472503483295
0.017853399738669395,-0.004192184656858444,-0.01549424510449171,0.017143482342362404,-0.0015630131820216775,-0.013878591358661652
0.01760036125779152,-0.003999350126832724,-0.015061338432133198,0.016892876476049423,-0.0015180361224338412,-0.013830458745360374
0.017917925491929054,-0.0038557592779397964,-0.014432411640882492,0.017316266894340515,-0.0016490191919729114,-0.014638341031968594
0.017890119925141335,-0.0040804422460496426,-0.014899618923664093,0.01642543449997902,-0.0016049901023507118,-0.014646253548562527
0.01731826923787594,-0.004658494144678116,-0.015062017366290092,0.01638820581138134,-0.001439400133676827,-0.01473897323012352
0.017936475574970245,-0.004230884835124016,-0.015458586625754833,0.01641787961125374,-0.001312818843871355,-0.014629168435931206
0.017851240932941437,-0.0038125691935420036,-0.015237032435834408,0.016637926921248436,-0.00125316611956805,-0.014992514625191689
0.01792657934129238,-0.003750256961211562,-0.014873637817800045,0.017032988369464874,-0.001194639946334064,-0.014994178898632526
0.018060866743326187,-0.004243956878781319,-0.014907062985002995,0.016684263944625854,-0.0010825565550476313,-0.014926507137715816
0.018009716644883156,-0.004305058624595404,-0.015668686479330063,0.016785472631454468,-0.0010568841826170683,-0.014999967999756336
0.018697340041399002,-0.0044781980104744434,-0.014962505549192429,0.016169440001249313,-0.001101662521250546,-0.01553323958069086
0.018519103527069092,-0.004225135315209627,-0.015051235444843769,0.01631058193743229,-0.0012014831881970167,-0.015441273339092731
0.017983030527830124,-0.003942699637264013,-0.014471075497567654,0.016356274485588074,-0.001340794377028942,-0.015585767105221748
0.01848401129245758,-0.0038227292243391275,-0.01542381290346384,0.016490191221237183,-0.0015348878223448992,-0.016001638025045395
0.018588148057460785,-0.003957584034651518,-0.014909099787473679,0.01691874861717224,-0.0016826331848278642,-0.016199199482798576
0.01830608956515789,-0.0039606355130672455,-0.015141270123422146,0.017436275258660316,-0.0015913788229227066,-0.016460156068205833
0.01799989491701126,-0.0043848068453371525,-0.01465814933180809,0.017202483490109444,-0.0014423875836655498,-0.01613183505833149
0.018567979335784912,-0.004632255062460899,-0.014085859060287476,0.017457619309425354,-0.0014113635988906026,-0.01625814475119114
0.018692204728722572,-0.00439623836427927,-0.014743403531610966,0.017848456278443336,-0.001430540345609188,-0.01622060500085354
0.018316060304641724,-0.004089313559234142,-0.01418218482285738,0.017351528629660606,-0.0015067501226440072,-0.01603640615940094
0.01830904558300972,-0.0038355691358447075,-0.01481423620134592,0.017424417659640312,-0.001506346627138555,-0.01576359011232853
0.018275108188390732,-0.004255187232047319,-0.014020328409969807,0.01695694960653782,-0.001666690339334309,-0.01577950082719326
0.018341990187764168,-0.004223264753818512,-0.01438871305435896,0.016934987157583237,-0.001588599756360054,-0.015991099178791046
0.0187410619109869,-0.004037071019411087,-0.014115139842033386,0.016629042103886604,-0.0016164386179298162,-0.01613224670290947
0.018611742183566093,-0.00388712203130126,-0.014578309841454029,0.016131209209561348,-0.001628442551009357,-0.016247021034359932
0.018595712259411812,-0.004085831809788942,-0.013786189258098602,0.016485976055264473,-0.0014749490655958652,-0.016383804380893707
0.019005507230758667,-0.003895612433552742,-0.014960194937884808,0.016758227720856667,-0.0014722595224156976,-0.016396179795265198
0.019005507230758667,-0.003895612433552742,-0.014960194937884808,0.016758227720856667,-0.0014722595224156976,-0.016396179795265198
0.01913146674633026,-0.003621417097747326,-0.014442497864365578,0.017430385574698448,-0.0013647062005475163,-0.016532227396965027
0.01881014183163643,-0.003575787181034684,-0.015181824564933777,0.017344649881124496,-0.001258955686353147,-0.0164570901542902
0.01883440650999546,-0.0035429708659648895,-0.014534595422446728,0.017184454947710037,-0.0013199071399867535,-0.01626751758158207
0.01897907257080078,-0.0035932851023972034,-0.015187732875347137,0.01683279126882553,-0.0013204901479184628,-0.01679587922990322
0.0191698856651783,-0.0037034915294498205,-0.014952761121094227,0.01613219454884529,-0.0016144397668540478,-0.016800330951809883
0.019414082169532776,-0.003763787215575576,-0.014901128597557545,0.01654135435819626,-0.0014983508735895157,-0.016455253586173058
0.019096486270427704,-0.003781963139772415,-0.014609846286475658,0.01657753996551037,-0.0014715330908074975,-0.01695118471980095
0.019209405407309532,-0.0037394261453300714,-0.015101871453225613,0.016640789806842804,-0.0015011205105111003,-0.0173941720277071
0.018139170482754707,-0.003733136458322406,-0.014764991588890553,0.016513075679540634,-0.0014476007781922817,-0.017609916627407074
0.01947176828980446,-0.003763941815122962,-0.014872796833515167,0.01651228778064251,-0.0016169105656445026,-0.017483700066804886
0.019451700150966644,-0.0038696546107530594,-0.014676344580948353,0.016989897936582565,-0.0016268574399873614,-0.01748255454003811
0.019381530582904816,-0.0034444991033524275,-0.015224305912852287,0.016486624255776405,-0.0015673221787437797,-0.017579253762960434
0.019579648971557617,-0.003589796368032694,-0.015365060418844223,0.016616322100162506,-0.0016228877939283848,-0.018179748207330704
0.019159646704792976,-0.003838668344542384,-0.014719049446284771,0.01680753007531166,-0.0015482576563954353,-0.01868736930191517
0.01986711658537388,-0.0040209791623055935,-0.014903386123478413,0.016878128051757812,-0.001716039376333356,-0.01820233277976513
0.01905350387096405,-0.004068074747920036,-0.014883908443152905,0.017140720039606094,-0.0016170688904821873,-0.017636200413107872
0.019597012549638748,-0.0035548207815736532,-0.014618227258324623,0.01679888181388378,-0.0015418099937960505,-0.01780073158442974
0.019847463816404343,-0.0037701118271797895,-0.015196068212389946,0.01674722507596016,-0.0014413798926398158,-0.018340550363063812
0.01968502439558506,-0.0034815582912415266,-0.014528845436871052,0.01735338754951954,-0.0013912176946178079,-0.01845601201057434
0.019445806741714478,-0.003400807036086917,-0.015221048146486282,0.01776750199496746,-0.0014659995213150978,-0.018643273040652275
0.019679902121424675,-0.00338995479978621,-0.014724316075444221,0.017164357006549835,-0.0018254282185807824,-0.01877678744494915
0.0194199588149786,-0.003533765207976103,-0.01518727745860815,0.017390331253409386,-0.0019351032096892595,-0.018657350912690163
0.020323054865002632,-0.003611487802118063,-0.014691966585814953,0.016348637640476227,-0.0023716005962342024,-0.01873684488236904
0.019737601280212402,-0.003494629403576255,-0.01497180387377739,0.016274334862828255,-0.0024811183102428913,-0.019640745595097542
0.01930241845548153,-0.0033134829718619585,-0.014567246660590172,0.01661853678524494,-0.0023216018453240395,-0.01983645185828209
0.019950708374381065,-0.003370259888470173,-0.014951599761843681,0.016530929133296013,-0.0019278420368209481,-0.01949559897184372
0.01948392763733864,-0.003722187364473939,-0.014321147464215755,0.016932452097535133,-0.0018497726414352655,-0.01895909570157528
0.01948392763733864,-0.003722187364473939,-0.014321147464215755,0.016932452097535133,-0.0018497726414352655,-0.01895909570157528
0.019351206719875336,-0.0034091216512024403,-0.015181050635874271,0.01668589375913143,-0.001672436948865652,-0.018601031973958015
0.01989777944982052,-0.003086870303377509,-0.01531920488923788,0.0168752558529377,-0.001563044497743249,-0.019352801144123077
0.01989777944982052,-0.003086870303377509,-0.01531920488923788,0.0168752558529377,-0.001563044497743249,-0.019352801144123077
0.019925516098737717,-0.003150749718770385,-0.014951210469007492,0.017363280057907104,-0.0014767905231565237,-0.019922832027077675
0.019822437316179276,-0.0033938740380108356,-0.015187809243798256,0.017774544656276703,-0.0015865045133978128,-0.02029787190258503
0.02028733491897583,-0.003342093201354146,-0.014910414814949036,0.01708563044667244,-0.0017015995690599084,-0.02042175456881523
0.01970052905380726,-0.0033836972434073687,-0.015165407210588455,0.017330877482891083,-0.0020174968522042036,-0.020405670627951622
0.019892746582627296,-0.003142456989735365,-0.01511241216212511,0.017355240881443024,-0.002111817244440317,-0.020460043102502823
0.02038552798330784,-0.0033980461303144693,-0.015335233882069588,0.01683618873357773,-0.0020752293057739735,-0.020711176097393036
0.02001894824206829,-0.003668817225843668,-0.015062989667057991,0.016419868916273117,-0.001980389701202512,-0.02043890208005905
0.01995369978249073,-0.0033836946822702885,-0.01490782480686903,0.01625976711511612,-0.0019430345855653286,-0.020323488861322403
0.020067909732460976,-0.0032127033919095993,-0.015493768267333508,0.017215875908732414,-0.0017898047808557749,-0.02067076414823532
0.020304875448346138,-0.0031730197370052338,-0.01543066743761301,0.017081569880247116,-0.0017814056482166052,-0.02119993418455124
0.01973363384604454,-0.0035380006302148104,-0.016108663752675056,0.01763622649013996,-0.0017558973049744964,-0.02092711813747883
0.019914882257580757,-0.003352099098265171,-0.015330357477068901,0.01740741916000843,-0.0018085421761497855,-0.02119729481637478
0.02034314163029194,-0.0035807620733976364,-0.015934979543089867,0.016778020188212395,-0.0020488190930336714,-0.02189124934375286
0.019628632813692093,-0.003167881164699793,-0.015468774363398552,0.01684938184916973,-0.0018721366068348289,-0.020139595493674278
0.02026689238846302,-0.0032442801166325808,-0.01494540460407734,0.01710381917655468,-0.002010837895795703,-0.019739951938390732
0.02050565928220749,-0.0034984059166163206,-0.015564784407615662,0.01727929152548313,-0.002055178862065077,-0.02045246586203575
0.01987835019826889,-0.003596894210204482,-0.015346351079642773,0.016851121559739113,-0.0020963759161531925,-0.020518094301223755
0.020297158509492874,-0.0035063617397099733,-0.01599053479731083,0.017435945570468903,-0.002131519839167595,-0.02076711691915989
0.021067196503281593,-0.003375773085281253,-0.01567641645669937,0.017269715666770935,-0.002062255749478936,-0.021562859416007996
0.02049311250448227,-0.0034837962593883276,-0.01541165355592966,0.01732257381081581,-0.0019896249286830425,-0.02168341912329197
0.020691368728876114,-0.003330643754452467,-0.015915602445602417,0.01751934364438057,-0.0019492129795253277,-0.02083023078739643
0.02085762470960617,-0.0035168100148439407,-0.01567046530544758,0.0172575656324625,-0.0019527788972482085,-0.021397951990365982
0.02086610160768032,-0.0037287373561412096,-0.01581605337560177,0.016975440084934235,-0.002002180088311434,-0.022510694339871407
0.020378194749355316,-0.004212985746562481,-0.015669850632548332,0.01671510562300682,-0.0024381205439567566,-0.022748878225684166
0.0203291866928339,-0.003703885478898883,-0.01581590808928013,0.017236176878213882,-0.002419369062408805,-0.022452794015407562
0.020876627415418625,-0.0035436961334198713,-0.015176799148321152,0.017154211178421974,-0.00237223319709301,-0.021458499133586884
0.021592583507299423,-0.003743561217561364,-0.016045240685343742,0.01638980396091938,-0.0020368406549096107,-0.021738873794674873
0.021592583507299423,-0.003743561217561364,-0.016045240685343742,0.01638980396091938,-0.0020368406549096107,-0.021738873794674873
0.02149602770805359,-0.003539721015840769,-0.017317527905106544,0.01613907888531685,-0.0018678620690479875,-0.022890586405992508
0.02149602770805359,-0.003539721015840769,-0.017317527905106544,0.01613907888531685,-0.0018678620690479875,-0.022890586405992508
0.02083893120288849,-0.0036248594988137484,-0.01485073659569025,0.01684250310063362,-0.00185951660387218,-0.022801965475082397
0.02026982605457306,-0.003715918166562915,-0.015308857895433903,0.016407130286097527,-0.0019594277255237103,-0.023225486278533936
0.0213920921087265,-0.003719574771821499,-0.016374189406633377,0.01703251153230667,-0.0020337498281151056,-0.023411689326167107
0.02147870697081089,-0.0037471773102879524,-0.01599978283047676,0.016814926639199257,-0.0021554813720285892,-0.023558180779218674
0.02147870697081089,-0.0037471773102879524,-0.01599978283047676,0.016814926639199257,-0.0021554813720285892,-0.023558180779218674
0.02123810537159443,-0.003290096065029502,-0.015856381505727768,0.017038265243172646,-0.0021903517190366983,-0.02366527169942856
0.021669112145900726,-0.0032104814890772104,-0.016034645959734917,0.016662627458572388,-0.00233526062220335,-0.02379799820482731
0.02239503525197506,-0.0032813625875860453,-0.014966676943004131,0.01681133545935154,-0.0023522241972386837,-0.024339955300092697
0.02256510965526104,-0.0032130321487784386,-0.015873661264777184,0.016479434445500374,-0.0025650043971836567,-0.024172108620405197
0.02187451720237732,-0.0034243264235556126,-0.015777679160237312,0.016270574182271957,-0.002372058806940913,-0.024065732955932617
0.021574513986706734,-0.0032461783848702908,-0.01613813266158104,0.016028007492423058,-0.002265328075736761,-0.02473030984401703
0.021816710010170937,-0.0035305253695696592,-0.015880640596151352,0.015744518488645554,-0.0020467869471758604,-0.025265907868742943
0.022017180919647217,-0.003217331599444151,-0.016005825251340866,0.016414033249020576,-0.002122751669958234,-0.02508353255689144
0.02254338748753071,-0.003258328652009368,-0.01587740331888199,0.01638355851173401,-0.0021132901310920715,-0.024989543482661247
0.02259756810963154,-0.0034567660186439753,-0.016669195145368576,0.016215389594435692,-0.002051754854619503,-0.02492559142410755
0.022636156529188156,-0.0032993447966873646,-0.015512789599597454,0.016140392050147057,-0.0021196799352765083,-0.024832187220454216
0.022957278415560722,-0.0034706690348684788,-0.015905633568763733,0.01592562533915043,-0.0024258363991975784,-0.02480602264404297
0.02260001376271248,-0.003202002262696624,-0.01554523129016161,0.016023779287934303,-0.0024421759881079197,-0.024868303909897804
0.022602388635277748,-0.0030192078556865454,-0.016279729083180428,0.016528211534023285,-0.0023172148503363132,-0.025103896856307983
0.022602388635277748,-0.0030192078556865454,-0.016279729083180428,0.016528211534023285,-0.0023172148503363132,-0.025103896856307983
0.022888900712132454,-0.003196582430973649,-0.015918608754873276,0.016160542145371437,-0.0022438454907387495,-0.025724416598677635
0.02273746021091938,-0.003427998861297965,-0.016010276973247528,0.01592273823916912,-0.0017532602651044726,-0.02593841217458248
0.02273746021091938,-0.003427998861297965,-0.016010276973247528,0.01592273823916912,-0.0017532602651044726,-0.02593841217458248
0.02303444780409336,-0.0031651018653064966,-0.016116702929139137,0.0164851862937212,-0.0017329135444015265,-0.02590622752904892
0.02303444780409336,-0.0031651018653064966,-0.016116702929139137,0.0164851862937212,-0.0017329135444015265,-0.02590622752904892
0.02329968474805355,-0.0033056866377592087,-0.015720291063189507,0.016437506303191185,-0.0019555280450731516,-0.02626519836485386
0.02373512275516987,-0.003136534709483385,-0.01608683541417122,0.01664501428604126,-0.002170474035665393,-0.026218678802251816
0.023602906614542007,-0.0031851064413785934,-0.015564276836812496,0.016016600653529167,-0.0022342531010508537,-0.026431938633322716
0.023357579484581947,-0.0031897646840661764,-0.015841417014598846,0.016148852184414864,-0.0023772642016410828,-0.02650868520140648
0.023185260593891144,-0.003533839015290141,-0.015495057217776775,0.015919791534543037,-0.00218461942858994,-0.026536913588643074
0.02382545918226242,-0.003324525896459818,-0.015918977558612823,0.016581404954195023,-0.002209126716479659,-0.02662840485572815
0.024228813126683235,-0.0035801806952804327,-0.016531649976968765,0.016458958387374878,-0.0023131973575800657,-0.02677694708108902
0.02436119318008423,-0.0037160711362957954,-0.01611507311463356,0.01628623530268669,-0.002283056266605854,-0.02700633741915226
0.024238409474492073,-0.0033528627827763557,-0.015863170847296715,0.01648246869444847,-0.0024410279002040625,-0.02684379182755947
0.02422989159822464,-0.0034124820958822966,-0.015630465000867844,0.016432229429483414,-0.0025763430166989565,-0.02704862505197525
0.024425623938441277,-0.0030582835897803307,-0.016210148110985756,0.016631795093417168,-0.002565663307905197,-0.027102887630462646
0.024288011714816093,-0.003243922023102641,-0.015480955131351948,0.01610477827489376,-0.0025349135976284742,-0.02753695473074913
0.024820609018206596,-0.0033777402713894844,-0.01595267467200756,0.0168355330824852,-0.0025320586282759905,-0.02779827080667019
0.02499643713235855,-0.003502022009342909,-0.01576799526810646,0.01647995226085186,-0.0023555641528218985,-0.028108347207307816
0.024938706308603287,-0.0033615378197282553,-0.01599525846540928,0.016658339649438858,-0.002230888931080699,-0.027559975162148476
0.02492678537964821,-0.003555133007466793,-0.015850983560085297,0.016411589458584785,-0.0022406205534934998,-0.027542829513549805
0.024920232594013214,-0.0033319646026939154,-0.016397539526224136,0.016732949763536453,-0.002166345249861479,-0.02849900908768177
0.025209756568074226,-0.0034687258303165436,-0.01623009704053402,0.016715634614229202,-0.0022975532338023186,-0.02808639034628868
0.02559332177042961,-0.00322945904918015,-0.015975739806890488,0.016797691583633423,-0.0021970474626868963,-0.027898339554667473
0.025446981191635132,-0.0031464113853871822,-0.015085484832525253,0.017199058085680008,-0.002196156419813633,-0.027652107179164886
0.02567998319864273,-0.00313735194504261,-0.015777578577399254,0.01671190932393074,-0.0023175212554633617,-0.027698587626218796
0.025914590805768967,-0.0034636505879461765,-0.015558699145913124,0.01657746732234955,-0.0025302432477474213,-0.028691953048110008
0.02677793800830841,-0.003720613894984126,-0.016275504603981972,0.015784554183483124,-0.0025340549182146788,-0.02914055809378624
0.027194123715162277,-0.0033859298564493656,-0.016215519979596138,0.016094328835606575,-0.0023356673773378134,-0.029055994004011154
0.027194123715162277,-0.0033859298564493656,-0.016215519979596138,0.016094328835606575,-0.0023356673773378134,-0.029055994004011154
0.026036087423563004,-0.003121648682281375,-0.015790428966283798,0.016081202775239944,-0.0022505975794047117,-0.030262771993875504
0.02465556375682354,-0.0029457472264766693,-0.01610051654279232,0.017056794837117195,-0.0021530170924961567,-0.030019348487257957
0.026234444230794907,-0.0030314046889543533,-0.015818532556295395,0.017081405967473984,-0.002097482094541192,-0.02864823490381241
0.02643151767551899,-0.003230707487091422,-0.01695452816784382,0.01644287258386612,-0.002253980375826359,-0.02758769877254963
0.02643151767551899,-0.003230707487091422,-0.01695452816784382,0.01644287258386612,-0.002253980375826359,-0.02758769877254963
0.02658638171851635,-0.003239257726818323,-0.01653878577053547,0.016003442928195,-0.0021799043752253056,-0.02959197200834751
0.027227740734815598,-0.0031483364291489124,-0.01622113399207592,0.01642530970275402,-0.0020297665614634752,-0.0303406473249197
0.027059802785515785,-0.0034896708093583584,-0.01631741411983967,0.016412021592259407,-0.0019735482055693865,-0.029585503041744232
0.027035199105739594,-0.0031201206147670746,-0.01627424918115139,0.016722112894058228,-0.0021327852737158537,-0.029734617099165916
0.025752682238817215,-0.0031603132374584675,-0.01609489880502224,0.016081206500530243,-0.0021771497558802366,-0.029986655339598656
0.02614162303507328,-0.003387278877198696,-0.016604609787464142,0.015577726997435093,-0.0025324183516204357,-0.030073286965489388
0.02715078741312027,-0.0032756540458649397,-0.016164571046829224,0.01513199508190155,-0.002500316593796015,-0.030320264399051666
0.026546727865934372,-0.003462071530520916,-0.016564158722758293,0.01565019227564335,-0.0023246449418365955,-0.029701365157961845
0.026705045253038406,-0.003261313773691654,-0.016033969819545746,0.016494708135724068,-0.0020609598141163588,-0.02997015044093132
0.02660483866930008,-0.0031279560644179583,-0.01657422073185444,0.016247659921646118,-0.00203673355281353,-0.03127758204936981
0.02627919428050518,-0.003170519834384322,-0.016691947355866432,0.016797441989183426,-0.002215663203969598,-0.031124910339713097
0.026073090732097626,-0.003400169312953949,-0.01633242331445217,0.016492655500769615,-0.002568094991147518,-0.029679449275135994
0.026135072112083435,-0.0034673670306801796,-0.015778178349137306,0.01637900061905384,-0.0028132766019552946,-0.03066619485616684
0.02621590346097946,-0.0036644008941948414,-0.016222098842263222,0.01499269250780344,-0.0025876343715935946,-0.03108411654829979
0.026261791586875916,-0.003438612911850214,-0.015880834311246872,0.016078680753707886,-0.0023499545641243458,-0.030454926192760468
0.02636573649942875,-0.0035909879952669144,-0.016462108120322227,0.01639251597225666,-0.0022001024335622787,-0.031192831695079803
0.026421431452035904,-0.003728537354618311,-0.01614396460354328,0.016577355563640594,-0.0020552894566208124,-0.03203302621841431
0.026473334059119225,-0.0033185866195708513,-0.016135932877659798,0.016173046082258224,-0.0024186514783650637,-0.030891483649611473
0.026141097769141197,-0.003493952564895153,-0.016319643706083298,0.016066107898950577,-0.0031638876534998417,-0.03024095669388771
0.026141097769141197,-0.003493952564895153,-0.016319643706083298,0.016066107898950577,-0.0031638876534998417,-0.03024095669388771
0.026467563584446907,-0.0032411294523626566,-0.01614881120622158,0.01595359668135643,-0.0032065799459815025,-0.03100612387061119
0.026303192600607872,-0.003272071946412325,-0.01669856533408165,0.016248948872089386,-0.003012591740116477,-0.031682338565588
0.026124563068151474,-0.0033792294561862946,-0.01605568267405033,0.016074489802122116,-0.002742815064266324,-0.03194297477602959
0.025170505046844482,-0.0034381847362965345,-0.016608616337180138,0.01561339758336544,-0.0023907972499728203,-0.03194260224699974
0.026939647272229195,-0.003623890457674861,-0.01625056006014347,0.0159872155636549,-0.0022728422190994024,-0.03205471858382225
0.027164548635482788,-0.003383167553693056,-0.016293279826641083,0.01590716280043125,-0.0021670584101229906,-0.03207691013813019
0.027738139033317566,-0.0031264082062989473,-0.016311418265104294,0.01629059948027134,-0.002145819365978241,-0.032310713082551956
0.027443261817097664,-0.002955270931124687,-0.015866773203015327,0.016606656834483147,-0.0023130890913307667,-0.032155320048332214
0.026676909998059273,-0.003026143414899707,-0.016579555347561836,0.016484536230564117,-0.0025268823374062777,-0.032180897891521454
0.02681249938905239,-0.0032990453764796257,-0.016141191124916077,0.015996135771274567,-0.0023397684562951326,-0.032973989844322205
0.027371734380722046,-0.0033673939760774374,-0.0165337473154068,0.015909656882286072,-0.0024942446034401655,-0.032933250069618225
0.027803603559732437,-0.0033101565204560757,-0.015556436032056808,0.015879932790994644,-0.0023488306906074286,-0.032385967671871185
0.02762417122721672,-0.0034068338572978973,-0.015966325998306274,0.015417179092764854,-0.002348277484998107,-0.03280484676361084
0.027714818716049194,-0.0032003617379814386,-0.015926169231534004,0.016273915767669678,-0.002667029621079564,-0.03219789266586304
0.02777382917702198,-0.003394907107576728,-0.016281135380268097,0.01588004268705845,-0.0028585484251379967,-0.03265839442610741
0.028015991672873497,-0.003267876338213682,-0.016469763591885567,0.0162887591868639,-0.002856181701645255,-0.0332193523645401
0.027226226404309273,-0.0031747387256473303,-0.016058465465903282,0.016374550759792328,-0.002546458039432764,-0.03284722566604614
0.027708690613508224,-0.0033938803244382143,-0.015509853139519691,0.01657354086637497,-0.0026341923512518406,-0.03327639773488045
0.027877509593963623,-0.003267488908022642,-0.016083180904388428,0.0164871234446764,-0.002573794685304165,-0.033615920692682266
0.028009381145238876,-0.003447075840085745,-0.01541222631931305,0.01691487245261669,-0.0026098547969013453,-0.03382779285311699
0.027954310178756714,-0.0031994397286325693,-0.015779251232743263,0.016251318156719208,-0.0024010962806642056,-0.03399340808391571
0.027887379750609398,-0.002952202223241329,-0.015882259234786034,0.016047026962041855,-0.0025760773569345474,-0.034188393503427505
0.027508137747645378,-0.0030921869911253452,-0.016709567978978157,0.015933489426970482,-0.002987520769238472,-0.03472188860177994
0.027618777006864548,-0.003277161857113242,-0.01710866019129753,0.01679356023669243,-0.003470596158877015,-0.03492211550474167
0.02800256945192814,-0.0031364536844193935,-0.016490912064909935,0.016241295263171196,-0.0036393688060343266,-0.03505535423755646
0.02810400165617466,-0.0029706500936299562,-0.017115935683250427,0.0159855168312788,-0.0032536445651203394,-0.03517585247755051
0.028109461069107056,-0.002576421480625868,-0.0167387668043375,0.016338186338543892,-0.002892059739679098,-0.035145968198776245
0.028109461069107056,-0.002576421480625868,-0.0167387668043375,0.016338186338543892,-0.002892059739679098,-0.035145968198776245
0.02817690744996071,-0.0021817313972860575,-0.01656242460012436,0.016156097874045372,-0.0026432834565639496,-0.03483504801988602
0.02816459722816944,-0.002060525817796588,-0.016849061474204063,0.016720283776521683,-0.002574188867583871,-0.035053152590990067
0.028623580932617188,-0.0020653672982007265,-0.017070893198251724,0.016123667359352112,-0.0025775255635380745,-0.035391222685575485
0.028792884200811386,-0.002121636178344488,-0.017408350482583046,0.015982575714588165,-0.0026106834411621094,-0.035114388912916183
0.028190692886710167,-0.002628817455843091,-0.01708816923201084,0.015676863491535187,-0.0028157304041087627,-0.036656685173511505
0.029123853892087936,-0.0027527499478310347,-0.01768750511109829,0.01610257849097252,-0.002845322247594595,-0.03706083819270134
0.02913406863808632,-0.0024017440155148506,-0.017989354208111763,0.01612677425146103,-0.002841826993972063,-0.03594367206096649
0.02900109812617302,-0.0023291544057428837,-0.017447354272007942,0.015935450792312622,-0.003169667674228549,-0.035297997295856476
0.02884417027235031,-0.002368834801018238,-0.017389923334121704,0.01633339188992977,-0.0030242823995649815,-0.03674625977873802
0.029158813878893852,-0.002299913205206394,-0.016740143299102783,0.015839852392673492,-0.0030643343925476074,-0.037379078567028046
0.029556086286902428,-0.0024699384812265635,-0.01743091270327568,0.016078045591711998,-0.0026866598054766655,-0.038484588265419006
0.029374461621046066,-0.0023572330828756094,-0.018068896606564522,0.01565868780016899,-0.0026047062128782272,-0.03858977556228638
0.029280219227075577,-0.002487676218152046,-0.01745023764669895,0.016270775347948074,-0.0027296163607388735,-0.036615464836359024
0.029760176315903664,-0.0024430984631180763,-0.017499400302767754,0.01655724085867405,-0.00273509556427598,-0.03706943243741989
0.02959344908595085,-0.00237079756334424,-0.017200365662574768,0.016440924257040024,-0.0027480062562972307,-0.038017164915800095
0.029715845361351967,-0.0025947049725800753,-0.017618471756577492,0.01683988608419895,-0.0026999509427696466,-0.03821048513054848
0.029995793476700783,-0.0023632014635950327,-0.017325103282928467,0.016938338056206703,-0.0028294941876083612,-0.03791431337594986
0.029995793476700783,-0.0023632014635950327,-0.017325103282928467,0.016938338056206703,-0.0028294941876083612,-0.03791431337594986
0.02989792823791504,-0.0025511363055557013,-0.01732984371483326,0.016388515010476112,-0.002692651003599167,-0.03854972496628761
0.030369296669960022,-0.0024081445299088955,-0.017297983169555664,0.016111724078655243,-0.0029048912692815065,-0.03804750740528107
0.03126969560980797,-0.0024879572447389364,-0.01722528226673603,0.016111381351947784,-0.0027780993841588497,-0.038100000470876694
0.03158915415406227,-0.0026250428054481745,-0.017045047134160995,0.01605120673775673,-0.002977153519168496,-0.038814328610897064
0.030145946890115738,-0.00242030480876565,-0.017628483474254608,0.015900444239377975,-0.0028317528776824474,-0.039645589888095856
0.03005160205066204,-0.0022922551725059748,-0.017731202766299248,0.016381336376070976,-0.0030103472527116537,-0.03962869569659233
0.031205592676997185,-0.0021896937396377325,-0.018010634928941727,0.01601829193532467,-0.002768291626125574,-0.03787911310791969
0.03104265220463276,-0.002330607967451215,-0.017958274111151695,0.01639455184340477,-0.0026282682083547115,-0.03925376757979393
0.03104265220463276,-0.002330607967451215,-0.017958274111151695,0.01639455184340477,-0.0026282682083547115,-0.03925376757979393
0.03153568133711815,-0.0023793664295226336,-0.0175312552601099,0.016596151515841484,-0.002790229395031929,-0.04104498028755188
0.030852725729346275,-0.0024730826262384653,-0.018154771998524666,0.015977712348103523,-0.003200310980901122,-0.040904268622398376
0.030852725729346275,-0.0024730826262384653,-0.018154771998524666,0.015977712348103523,-0.003200310980901122,-0.040904268622398376
0.03041987307369709,-0.0023555129300802946,-0.017567075788974762,0.01589002087712288,-0.0032216974068433046,-0.039158038794994354
0.03024621494114399,-0.0024497241247445345,-0.017652291804552078,0.016584627330303192,-0.003377979388460517,-0.039781391620635986
0.030819665640592575,-0.0024272410664707422,-0.01732674054801464,0.016133341938257217,-0.0032331261318176985,-0.04062440246343613
0.03157557174563408,-0.0023326214868575335,-0.017888464033603668,0.01644027791917324,-0.0032151583582162857,-0.0404902808368206
0.030007530003786087,-0.002404577564448118,-0.018021564930677414,0.015678362920880318,-0.0032067252323031425,-0.04046555235981941
0.03232014179229736,-0.002449509222060442,-0.01748237945139408,0.016283107921481133,-0.003088677302002907,-0.0409172847867012
0.032088503241539,-0.0023627153132110834,-0.017827464267611504,0.015940487384796143,-0.0029833337757736444,-0.040984589606523514
0.03148794174194336,-0.002482003765180707,-0.01749914325773716,0.015758568421006203,-0.002929061884060502,-0.04124094545841217
0.03159978613257408,-0.0023745649959892035,-0.01774609461426735,0.01580963283777237,-0.002847328083589673,-0.041385017335414886
0.031843267381191254,-0.002493965206667781,-0.01794334128499031,0.015712132677435875,-0.0030907897744327784,-0.04107891768217087
0.031404316425323486,-0.0023942880798131227,-0.017327696084976196,0.01593426614999771,-0.0036051722709089518,-0.04165291041135788
0.03149638697504997,-0.0023128155153244734,-0.017885509878396988,0.015772799029946327,-0.0035510098095983267,-0.04149329662322998
0.03194344788789749,-0.0025933431461453438,-0.018142234534025192,0.016238313168287277,-0.003122424939647317,-0.041960395872592926
0.032416656613349915,-0.0025888695381581783,-0.017429733648896217,0.016209546476602554,-0.002666108077391982,-0.04285166412591934
0.03209129348397255,-0.002501877024769783,-0.017819326370954514,0.01678110659122467,-0.002369134919717908,-0.04288436099886894
0.03192628547549248,-0.0027742311358451843,-0.017877954989671707,0.016054531559348106,-0.0025743183214217424,-0.04258689284324646
0.03323230519890785,-0.0025648323353379965,-0.01791815273463726,0.016209308058023453,-0.0031044993083924055,-0.04317446053028107
0.032213639467954636,-0.0026988487225025892,-0.01739722676575184,0.015939949080348015,-0.003282396588474512,-0.043163515627384186
0.031053204089403152,-0.002714070025831461,-0.017889048904180527,0.016236625611782074,-0.002985740080475807,-0.04322968050837517
0.031752314418554306,-0.0027932797092944384,-0.017296399921178818,0.015910154208540916,-0.0028763962909579277,-0.043230678886175156
0.032980095595121384,-0.0028747415635734797,-0.017893163487315178,0.016344185918569565,-0.002799685113132,-0.0434383749961853
0.03260452300310135,-0.002921242034062743,-0.01831781677901745,0.01615997590124607,-0.0029877235647290945,-0.04373318701982498
0.03368835523724556,-0.002891137730330229,-0.01761699467897415,0.016453150659799576,-0.0029360908083617687,-0.042589325457811356
0.033376529812812805,-0.0031388401985168457,-0.017713529989123344,0.016462838277220726,-0.003043247852474451,-0.044152628630399704
0.032970964908599854,-0.0030995726119726896,-0.018193263560533524,0.01614578813314438,-0.002884233370423317,-0.04575619846582413
0.032970964908599854,-0.0030995726119726896,-0.018193263560533524,0.01614578813314438,-0.002884233370423317,-0.04575619846582413
0.031493447721004486,-0.00289372936822474,-0.017786182463169098,0.01567353866994381,-0.0029340300243347883,-0.046063292771577835
0.03314885497093201,-0.002977182622998953,-0.018274547532200813,0.016843030229210854,-0.003113247686997056,-0.04396247863769531
0.03350476548075676,-0.002934156684204936,-0.017612025141716003,0.016982240602374077,-0.003440702334046364,-0.04447814077138901
0.03314008191227913,-0.0028434123378247023,-0.017825063318014145,0.015908725559711456,-0.003356733126565814,-0.04491017758846283
0.03323773294687271,-0.0027525252662599087,-0.018538184463977814,0.01611153595149517,-0.003235247451812029,-0.046863820403814316
0.033505797386169434,-0.002895941725000739,-0.01828230731189251,0.015614205040037632,-0.0032772477716207504,-0.04639376699924469
0.033329155296087265,-0.0029598886612802744,-0.01875876635313034,0.01596764847636223,-0.003550012595951557,-0.04419748857617378
0.03337202966213226,-0.00292343576438725,-0.018908469006419182,0.01575075089931488,-0.003413143800571561,-0.04558144137263298
0.033406950533390045,-0.0027833478525280952,-0.01813420280814171,0.015453114174306393,-0.00327639770694077,-0.04659689962863922
0.033709779381752014,-0.0028763446025550365,-0.01815221831202507,0.015648329630494118,-0.0031706613954156637,-0.04683907330036163
0.03383440896868706,-0.003154269652441144,-0.018016932532191277,0.015220222063362598,-0.0035446619149297476,-0.046143993735313416
0.033741727471351624,-0.0031718257814645767,-0.01828879676759243,0.01514893677085638,-0.003431876888498664,-0.04640743136405945
0.03431738168001175,-0.0030003474093973637,-0.01919117383658886,0.01518451701849699,-0.003515285439789295,-0.046180374920368195
0.034020427614450455,-0.002767260419204831,-0.018882233649492264,0.015750758349895477,-0.003214847296476364,-0.046826571226119995
0.033858876675367355,-0.0027253238949924707,-0.018118727952241898,0.015813006088137627,-0.00301825487986207,-0.04594813659787178
0.034525126218795776,-0.0028118302579969168,-0.01900894194841385,0.016547802835702896,-0.003291276516392827,-0.046944666653871536
0.033876944333314896,-0.002884630113840103,-0.019597025588154793,0.015391704626381397,-0.003756947349756956,-0.04637264087796211
0.03488513454794884,-0.002838818822056055,-0.019212646409869194,0.01505496446043253,-0.003591989865526557,-0.045902129262685776
0.03439757972955704,-0.002790918340906501,-0.018076863139867783,0.015329776331782341,-0.0033430045004934072,-0.04696831479668617
0.034421637654304504,-0.00282982736825943,-0.018551290035247803,0.015551733784377575,-0.0030773459002375603,-0.04861405864357948
0.034662794321775436,-0.002637648256495595,-0.01948142983019352,0.015361008234322071,-0.0032948709558695555,-0.04860777035355568
0.03470255061984062,-0.002828362165018916,-0.01829960010945797,0.016017666086554527,-0.003622397081926465,-0.046693816781044006
0.03439360111951828,-0.002661452628672123,-0.018754081800580025,0.015862775966525078,-0.0035992430057376623,-0.04731399193406105
0.03464591130614281,-0.0026409639976918697,-0.019502822309732437,0.01646050624549389,-0.0034749212209135294,-0.048762306571006775
0.034997232258319855,-0.0026706818025559187,-0.018751779571175575,0.016301563009619713,-0.0032591966446489096,-0.0488305389881134
0.03442196175456047,-0.0027505692560225725,-0.019060147926211357,0.016740629449486732,-0.0031459738966077566,-0.04704330861568451
0.034657880663871765,-0.002815968357026577,-0.019468242302536964,0.016494661569595337,-0.003149754833430052,-0.048535846173763275
0.034657880663871765,-0.002815968357026577,-0.019468242302536964,0.016494661569595337,-0.003149754833430052,-0.048535846173763275
0.03421401605010033,-0.002619893290102482,-0.01853623054921627,0.016754576936364174,-0.0031452958937734365,-0.04921425133943558
0.03538576513528824,-0.0027327623683959246,-0.019141709432005882,0.017576387152075768,-0.003398011438548565,-0.04895297437906265
0.03618399798870087,-0.00283451727591455,-0.019407719373703003,0.016451844945549965,-0.0031895413994789124,-0.049241527915000916
0.03481950983405113,-0.0027962534222751856,-0.01875978894531727,0.016693810001015663,-0.0028906541410833597,-0.049425672739744186
0.03416958451271057,-0.00285606668330729,-0.01900346390902996,0.016320213675498962,-0.002910958370193839,-0.049980830401182175
0.0352386049926281,-0.0028502268251031637,-0.01920114830136299,0.01699766516685486,-0.0033938575070351362,-0.050365522503852844
0.03526260331273079,-0.0026910346932709217,-0.018913298845291138,0.01696600392460823,-0.0037680454552173615,-0.04994439706206322
0.03676820918917656,-0.0025434447452425957,-0.019283924251794815,0.016406366601586342,-0.003911031875759363,-0.04984942078590393
0.03654957190155983,-0.002772357314825058,-0.01942114718258381,0.01684604585170746,-0.0034114145673811436,-0.05083795264363289
0.035431891679763794,-0.00294557330198586,-0.018849261105060577,0.016117596998810768,-0.0034749412443488836,-0.05130559951066971
0.03465797007083893,-0.0029824089724570513,-0.019325394183397293,0.016350841149687767,-0.003832652699202299,-0.05149295553565025
0.03637704253196716,-0.0028438889421522617,-0.019752632826566696,0.016372377052903175,-0.003917399328202009,-0.051550544798374176
0.03655827417969704,-0.0029756599105894566,-0.018999623134732246,0.016392847523093224,-0.003443747991696,-0.051974471658468246
0.0362161286175251,-0.002952869515866041,-0.01937192678451538,0.01637003757059574,-0.003087585559114814,-0.05122309550642967
0.03627055883407593,-0.0031272717751562595,-0.01931934244930744,0.016251353546977043,-0.003496444784104824,-0.052119944244623184
0.03583195060491562,-0.0029200140852481127,-0.019717952236533165,0.015863394364714622,-0.003803552594035864,-0.050768982619047165
0.03625154122710228,-0.003029259154573083,-0.019747687503695488,0.01625867187976837,-0.0035652057267725468,-0.051030952483415604
0.0360199399292469,-0.002942992839962244,-0.01919219270348549,0.01658599264919758,-0.0035745238419622183,-0.055001117289066315
0.03635158762335777,-0.0033550364896655083,-0.019513819366693497,0.016520865261554718,-0.0033061120193451643,-0.05336456373333931
0.03610217571258545,-0.0032014634925872087,-0.019610267132520676,0.016126861795783043,-0.0034712429624050856,-0.052193593233823776
0.03584694489836693,-0.003019987838342786,-0.01930137164890766,0.016176100820302963,-0.0032291789539158344,-0.05277242884039879
0.03688284382224083,-0.0030596451833844185,-0.01980474963784218,0.016908492892980576,-0.0030991900712251663,-0.05340130627155304
0.03737228736281395,-0.003221771214157343,-0.020083557814359665,0.016352256760001183,-0.0031548673287034035,-0.05340728163719177
0.03556402027606964,-0.0033404077403247356,-0.019859308376908302,0.016908328980207443,-0.003442387795075774,-0.053766850382089615
0.03575579822063446,-0.003418676322326064,-0.01959068886935711,0.016430353745818138,-0.00376312667503953,-0.054133206605911255
0.03665809705853462,-0.003169307019561529,-0.020184701308608055,0.0162406787276268,-0.003844779683277011,-0.053825974464416504
0.03665809705853462,-0.003169307019561529,-0.020184701308608055,0.0162406787276268,-0.003844779683277011,-0.053825974464416504
0.03659815341234207,-0.0029642514418810606,-0.019977426156401634,0.0160448607057333,-0.0038534433115273714,-0.054493408650159836
0.037397079169750214,-0.002976850140839815,-0.019450141116976738,0.01590728759765625,-0.003717924002557993,-0.05417143926024437
0.03708801791071892,-0.003196993377059698,-0.01952107436954975,0.01662183552980423,-0.0035895463079214096,-0.05637578293681145
0.03547770529985428,-0.003101096022874117,-0.01961924508213997,0.01624489575624466,-0.0036206175573170185,-0.055413614958524704
0.03584631159901619,-0.0031186549458652735,-0.019563602283596992,0.01674485392868519,-0.003728154581040144,-0.05239519849419594
0.037267476320266724,-0.0032692875247448683,-0.01979723386466503,0.01633986085653305,-0.0038107051514089108,-0.05486193671822548
0.03730395436286926,-0.0030336424242705107,-0.020506495609879494,0.016166605055332184,-0.0038438639603555202,-0.0581558495759964
0.03703489899635315,-0.0031300345435738564,-0.020125586539506912,0.015480718575417995,-0.0038928871508687735,-0.05555008724331856
0.03698190674185753,-0.003255573334172368,-0.02056870423257351,0.016971854493021965,-0.003646942088380456,-0.05494445934891701
0.03697254881262779,-0.0031557073816657066,-0.02012234926223755,0.01815914735198021,-0.0030704152304679155,-0.05645022913813591
0.03754826635122299,-0.0033879645634442568,-0.01953609474003315,0.017859673127532005,-0.0034164597745984793,-0.05696024373173714
0.03792443871498108,-0.0032789483666419983,-0.01987415924668312,0.017227957025170326,-0.0037824478931725025,-0.05673418939113617
0.0373503714799881,-0.0035709079820662737,-0.021868085488677025,0.016488587483763695,-0.003896477399393916,-0.05713376775383949
0.03772106021642685,-0.0033398636151105165,-0.02063763700425625,0.01590774394571781,-0.0038327802903950214,-0.05726798251271248
0.03811632841825485,-0.0031382229644805193,-0.02006721682846546,0.01590237207710743,-0.0035776165314018726,-0.05789759010076523
0.038248661905527115,-0.0034473869018256664,-0.02084730565547943,0.01619306020438671,-0.003766512032598257,-0.056869734078645706
0.03860608488321304,-0.0028499902691692114,-0.02039426565170288,0.016254743561148643,-0.003813856979832053,-0.05777547508478165
0.03872809186577797,-0.002480978611856699,-0.019446277990937233,0.01686582900583744,-0.0038086266722530127,-0.05819562450051308
0.03853115066885948,-0.0017904217820614576,-0.020618733018636703,0.016597479581832886,-0.0037738687824457884,-0.05789778381586075
0.03856435790657997,-0.0017531245248392224,-0.02066863887012005,0.01612887717783451,-0.003727603703737259,-0.05827483534812927
0.03872581571340561,-0.002075006952509284,-0.020089328289031982,0.01624586619436741,-0.0037644552066922188,-0.05813127011060715
0.038895558565855026,-0.0022122440859675407,-0.020600564777851105,0.01569710299372673,-0.003505862085148692,-0.057588160037994385
0.038845084607601166,-0.0027925479225814342,-0.02103293687105179,0.016073787584900856,-0.003478055587038398,-0.057545196264982224
0.038957495242357254,-0.002792246174067259,-0.02020908147096634,0.016091953963041306,-0.0040070731192827225,-0.05989950895309448
0.039390478283166885,-0.00234971079044044,-0.020556246861815453,0.01702655479311943,-0.004115120507776737,-0.05780203640460968
0.039366401731967926,-0.001956505700945854,-0.02048504911363125,0.017172276973724365,-0.003992951475083828,-0.05785689875483513
0.03919774293899536,-0.0019267578609287739,-0.020112769678235054,0.017088448628783226,-0.0038118031807243824,-0.058012306690216064
0.03919774293899536,-0.0019267578609287739,-0.020112769678235054,0.017088448628783226,-0.0038118031807243824,-0.058012306690216064
0.03963014483451843,-0.0020315456204116344,-0.02033356949687004,0.016826044768095016,-0.003693792736157775,-0.0606272853910923
0.039245590567588806,-0.0024218109901994467,-0.02062607929110527,0.01628819666802883,-0.0036570471711456776,-0.058437783271074295
0.039137545973062515,-0.0024163853377103806,-0.020394954830408096,0.01675652340054512,-0.003684761468321085,-0.05868158116936684
0.04068321734666824,-0.0022937976755201817,-0.020086824893951416,0.01659661903977394,-0.0037290318869054317,-0.059307534247636795
0.04026475176215172,-0.002150872489437461,-0.0206272192299366,0.01696290634572506,-0.004073075484484434,-0.05982493981719017
0.037955060601234436,-0.0019351016962900758,-0.020651061087846756,0.01704266481101513,-0.004264187999069691,-0.05960167199373245
0.03955496475100517,-0.0018977323779836297,-0.0200418159365654,0.016849549487233162,-0.003789667971432209,-0.05970192328095436
0.040063757449388504,-0.0018707903800532222,-0.020471563562750816,0.01697181537747383,-0.003513775300234556,-0.060197193175554276
0.040617942810058594,-0.0018572689732536674,-0.020767292007803917,0.01619582623243332,-0.0035607926547527313,-0.060681313276290894
0.04112301766872406,-0.002210414269939065,-0.02013266459107399,0.016836032271385193,-0.003249160712584853,-0.059305135160684586
0.039462070912122726,-0.0020228626672178507,-0.019792355597019196,0.016634121537208557,-0.00339535903185606,-0.061306312680244446
0.03906574472784996,-0.002109508728608489,-0.02046220935881138,0.016816411167383194,-0.0036798298824578524,-0.06189636141061783
0.04054682329297066,-0.0020697356667369604,-0.020670147612690926,0.017078479751944542,-0.004582212772220373,-0.05963042750954628
0.04060761258006096,-0.002057637320831418,-0.019703270867466927,0.016672519966959953,-0.004479722585529089,-0.05993932485580444
0.04065895080566406,-0.001968065742403269,-0.020398875698447227,0.016796931624412537,-0.003998243249952793,-0.0628725066781044
0.04031820222735405,-0.00216775038279593,-0.020380772650241852,0.016293630003929138,-0.003763740649446845,-0.060596663504838943
0.040453843772411346,-0.0022333792876452208,-0.020368441939353943,0.016718322411179543,-0.003947262652218342,-0.06062563508749008
0.04078344255685806,-0.002397391479462385,-0.020374972373247147,0.016529668122529984,-0.004007839597761631,-0.061838291585445404
0.04024270549416542,-0.0024566142819821835,-0.020021069794893265,0.016816088929772377,-0.003921572584658861,-0.06285038590431213
0.04166064038872719,-0.0022977932821959257,-0.02008643187582493,0.016715241596102715,-0.003941522911190987,-0.06261435896158218
0.039104729890823364,-0.002113099442794919,-0.020635509863495827,0.016795173287391663,-0.004166336264461279,-0.062037885189056396
0.039104729890823364,-0.002113099442794919,-0.020635509863495827,0.016795173287391663,-0.004166336264461279,-0.062037885189056396
0.04057960584759712,-0.002341219689697027,-0.019818268716335297,0.01674419827759266,-0.004266983363777399,-0.0626227855682373
0.04095757380127907,-0.0021510054357349873,-0.020215945318341255,0.01689005084335804,-0.004121503327041864,-0.06290426850318909
0.041865598410367966,-0.002239466644823551,-0.02069886401295662,0.01688004657626152,-0.003626816440373659,-0.06295742094516754
0.042025160044431686,-0.002351677743718028,-0.02083931304514408,0.017070502042770386,-0.003550895256921649,-0.06296628713607788
0.04078002646565437,-0.002268776996061206,-0.020609360188245773,0.01679869368672371,-0.0037095434963703156,-0.06317660212516785
0.04002362862229347,-0.0021512280218303204,-0.02093675546348095,0.01726151816546917,-0.004247656557708979,-0.06276949495077133
0.04172007367014885,-0.002141230273991823,-0.020278893411159515,0.01693946123123169,-0.004692392889410257,-0.06327427923679352
0.04172007367014885,-0.002141230273991823,-0.020278893411159515,0.01693946123123169,-0.004692392889410257,-0.06327427923679352
0.041396789252758026,-0.0022717525716871023,-0.020233215764164925,0.01568412221968174,-0.004627503454685211,-0.06394308060407639
0.04113417863845825,-0.0023787207901477814,-0.02069287933409214,0.016917893663048744,-0.004062220454216003,-0.061546895653009415
0.04170940816402435,-0.002325420966371894,-0.021112360060214996,0.016889821738004684,-0.003859259421005845,-0.06250384449958801
0.04138480871915817,-0.002484776545315981,-0.020997600629925728,0.017153587192296982,-0.003958027344197035,-0.0659933090209961
0.04209273308515549,-0.002224140567705035,-0.02007956989109516,0.017237480729818344,-0.003980159293860197,-0.06334367394447327
0.04174333065748215,-0.0022556744515895844,-0.020837606862187386,0.017475297674536705,-0.0038754092529416084,-0.0645732656121254
0.041693706065416336,-0.0023571057245135307,-0.021596668288111687,0.0178938377648592,-0.004324355162680149,-0.0649513304233551
0.04175958409905434,-0.0022387071512639523,-0.02085919864475727,0.01768050715327263,-0.004517311695963144,-0.06542536616325378
0.042200587689876556,-0.002478554379194975,-0.020819630473852158,0.017754575237631798,-0.004408235661685467,-0.06551816314458847
0.04248087480664253,-0.00241087912581861,-0.021210351958870888,0.01767241209745407,-0.004078236408531666,-0.06603897362947464
0.0423455573618412,-0.002603488974273205,-0.020914584398269653,0.017241938039660454,-0.004053525626659393,-0.06652126461267471
0.04246840998530388,-0.0026210076175630093,-0.020387273281812668,0.017517557367682457,-0.003942865412682295,-0.06526777893304825
0.04201354458928108,-0.0024028941988945007,-0.020652666687965393,0.017061958089470863,-0.0038293441757559776,-0.0666399598121643
0.04235880449414253,-0.002419461030513048,-0.021234238520264626,0.01708800159394741,-0.003994089551270008,-0.06762831658124924
0.04280393570661545,-0.002574913902208209,-0.020484350621700287,0.017140626907348633,-0.0043236869387328625,-0.06409823894500732
0.04302904009819031,-0.002656663069501519,-0.020844336599111557,0.01770293526351452,-0.004040452651679516,-0.06547892838716507
0.0433584488928318,-0.0027038243133574724,-0.02158137410879135,0.017585929483175278,-0.004298386629670858,-0.06860032677650452
0.043341755867004395,-0.0024879511911422014,-0.020865539088845253,0.017595212906599045,-0.0041255406104028225,-0.06592676788568497
0.04450903832912445,-0.0025635375641286373,-0.020981889218091965,0.017297759652137756,-0.00359141081571579,-0.06600836664438248
0.04292191192507744,-0.0024274801835417747,-0.021526873111724854,0.017301464453339577,-0.0038451587315648794,-0.0672059878706932
0.04328802973031998,-0.0023565383162349463,-0.021338123828172684,0.017458323389291763,-0.004238641820847988,-0.06718406081199646
0.04302263259887695,-0.002601525979116559,-0.020973464474081993,0.017441270872950554,-0.004550720565021038,-0.06700367480516434
0.043206412345170975,-0.0025362425949424505,-0.02104027010500431,0.017775677144527435,-0.004374358803033829,-0.06689752638339996
0.044698189944028854,-0.0023688769433647394,-0.021907079964876175,0.01829318329691887,-0.004390080459415913,-0.06652433425188065
0.04314078390598297,-0.0024392420891672373,-0.021539537236094475,0.017567835748195648,-0.00409930944442749,-0.0669979453086853
0.0420827679336071,-0.0025250681210309267,-0.020938009023666382,0.017602434381842613,-0.004255678504705429,-0.06498102843761444
0.0434994176030159,-0.0023941847030073404,-0.021768881008028984,0.01726766675710678,-0.004427514970302582,-0.06751731783151627
0.04334452748298645,-0.002451349049806595,-0.022614190354943275,0.017092514783143997,-0.004831740166991949,-0.0679495707154274
0.044793128967285156,-0.0025900965556502342,-0.022480769082903862,0.01708814688026905,-0.004643660504370928,-0.06727013736963272
0.044793128967285156,-0.0025900965556502342,-0.022480769082903862,0.01708814688026905,-0.004643660504370928,-0.06727013736963272
0.04356381297111511,-0.002468354534357786,-0.02168942429125309,0.017271636053919792,-0.004446364939212799,-0.06795953214168549
0.04230118170380592,-0.002559536136686802,-0.02158498764038086,0.018536411225795746,-0.004396763164550066,-0.0687449648976326
0.04388432577252388,-0.0023542153649032116,-0.022220876067876816,0.018656153231859207,-0.004599332809448242,-0.06670131534337997
0.044202763587236404,-0.002440480515360832,-0.02223161980509758,0.0180167518556118,-0.004465222824364901,-0.06767137348651886
0.04327041283249855,-0.0025935072917491198,-0.021336635574698448,0.01817663200199604,-0.00429701479151845,-0.06912671774625778
0.044026121497154236,-0.002416352042928338,-0.021894382312893867,0.017410285770893097,-0.003847229527309537,-0.06841190904378891
0.04403543844819069,-0.0025131318252533674,-0.022290827706456184,0.018206696957349777,-0.0035523183178156614,-0.06885677576065063
0.043406516313552856,-0.002689731540158391,-0.02231987938284874,0.017955170944333076,-0.004108577035367489,-0.06915857642889023
0.04467485100030899,-0.002791736740618944,-0.021907221525907516,0.01725516840815544,-0.004139622673392296,-0.06946048140525818
0.04528161883354187,-0.002519869012758136,-0.02173888310790062,0.017777124419808388,-0.004316720645874739,-0.06899509578943253
0.04277066886425018,-0.002565655391663313,-0.02212083525955677,0.017067328095436096,-0.004478959832340479,-0.0697527676820755
0.044617388397455215,-0.0025970328133553267,-0.022259850054979324,0.017772220075130463,-0.004382924642413855,-0.07020838558673859
0.04589947313070297,-0.0027438891120254993,-0.02201765775680542,0.0173969604074955,-0.004121799021959305,-0.07002174109220505
0.04529055207967758,-0.0027623034548014402,-0.021846488118171692,0.01827041432261467,-0.004383579362183809,-0.07006111741065979
0.04344412311911583,-0.0025939983315765858,-0.02239249274134636,0.018441829830408096,-0.004381175618618727,-0.07150372862815857
0.04475238546729088,-0.0025321871507912874,-0.022722968831658363,0.017656687647104263,-0.004335983656346798,-0.06936393678188324
0.045067135244607925,-0.0025263752322643995,-0.022668801248073578,0.018439657986164093,-0.0043932185508310795,-0.07017265260219574
0.04455043748021126,-0.0024653675500303507,-0.022339651361107826,0.01775514706969261,-0.004530021455138922,-0.07158778607845306
0.04452237859368324,-0.002755940891802311,-0.022819990292191505,0.01787642017006874,-0.00468067592009902,-0.06803417205810547
0.04485756903886795,-0.0025861829053610563,-0.02334464341402054,0.01831771992146969,-0.004359496291726828,-0.07079296559095383
0.045108526945114136,-0.0024467003531754017,-0.02268398553133011,0.017644399777054787,-0.004438682924956083,-0.07170038670301437
0.04537445306777954,-0.002433099551126361,-0.0221627876162529,0.017999615520238876,-0.004550424870103598,-0.07110826671123505
