davideferrari95/blind_handover_controller/data/Test 64 - [2024-02-07 -- 15-45-55]/joint_states_data.csv
shoulder_pan_joint,shoulder_lift_joint,elbow_joint,wrist_1_joint,wrist_2_joint,wrist_3_joint
0.005808220710605383,0.005437325220555067,-0.004283206071704626,0.0037477428559213877,0.0,0.006202651187777519
0.005808220710605383,0.005437325220555067,-0.004283206071704626,0.0037477428559213877,0.0,0.006202651187777519
0.005510671995580196,0.005491254385560751,-0.004649398848414421,0.003458546008914709,0.0,0.0061869327910244465
0.005510671995580196,0.005491254385560751,-0.004649398848414421,0.003458546008914709,0.0,0.0061869327910244465
0.006112731993198395,0.005214456934481859,-0.004827427212148905,0.0032069794833660126,0.0,0.006185010075569153
0.005715902429074049,0.005766638554632664,-0.004719058517366648,0.0033828497398644686,0.0,0.0062155770137906075
0.006047661881893873,0.005536213517189026,-0.0045390441082417965,0.0032550846226513386,0.0,0.005861232988536358
0.006132396869361401,0.005759062711149454,-0.004745434504002333,0.0034815215039998293,0.0,0.006022764835506678
0.005767250899225473,0.00535903824493289,-0.004863940179347992,0.0032385652884840965,0.0,0.006317586172372103
0.005707067903131247,0.0052745346911251545,-0.004818769171833992,0.0032355012372136116,0.0,0.006348419468849897
0.005624660290777683,0.005345220677554607,-0.004330658819526434,0.0032478133216500282,0.0,0.0063599590212106705
0.006157740950584412,0.0054923612624406815,-0.004523657262325287,0.0031368390191346407,0.0,0.006165369879454374
0.006033643148839474,0.00549205532297492,-0.005051871296018362,0.003489244030788541,0.0,0.005946797784417868
0.005937482230365276,0.0051262336783111095,-0.004627659916877747,0.003131386125460267,0.0,0.006814009044319391
0.005745787639170885,0.00465024309232831,-0.00425522169098258,0.003008617553859949,0.0,0.006939223501831293
0.00622851075604558,0.004991772118955851,-0.004525430034846067,0.0030470737256109715,0.0,0.005767861846834421
0.006411206442862749,0.005330940242856741,-0.00486728036776185,0.0030621588230133057,0.0,0.005543978419154882
0.006040277425199747,0.005279066041111946,-0.004826893098652363,0.0029252064414322376,0.0,0.006093146745115519
0.00611972576007247,0.00518408976495266,-0.005266240332275629,0.00262206862680614,0.0,0.006489066872745752
0.005660949274897575,0.004927205387502909,-0.005533370189368725,0.0025844674091786146,0.0,0.00628884369507432
0.005899333860725164,0.004806935787200928,-0.004827227909117937,0.0027059547137469053,0.0,0.006143859121948481
0.006426583975553513,0.004974378272891045,-0.004347394686192274,0.002821163972839713,0.0,0.005784240551292896
0.005984225310385227,0.004839677829295397,-0.0050589460879564285,0.003014156362041831,0.0,0.005955222994089127
0.005723917856812477,0.005136693362146616,-0.00528299156576395,0.002799785928800702,0.0,0.006523520685732365
0.005532612092792988,0.004981564823538065,-0.005051448009908199,0.002494125161319971,0.0,0.0065462044440209866
0.006228241138160229,0.0046713394112885,-0.005198162980377674,0.002507637720555067,0.0,0.0063414303585886955
0.006097073666751385,0.004616769030690193,-0.004951854702085257,0.0026214325334876776,0.0,0.006154020316898823
0.0058464789763092995,0.004601337015628815,-0.00449555367231369,0.002782804425805807,0.0,0.0062148855067789555
0.0058464789763092995,0.004601337015628815,-0.00449555367231369,0.002782804425805807,0.0,0.0062148855067789555
0.006067563313990831,0.004649928770959377,-0.004102437291294336,0.0028025596402585506,0.0,0.005930023733526468
0.005450116004794836,0.004147864878177643,-0.004464088939130306,0.0029385662637650967,0.0,0.005669163074344397
0.006123535800725222,0.003240708028897643,-0.005267419386655092,0.00266837771050632,0.0,0.005812836345285177
0.00627808878198266,0.002234230749309063,-0.005568557884544134,0.0024345421697944403,0.0,0.006181867327541113
0.006367932539433241,0.002058613346889615,-0.005052866414189339,0.0023782970383763313,0.0,0.006694447714835405
0.0057543860748410225,0.002274910919368267,-0.00470890523865819,0.002618307014927268,0.0,0.006220425013452768
0.005619622301310301,0.003294281428679824,-0.004188525956124067,0.0030269059352576733,0.0,0.005942968651652336
0.006191617343574762,0.0033466301392763853,-0.005134917329996824,0.002470294712111354,0.0,0.006175683811306953
0.0061155883595347404,0.0028695242945104837,-0.005107296630740166,0.002210883190855384,0.0,0.006403216160833836
0.005920832511037588,0.002595088677480817,-0.0049703228287398815,0.0018935523694381118,0.0,0.0062141926027834415
0.005777918267995119,0.0027246850077062845,-0.004510062281042337,0.001854559755884111,0.0,0.006074193865060806
0.005574866663664579,0.0026648929342627525,-0.004554270301014185,0.002154822461307049,0.0,0.006252520252019167
0.005871580448001623,0.0031415466219186783,-0.0046946038492023945,0.002616207581013441,0.0,0.006291234865784645
0.006550192832946777,0.003328759456053376,-0.004783138167113066,0.0025668474845588207,0.0,0.006406302563846111
0.005990138277411461,0.002818895038217306,-0.005767771974205971,0.002239272929728031,0.0,0.00611284701153636
0.0057297879830002785,0.0025722149293869734,-0.005548833403736353,0.002039353596046567,0.0,0.006436782423406839
0.00583395641297102,0.0023731559049338102,-0.005225793924182653,0.0019625548738986254,0.0,0.006679793354123831
0.0059928297996521,0.0025847586803138256,-0.004451804328709841,0.002011281903833151,0.0,0.006598792038857937
0.0059697893448174,0.003088930854573846,-0.004476592410355806,0.002481586765497923,0.0,0.006630640011280775
0.0059867482632398605,0.0029503905680030584,-0.004565198440104723,0.0021813351195305586,0.0,0.006602905225008726
0.005786818452179432,0.003008201252669096,-0.005364323500543833,0.002045391360297799,0.0,0.0060793450102210045
0.005777736194431782,0.0028945947997272015,-0.005731514655053616,0.0018612239509820938,0.0,0.005857689771801233
0.005946066230535507,0.0029473374597728252,-0.005636449437588453,0.0019605602137744427,0.0,0.006170162931084633
0.006560735870152712,0.002921969862654805,-0.005079496651887894,0.0022597669158130884,0.0,0.006267627701163292
0.006024766247719526,0.0032985422294586897,-0.004786716774106026,0.0023423349484801292,0.0,0.006192972883582115
0.006024766247719526,0.0032985422294586897,-0.004786716774106026,0.0023423349484801292,0.0,0.006192972883582115
0.006255730986595154,0.003310874570161104,-0.0052168527618050575,0.0028129047714173794,0.0,0.005692727398127317
0.006255730986595154,0.003310874570161104,-0.0052168527618050575,0.0028129047714173794,0.0,0.005692727398127317
0.0061450982466340065,0.00307247182354331,-0.005178747698664665,0.00250060367397964,0.0,0.006353973876684904
0.0061209783889353275,0.0029963264241814613,-0.005628724582493305,0.002432155655696988,0.0,0.006115354131907225
0.006407516542822123,0.003368708770722151,-0.005097037646919489,0.002566433511674404,0.0,0.005855529569089413
0.006108756177127361,0.0032978334929794073,-0.005000703502446413,0.0027582580223679543,0.0,0.005983613431453705
0.006457695737481117,0.003586557926610112,-0.004803871735930443,0.0027824100106954575,0.0,0.006375940050929785
0.006130273919552565,0.0035533371847122908,-0.005233115516602993,0.0026346456725150347,0.0,0.006132432725280523
0.006250392179936171,0.0034429572988301516,-0.005526829045265913,0.0024010452907532454,0.0,0.00596468523144722
0.006478212773799896,0.0033125304616987705,-0.005022609606385231,0.0022559608332812786,0.0,0.00608125701546669
0.006389197893440723,0.003400258719921112,-0.004770864266902208,0.0022347052581608295,0.0,0.00617855042219162
0.006295525934547186,0.0032595773227512836,-0.004757088143378496,0.0024946886114776134,0.0,0.006465662736445665
0.006136653479188681,0.003606104524806142,-0.0047623030841350555,0.002504625590518117,0.0,0.006609300617128611
0.005987317301332951,0.0033405658323317766,-0.005232159048318863,0.002354651689529419,0.0,0.006621718406677246
0.00612485921010375,0.0035543593112379313,-0.0053791021928191185,0.0023319758474826813,0.0,0.00675845006480813
0.0063632698729634285,0.003796408185735345,-0.005046883597970009,0.002198172966018319,0.0,0.006773571949452162
0.0070709832943975925,0.003921831026673317,-0.005532642360776663,0.002152601722627878,0.0,0.006382912863045931
0.006362625397741795,0.0034309271723031998,-0.005334524437785149,0.0022054072469472885,0.0,0.0063382163643836975
0.006328682415187359,0.0033082461450248957,-0.005016374867409468,0.002158603398129344,0.0,0.006524317432194948
0.00591494282707572,0.0034113407600671053,-0.005247333087027073,0.002227314980700612,0.0,0.0064916787669062614
0.006284406874328852,0.0034511240664869547,-0.005063217598944902,0.0021310504525899887,0.0,0.0062378221191465855
0.006507597863674164,0.003589366562664509,-0.004857597406953573,0.0022333806846290827,0.0,0.0060724299401044846
0.006526260171085596,0.0038606731686741114,-0.005246269982308149,0.002220236463472247,0.0,0.006031844764947891
0.0058716232888400555,0.004003910813480616,-0.005104790907353163,0.002379134763032198,0.0,0.006311184260994196
0.006986797321587801,0.00380014069378376,-0.006038915831595659,0.0022220381069928408,0.0,0.00620571244508028
0.006916813552379608,0.0034869618248194456,-0.0054831309244036674,0.002116538118571043,0.0,0.006865291390568018
0.005731204990297556,0.0034804828464984894,-0.0052001094445586205,0.002027176320552826,0.0,0.0064322263933718204
0.005813221912831068,0.0036550613585859537,-0.004893376026302576,0.001980982720851898,0.0,0.006293632090091705
0.005813221912831068,0.0036550613585859537,-0.004893376026302576,0.001980982720851898,0.0,0.006293632090091705
0.0063400305807590485,0.0036910695489495993,-0.004761147778481245,0.0019701917190104723,0.0,0.006477954797446728
0.006696581374853849,0.0038446837570518255,-0.0047179884277284145,0.0019522886723279953,0.0,0.006337022874504328
0.006514354143291712,0.0035939097870141268,-0.0055641671642661095,0.0019709444604814053,0.0,0.006367495749145746
0.006642527878284454,0.003619628492742777,-0.00528905401006341,0.0019572072196751833,0.0,0.006360300816595554
0.005874977447092533,0.004026990849524736,-0.0046415748074650764,0.0019510891288518906,0.0,0.006113292183727026
0.006078870501369238,0.003908741753548384,-0.004348596092313528,0.002009295392781496,0.0,0.006204436533153057
0.006871000397950411,0.0037150371354073286,-0.0048752399161458015,0.002187928417697549,0.0,0.006503020413219929
0.006230959668755531,0.0035570948384702206,-0.004425414837896824,0.0017067140433937311,0.0,0.006344543769955635
0.006226613186299801,0.0034774853847920895,-0.004628390073776245,0.0016131822485476732,0.0,0.006306544411927462
0.00687893433496356,0.003632984822615981,-0.004746182821691036,0.0015742452815175056,0.0,0.006218999158591032
0.006857608444988728,0.004066396504640579,-0.004628987982869148,0.0017630530055612326,0.0,0.006583398673683405
0.006386719178408384,0.0040633538737893105,-0.004680001642554998,0.001911470666527748,0.0,0.006791225168853998
0.006291049998253584,0.003831591922789812,-0.00465555302798748,0.0020168244373053312,0.0,0.006958814337849617
0.006184275262057781,0.0037181279622018337,-0.00446255411952734,0.001941354013979435,0.0,0.006801267620176077
0.007220881525427103,0.003665526397526264,-0.004628266207873821,0.00211447780020535,0.0,0.006442240439355373
0.006439734250307083,0.0036285012029111385,-0.004787025041878223,0.0018658501794561744,0.0,0.006516785826534033
0.006359491031616926,0.003614230314269662,-0.0050805676728487015,0.0018583288183435798,0.0,0.006384237669408321
0.005978473927825689,0.004302642308175564,-0.0048928945325315,0.0018052281811833382,0.0,0.0065758381970226765
0.0060523333959281445,0.004253089893609285,-0.004653985146433115,0.001978096319362521,0.0,0.006684557069092989
0.006872056517750025,0.003959412686526775,-0.004566799849271774,0.002242725109681487,0.0,0.006844116374850273
0.007058536633849144,0.004172561224550009,-0.005125894211232662,0.0022939867340028286,0.0,0.006832349579781294
0.007058536633849144,0.004172561224550009,-0.005125894211232662,0.0022939867340028286,0.0,0.006832349579781294
0.0060375952161848545,0.004540402442216873,-0.004861349239945412,0.002131980611011386,0.0,0.006397783290594816
0.00671359384432435,0.004256840795278549,-0.005251913797110319,0.001964178401976824,0.0,0.00661999499425292
0.007002281025052071,0.003914981614798307,-0.005104099400341511,0.0018513273680582643,0.0,0.006795451045036316
0.006850757636129856,0.004103708080947399,-0.005229469388723373,0.0019245247822254896,0.0,0.006936596240848303
0.006850757636129856,0.004103708080947399,-0.005229469388723373,0.0019245247822254896,0.0,0.006936596240848303
0.006268381606787443,0.004239558707922697,-0.005475013982504606,0.001987279625609517,0.0,0.00696974340826273
0.006409177556633949,0.004324836190789938,-0.0047314162366092205,0.00203885929659009,0.0,0.006813471205532551
0.007063662633299828,0.004395356867462397,-0.00449649291113019,0.0022045907098799944,0.0,0.006289251148700714
0.006451489869505167,0.0039644911885261536,-0.005149900447577238,0.0018541101599112153,0.0,0.006603780202567577
0.006451489869505167,0.0039644911885261536,-0.005149900447577238,0.0018541101599112153,0.0,0.006603780202567577
0.006223616190254688,0.004258384462445974,-0.005044617224484682,0.0017672317335382104,0.0,0.007299207150936127
0.006554087158292532,0.004173383116722107,-0.0057038553059101105,0.0016695206286385655,0.0,0.006886747665703297
0.007288733962923288,0.003988572396337986,-0.005072362255305052,0.001760590821504593,0.0,0.0065704938024282455
0.00663017388433218,0.003976278007030487,-0.004681015387177467,0.0017194420797750354,0.0,0.00653886329382658
0.00638611288741231,0.004034065175801516,-0.004842827096581459,0.002096850425004959,0.0,0.0065730856731534
0.007089936640113592,0.00383556354790926,-0.005485781468451023,0.0020232261158525944,0.0,0.006890660617500544
0.006493083201348782,0.004256626591086388,-0.005741803906857967,0.001877202303148806,0.0,0.0066177332773804665
0.006525383330881596,0.004077405668795109,-0.005222847685217857,0.0018662281800061464,0.0,0.006662622559815645
0.00665498711168766,0.004478131886571646,-0.005041321739554405,0.0017301003681495786,0.0,0.006734958849847317
0.0068267532624304295,0.004698529839515686,-0.004946604371070862,0.0018948406213894486,0.0,0.007520187180489302
0.0067596519365906715,0.004311911761760712,-0.004873619880527258,0.0019144114339724183,0.0,0.0069014765322208405
0.006480163894593716,0.004279253538697958,-0.005147153045982122,0.0019937879405915737,0.0,0.006588970310986042
0.006693303119391203,0.004669547080993652,-0.005634075962007046,0.001907721278257668,0.0,0.006571462843567133
0.006474395748227835,0.004759545903652906,-0.005354700610041618,0.0019391810055822134,0.0,0.00662687374278903
0.007331295870244503,0.004430192522704601,-0.004932907875627279,0.0019189141457900405,0.0,0.007310688029974699
0.006738916039466858,0.00458059087395668,-0.004792063497006893,0.0019720415584743023,0.0,0.00668375426903367
0.006916600279510021,0.004159845411777496,-0.005109090823680162,0.0018982681212946773,0.0,0.006600665394216776
0.006640021223574877,0.004108332563191652,-0.005362133029848337,0.0019117980264127254,0.0,0.006596733815968037
0.00700395368039608,0.004095111973583698,-0.00547785172238946,0.0018386278534308076,0.0,0.006700652185827494
0.0070204404182732105,0.004402632359415293,-0.0054181902669370174,0.0018769424641504884,0.0,0.006408868357539177
0.00689537450671196,0.004487035796046257,-0.0055527640506625175,0.0021625629160553217,0.0,0.006170445587486029
0.006700045894831419,0.004277848172932863,-0.005126762669533491,0.0021337843500077724,0.0,0.006068693473935127
0.0066330404952168465,0.004449247848242521,-0.004867203533649445,0.002202850067988038,0.0,0.006180617958307266
0.007166057359427214,0.00408388813957572,-0.00525859696790576,0.0021126961801201105,0.0,0.006727640982717276
0.007021012715995312,0.003960424568504095,-0.004969540052115917,0.0018892072839662433,0.0,0.006589125841856003
0.006828676909208298,0.0036161562893539667,-0.005080070812255144,0.0018529770895838737,0.0,0.006446457002311945
0.006828676909208298,0.0036161562893539667,-0.005080070812255144,0.0018529770895838737,0.0,0.006446457002311945
0.006596012972295284,0.0031549192499369383,-0.005014054477214813,0.0018829903565347195,0.0,0.006188146770000458
0.006759670563042164,0.0030419311951845884,-0.005135831888765097,0.0019741891883313656,0.0,0.006528293713927269
0.007043566554784775,0.003405902301892638,-0.004997597075998783,0.0022432487457990646,0.0,0.006896725855767727
0.006860536057502031,0.003804154694080353,-0.005241681821644306,0.002117392374202609,0.0,0.006952025927603245
0.006870768964290619,0.003429396077990532,-0.0048767151311039925,0.002155940281227231,0.0,0.006831402890384197
0.007079219911247492,0.003369815181940794,-0.0049240924417972565,0.001988205825909972,0.0,0.006306764669716358
0.007023850455880165,0.003411724232137203,-0.0050161974504590034,0.0018142355838790536,0.0,0.006937104742974043
0.0072100176475942135,0.0036009903997182846,-0.005590173881500959,0.0019115193281322718,0.0,0.006970304064452648
0.00777372857555747,0.0033441109117120504,-0.0053644077852368355,0.0018431296339258552,0.0,0.0067555950954556465
0.00718725798651576,0.003573325229808688,-0.00500313937664032,0.0021276487968862057,0.0,0.007166891824454069
0.007045894395560026,0.0033071276266127825,-0.005066593177616596,0.0023965088184922934,0.0,0.0068404097110033035
0.007190860342234373,0.003554734168574214,-0.005020783748477697,0.0022880921605974436,5.5197551773744635e-06,0.006912184413522482
0.007085725665092468,0.0031811725348234177,-0.004946527071297169,0.0018891955260187387,3.6040057693753624e-07,0.006933547090739012
0.007104871328920126,0.0032452275045216084,-0.005673605483025312,0.0017481576651334763,2.3531583792646416e-08,0.00701514957472682
0.0070596542209386826,0.0033166520297527313,-0.005871922709047794,0.0016115494072437286,1.5364443051169019e-09,0.007204003632068634
0.007195199839770794,0.003149546915665269,-0.005719679407775402,0.0015638049226254225,1.0031883657113383e-10,0.007042204961180687
0.007128567900508642,0.003420746885240078,-0.005100623704493046,0.0016179403755813837,6.5501037753434854e-12,0.007135295774787664
0.00729290209710598,0.0036990016233175993,-0.005254443734884262,0.0019232291961088777,4.2767495816477263e-13,0.007331333588808775
0.0070701646618545055,0.0038551357574760914,-0.005110104568302631,0.001972462050616741,2.7924118231473574e-14,0.007508991751819849
0.007296224590390921,0.0034067274536937475,-0.006090194918215275,0.0019235169747844338,1.8232454069866963e-15,0.006926668807864189
0.007654361426830292,0.0035526969004422426,-0.0057796454057097435,0.0018936339765787125,1.1904488237820615e-16,0.007344288285821676
0.007752921432256699,0.0032334423158317804,-0.005773235112428665,0.0020403433591127396,7.772780469686223e-18,0.007191412150859833
0.007566348183900118,0.003284890204668045,-0.005233325529843569,0.0021002318244427443,5.075069971585009e-19,0.007034131791442633
0.007432569749653339,0.0032818231265991926,-0.005309757776558399,0.0023541548289358616,3.3136580689061527e-20,0.006987558677792549
0.007432569749653339,0.0032818231265991926,-0.005309757776558399,0.0023541548289358616,3.3136580689061527e-20,0.006987558677792549
0.007688233163207769,0.0036976654082536697,-0.005879209842532873,0.002166708465665579,1.4126645936014138e-22,0.0071279192343354225
0.007332156412303448,0.0034135831519961357,-0.005859025754034519,0.0018155657453462481,9.223690658841547e-24,0.007440619170665741
0.007332156412303448,0.0034135831519961357,-0.005859025754034519,0.0018155657453462481,9.223690658841547e-24,0.007440619170665741
0.007387535180896521,0.003564508631825447,-0.005176940932869911,0.0017635832773521543,6.022411655566217e-25,0.007288589142262936
0.007354527246206999,0.0038397323805838823,-0.005159950349479914,0.001748293754644692,3.9322044475248585e-26,0.007285608910024166
0.00753404013812542,0.0040413737297058105,-0.005082183983176947,0.001936006243340671,2.5674485421778744e-27,0.007162149529904127
0.007498597260564566,0.003543335711583495,-0.005467176903039217,0.002064031083136797,1.6763605995856249e-28,0.007186547853052616
0.007441558409482241,0.0035774491261690855,-0.005711223930120468,0.0019205352291464806,1.0945437536777694e-29,0.006988059263676405
0.007470150012522936,0.003174620447680354,-0.005277899093925953,0.0018131782999262214,7.146589057801577e-31,0.0070112538523972034
0.007661314215511084,0.0032531190663576126,-0.00496672885492444,0.001844810671173036,4.666211812171031e-32,0.007310438901185989
0.007651262916624546,0.003532297909259796,-0.006202260032296181,0.0018884477904066443,1.9892794471694606e-34,0.007147382944822311
0.00767739349976182,0.003676345804706216,-0.0060823047533631325,0.0020608992781490088,1.2988572597972426e-35,0.006671557202935219
0.007778821513056755,0.0037612542510032654,-0.005244845058768988,0.002106758998706937,8.480608980387849e-37,0.0069740633480250835
0.007994014769792557,0.004079910926520824,-0.005187124479562044,0.002107589738443494,5.537232002818286e-38,0.006999845150858164
0.007642911281436682,0.003970050718635321,-0.005619590170681477,0.00206002127379179,3.6154173002843156e-39,0.007172483019530773
0.007623071316629648,0.003557996591553092,-0.0062761129811406136,0.0017967374296858907,2.3606133800169436e-40,0.007312311325222254
0.008231798186898232,0.0033463716972619295,-0.006223960313946009,0.0017328310059383512,1.5412881809108663e-41,0.007354452274739742
0.007638836745172739,0.0035561388358473778,-0.006111882161349058,0.0016601522220298648,1.0061322973852187e-42,0.0073618837632238865
0.0073538534343242645,0.003808793378993869,-0.005447708070278168,0.001852338551543653,6.58610278232664e-44,0.007349004969000816
0.007729369681328535,0.003979722503572702,-0.005317363888025284,0.002306773327291012,4.203895392974451e-45,0.007038019597530365
0.007563082501292229,0.0036351592279970646,-0.005572411231696606,0.0024676071479916573,0.0,0.007296697702258825
0.007612728979438543,0.0035452237352728844,-0.006424599327147007,0.00256743049249053,0.0,0.007742714136838913
0.007618941832333803,0.0032433578744530678,-0.006171392276883125,0.0022103579249233007,0.0,0.007600078359246254
0.00784135702997446,0.003165353089570999,-0.0058151367120444775,0.002207591198384762,0.0,0.007028869353234768
0.008204435929656029,0.003315953304991126,-0.006028335075825453,0.00232253922149539,0.0,0.007140933070331812
0.00837823934853077,0.0036202881019562483,-0.006016576662659645,0.0022688668686896563,0.0,0.00885980948805809
0.007724833209067583,0.0038549124728888273,-0.006089539732784033,0.0024430775083601475,0.0,0.008040431886911392
0.0077454871498048306,0.0034706639125943184,-0.005934148095548153,0.0024866792373359203,0.0,0.007016160525381565
0.008156525902450085,0.0032945205457508564,-0.005772714037448168,0.002426593331620097,0.0,0.007332534994930029
0.008073542267084122,0.0032210072968155146,-0.00611428776755929,0.0024423215072602034,0.0,0.008137372322380543
0.007668778300285339,0.0035095964558422565,-0.005970195401459932,0.0025058137252926826,0.0,0.008593805134296417
0.007668778300285339,0.0035095964558422565,-0.005970195401459932,0.0025058137252926826,0.0,0.008593805134296417
0.008224439807236195,0.003834684379398823,-0.006363886408507824,0.0023720385506749153,0.0,0.007976585067808628
0.008394293487071991,0.003455138998106122,-0.006336631719022989,0.002188438316807151,0.0,0.007623420096933842
0.007833965122699738,0.003139625769108534,-0.0059663779102265835,0.0021574213169515133,0.0,0.00836144108325243
0.008205459453165531,0.0028623908292502165,-0.006048485171049833,0.0023292689584195614,0.0,0.007902740500867367
0.00818355567753315,0.0030615259893238544,-0.006589528173208237,0.002294170903041959,0.0,0.007519933395087719
0.008495585061609745,0.0033261156640946865,-0.00654929643496871,0.0024238901678472757,0.0,0.008021038956940174
0.00900992564857006,0.0035412083379924297,-0.006528025027364492,0.002531168283894658,0.0,0.007921179756522179
0.00900992564857006,0.0035412083379924297,-0.006528025027364492,0.002531168283894658,0.0,0.007921179756522179
0.008560052141547203,0.003332793712615967,-0.00683861318975687,0.0028013295959681273,0.0,0.008009059354662895
0.008084922097623348,0.003193299751728773,-0.0065900771878659725,0.0026873834431171417,0.0,0.007937445305287838
0.008455728180706501,0.0031892135739326477,-0.006163931917399168,0.0025551035068929195,0.0,0.008146766573190689
0.008989792317152023,0.003276416566222906,-0.006115936208516359,0.0024419662076979876,0.0,0.007729875389486551
0.008057130500674248,0.0033638733439147472,-0.006192006636410952,0.002336644334718585,0.0,0.008065072819590569
0.00840997789055109,0.003192949341610074,-0.0068152598105371,0.0023550637997686863,0.0,0.007877598516643047
0.009482481516897678,0.0032249679788947105,-0.006520267575979233,0.002193126128986478,0.0,0.008094409480690956
0.008099532686173916,0.003362739458680153,-0.006386484019458294,0.0024251940194517374,0.0,0.00813545286655426
0.00844668410718441,0.0036348989233374596,-0.006025262176990509,0.0024766414426267147,0.0,0.008417640812695026
0.00946241244673729,0.0037474578712135553,-0.006567108910530806,0.002444979501888156,0.0,0.00800906028598547
0.00870982464402914,0.0036957880947738886,-0.007049734704196453,0.0026379008777439594,0.0,0.008217569440603256
0.008339740335941315,0.0032894413452595472,-0.006249100901186466,0.002537177409976721,0.0,0.008286437951028347
0.009051679633557796,0.0030227764509618282,-0.006068720016628504,0.002608412643894553,0.0,0.008418277837336063
0.008742867037653923,0.0032252834644168615,-0.006474534049630165,0.002789978636428714,0.0,0.008267237804830074
0.008451174944639206,0.003246739972382784,-0.006779089570045471,0.0030969169456511736,0.0,0.008425895124673843
0.009186533279716969,0.0032711566891521215,-0.007129334378987551,0.0031181967351585627,0.0,0.008492259308695793
0.009127864614129066,0.0033397297374904156,-0.0065103149972856045,0.002765685087069869,0.0,0.008389459922909737
0.008723175153136253,0.0030278675258159637,-0.006418097764253616,0.002789303893223405,0.0,0.008601019158959389
0.009056230075657368,0.003162647830322385,-0.006764583755284548,0.002994964364916086,0.0,0.008664317429065704
0.009056230075657368,0.003162647830322385,-0.006764583755284548,0.002994964364916086,0.0,0.008664317429065704
0.009313478134572506,0.003335376735776663,-0.006849183235317469,0.0031028324738144875,0.0,0.008586575277149677
0.009181869216263294,0.0034004899207502604,-0.006446095183491707,0.0029201973229646683,0.0,0.00814638752490282
0.009181869216263294,0.0034004899207502604,-0.006446095183491707,0.0029201973229646683,0.0,0.00814638752490282
0.009490855038166046,0.003192015690729022,-0.006436209660023451,0.0029756815638393164,0.0,0.008799592033028603
0.00917490292340517,0.0030356128700077534,-0.006650797091424465,0.002888614544644952,0.0,0.008444337174296379
0.009484188631176949,0.0031782223377376795,-0.006302709691226482,0.002723251236602664,0.0,0.008055429905653
0.008853052742779255,0.003110905410721898,-0.006681649014353752,0.002847745781764388,0.0,0.008471189998090267
0.008783784694969654,0.0033976747654378414,-0.007050845772027969,0.0031214540358632803,0.0,0.008983979932963848
0.010004857555031776,0.0032702770549803972,-0.00702694384381175,0.0031202405225485563,0.0,0.008518582209944725
0.009780884720385075,0.0034851820673793554,-0.0063666366040706635,0.003029557643458247,0.0,0.008718643337488174
0.009202249348163605,0.0031114527955651283,-0.00646239472553134,0.002828914439305663,0.0,0.008909032680094242
0.009557799436151981,0.0031130809802562,-0.006903305649757385,0.0029356603045016527,0.0,0.00834408588707447
0.009616564959287643,0.0029474222101271152,-0.0069963461719453335,0.0031675018835812807,0.0,0.00857422687113285
0.009549691341817379,0.0028662458062171936,-0.006651562172919512,0.0033544721081852913,0.0,0.009145671501755714
0.00957543309777975,0.0028760996647179127,-0.00611455412581563,0.0033396249637007713,0.0,0.008304992690682411
0.00947276409715414,0.0029624782036989927,-0.006597415078431368,0.0029680165462195873,0.0,0.00821066927164793
0.00912607740610838,0.003121692920103669,-0.00676853209733963,0.0028935098089277744,0.0,0.008654911071062088
0.009623444639146328,0.003145902417600155,-0.007529197260737419,0.0030842158012092113,-0.0001252462825505063,0.00861172191798687
0.010044161230325699,0.003329589031636715,-0.0066512650810182095,0.0031203285325318575,-0.000200043068616651,0.008657037280499935
0.009573624469339848,0.0031479927711188793,-0.0062811109237372875,0.003468915354460478,-0.0001965561677934602,0.009150823578238487
0.009676191955804825,0.0030349628068506718,-0.006289557553827763,0.0036878101527690887,-0.00018865703896153718,0.008872263133525848
0.010134135372936726,0.003042367519810796,-0.0070783644914627075,0.003362759482115507,-0.00018108614312950522,0.008879091590642929
0.01027741376310587,0.003135916544124484,-0.0067725940607488155,0.00353637314401567,-0.00020653264073189348,0.008773675188422203
0.009886794723570347,0.003054641652852297,-0.006175082642585039,0.0036983578465878963,-0.0002009617310250178,0.008994932286441326
0.009693283587694168,0.003033213084563613,-0.0064639984630048275,0.003347785212099552,-0.00019388360669836402,0.008958511985838413
0.010305470786988735,0.0028446209616959095,-0.006915944628417492,0.0031193133909255266,-0.00018717156490311027,0.009098002687096596
0.01013297587633133,0.0029046235140413046,-0.006610652431845665,0.0032400907948613167,-0.00018090091180056334,0.009294982068240643
0.010083064436912537,0.0031110115814954042,-0.006511494517326355,0.003404417308047414,-0.0001750364899635315,0.009033111855387688
0.009886515326797962,0.003463407512754202,-0.006731098983436823,0.003433497156947851,-0.000169540464412421,0.010039910674095154
0.009886515326797962,0.003463407512754202,-0.006731098983436823,0.003433497156947851,-0.000169540464412421,0.010039910674095154
0.009933576919138432,0.003047000849619508,-0.007425581105053425,0.0038387698587030172,-0.00015952253306750208,0.009035247378051281
0.009933576919138432,0.003047000849619508,-0.007425581105053425,0.0038387698587030172,-0.00015952253306750208,0.009035247378051281
0.010127859190106392,0.0029915280174463987,-0.0064195129089057446,0.003542303340509534,-0.00017561294953338802,0.009693983010947704
0.010326222516596317,0.0031831753440201283,-0.0068230764009058475,0.003549586981534958,-0.0001709500647848472,0.009300804696977139
0.00981696043163538,0.003106925170868635,-0.006887195166200399,0.0033136866986751556,-0.00016644014976918697,0.009372895583510399
0.0105277756229043,0.0030615143477916718,-0.0072580683045089245,0.0032663801684975624,-0.00016215631330851465,0.009431034326553345
0.01013058703392744,0.003291879314929247,-0.006634822115302086,0.0034407395869493484,-0.00015808723401278257,0.009311744943261147
0.009929505176842213,0.0036672218702733517,-0.006263125687837601,0.0036327848210930824,-0.0001542171521577984,0.009349229745566845
0.010397960431873798,0.0033074342645704746,-0.006580051966011524,0.0034642762038856745,-0.00015053193783387542,0.009380592964589596
0.010041319765150547,0.003235791577026248,-0.007271482143551111,0.00357146468013525,-0.0001470190181862563,0.009593782015144825
0.010491350665688515,0.0032648821361362934,-0.006915430072695017,0.003711830824613571,-0.00015375501243397593,0.009321260266005993
0.010342740453779697,0.0031502225901931524,-0.006527686025947332,0.0034163394011557102,-0.00015984771016519517,0.009839805774390697
0.010046862997114658,0.003506409004330635,-0.006419631652534008,0.003546586027368903,-0.0001569833984831348,0.009364557452499866
0.010137815028429031,0.0032998761162161827,-0.006913128308951855,0.0033536532428115606,-0.00015367325977422297,0.00951262004673481
0.010819039307534695,0.0030809759628027678,-0.007350434549152851,0.0035447017289698124,-0.0001504644169472158,0.009411538951098919
0.010133257135748863,0.003117629559710622,-0.006887305993586779,0.0041906763799488544,-0.00014738448953721672,0.00954024214297533
0.010600904002785683,0.003461068030446768,-0.006605762057006359,0.0038292265962809324,-0.00014442800602409989,0.009412044659256935
0.010046593844890594,0.0036462079733610153,-0.006420184392482042,0.0035231835208833218,-0.0001454370649298653,0.009336579591035843
0.009837493300437927,0.0034660273231565952,-0.0071467021480202675,0.0035996511578559875,-0.000144554564030841,0.009857377968728542
0.010600009933114052,0.0034652322065085173,-0.006999154109507799,0.0037643376272171736,-0.00014029507292434573,0.010423000901937485
0.010166321881115437,0.0032314350828528404,-0.006553859915584326,0.0038382296916097403,-0.0001360686292173341,0.009976690635085106
0.010166321881115437,0.0032314350828528404,-0.006553859915584326,0.0038382296916097403,-0.0001360686292173341,0.009976690635085106
0.010184848681092262,0.003740178421139717,-0.007651214022189379,0.00366010470315814,-0.00012830946070607752,0.010139654390513897
0.010184848681092262,0.003740178421139717,-0.007651214022189379,0.00366010470315814,-0.00012830946070607752,0.010139654390513897
0.010253474116325378,0.0037234832998365164,-0.007098478730767965,0.0041203987784683704,-0.0001432372664567083,0.009655178524553776
0.01016581803560257,0.0037394992541521788,-0.0064461324363946915,0.004108529072254896,-0.00014524193829856813,0.010082373395562172
0.010885375551879406,0.0036948062479496002,-0.006354009732604027,0.0040643285028636456,-0.00014181016013026237,0.009982223622500896
0.010023710317909718,0.0036344497930258512,-0.00720228161662817,0.004025442060083151,-0.00013820541789755225,0.010479629971086979
0.010110047645866871,0.0036765350960195065,-0.007329959888011217,0.004436945542693138,-0.0001347578945569694,0.01010515633970499
0.010250688530504704,0.003966432996094227,-0.006836144253611565,0.004244205541908741,-0.00013886467786505818,0.009923681616783142
0.010526228696107864,0.0036447886377573013,-0.006632237695157528,0.004078770522028208,-0.00014555652160197496,0.00999526958912611
0.010640986263751984,0.0035070099402219057,-0.007133187726140022,0.00397748127579689,-0.00014290164108388126,0.009720765985548496
0.01061995793133974,0.003678465262055397,-0.007065695710480213,0.004292169585824013,-0.0001397732412442565,0.009534301236271858
0.009947980754077435,0.004217404406517744,-0.00664303544908762,0.0038471310399472713,-0.00013674207730218768,0.010258092544972897
0.010222933255136013,0.00427276361733675,-0.006887958850711584,0.004537300206720829,-0.0001338371803285554,0.010277162306010723
0.010295025072991848,0.003526051063090563,-0.007185493595898151,0.0048422436229884624,-0.00013105315156280994,0.010574725456535816
0.011511347256600857,0.0035174046643078327,-0.007515923585742712,0.00454365462064743,-0.00012838242400903255,0.01058120559900999
0.011584402061998844,0.0037704010028392076,-0.007107279263436794,0.004364737309515476,-0.00014143534644972533,0.010135508142411709
0.011303003877401352,0.003894628258422017,-0.006819465197622776,0.0040559666231274605,-0.00014082300185691565,0.0098735885694623
0.012060285545885563,0.003822428174316883,-0.008007023483514786,0.003947777207940817,-0.00013825934729538858,0.010339755564928055
0.011215969920158386,0.0037585764657706022,-0.007962389849126339,0.004356125835329294,-0.00013566350389737636,0.009987115859985352
0.011332078836858273,0.0037226888816803694,-0.007708724122494459,0.004184838384389877,-0.00013315513206180185,0.010102087631821632
0.010979274287819862,0.004083392675966024,-0.007075212430208921,0.004318546038120985,-0.00013078763731755316,0.010643156245350838
0.011265016160905361,0.004190604202449322,-0.007601696066558361,0.004221061244606972,-0.00016862958727870136,0.010045665316283703
0.011265016160905361,0.004190604202449322,-0.007601696066558361,0.004221061244606972,-0.00016862958727870136,0.010045665316283703
0.011755364947021008,0.003574820701032877,-0.007609098218381405,0.0043149287812411785,-0.00016523036174476147,0.009988684207201004
0.011471294797956944,0.0035838265903294086,-0.0075638433918356895,0.004366774577647448,-0.00015955348499119282,0.010053591802716255
0.012144522741436958,0.0037360249552875757,-0.0068748705089092255,0.004223661031574011,-0.00015410083869937807,0.009892857633531094
0.012303409166634083,0.0037968317046761513,-0.007040397729724646,0.004288022872060537,-0.0001489986025262624,0.01057892944663763
0.011816659942269325,0.004235616885125637,-0.00749013340100646,0.004234434571117163,-0.00014422280946746469,0.010273050516843796
0.011957751587033272,0.00427832268178463,-0.008034982718527317,0.004031348507851362,-0.00016399580636061728,0.010369474068284035
0.011674170382320881,0.0036267098039388657,-0.006899857893586159,0.003941643517464399,-0.00016239997057709843,0.01097315363585949
0.012369649484753609,0.0034499464090913534,-0.0071616279892623425,0.003923398908227682,-0.00015786961012054235,0.010729983448982239
0.011639555916190147,0.003638030495494604,-0.007446650415658951,0.00423860689625144,-0.00015339885430876166,0.009132354520261288
0.011717161163687706,0.0039035382214933634,-0.007607833947986364,0.0044115944765508175,-0.0001491621369495988,0.009674993343651295
0.011622906662523746,0.0039697070606052876,-0.007712078746408224,0.004872462712228298,-0.0001413527352269739,0.011020615696907043
0.01200350932776928,0.0034981451462954283,-0.007596129085868597,0.004973836243152618,-0.00015768103185109794,0.010596309788525105
0.011805953457951546,0.0040777381509542465,-0.0075798942707479,0.004448433872312307,-0.00015650958812329918,0.010371489450335503
0.012407999485731125,0.004134554881602526,-0.0077112168073654175,0.004344955086708069,-0.0001528905995655805,0.010148532688617706
0.012006201781332493,0.004003374371677637,-0.008517999202013016,0.004113856703042984,-0.00014927916345186532,0.010144502855837345
0.011992436833679676,0.0034587581176310778,-0.00853702612221241,0.004251657985150814,-0.00014582446601707488,0.010473704896867275
0.012339475564658642,0.003434553276747465,-0.008020917885005474,0.004604262765496969,-0.00014252531400416046,0.010902640409767628
0.011982573196291924,0.0036539966240525246,-0.007534424774348736,0.005180254578590393,-0.00015795307990629226,0.010401342995464802
0.012652718462049961,0.004268639720976353,-0.008914723992347717,0.005450762342661619,-0.00015574815915897489,0.010450953617691994
0.011971529573202133,0.004061833955347538,-0.008190710097551346,0.004679803736507893,-0.0001525278203189373,0.010516373440623283
0.01221449114382267,0.003947047982364893,-0.007939441129565239,0.004493516869843006,-0.0001493685704190284,0.010658168233931065
0.012668685056269169,0.003371578874066472,-0.00811024010181427,0.004258080385625362,-0.00014633307000622153,0.010724244639277458
0.012398547492921352,0.0032317498698830605,-0.00884064007550478,0.004320316482335329,-0.00014341813221108168,0.011098573915660381
0.012881499715149403,0.0033237494062632322,-0.007990443147718906,0.0048716114833951,-0.00014061723777558655,0.011385388672351837
0.012011551298201084,0.0036297377664595842,-0.007839223369956017,0.004849283955991268,-0.0001637892855796963,0.011271719820797443
0.012491291388869286,0.0038942687679082155,-0.008468464948236942,0.004664653912186623,-0.00016170548042282462,0.011067685671150684
0.012491291388869286,0.0038942687679082155,-0.008468464948236942,0.004664653912186623,-0.00016170548042282462,0.011067685671150684
0.012079799547791481,0.003466801717877388,-0.008400624617934227,0.0042621842585504055,-0.00015633541624993086,0.011112772859632969
0.012479654513299465,0.0031451075337827206,-0.008316279388964176,0.004380513448268175,-0.00017346770619042218,0.011459373869001865
0.012690993025898933,0.003466846654191613,-0.008438875898718834,0.004496844485402107,-0.00017491893959231675,0.011803255416452885
0.01240444928407669,0.0032763665076345205,-0.008859019726514816,0.004738019313663244,-0.0001944495306815952,0.011480567045509815
0.013029485940933228,0.0033957469277083874,-0.008621983230113983,0.005006297491490841,-0.00019193545449525118,0.011522226966917515
0.012254489585757256,0.00340442662127316,-0.008760623633861542,0.005056134425103664,-0.00020620798750314862,0.011276851408183575
0.0127410301938653,0.003327182959765196,-0.009170833975076675,0.005211893934756517,-0.00020655395928770304,0.010887389071285725
0.012285426259040833,0.0031910173129290342,-0.00817074067890644,0.004758988972753286,-0.00020119106920901686,0.010717703960835934
0.012993101961910725,0.003339105984196067,-0.008093236945569515,0.004606243688613176,-0.00036271734279580414,0.01093589048832655
0.013161987066268921,0.0032260441221296787,-0.009120532311499119,0.004963152576237917,-0.00038515101186931133,0.011683296412229538
0.013243267312645912,0.0031403012108057737,-0.008310070261359215,0.004999730736017227,-0.0003935006388928741,0.012068857438862324
0.012872690334916115,0.0032496191561222076,-0.008453229442238808,0.005058309994637966,-0.00037052566767670214,0.011439280584454536
0.0132598290219903,0.003301271004602313,-0.009053627029061317,0.004966384265571833,-0.0003469694056548178,0.011050082743167877
0.01303024310618639,0.003443621564656496,-0.008918851613998413,0.0047788857482373714,-0.00032602678402327,0.011318281292915344
0.013293294236063957,0.0032361336052417755,-0.008750174194574356,0.00499527994543314,-0.00030745676485821605,0.010936731472611427
0.012934902682900429,0.003565938677638769,-0.009216425009071827,0.0052132015116512775,-0.000290887983283028,0.01149467658251524
0.013483868911862373,0.0033314935863018036,-0.008939302526414394,0.005722962785512209,-0.00027601452893577516,0.012022808194160461
0.013097792863845825,0.0035353905986994505,-0.009069823659956455,0.005424211733043194,-0.0003033487591892481,0.01186533272266388
0.013370527885854244,0.0032473423052579165,-0.00948586780577898,0.0056650685146451,-0.0002919462858699262,0.012264993041753769
0.013529579155147076,0.003202705644071102,-0.009137713350355625,0.005439093802124262,-0.00027917942497879267,0.012662004679441452
0.01346597820520401,0.0032322772312909365,-0.00864266324788332,0.005770385731011629,-0.00026734109269455075,0.012034203857183456
0.013243618421256542,0.0035448309499770403,-0.009616653434932232,0.005840636789798737,-0.0002564571041148156,0.01162944920361042
0.013505242764949799,0.0037468569353222847,-0.009508347138762474,0.005384183954447508,-0.0002464236749801785,0.011469073593616486
0.01390145719051361,0.0037627415731549263,-0.009136348962783813,0.005187866743654013,-0.00026652083033695817,0.013100300915539265
0.013641560450196266,0.003759553423151374,-0.009319247677922249,0.00570938503369689,-0.0002608967770356685,0.01129714585840702
0.013828972354531288,0.0038262002635747194,-0.009285424835979939,0.00595832010731101,-0.0002520269190426916,0.011763050220906734
0.013828972354531288,0.0038262002635747194,-0.009285424835979939,0.00595832010731101,-0.0002520269190426916,0.011763050220906734
0.013510065153241158,0.003434987273067236,-0.009158068336546421,0.005989767611026764,-0.00024351879255846143,0.01178375817835331
0.01373900193721056,0.0035751000978052616,-0.00930069386959076,0.005795528180897236,-0.00023555246298201382,0.012080280110239983
0.01333629060536623,0.003901480697095394,-0.010495088994503021,0.005846730433404446,-0.00021926975750830024,0.012513755820691586
0.01383016724139452,0.003532220609486103,-0.009719058871269226,0.005390817765146494,-0.00020127832249272615,0.012166847474873066
0.013691151514649391,0.0035264051984995604,-0.009184286929666996,0.005892188288271427,-0.0001921464572660625,0.01325011532753706
0.014056826941668987,0.0036939065903425217,-0.009660393930971622,0.006245799362659454,-0.0001842426718212664,0.012759956531226635
0.013757854700088501,0.003853814210742712,-0.009490018710494041,0.005719443317502737,-0.00017699222371447831,0.013015244156122208
0.01452407892793417,0.003905582008883357,-0.01021028496325016,0.005759338848292828,-0.00019982332014478743,0.012937182560563087
0.013791277073323727,0.0034088478423655033,-0.010032488964498043,0.005427771247923374,-0.00019660334510263056,0.012479385361075401
0.013913696631789207,0.003224362153559923,-0.009058949537575245,0.005787376314401627,-0.0001899521448649466,0.012370052747428417
0.014126168563961983,0.003254503011703491,-0.008843165822327137,0.005946311634033918,-0.00018351318431086838,0.012069166637957096
0.01440843753516674,0.0035327617079019547,-0.009784920141100883,0.00563599681481719,-0.00019854115089401603,0.012400318868458271
0.014648300595581532,0.0033695087768137455,-0.009250588715076447,0.005667525809258223,-0.00019416335271671414,0.012650278396904469
0.014587655663490295,0.0033833354245871305,-0.009784284047782421,0.005860644392669201,-0.0001884684170363471,0.012515709735453129
0.014986113645136356,0.0031521276105195284,-0.009524844586849213,0.006401440128684044,-0.00020738565945066512,0.012474113143980503
0.014902662485837936,0.0031592187006026506,-0.009493263438344002,0.0063627054914832115,-0.00020312517881393433,0.012284169904887676
0.015594850294291973,0.0032483008690178394,-0.010272197425365448,0.005774037446826696,-0.00019765265460591763,0.012304989621043205
0.014826814644038677,0.003447124036028981,-0.010125106200575829,0.00581764942035079,-0.00023282684560399503,0.012481918558478355
0.015325520187616348,0.003271899651736021,-0.009119930677115917,0.0056023867800831795,-0.0002582742599770427,0.012483399361371994
0.015206015668809414,0.0032763842027634382,-0.009859208017587662,0.006008530501276255,-0.0002466542355250567,0.012325135990977287
0.015144241973757744,0.0033975488040596247,-0.01048157550394535,0.005712223704904318,-0.00023399009660352021,0.012417996302247047
0.014730953611433506,0.0036212943959981203,-0.009668568149209023,0.0056242854334414005,-0.00022243158309720457,0.012653743848204613
0.015405393205583096,0.0033050011843442917,-0.01005327608436346,0.005978996399790049,-0.00021195241424720734,0.012678021565079689
0.01516074500977993,0.0034382776357233524,-0.009784366004168987,0.005717421881854534,-0.00020241578749846667,0.012728305533528328
0.015718745067715645,0.0035227162297815084,-0.009803512133657932,0.006438866723328829,-0.00019370079098735005,0.01298286858946085
0.015716368332505226,0.0035177019890397787,-0.010544165968894958,0.006684844847768545,-0.0001857054594438523,0.012923835776746273
0.015159985050559044,0.0033731688745319843,-0.010024846531450748,0.00643020449206233,-0.00019580000662244856,0.013157371431589127
0.01545563992112875,0.0031477478332817554,-0.009819692000746727,0.005937635898590088,-0.00020466432033572346,0.01313893310725689
0.01557170320302248,0.0032498398795723915,-0.010339495725929737,0.006279365625232458,-0.00019821524620056152,0.013331127353012562
0.01599968783557415,0.0031704760622233152,-0.009842588566243649,0.0064940061420202255,-0.00019126311235595495,0.01308399811387062
0.015621107071638107,0.0034101209603250027,-0.01013080682605505,0.0068216100335121155,-0.00018472422380000353,0.013083942234516144
0.015915723517537117,0.003207671456038952,-0.010459598153829575,0.006578840781003237,-0.00020443910034373403,0.013099770992994308
0.015915723517537117,0.003207671456038952,-0.010459598153829575,0.006578840781003237,-0.00020443910034373403,0.013099770992994308
0.017460640519857407,0.0033176748547703028,-0.009787365794181824,0.006343594286590815,-0.00020145245071034878,0.013025308959186077
0.01600884646177292,0.003479731036350131,-0.010613738559186459,0.006176949944347143,-0.000195434462511912,0.013417070731520653
0.015984073281288147,0.003543536877259612,-0.009871980175375938,0.006751964800059795,-0.0001840313634602353,0.0134111437946558
0.01622278057038784,0.00340772932395339,-0.010517198592424393,0.006251887418329716,-0.00017880770610645413,0.01264829933643341
0.015824168920516968,0.003554025897756219,-0.010035983286798,0.006044231820851564,-0.00017387275875080377,0.013374313712120056
0.016488559544086456,0.0038108578883111477,-0.009735696017742157,0.00677443016320467,-0.00018711332813836634,0.013167327269911766
0.016209488734602928,0.0035474104806780815,-0.010677522979676723,0.006982017308473587,-0.0001879073679447174,0.013699919916689396
0.016507955268025398,0.0034474695567041636,-0.010521923191845417,0.006712628062814474,-0.00018348939192947,0.013682086952030659
0.016047371551394463,0.003639874281361699,-0.009536035358905792,0.006969980895519257,-0.00017901783576235175,0.013498186133801937
0.016575444489717484,0.003794044954702258,-0.010217656381428242,0.0068240114487707615,-0.00017943227430805564,0.013316146098077297
0.01590570993721485,0.003788995323702693,-0.009843258187174797,0.00702366977930069,-0.0002030346222454682,0.013504477217793465
0.015937896445393562,0.003725636750459671,-0.009569321759045124,0.0068150972947478294,-0.00021600206673610955,0.014004107564687729
0.016224637627601624,0.003757656319066882,-0.010407881811261177,0.006777581758797169,-0.0002238494489574805,0.014023235067725182
0.016460860148072243,0.003809807589277625,-0.009897461161017418,0.006954468321055174,-0.00024608062813058496,0.014167414978146553
0.016722476109862328,0.0035126127768307924,-0.011075248010456562,0.007518656086176634,-0.00023983554274309427,0.014036324806511402
0.016063814982771873,0.0034087796229869127,-0.010402759537100792,0.007687300909310579,-0.0004351298848632723,0.014157382771372795
0.01660154201090336,0.003051667707040906,-0.009474905207753181,0.006974292453378439,-0.0005652259569615126,0.013644752092659473
0.016519447788596153,0.0033209475222975016,-0.009958797134459019,0.006357597652822733,-0.0005878398660570383,0.01364942267537117
0.0168368611484766,0.003584243357181549,-0.01117998082190752,0.0067194062285125256,-0.000551491801161319,0.013799005188047886
0.0168368611484766,0.003584243357181549,-0.01117998082190752,0.0067194062285125256,-0.000551491801161319,0.013799005188047886
0.016747375950217247,0.003402446862310171,-0.010263833217322826,0.007197520695626736,-0.0005793726304545999,0.014128075912594795
0.016521519050002098,0.0030286347027868032,-0.009976694360375404,0.007573527749627829,-0.0005722621572203934,0.014197676442563534
0.016742167994379997,0.0032883372623473406,-0.010505557991564274,0.006805636920034885,-0.0005615747650153935,0.014376732520759106
0.016429251059889793,0.0032204522285610437,-0.009857474826276302,0.0069123911671340466,-0.0005710754194296896,0.014011045917868614
0.017044538632035255,0.0031370255164802074,-0.009876670315861702,0.007221495732665062,-0.00055122678168118,0.014346158131957054
0.01663568988442421,0.003091237274929881,-0.010519764386117458,0.007294734474271536,-0.0005788549315184355,0.01405924279242754
0.01665569841861725,0.003130116732791066,-0.009868298657238483,0.007217234931886196,-0.0005333428853191435,0.014182006940245628
0.016744200140237808,0.0032009680289775133,-0.010287429206073284,0.007331882603466511,-0.000561252236366272,0.014222128316760063
0.01653067022562027,0.0034299020189791918,-0.010252002626657486,0.0075691137462854385,-0.0005743688670918345,0.014486534520983696
0.01681523025035858,0.0037471011746674776,-0.010377245023846626,0.007747126277536154,-0.0005138065898790956,0.014157031662762165
0.016855724155902863,0.003347138175740838,-0.009878869168460369,0.0075515215285122395,-0.0005535808159038424,0.013964710757136345
0.017125817015767097,0.0030521948356181383,-0.010126926004886627,0.007287789136171341,-0.0005717803724110126,0.014105829410254955
0.01661035791039467,0.0029251936357468367,-0.010169334709644318,0.007274243980646133,-0.0005375917535275221,0.014062214642763138
0.016983652487397194,0.0029661471489816904,-0.009820310398936272,0.007422862108796835,-0.000529667770024389,0.014202061109244823
0.016841687262058258,0.00325845368206501,-0.009690945968031883,0.007520636543631554,-0.0005216309218667448,0.013957597315311432
0.017179349437355995,0.0031676050275564194,-0.009862594306468964,0.007122265640646219,-0.0004838878521695733,0.014556884765625
0.01722375676035881,0.003469752613455057,-0.009656579233705997,0.007547053974121809,-0.00044949198490940034,0.014900862239301205
0.017112156376242638,0.0037723141722381115,-0.010104846209287643,0.007673804648220539,-0.0004486673278734088,0.014095796272158623
0.017303312197327614,0.003830995410680771,-0.01019242499023676,0.007722724694758654,-0.0004475180176086724,0.014101210050284863
0.016801828518509865,0.0033569643273949623,-0.009913254529237747,0.007481579203158617,-0.00042296983883716166,0.014680690132081509
0.01725182868540287,0.0032389098778367043,-0.009622517973184586,0.007774669211357832,-0.00039959969581104815,0.014909529127180576
0.017322227358818054,0.003254466224461794,-0.009858553297817707,0.008355650119483471,-0.0003796229721046984,0.01534277107566595
0.017173221334815025,0.003528780536726117,-0.009547377936542034,0.008497511968016624,-0.0003478917642496526,0.015406294725835323
0.01752561703324318,0.00379796139895916,-0.00945461168885231,0.00794562790542841,-0.0003227636043448001,0.015845928341150284
0.017668774351477623,0.003446341957896948,-0.01078155729919672,0.007604536600410938,-0.0003303989942651242,0.015504996292293072
0.01784607768058777,0.00356296356767416,-0.0099104605615139,0.008120667189359665,-0.00033666761009953916,0.015558415092527866
0.017792293801903725,0.0038741296157240868,-0.009195251390337944,0.008682213723659515,-0.0003644943644758314,0.015150745399296284
0.017077142372727394,0.003974041901528835,-0.009731377474963665,0.008440718986093998,-0.00035059958463534713,0.014763874933123589
0.017077142372727394,0.003974041901528835,-0.009731377474963665,0.008440718986093998,-0.00035059958463534713,0.014763874933123589
0.0172287505120039,0.003967653959989548,-0.010024361312389374,0.007945116609334946,-0.0003767383750528097,0.014966660179197788
0.017192823812365532,0.00393621064722538,-0.009798466227948666,0.007865864783525467,-0.0004597543738782406,0.015247712843120098
0.017781713977456093,0.0034324992448091507,-0.010281638242304325,0.00851953960955143,-0.0005018860683776438,0.01608249545097351
0.017620768398046494,0.0035125333815813065,-0.009768135845661163,0.008378720842301846,-0.0004570142482407391,0.016363417729735374
0.017399216070771217,0.003202014835551381,-0.009322628378868103,0.008446276187896729,-0.000492266146466136,0.015811150893568993
0.01724672131240368,0.0033294197637587786,-0.010112754069268703,0.008128851652145386,-0.000492498220410198,0.01502940896898508
0.017190951853990555,0.0035250186920166016,-0.010604947805404663,0.007881867699325085,-0.0004880833439528942,0.01566206105053425
0.017755938693881035,0.0037430438678711653,-0.009965396486222744,0.007612766698002815,-0.0005028063314966857,0.015345144085586071
0.01805567927658558,0.0037829303182661533,-0.010241989977657795,0.007584208156913519,-0.00048400580999441445,0.015878839418292046
0.017474452033638954,0.0035924857947975397,-0.010081261396408081,0.008162744343280792,-0.0004274963866919279,0.015735743567347527
0.017327819019556046,0.0033421486150473356,-0.010099286213517189,0.007782772183418274,-0.00040352970245294273,0.01572178117930889
0.01747698150575161,0.003267482854425907,-0.010384396649897099,0.008100117556750774,-0.00039984294562600553,0.01581515744328499
0.01712943986058235,0.003518904559314251,-0.010097553953528404,0.008179213851690292,-0.0003705118433572352,0.015364793129265308
0.017192626371979713,0.003784953383728862,-0.010387512855231762,0.008278513327240944,-0.0003425235627219081,0.015225195325911045
0.01771049201488495,0.0034661104436963797,-0.010175094939768314,0.007778752129524946,-0.0003491859824862331,0.015697767958045006
0.018062114715576172,0.0038833580911159515,-0.01010884065181017,0.008271091617643833,-0.00035456669866107404,0.015845486894249916
0.01661999709904194,0.004202389158308506,-0.010752382688224316,0.008515864610671997,-0.00033445219742134213,0.016483984887599945
0.018381137400865555,0.004082587547600269,-0.010494696907699108,0.007782200817018747,-0.0003150518168695271,0.016217384487390518
0.01804664358496666,0.003890102729201317,-0.012349318712949753,0.007979701273143291,-0.00034061208134517074,0.0171671025454998
0.017873022705316544,0.0034072452690452337,-0.01170843280851841,0.008920611813664436,-0.0003287108847871423,0.015386740677058697
0.017550449818372726,0.0034533010330051184,-0.011325064115226269,0.008689388632774353,-0.00035438648774288595,0.015331237576901913
0.017499014735221863,0.003673159284517169,-0.011899705976247787,0.007832299917936325,-0.000340368045726791,0.01553596556186676
0.01809864677488804,0.0037841566372662783,-0.01141897402703762,0.008162119425833225,-0.0003268311847932637,0.015784597024321556
0.018001869320869446,0.0038233643863350153,-0.011853287927806377,0.008734935894608498,-0.00035062863025814295,0.016398053616285324
0.018001869320869446,0.0038233643863350153,-0.011853287927806377,0.008734935894608498,-0.00035062863025814295,0.016398053616285324
0.018944760784506798,0.004255568142980337,-0.011708034202456474,0.008371890522539616,-0.00030613390845246613,0.016351472586393356
0.018944760784506798,0.004255568142980337,-0.011708034202456474,0.008371890522539616,-0.00030613390845246613,0.016351472586393356
0.018624108284711838,0.003979630768299103,-0.012310565449297428,0.008560029789805412,-0.00028663649572990835,0.01607268862426281
0.01873108185827732,0.003972399514168501,-0.012177122756838799,0.008631189353764057,-0.00031961308559402823,0.016411442309617996
0.018975038081407547,0.003834665520116687,-0.013006129302084446,0.008567065931856632,-0.00030483558657579124,0.016063205897808075
0.018489977344870567,0.0037536106538027525,-0.011914651840925217,0.008868242613971233,-0.000288744195131585,0.016004720702767372
0.018760019913315773,0.0037246355786919594,-0.012295321561396122,0.008824375458061695,-0.0003078012668993324,0.016273558139801025
0.01894628442823887,0.0037969269324094057,-0.012329336255788803,0.008604313246905804,-0.0003035461704712361,0.016719700768589973
0.018831370398402214,0.003979988396167755,-0.012500766664743423,0.009034162387251854,-0.0002902499691117555,0.016631435602903366
0.018927929922938347,0.004258634522557259,-0.012621892616152763,0.00842208880931139,-0.00027750676963478327,0.0162651427090168
0.018845563754439354,0.0035843560472130775,-0.012514599598944187,0.008507627993822098,-0.0002657989098224789,0.016567284241318703
0.01860114000737667,0.00324035482481122,-0.012895702384412289,0.009102573618292809,-0.0002550366916693747,0.01664821244776249
0.019111521542072296,0.003136965911835432,-0.01242311205714941,0.00898703746497631,-0.00026085865101777017,0.016831280663609505
0.018669521436095238,0.0032326052896678448,-0.012261989526450634,0.008619842119514942,-0.0002593281678855419,0.016383718699216843
0.019466247409582138,0.003359840949997306,-0.012506932020187378,0.008529619313776493,-0.00025080767227336764,0.016216041520237923
0.01951488107442856,0.003678517881780863,-0.012503812089562416,0.008816131390631199,-0.00024309908621944487,0.016141191124916077
0.019000116735696793,0.00379363726824522,-0.011850114911794662,0.008806351572275162,-0.0002367719280300662,0.01649031788110733
0.019187336787581444,0.003725635353475809,-0.012508096173405647,0.009354330599308014,-0.00022533547598868608,0.016955215483903885
0.019343281164765358,0.0031854533590376377,-0.012452795170247555,0.008843396790325642,-0.0002517854736652225,0.01729648746550083
0.01933027245104313,0.0031194291077554226,-0.013021447695791721,0.00879129022359848,-0.00024543580366298556,0.017519839107990265
0.01980423927307129,0.0034029772505164146,-0.012104724533855915,0.009194386191666126,-0.0002542386937420815,0.017073139548301697
0.019412392750382423,0.0037976158782839775,-0.013260832987725735,0.009135954082012177,-0.0002615360717754811,0.016632752493023872
0.019147899001836777,0.003443273017182946,-0.012712046504020691,0.009023795835673809,-0.00025223041302524507,0.016146913170814514
0.019524721428751945,0.0035206268075853586,-0.012082143686711788,0.008659149520099163,-0.00027489542844705284,0.017086602747440338
0.019584089517593384,0.003861836390569806,-0.012533647939562798,0.00816713459789753,-0.00026681844610720873,0.016549034044146538
0.019552215933799744,0.004063837695866823,-0.012203124351799488,0.008886972442269325,-0.0003504942578729242,0.017261125147342682
0.019552215933799744,0.004063837695866823,-0.012203124351799488,0.008886972442269325,-0.0003504942578729242,0.017261125147342682
0.01965325139462948,0.0035065810661762953,-0.013140094466507435,0.008897285908460617,-0.0004058317863382399,0.017452247440814972
0.019816728308796883,0.0035357640590518713,-0.01220699306577444,0.009073924273252487,-0.00041402559145353734,0.016702916473150253
0.020168324932456017,0.0036721774376928806,-0.012215480208396912,0.009234639815986156,-0.0004157605580985546,0.017325004562735558
0.0203463826328516,0.0032791276462376118,-0.012938195839524269,0.009173274971544743,-0.00044822393101640046,0.01744416542351246
0.020753134042024612,0.003207872388884425,-0.012767009437084198,0.008848167024552822,-0.00047438713954761624,0.01815689168870449
0.01985776051878929,0.0032626630272716284,-0.012824170291423798,0.009356333874166012,-0.00045198266161605716,0.017871510237455368
0.01921243779361248,0.0031379088759422302,-0.011991724371910095,0.008943385444581509,-0.0005926309968344867,0.01717473566532135
0.020660603418946266,0.003925263416022062,-0.011968763545155525,0.009346384555101395,-0.0005793857853859663,0.017092863097786903
0.020491698756814003,0.003937556408345699,-0.012317455373704433,0.00956767052412033,-0.0006045189802534878,0.017052551731467247
0.02030760608613491,0.0034091139677911997,-0.012162362225353718,0.00933957938104868,-0.0006000813446007669,0.01753934472799301
0.020854121074080467,0.0031307018361985683,-0.012536170892417431,0.00959767121821642,-0.0005870003369636834,0.01743023470044136
0.020860442891716957,0.0031633046455681324,-0.01264229230582714,0.010139097459614277,-0.0006372432690113783,0.018240993842482567
0.02091355063021183,0.0033870022743940353,-0.012085475958883762,0.009789141826331615,-0.0005879675154574215,0.018534300848841667
0.021499015390872955,0.0034519301261752844,-0.012737531214952469,0.00984511524438858,-0.0006115271826274693,0.01804971508681774
0.02135646529495716,0.00350695732049644,-0.012272811494767666,0.00954877957701683,-0.000605253386311233,0.017732400447130203
0.020811010152101517,0.0032536203507333994,-0.012971922755241394,0.009074880741536617,-0.0005898294039070606,0.017508910968899727
0.020543090999126434,0.003556911600753665,-0.012300819158554077,0.009952572174370289,-0.0005791854346171021,0.018045706674456596
0.02097119390964508,0.0038064015097916126,-0.012178751640021801,0.009861111640930176,-0.000567672192119062,0.01836518757045269
0.022062046453356743,0.003393651219084859,-0.012812796048820019,0.009585810825228691,-0.000528238364495337,0.018344007432460785
0.021339327096939087,0.003471893724054098,-0.012388944625854492,0.009974443353712559,-0.000532458710949868,0.018132472410798073
0.021355051547288895,0.0031543734949082136,-0.012715361081063747,0.00999454502016306,-0.0004832131671719253,0.01816493645310402
0.021700937300920486,0.0032579221297055483,-0.01224313024431467,0.009607312269508839,-0.0005006653955206275,0.018117526546120644
0.02145887166261673,0.0033015224616974592,-0.012673142366111279,0.01016463153064251,-0.0004762067401316017,0.018426483497023582
0.02142481692135334,0.003444149624556303,-0.012422950938344002,0.010159537196159363,-0.0004387730732560158,0.018118305131793022
0.02142481692135334,0.003444149624556303,-0.012422950938344002,0.010159537196159363,-0.0004387730732560158,0.018118305131793022
0.02161441370844841,0.00328738521784544,-0.012860404327511787,0.009613638743758202,-0.00043863840983249247,0.018168119713664055
0.022046087309718132,0.0035843714140355587,-0.012769232504069805,0.009714319370687008,-0.00043810182251036167,0.018998488783836365
0.02169869653880596,0.0038768937811255455,-0.01221143826842308,0.010241248644888401,-0.00041144134593196213,0.017435040324926376
0.021701544523239136,0.003471819218248129,-0.01235995814204216,0.009900052100419998,-0.00043767658644355834,0.017494702711701393
0.021950695663690567,0.0035287397913634777,-0.012292508035898209,0.010201687924563885,-0.0004397894081193954,0.018142743036150932
0.022335810586810112,0.003246404929086566,-0.01273106224834919,0.010253645479679108,-0.0004237702232785523,0.01821124367415905
0.022212769836187363,0.003252591472119093,-0.012436360120773315,0.010187328793108463,-0.0004558288201224059,0.018544552847743034
0.022029981017112732,0.0034000545274466276,-0.01262611337006092,0.010138224810361862,-0.00046172310248948634,0.01843356527388096
0.02212967909872532,0.003640249604359269,-0.012441038154065609,0.009813491255044937,-0.00048549060011282563,0.01845049299299717
0.022396456450223923,0.003421858884394169,-0.01295114029198885,0.010511244647204876,-0.0005884165875613689,0.01861349679529667
0.021929942071437836,0.0036277680192142725,-0.012303377501666546,0.01018316950649023,-0.0006881062872707844,0.01907593198120594
0.02192891389131546,0.0037361772265285254,-0.012631434947252274,0.01054411381483078,-0.0006648641428910196,0.019036516547203064
0.02259521372616291,0.003757323371246457,-0.012818939983844757,0.010306990705430508,-0.000595487596001476,0.018770474940538406
0.02260589599609375,0.003781307488679886,-0.013121852651238441,0.009936816990375519,-0.0006134326104074717,0.019198989495635033
0.02250864915549755,0.0033666423987597227,-0.012392985634505749,0.010408658534288406,-0.0005684850038960576,0.01908990368247032
0.02271265536546707,0.0031690145842731,-0.012635054998099804,0.010695931501686573,-0.0005580900469794869,0.018739840015769005
0.022345231845974922,0.0032361599151045084,-0.013019072823226452,0.010205401107668877,-0.0005484368884935975,0.018953124061226845
0.022600429132580757,0.0034992441069334745,-0.012276988476514816,0.010815063491463661,-0.0005116001120768487,0.018890446051955223
0.02295985072851181,0.0035620438866317272,-0.012818710878491402,0.010783101432025433,-0.0004942303639836609,0.01881369762122631
0.021862993016839027,0.0034743547439575195,-0.012523671612143517,0.010214000940322876,-0.0004490750143304467,0.0189046747982502
0.02216293290257454,0.003543797181919217,-0.013381406664848328,0.010380537249147892,-0.0004843729839194566,0.019073588773608208
0.02292216196656227,0.0034846330527216196,-0.01316885743290186,0.010027091018855572,-0.000485256954561919,0.01908065937459469
0.02390396222472191,0.003589724889025092,-0.013522461988031864,0.010168514214456081,-0.0004814506974071264,0.01909591630101204
0.023555938154459,0.0037039960734546185,-0.013428480364382267,0.011021250858902931,-0.00044927842100150883,0.019592134281992912
0.02287425473332405,0.0037266702856868505,-0.013752924278378487,0.011002924293279648,-0.00047126508434303105,0.01939641684293747
0.02287425473332405,0.0037266702856868505,-0.013752924278378487,0.011002924293279648,-0.00047126508434303105,0.01939641684293747
0.020211094990372658,0.0037621124647557735,-0.013783459551632404,0.010892365127801895,-0.000513777369633317,0.01926819421350956
0.023709626868367195,0.003450429067015648,-0.01354958489537239,0.011424152180552483,-0.0005171053926460445,0.019642263650894165
0.02409028820693493,0.0035308171063661575,-0.013841795735061169,0.010765125043690205,-0.00046743371058255434,0.019654948264360428
0.02321241796016693,0.0037534290459007025,-0.0136917969211936,0.010699881240725517,-0.00046449273941107094,0.019766949117183685
0.022878343239426613,0.0038375621661543846,-0.013813646510243416,0.010083231143653393,-0.0004617322119884193,0.019999122247099876
0.023527342826128006,0.003822548547759652,-0.01422162540256977,0.010515682399272919,-0.0003963253111578524,0.01927141658961773
0.023564955219626427,0.0035228333435952663,-0.013357909396290779,0.010528638027608395,-0.0004223738797008991,0.019555451348423958
0.0235269945114851,0.003633212298154831,-0.014233160763978958,0.00985626969486475,-0.00040262480615638196,0.019898761063814163
0.02282700687646866,0.0035623430740088224,-0.013792322017252445,0.010179937817156315,-0.0003788751200772822,0.020176386460661888
0.022943716496229172,0.003483987646177411,-0.014538937248289585,0.00982977356761694,-0.0003574026923161,0.02042189985513687
0.023651141673326492,0.0036422342527657747,-0.013576630502939224,0.00998461153358221,-0.00038002143264748156,0.020669281482696533
0.024293052032589912,0.003818463534116745,-0.014362424612045288,0.011040850542485714,-0.0003664012474473566,0.020184749737381935
0.02396331913769245,0.00346554396674037,-0.0135981859639287,0.010992774739861488,-0.00035088660661131144,0.019439399242401123
0.023889830335974693,0.003354186424985528,-0.014179659076035023,0.011770413257181644,-0.00031756144016981125,0.019742945209145546
0.023742355406284332,0.003406485775485635,-0.01373393926769495,0.011982453055679798,-0.0002960918936878443,0.020000025629997253
0.023674605414271355,0.003550709458068013,-0.012739451602101326,0.01152198575437069,-0.0002777675399556756,0.020376918837428093
0.024004682898521423,0.0036900530103594065,-0.014172263443470001,0.011605135165154934,-0.0003103038761764765,0.020455166697502136
0.024110844358801842,0.003557289484888315,-0.014596685767173767,0.01139119267463684,-0.00029643968446180224,0.020232096314430237
0.02407539077103138,0.0035167778842151165,-0.013771697878837585,0.011726082302629948,-0.0003157767350785434,0.020573895424604416
0.024501118808984756,0.0036603915505111217,-0.014547964558005333,0.01168040931224823,-0.0003110412217210978,0.020963598042726517
0.024544408544898033,0.003816374344751239,-0.014283938333392143,0.011158396489918232,-0.0003178115584887564,0.020874395966529846
0.024319930002093315,0.003815028350800276,-0.014507307671010494,0.011851363815367222,-0.00032285985071212053,0.02041691169142723
0.02417425625026226,0.0037707171868532896,-0.013811022974550724,0.01147670578211546,-0.0003102100745309144,0.020091336220502853
0.0245460607111454,0.0036078249104321003,-0.014468779787421227,0.011667771264910698,-0.00035028712591156363,0.020234934985637665
0.024427881464362144,0.003851068438962102,-0.014312752522528172,0.01169597264379263,-0.00037235257332213223,0.020161179825663567
0.024372044950723648,0.00396747887134552,-0.014951413497328758,0.01145610399544239,-0.00034697476075962186,0.020486628636717796
0.024862006306648254,0.0037454687990248203,-0.014556856825947762,0.011781923472881317,-0.0003536018484737724,0.021125009283423424
0.02439277432858944,0.0036486024037003517,-0.014924367889761925,0.011655769310891628,-0.00035876722540706396,0.021122664213180542
0.02448405884206295,0.003785650711506605,-0.014154015108942986,0.011936104856431484,-0.00037967716343700886,0.020659666508436203
0.02448405884206295,0.003785650711506605,-0.014154015108942986,0.011936104856431484,-0.00037967716343700886,0.020659666508436203
0.024847155436873436,0.003926407545804977,-0.014940558932721615,0.012356868013739586,-0.000370434601791203,0.020828379318118095
0.025036422535777092,0.004331021569669247,-0.014307736419141293,0.01168608944863081,-0.0003940132155548781,0.020740056410431862
0.024862704798579216,0.004129426088184118,-0.01476649846881628,0.012357085943222046,-0.0004622874257620424,0.020644476637244225
0.02541591227054596,0.004328158684074879,-0.014010036364197731,0.01189793087542057,-0.0004921437939628959,0.02084978297352791
0.025804972276091576,0.00424998952075839,-0.01515109371393919,0.01188286580145359,-0.000513963052071631,0.020412737503647804
0.024552585557103157,0.003988137934356928,-0.015048405155539513,0.011315464042127132,-0.0005208394140936434,0.02105030231177807
0.025198232382535934,0.003983234521001577,-0.014836639165878296,0.011750712990760803,-0.0005474673234857619,0.021083524450659752
0.025404533371329308,0.004394956864416599,-0.0151995699852705,0.011754583567380905,-0.0005146720795892179,0.02109658345580101
0.02529190294444561,0.004129268229007721,-0.014736411161720753,0.011773718520998955,-0.0006284175906330347,0.021255578845739365
0.02420959807932377,0.004225400276482105,-0.01515619270503521,0.011882981285452843,-0.0006586401723325253,0.021107206121087074
0.02579365111887455,0.0044996715150773525,-0.014743111096322536,0.011830387637019157,-0.0006473243120126426,0.021489927545189857
0.026198377832770348,0.004158318508416414,-0.015323017723858356,0.012341883964836597,-0.0006268179276958108,0.021775485947728157
0.026110578328371048,0.003914769738912582,-0.015058604069054127,0.011717879213392735,-0.0006486304337158799,0.02178044430911541
0.025769183412194252,0.003880792297422886,-0.015266385860741138,0.012280242517590523,-0.0007163084228523076,0.021830258890986443
0.0256058257073164,0.004406143445521593,-0.015337488614022732,0.012162002734839916,-0.0007508235285058618,0.021997934207320213
0.024482112377882004,0.004144094418734312,-0.015239078551530838,0.012503980658948421,-0.0007704938761889935,0.021705618128180504
0.025200296193361282,0.004273606464266777,-0.015463881194591522,0.012738390825688839,-0.0007852663984522223,0.021546529605984688
0.02630367875099182,0.004269281402230263,-0.015462865121662617,0.012848523445427418,-0.000730119994841516,0.021271536126732826
0.025744227692484856,0.004017908591777086,-0.015976503491401672,0.012656554579734802,-0.0007974630570970476,0.021778466179966927
0.026205547153949738,0.0038757435977458954,-0.015194195322692394,0.012621221132576466,-0.0007180116372182965,0.022664686664938927
0.02689865231513977,0.0039314511232078075,-0.015368236228823662,0.013203623704612255,-0.0007119326037354767,0.02252754382789135
0.026690581813454628,0.003972613252699375,-0.015095515176653862,0.013058348558843136,-0.0006532682455144823,0.021792057901620865
0.026494866237044334,0.00394830945879221,-0.015986137092113495,0.013526166789233685,-0.000674544891808182,0.02139905095100403
0.026266444474458694,0.0039258538745343685,-0.015542534179985523,0.012772033922374249,-0.000690294720698148,0.021410148590803146
0.025920560583472252,0.003945925273001194,-0.015793655067682266,0.01327095739543438,-0.0006395815871655941,0.021741073578596115
0.026321208104491234,0.004150079097598791,-0.015410029329359531,0.013346509076654911,-0.0005976050160825253,0.022646455094218254
0.026321208104491234,0.004150079097598791,-0.015410029329359531,0.013346509076654911,-0.0005976050160825253,0.022646455094218254
0.026314515620470047,0.003977680113166571,-0.015785327181220055,0.013223542831838131,-0.0005312804132699966,0.022189291194081306
0.026345456019043922,0.0036701010540127754,-0.01553437765687704,0.012081884779036045,-0.000595176185015589,0.022348474711179733
0.026345456019043922,0.0036701010540127754,-0.01553437765687704,0.012081884779036045,-0.000595176185015589,0.022348474711179733
0.026509443297982216,0.0037827040068805218,-0.016026778146624565,0.012292739935219288,-0.0006251370650716126,0.023148328065872192
0.026839671656489372,0.00390908308327198,-0.01571517251431942,0.012406861409544945,-0.00086140789790079,0.022694895043969154
0.02695481665432453,0.004346199333667755,-0.016061097383499146,0.012881035916507244,-0.0008151069632731378,0.02198123373091221
0.026417715474963188,0.004092802293598652,-0.015016081742942333,0.012530425563454628,-0.0007128079887479544,0.022494684904813766
0.02686535008251667,0.003641370451077819,-0.016053272411227226,0.012760653160512447,-0.0006560938199982047,0.021689891815185547
0.026561575010418892,0.003564810613170266,-0.01652759127318859,0.012694946490228176,-0.0005955338128842413,0.02240859344601631
0.02669667638838291,0.0040831961669027805,-0.016416847705841064,0.013415178284049034,-0.0005441360990516841,0.023033222183585167
0.02645661123096943,0.004232887644320726,-0.016197122633457184,0.013305053114891052,-0.0005673125851899385,0.022835319861769676
0.026875004172325134,0.004268779419362545,-0.016660992056131363,0.013890167698264122,-0.0005298741743899882,0.022666454315185547
0.026755500584840775,0.004219559021294117,-0.015744082629680634,0.013390782289206982,-0.00047546919086016715,0.022297803312540054
0.02694644033908844,0.00402181688696146,-0.01626235619187355,0.013804325833916664,-0.0004155873029958457,0.02254338376224041
0.027800286188721657,0.0038678711280226707,-0.01626940816640854,0.013135433197021484,-0.000449915329227224,0.022629210725426674
0.027200330048799515,0.003863618476316333,-0.016917342320084572,0.013506081886589527,-0.0004798414884135127,0.022621693089604378
0.027035467326641083,0.004055862780660391,-0.01706714741885662,0.013072561472654343,-0.0005014900816604495,0.022772450000047684
0.02730768732726574,0.004170795902609825,-0.016342269256711006,0.013812225311994553,-0.00048711453564465046,0.023023752495646477
0.027220437303185463,0.003957952372729778,-0.016528848558664322,0.01343147549778223,-0.000702577643096447,0.022805865854024887
0.02805047295987606,0.0036014914512634277,-0.016363728791475296,0.013717507012188435,-0.0007399676833301783,0.023247359320521355
0.028975123539566994,0.0033621613401919603,-0.01716817542910576,0.013567394576966763,-0.000658434524666518,0.023400304839015007
0.028621286153793335,0.003351016901433468,-0.017415311187505722,0.013109846971929073,-0.0006779832183383405,0.023382654413580894
0.027344226837158203,0.0036469679325819016,-0.01703321561217308,0.013439970090985298,-0.000617418612819165,0.02349744364619255
0.02735859341919422,0.003479117527604103,-0.017290664836764336,0.013629268854856491,-0.0006014122627675533,0.023739470168948174
0.028530815616250038,0.003501048544421792,-0.016973329707980156,0.01403547078371048,-0.000587525952141732,0.023622537031769753
0.028602784499526024,0.0036582397297024727,-0.017124537378549576,0.013664689846336842,-0.0005493080243468285,0.023963507264852524
0.028528913855552673,0.003775157732889056,-0.01654864102602005,0.013833227567374706,-0.0005004993290640414,0.02384316176176071
0.029124964028596878,0.0035097503568977118,-0.01721910387277603,0.01289687491953373,-0.0005170141812413931,0.023743752390146255
0.02935224212706089,0.0034234412014484406,-0.017707381397485733,0.013791464269161224,-0.0005504179862327874,0.023715000599622726
0.02952025644481182,0.0031238659285008907,-0.017757385969161987,0.013950785622000694,-0.0005795531324110925,0.023776158690452576
0.028311215341091156,0.0033086470793932676,-0.01772504299879074,0.01370724942535162,-0.0005574613460339606,0.023921748623251915
0.028311215341091156,0.0033086470793932676,-0.01772504299879074,0.01370724942535162,-0.0005574613460339606,0.023921748623251915
0.028647704049944878,0.003510286333039403,-0.015610956586897373,0.013098728843033314,-0.0008087143651209772,0.023860517889261246
0.029374556615948677,0.0035611754283308983,-0.01760209910571575,0.014016787521541119,-0.0008351043215952814,0.02352004498243332
0.029570305719971657,0.0034440590534359217,-0.01868780143558979,0.013940087519586086,-0.0007900162599980831,0.02382565103471279
0.02966766245663166,0.0033803258556872606,-0.017807472497224808,0.013453677296638489,-0.0007246166351251304,0.024444887414574623
0.02926771715283394,0.0034441587049514055,-0.01756855472922325,0.013589074835181236,-0.0007009305409155786,0.024485906586050987
0.02920512482523918,0.0036706228274852037,-0.017707543447613716,0.01307899970561266,-0.000646331172902137,0.02410600148141384
0.029836416244506836,0.0033530876971781254,-0.017950691282749176,0.012922014109790325,-0.0006727561703883111,0.02461467869579792
0.029586061835289,0.003498686943203211,-0.01728244125843048,0.012952141463756561,-0.0006044100155122578,0.02427269145846367
0.030338633805513382,0.0031714863143861294,-0.017842235043644905,0.012809201143682003,-0.0006218830239959061,0.024394256994128227
0.02976103127002716,0.0032742873299866915,-0.01865171454846859,0.013879379257559776,-0.0005756166065111756,0.02498660236597061
0.030047699809074402,0.0034554789308458567,-0.01790120266377926,0.01353956013917923,-0.0005833351751789451,0.02439292147755623
0.030059752985835075,0.003471851348876953,-0.01843482255935669,0.01393008604645729,-0.0005554811214096844,0.023962145671248436
0.02994660660624504,0.003547596512362361,-0.018043672665953636,0.013742913492023945,-0.0005442615947686136,0.024466481059789658
0.03001418523490429,0.00363457971252501,-0.017760446295142174,0.014861734583973885,-0.0005811838782392442,0.025330103933811188
0.030597344040870667,0.003916265442967415,-0.01807890273630619,0.013729427941143513,-0.0006127529195509851,0.025273622944951057
0.0301166083663702,0.00392448715865612,-0.017732931300997734,0.014026867225766182,-0.0006387382745742798,0.023939089849591255
0.030367057770490646,0.0035866834223270416,-0.01798677258193493,0.013706093654036522,-0.0005960821290500462,0.023983733728528023
0.03093724139034748,0.00351002742536366,-0.01824401319026947,0.014675346203148365,-0.0007817554869689047,0.025230882689356804
0.030752941966056824,0.0036444056313484907,-0.017840877175331116,0.01495079230517149,-0.0008167679770849645,0.02539922297000885
0.030929328873753548,0.0037495128344744444,-0.01851678639650345,0.014864237047731876,-0.0007253633229993284,0.024966280907392502
0.030955130234360695,0.003940173424780369,-0.01835237815976143,0.01556885614991188,-0.0007392020779661834,0.025353705510497093
0.031145846471190453,0.0037898975424468517,-0.017933474853634834,0.01558639295399189,-0.0006673263851553202,0.026419073343276978
0.03135346993803978,0.0037029339000582695,-0.018294477835297585,0.015116765163838863,-0.0006779529503546655,0.025633802637457848
0.031904928386211395,0.003763817949220538,-0.018167691305279732,0.014974688179790974,-0.0006288018776103854,0.024583054706454277
0.0320456400513649,0.0037888556253165007,-0.018436403945088387,0.014785697683691978,-0.0005788632552139461,0.024334967136383057
0.03157315403223038,0.003759701969102025,-0.01878843456506729,0.014797952957451344,-0.0005175422411412001,0.025032982230186462
0.03157315403223038,0.003759701969102025,-0.01878843456506729,0.014797952957451344,-0.0005175422411412001,0.025032982230186462
0.03136632591485977,0.0037788008339703083,-0.018213793635368347,0.014827086590230465,-0.0004638452664949,0.025753764435648918
0.03201652690768242,0.0039106314070522785,-0.018324127420783043,0.014887330122292042,-0.0004609778698068112,0.025814391672611237
0.03328686207532883,0.003937955480068922,-0.018319357186555862,0.014678910374641418,-0.0004585154529195279,0.025839045643806458
0.032366927713155746,0.004331749863922596,-0.01770532689988613,0.014712383970618248,-0.0004248240729793906,0.02578757144510746
0.03139476478099823,0.004139982163906097,-0.01850712113082409,0.015205223113298416,-0.0004550014273263514,0.02610328420996666
0.03290996327996254,0.004405551124364138,-0.018670979887247086,0.0150828268378973,-0.000457781832665205,0.026071330532431602
0.03243101388216019,0.003949366044253111,-0.01939946785569191,0.014786009676754475,-0.0005110368365421891,0.02599354088306427
0.033271823078393936,0.0039159515872597694,-0.0191317331045866,0.015528012998402119,-0.0004709813219960779,0.025814684107899666
0.032780591398477554,0.004351121839135885,-0.018366433680057526,0.01487153023481369,-0.00042710857815109193,0.025761684402823448
0.031859587877988815,0.004301895387470722,-0.018638769164681435,0.01520359143614769,-0.00046253850450739264,0.02617502398788929
0.03208755701780319,0.004258711356669664,-0.018396181985735893,0.014642035588622093,-0.0004303801688365638,0.026491863653063774
0.033548783510923386,0.004406675696372986,-0.0188919547945261,0.015417076647281647,-0.0004562631656881422,0.026504550129175186
0.03314150869846344,0.004064626060426235,-0.01955309510231018,0.015143143944442272,-0.00043275015195831656,0.026452956721186638
0.032957885414361954,0.003954432439059019,-0.019108304753899574,0.01550454180687666,-0.00045927989413030446,0.026174873113632202
0.032954804599285126,0.004344179295003414,-0.01875677891075611,0.01546922791749239,-0.00047636267845518887,0.026012325659394264
0.032715585082769394,0.004377938341349363,-0.019208863377571106,0.01583881676197052,-0.00046787908650003374,0.02604012005031109
0.03292029723525047,0.004558112937957048,-0.018826354295015335,0.015476892702281475,-0.0004886203678324819,0.02595827914774418
0.03321348503232002,0.004321147687733173,-0.019670886918902397,0.015523162670433521,-0.0004658650723285973,0.02593776024878025
0.03313592076301575,0.004345671273767948,-0.01972294971346855,0.01555518340319395,-0.000496608205139637,0.02574499323964119
0.03320949524641037,0.00396272586658597,-0.01925402134656906,0.015222270973026752,-0.00046440804726444185,0.026325391605496407
0.033299412578344345,0.003681179601699114,-0.01953652873635292,0.015612100251019001,-0.0004861810593865812,0.02722662128508091
0.03310248255729675,0.003691992489621043,-0.019842077046632767,0.015366951934993267,-0.0004622592532541603,0.02735447697341442
0.03325313702225685,0.004287975374609232,-0.019265294075012207,0.015589364804327488,-0.0005184182664379478,0.026726067066192627
0.03350397199392319,0.004584847018122673,-0.019746089354157448,0.015165059827268124,-0.000575497979298234,0.026054037734866142
0.03370651230216026,0.004557011183351278,-0.02009391225874424,0.015683094039559364,-0.0006085866480134428,0.02614801749587059
0.0332816019654274,0.004350872244685888,-0.019641553983092308,0.015325038693845272,-0.0006042380118742585,0.027245456352829933
0.03412964195013046,0.004079415462911129,-0.019710268825292587,0.015744054690003395,-0.0005907672457396984,0.02704690396785736
0.03412964195013046,0.004079415462911129,-0.019710268825292587,0.015744054690003395,-0.0005907672457396984,0.02704690396785736
0.03495563566684723,0.003939281217753887,-0.019974954426288605,0.01593661867082119,-0.000739026116207242,0.02709917537868023
0.033801376819610596,0.003973014187067747,-0.02034294232726097,0.016243619844317436,-0.000757557456381619,0.0271462332457304
0.03296354040503502,0.004142094403505325,-0.019318226724863052,0.016156503930687904,-0.0007188563467934728,0.027338868007063866
0.03423069790005684,0.004203206859529018,-0.019906358793377876,0.015801947563886642,-0.0007291737128980458,0.02709078975021839
0.03413017839193344,0.004438641481101513,-0.020147962495684624,0.015863558277487755,-0.0006647524423897266,0.026186343282461166
0.03380424156785011,0.004705176688730717,-0.019902076572179794,0.015315554104745388,-0.0006760101532563567,0.026503359898924828
0.03481311723589897,0.004428090061992407,-0.020142538473010063,0.015873227268457413,-0.0006271784659475088,0.02783067896962166
0.03412100300192833,0.00431505823507905,-0.0200539231300354,0.0163886621594429,-0.0005357434274628758,0.027598990127444267
0.03383410722017288,0.004235113970935345,-0.01983931101858616,0.01583944633603096,-0.00048437484656460583,0.02711428701877594
0.03434625267982483,0.004276392050087452,-0.020380962640047073,0.015886016190052032,-0.0005129457567818463,0.027348047122359276
0.03453956916928291,0.004104097839444876,-0.02066875621676445,0.01579984650015831,-0.0005465014837682247,0.02765795588493347
0.03473059833049774,0.004512500483542681,-0.019817177206277847,0.016142547130584717,-0.0005120674031786621,0.027750851586461067
0.034802235662937164,0.004669745918363333,-0.020313404500484467,0.016245434060692787,-0.0005371132283471525,0.027783667668700218
0.034282807260751724,0.004342341795563698,-0.020742299035191536,0.01652367413043976,-0.0006284434930421412,0.028027348220348358
0.03447472304105759,0.003961916547268629,-0.020221037790179253,0.016350001096725464,-0.0007499168859794736,0.027870170772075653
0.034835733473300934,0.0043344213627278805,-0.020195845514535904,0.016021186485886574,-0.0007898046169430017,0.028192758560180664
0.03480396047234535,0.0044678277336061,-0.02039196528494358,0.01648356020450592,-0.0008037214283831418,0.028020422905683517
0.03527916595339775,0.004689669702202082,-0.020105697214603424,0.01547428872436285,-0.0008770662825554609,0.028642624616622925
0.03572329506278038,0.004941332619637251,-0.020011061802506447,0.016115138307213783,-0.0008508982136845589,0.027414314448833466
0.035683222115039825,0.004830390680581331,-0.020578840747475624,0.016365384683012962,-0.0008465070859529078,0.027789955958724022
0.0355248749256134,0.004315231926739216,-0.020810367539525032,0.016595881432294846,-0.0008368287817575037,0.027986058965325356
0.036143429577350616,0.004157602321356535,-0.02029397152364254,0.01726975105702877,-0.0007637858507223427,0.02814226783812046
0.03563418611884117,0.004309036303311586,-0.02032425068318844,0.01674152910709381,-0.0007665802258998156,0.02836328186094761
0.03491289168596268,0.004887742456048727,-0.020224038511514664,0.017149681225419044,-0.0007095870096236467,0.027948511764407158
0.03558408468961716,0.005009452346712351,-0.020354334264993668,0.01689332351088524,-0.0006953398115001619,0.028270326554775238
0.03606870770454407,0.004682831931859255,-0.02028597705066204,0.016846397891640663,-0.0007180999964475632,0.028564877808094025
0.03599930182099342,0.004877194296568632,-0.020599592477083206,0.017181891947984695,-0.0007380725000984967,0.028585925698280334
0.03628549724817276,0.004803111776709557,-0.020819228142499924,0.016847843304276466,-0.0007111908053047955,0.02780541405081749
0.03592393919825554,0.004355018027126789,-0.020353669300675392,0.017684226855635643,-0.0009530760580673814,0.027796320617198944
0.03592393919825554,0.004355018027126789,-0.020353669300675392,0.017684226855635643,-0.0009530760580673814,0.027796320617198944
0.036390166729688644,0.004509645514190197,-0.02045218087732792,0.018023036420345306,-0.0010131438029929996,0.02829028107225895
0.03631618246436119,0.004551992751657963,-0.020329857245087624,0.017414459958672523,-0.0009072281536646187,0.028694577515125275
0.03640013188123703,0.005228062625974417,-0.020832238718867302,0.017151517793536186,-0.0008924955618567765,0.028803905472159386
0.03671976923942566,0.004778566770255566,-0.020913660526275635,0.016723841428756714,-0.0007253491203300655,0.028686443343758583
0.03770266845822334,0.004690166097134352,-0.021069975569844246,0.01653619296848774,-0.0006649722345173359,0.02938683144748211
0.03743791580200195,0.0047261957079172134,-0.021175922825932503,0.017518367618322372,-0.0005875220522284508,0.0297455545514822
0.035916510969400406,0.004872135352343321,-0.020952658727765083,0.01753576658666134,-0.0006094055715948343,0.02839015983045101
0.03728676214814186,0.004337918478995562,-0.020933963358402252,0.01687321625649929,-0.0005584325408563018,0.02820291370153427
0.03700927272439003,0.004246543627232313,-0.020226476714015007,0.017212843522429466,-0.0005067540914751589,0.029000084847211838
0.03772701695561409,0.004100636579096317,-0.021414250135421753,0.017095079645514488,-0.0005298304604366422,0.028806600719690323
0.038185980170965195,0.004425303544849157,-0.021476278081536293,0.01779455691576004,-0.0004970566369593143,0.029248394072055817
0.036151766777038574,0.004662648309022188,-0.021993737667798996,0.01769953966140747,-0.0004612328775692731,0.0305318646132946
0.035849034786224365,0.0041448334231972694,-0.02153242751955986,0.017359677702188492,-0.00047493790043517947,0.03012402169406414
0.0371701642870903,0.0039259446784853935,-0.02106810174882412,0.01783384568989277,-0.00046158957411535084,0.02768903598189354
0.03736378625035286,0.005607203580439091,-0.021047377958893776,0.017906183376908302,-0.0004410048422869295,0.02890622802078724
0.036863554269075394,0.004184966441243887,-0.021263571456074715,0.01779051497578621,-0.00047793902922421694,0.03015928529202938
0.03775205835700035,0.003583162324503064,-0.02152683213353157,0.017476726323366165,-0.0004979133955202997,0.030500123277306557
0.0376717634499073,0.004383225459605455,-0.021214591339230537,0.017006251960992813,-0.000527531374245882,0.02952621504664421
0.036781396716833115,0.004496534820646048,-0.0208363626152277,0.017950572073459625,-0.0006901542074047029,0.029368806630373
0.036781396716833115,0.004496534820646048,-0.0208363626152277,0.017950572073459625,-0.0006901542074047029,0.029368806630373
0.03740580752491951,0.004290511831641197,-0.02155470848083496,0.018480846658349037,-0.0008752000867389143,0.029493780806660652
0.0367802157998085,0.003911125008016825,-0.0210756566375494,0.01816585287451744,-0.0008977478719316423,0.029757240787148476
0.037275202572345734,0.0037916225846856833,-0.02171817235648632,0.017877429723739624,-0.0008991927024908364,0.02964809536933899
0.03773728758096695,0.003850890789180994,-0.02202300727367401,0.017048457637429237,-0.0008058955427259207,0.029698725789785385
0.037531495094299316,0.004438885021954775,-0.022253353148698807,0.017297379672527313,-0.0008199585136026144,0.029808292165398598
0.03701207786798477,0.004238654859364033,-0.02136005274951458,0.017403820529580116,-0.0007246271125040948,0.029659124091267586
0.037685249000787735,0.004514459986239672,-0.021267009899020195,0.017390303313732147,-0.0007416942971758544,0.029993625357747078
0.03930126503109932,0.004105187952518463,-0.02152216248214245,0.018208740279078484,-0.0007113322499208152,0.02996692806482315
0.03719557449221611,0.0038549969904124737,-0.022055376321077347,0.017905764281749725,-0.000728656945284456,0.029852768406271935
0.03712925687432289,0.004263494163751602,-0.02198055014014244,0.01786680519580841,-0.0007027941755950451,0.02991551160812378
0.03842654451727867,0.0042285011149942875,-0.021949732676148415,0.018379053100943565,-0.0006071122479625046,0.03005562163889408
0.03907114267349243,0.004402360878884792,-0.022001858800649643,0.018469586968421936,-0.0006277883076108992,0.03045775555074215
0.039316896349191666,0.004629826173186302,-0.022100133821368217,0.018418915569782257,-0.0006195467431098223,0.03043474070727825
0.03753800317645073,0.004317947663366795,-0.021442437544465065,0.017797352746129036,-0.0006441278965212405,0.03013465367257595
0.037751179188489914,0.004261908587068319,-0.022105518728494644,0.018142327666282654,-0.0007214462384581566,0.03009168617427349
0.03886083513498306,0.004289600066840649,-0.022237630560994148,0.01857202686369419,-0.0008221979951485991,0.030748939141631126
0.03847518935799599,0.004306040704250336,-0.02225090004503727,0.018723048269748688,-0.0008376621408388019,0.03136484697461128
0.03865674510598183,0.004217620473355055,-0.02181420288980007,0.01936209388077259,-0.0008314475999213755,0.03093673288822174
0.038448575884103775,0.004444367252290249,-0.021865475922822952,0.019018856808543205,-0.0009759607492014766,0.02966066636145115
0.03895743936300278,0.004181161522865295,-0.022078488022089005,0.01884036511182785,-0.0011073194909840822,0.029788650572299957
0.038873232901096344,0.004405446816235781,-0.022477202117443085,0.018719980493187904,-0.0011199833825230598,0.030947288498282433
0.03861412778496742,0.0043021091260015965,-0.02165459468960762,0.017821285873651505,-0.0012259397190064192,0.030479609966278076
0.03879432752728462,0.004587010946124792,-0.021597590297460556,0.01777508668601513,-0.001321511808782816,0.0311562642455101
0.03866976499557495,0.004640392959117889,-0.022301241755485535,0.018561599776148796,-0.0011745687806978822,0.03204392269253731
0.03933435678482056,0.004535004496574402,-0.022271590307354927,0.018907831981778145,-0.001126156304962933,0.030985284596681595
0.03921457752585411,0.0045895688235759735,-0.021974248811602592,0.01882537268102169,-0.000987013685517013,0.030363300815224648
0.039113059639930725,0.004681482911109924,-0.02200729213654995,0.01894821785390377,-0.0008488537278026342,0.0300296600908041
0.039113059639930725,0.004681482911109924,-0.02200729213654995,0.01894821785390377,-0.0008488537278026342,0.0300296600908041
0.03876872733235359,0.0044975681230425835,-0.022427169606089592,0.0196823887526989,-0.0008549262420274317,0.031701888889074326
0.03876872733235359,0.0044975681230425835,-0.022427169606089592,0.0196823887526989,-0.0008549262420274317,0.031701888889074326
0.039881445467472076,0.004747227765619755,-0.023366382345557213,0.01934066414833069,-0.000838764535728842,0.031017368659377098
0.04008112847805023,0.00466510932892561,-0.022493718191981316,0.01864851452410221,-0.0007732444209977984,0.031154321506619453
0.039157263934612274,0.0044903880916535854,-0.022322842851281166,0.019118044525384903,-0.0007579934317618608,0.03101147711277008
0.039749875664711,0.004800175316631794,-0.022549383342266083,0.018163781613111496,-0.0007732140365988016,0.031207779422402382
0.039749875664711,0.004800175316631794,-0.022549383342266083,0.018163781613111496,-0.0007732140365988016,0.031207779422402382
0.03963996097445488,0.004543889779597521,-0.02252778969705105,0.018693435937166214,-0.0007998774526640773,0.03155101090669632
0.03986085578799248,0.004446219187229872,-0.022893162444233894,0.019681382924318314,-0.0009030643850564957,0.03181672841310501
0.03931799530982971,0.004240680020302534,-0.023431196808815002,0.020072927698493004,-0.0009213104494847357,0.03170971944928169
0.03968897461891174,0.004326974973082542,-0.0235979575663805,0.0199863463640213,-0.000935422140173614,0.03176136314868927
0.04098650440573692,0.004532726481556892,-0.023651450872421265,0.01956406608223915,-0.001168148941360414,0.032133813947439194
0.03998855501413345,0.004588321316987276,-0.023701101541519165,0.019619634374976158,-0.0011341262143105268,0.03165292367339134
0.038700610399246216,0.004601621069014072,-0.02315250225365162,0.019106442108750343,-0.0010980807710438967,0.031428560614585876
0.03984604403376579,0.004733297508209944,-0.02324989065527916,0.01856864057481289,-0.001052955398336053,0.03192947432398796
0.04021718353033066,0.004655518569052219,-0.023643523454666138,0.019137626513838768,-0.0010537933558225632,0.03177175298333168
0.0411657877266407,0.0043291207402944565,-0.024072954431176186,0.019509926438331604,-0.0009189316187985241,0.03230420500040054
0.040707483887672424,0.004032734781503677,-0.023985594511032104,0.01882999762892723,-0.0009086650097742677,0.03235428035259247
0.03935660049319267,0.004391249734908342,-0.02366052009165287,0.01914255879819393,-0.000855700287502259,0.03227550536394119
0.03952960669994354,0.004435590468347073,-0.023745069280266762,0.01935087889432907,-0.0008384691318497062,0.031422123312950134
0.041015926748514175,0.0041898018680512905,-0.02399526908993721,0.019256193190813065,-0.0008498905226588249,0.032609205693006516
0.04071671888232231,0.004326259717345238,-0.0241563618183136,0.01956990920007229,-0.0007645018631592393,0.03252262994647026
0.04098969325423241,0.004460410680621862,-0.024397030472755432,0.01942501962184906,-0.0007751225493848324,0.0333443209528923
0.04051464423537254,0.00426017539575696,-0.024077987298369408,0.01895046979188919,-0.0007817621226422489,0.03383777290582657
0.040240392088890076,0.004480935167521238,-0.0235866978764534,0.019466975703835487,-0.0008358800550922751,0.032585155218839645
0.04112702235579491,0.00446030218154192,-0.02377219870686531,0.01923939771950245,-0.0008720121113583446,0.03161274269223213
0.04035702720284462,0.004178996663540602,-0.024484092369675636,0.019091933965682983,-0.0008864861447364092,0.03194240480661392
0.04076710343360901,0.004444730002433062,-0.024584408849477768,0.019540131092071533,-0.0008811429725028574,0.0325203537940979
0.04076710343360901,0.004444730002433062,-0.024584408849477768,0.019540131092071533,-0.0008811429725028574,0.0325203537940979
0.04013904556632042,0.004689908120781183,-0.02491527982056141,0.019369592890143394,-0.0009060241864062846,0.03263978287577629
0.04203687980771065,0.004296096041798592,-0.02431005984544754,0.01930033043026924,-0.0009228842100128531,0.03394574299454689
0.039393436163663864,0.0043121627531945705,-0.024218376725912094,0.019291672855615616,-0.0009199397172778845,0.03253087401390076
0.03945449739694595,0.004214549902826548,-0.024720007553696632,0.019216114655137062,-0.0009570204420015216,0.03168407082557678
0.03945449739694595,0.004214549902826548,-0.024720007553696632,0.019216114655137062,-0.0009570204420015216,0.03168407082557678
0.04037914797663689,0.00440402003005147,-0.02508397586643696,0.0192665196955204,-0.0010003019124269485,0.03308235853910446
0.04076710715889931,0.00460804020985961,-0.02509840577840805,0.01946859061717987,-0.0009876176482066512,0.033547352999448776
0.03953295573592186,0.004385338164865971,-0.02445833571255207,0.01919124647974968,-0.000895164324901998,0.033178966492414474
0.03906599059700966,0.004206778947263956,-0.024348363280296326,0.019814737141132355,-0.0009736986830830574,0.03299864009022713
0.04138341173529625,0.00404545571655035,-0.024673938751220703,0.0205709058791399,-0.0009667907143011689,0.03318364918231964
0.041111402213573456,0.004010333679616451,-0.024463417008519173,0.019943231716752052,-0.0008964135777205229,0.03335168957710266
0.04062970355153084,0.003987043164670467,-0.024683335795998573,0.019926026463508606,-0.0008927015587687492,0.03305262327194214
0.04065923020243645,0.004299093037843704,-0.025057878345251083,0.019287923350930214,-0.0008749521221034229,0.03277265280485153
