davideferrari95/blind_handover_controller/data/Test 22 - [2024-02-07 -- 14-19-03]/joint_states_data.csv
shoulder_pan_joint,shoulder_lift_joint,elbow_joint,wrist_1_joint,wrist_2_joint,wrist_3_joint
-0.006731824018061161,-0.005225373897701502,0.005249199457466602,0.0014069537864997983,-0.00010738560376921669,-0.007240407634526491
-0.006731824018061161,-0.005225373897701502,0.005249199457466602,0.0014069537864997983,-0.00010738560376921669,-0.007240407634526491
-0.006644639186561108,-0.005262295715510845,0.006022639572620392,0.0013822688488289714,-0.00010529180872254074,-0.006843178067356348
-0.006243711803108454,-0.005742962937802076,0.005619346629828215,0.001359141431748867,-0.00010327788913855329,-0.0067564575001597404
-0.00608384795486927,-0.005434011109173298,0.005717194173485041,0.0012836214154958725,-0.00010133971954928711,-0.006764087360352278
-0.005942216143012047,-0.005151925142854452,0.0051384721882641315,0.0011877426877617836,-0.0001076320477295667,-0.0071732779033482075
-0.006380789447575808,-0.0050662606954574585,0.004910772666335106,0.0010484453523531556,-0.000113402827992104,-0.006719586905092001
-0.006846545729786158,-0.005177757702767849,0.005402896553277969,0.0008687567315064371,-0.00011189209908479825,-0.006580817978829145
-0.0065215169452130795,-0.005465830210596323,0.005248238332569599,0.0008520898409187794,-0.0001099718501791358,-0.006972558330744505
-0.005976255517452955,-0.006089786533266306,0.005490018520504236,0.0008658612496219575,-0.00010808725346578285,-0.006932799704372883
-0.006116694770753384,-0.005536973010748625,0.005194429308176041,0.0008704267675057054,-0.0001062642113538459,-0.007325757760554552
-0.006660156417638063,-0.004935107193887234,0.004980959463864565,0.0009311409667134285,-0.00010450154513819143,-0.0069098202511668205
-0.0063024950213730335,-0.005196792539209127,0.005359221249818802,0.0010267087491229177,-0.00010114596807397902,-0.006476369686424732
-0.006264913361519575,-0.005766588728874922,0.005521991290152073,0.0009718790533952415,-9.954772394848987e-05,-0.006448379252105951
-0.006072280462831259,-0.0057519120164215565,0.00511785876005888,0.0011431837920099497,-9.799920371733606e-05,-0.007048884406685829
-0.006411020644009113,-0.00555445346981287,0.004798598121851683,0.001069833873771131,-9.649813000578433e-05,-0.006590188015252352
-0.006550731603056192,-0.005268647335469723,0.004718553740531206,0.0010415026918053627,-9.504235640633851e-05,-0.006683663465082645
-0.006176284048706293,-0.0050699179992079735,0.005179412197321653,0.0009675766341388226,-9.362982382299379e-05,-0.006978082004934549
-0.006013633217662573,-0.005286324769258499,0.005277437157928944,0.000896751880645752,-9.225874964613467e-05,-0.007067968137562275
-0.006508697755634785,-0.005738944746553898,0.005797130521386862,0.0008931409101933241,-9.092711843550205e-05,-0.00691219000145793
-0.006508697755634785,-0.005738944746553898,0.005797130521386862,0.0008931409101933241,-9.092711843550205e-05,-0.00691219000145793
-0.006408140063285828,-0.005825498141348362,0.005157678388059139,0.000893681775778532,-8.963347499957308e-05,-0.006504077930003405
-0.006255666725337505,-0.005337666254490614,0.004901082254946232,0.0008943505818024278,-8.837613131618127e-05,-0.006722172722220421
-0.006277340929955244,-0.005788140930235386,0.0047021545469760895,0.0008937601232901216,-8.715350122656673e-05,-0.007033058907836676
-0.005617702379822731,-0.005497224163264036,0.004915662109851837,0.0009096628637053072,-8.596432599006221e-05,-0.007028499618172646
-0.006327777169644833,-0.005920626223087311,0.005068856291472912,0.0009091829997487366,-8.48071213113144e-05,-0.006763741374015808
-0.006133430637419224,-0.005589762702584267,0.005741538014262915,0.0009080513846129179,-8.368062117369846e-05,-0.006603654008358717
-0.005850397516041994,-0.005794311407953501,0.005766154732555151,0.0010770780500024557,-8.258372690761462e-05,-0.00702501367777586
-0.00607958622276783,-0.005485223606228828,0.0051210904493927956,0.0011112057836726308,-8.151523798005655e-05,-0.0067051672376692295
-0.00541299395263195,-0.0054007964208722115,0.004723442252725363,0.0010827039368450642,-8.047396113397554e-05,-0.006527922116219997
-0.0060975621454417706,-0.00568167632445693,0.0046198442578315735,0.000984169659204781,-7.945898687466979e-05,-0.006646768655627966
-0.005727462936192751,-0.005937865003943443,0.005293961148709059,0.0010478938929736614,-7.846931111998856e-05,-0.006671606097370386
-0.00579531816765666,-0.00546764861792326,0.005233915522694588,0.0010273080551996827,-7.750396616756916e-05,-0.0070402417331933975
-0.00561507698148489,-0.005878653842955828,0.005089472513645887,0.001008561230264604,-7.656207890249789e-05,-0.006813790649175644
-0.0056378538720309734,-0.005676324013620615,0.005640177987515926,0.0009381682612001896,-8.367097325390205e-05,-0.006372039206326008
-0.005302636418491602,-0.0059641506522893906,0.005194607190787792,0.0008445131243206561,-8.524192526238039e-05,-0.006714241113513708
-0.005876457318663597,-0.006236467510461807,0.00475959712639451,0.000752488209400326,-8.440984674962237e-05,-0.00717836432158947
-0.006119688972830772,-0.0056786611676216125,0.005162788555026054,0.0007579264929518104,-8.344252273673192e-05,-0.007548729423433542
-0.005947984289377928,-0.0059574362821877,0.00501291872933507,0.000731831300072372,-8.248724770965055e-05,-0.007064434699714184
-0.005179535131901503,-0.005856885574758053,0.005506272893399,0.0007728547789156437,-8.155304385581985e-05,-0.006605316884815693
-0.005582299083471298,-0.005633682478219271,0.005052745807915926,0.0008143649320118129,-7.974649633979425e-05,-0.006940324325114489
-0.005582299083471298,-0.005633682478219271,0.005052745807915926,0.0008143649320118129,-7.974649633979425e-05,-0.006940324325114489
-0.005642585922032595,-0.005442138761281967,0.005459455773234367,0.0007742202724330127,-6.707055604238121e-07,-0.006944763939827681
-0.005316348280757666,-0.006097347941249609,0.005231265909969807,0.000749448430724442,-4.379227647177686e-08,-0.0066388752311468124
-0.005299349781125784,-0.0058939759619534016,0.004974463954567909,0.0007185946451500058,-2.8593230005924397e-09,-0.006798312067985535
-0.005299349781125784,-0.0058939759619534016,0.004974463954567909,0.0007185946451500058,-2.8593230005924397e-09,-0.006798312067985535
-0.00566905690357089,-0.0058278534561395645,0.004843306262046099,0.0007312091183848679,-1.8669336909749035e-10,-0.00702177407220006
-0.005650065839290619,-0.00559399975463748,0.005128562916070223,0.0007661906420253217,-1.2189743138490972e-11,-0.006854213308542967
-0.005657910834997892,-0.005711509380489588,0.005202202126383781,0.0007839315221644938,-7.959031112121651e-13,-0.007094666361808777
-0.0052337939850986,-0.006278386805206537,0.005791513714939356,0.0007970909937284887,-5.6236833188449964e-05,-0.0074769905768334866
-0.005181319545954466,-0.005862375255674124,0.0053154099732637405,0.0009211319265887141,-5.829224028275348e-05,-0.007117666769772768
-0.005579648073762655,-0.006421237718313932,0.005209037568420172,0.0009429004276171327,-5.772623626398854e-05,-0.0066471644677221775
-0.005624603480100632,-0.005851816385984421,0.004859968554228544,0.0008368426933884621,-5.700682595488615e-05,-0.0067559173330664635
-0.005652842111885548,-0.005838930141180754,0.00471158791333437,0.0008385712280869484,-5.629446604871191e-05,-0.006734634283930063
-0.005439320579171181,-0.005560362711548805,0.004751383326947689,0.000824249756988138,-5.5598946346435696e-05,-0.006909005809575319
-0.005418675485998392,-0.005903131328523159,0.005449604708701372,0.0007986790733411908,-5.49204160051886e-05,-0.007265622261911631
-0.0049994285218417645,-0.0059111821465194225,0.005294046364724636,0.0007857370655983686,-5.425823474070057e-05,-0.006992700509727001
-0.005417821928858757,-0.005788447335362434,0.005125383846461773,0.0007998750661499798,-5.361184594221413e-05,-0.007248385809361935
-0.005619017872959375,-0.005489333067089319,0.005127649288624525,0.0007596734212711453,-5.29806457052473e-05,-0.006928803399205208
-0.005494936369359493,-0.005766307935118675,0.0048024896532297134,0.0007713077357038856,-5.236414654063992e-05,-0.0069707646034657955
-0.005154747050255537,-0.005688662175089121,0.004660791717469692,0.0008330262498930097,-5.1761810027528554e-05,-0.007114050909876823
-0.00514594092965126,-0.005810490343719721,0.004729695618152618,0.0008717309101484716,-5.117318869451992e-05,-0.006914254277944565
-0.005601317156106234,-0.005957119632512331,0.004804232157766819,0.0008775963797233999,-5.939909897278994e-05,-0.007129236124455929
-0.005243232473731041,-0.005852950736880302,0.004766673315316439,0.0008880845853127539,-5.995621540932916e-05,-0.007053856737911701
-0.005092882085591555,-0.006000114604830742,0.004702340345829725,0.0010829364182427526,-1.5251844160957262e-05,-0.0072641377337276936
-0.0053543513640761375,-0.005703303962945938,0.004479105584323406,0.0009987159864977002,-9.95836444417364e-07,-0.007044929079711437
-0.005655829329043627,-0.006049326155334711,0.0045822239480912685,0.0009794470388442278,-6.502099836325215e-08,-0.006784422788769007
-0.005085899028927088,-0.006074376404285431,0.004720596596598625,0.0009682241943664849,-4.245406692859888e-09,-0.006868270225822926
-0.005377317313104868,-0.005661614239215851,0.004624010995030403,0.0009436499676667154,-2.7719471162868103e-10,-0.00681797880679369
-0.005410238169133663,-0.0063051036559045315,0.004826859105378389,0.0009364854777231812,-1.1817245315973168e-12,-0.007241617422550917
-0.005497742909938097,-0.006143901497125626,0.004794859327375889,0.0009236418409273028,-7.715817595304111e-14,-0.007366920821368694
-0.005072090774774551,-0.005929990671575069,0.004414061084389687,0.0009252505842596292,-5.037876684560721e-15,-0.007414433639496565
-0.00544844102114439,-0.005256466567516327,0.004907749593257904,0.0009359336690977216,-3.2893738354166583e-16,-0.006416729185730219
-0.00544844102114439,-0.005256466567516327,0.004907749593257904,0.0009359336690977216,-3.2893738354166583e-16,-0.006416729185730219
-0.005667530465871096,-0.005917857401072979,0.004663511645048857,0.0009117882582359016,-1.4023114342453286e-18,-0.007072508335113525
-0.005160329397767782,-0.006360654719173908,0.004321830812841654,0.0008393157040700316,-9.15609063468302e-20,-0.007426996249705553
-0.005160329397767782,-0.006360654719173908,0.004321830812841654,0.0008393157040700316,-9.15609063468302e-20,-0.007426996249705553
-0.0053390818648040295,-0.0056157237850129604,0.004424070008099079,0.0008945122826844454,-0.00014093560457695276,-0.0071091013960540295
-0.0055034770630300045,-0.005946311168372631,0.004696426447480917,0.0008322740322910249,-0.00015097230789251626,-0.0071808104403316975
-0.005107208155095577,-0.005572491325438023,0.0051669771783053875,0.000837043218780309,-0.00014700506289955229,-0.007359576877206564
-0.0051989248022437096,-0.0058336155489087105,0.0050250752829015255,0.0008369204006157815,-0.00014241521421354264,-0.007354261819273233
-0.005427937489002943,-0.0063857585191726685,0.004805732984095812,0.0007611988112330437,-0.00013805003254674375,-0.007365862838923931
-0.0054953028447926044,-0.005809413269162178,0.004687350708991289,0.0007525158580392599,-0.00013394086272455752,-0.007040550000965595
-0.005378509871661663,-0.005821007303893566,0.004675071220844984,0.0007183452835306525,-0.000154333800310269,-0.007267842069268227
-0.005607327446341515,-0.005390828009694815,0.004391288384795189,0.0006831608479842544,-0.00015158344467636198,-0.00750869233161211
-0.005340030882507563,-0.0057295202277600765,0.00449512479826808,0.0006968805682845414,-0.00014754488074686378,-0.0075294263660907745
-0.005419597029685974,-0.005899098701775074,0.0051096705719828606,0.0007049900013953447,-0.0001436270249541849,-0.007649386301636696
-0.005607711151242256,-0.006106667686253786,0.005033256486058235,0.0006642138469032943,-0.00015135908324737102,-0.007743115536868572
-0.005487767048180103,-0.006292514503002167,0.004699171055108309,0.0006663873209618032,-0.00015832678764127195,-0.0071147833950817585
-0.0054475548677146435,-0.005490066017955542,0.004694728646427393,0.0006945906789042056,-0.0001551316527184099,-0.007015773095190525
-0.005290457047522068,-0.005470131523907185,0.004681369289755821,0.0006976092117838562,-0.00015144821372814476,-0.007287475746124983
-0.0058038439601659775,-0.005856646224856377,0.004413459915667772,0.0006940096500329673,-0.00014789569831918925,-0.007390056736767292
-0.005375135689973831,-0.006519394461065531,0.004602399654686451,0.0006715133786201477,-0.0001445035304641351,-0.007421400398015976
-0.005395198706537485,-0.005823149345815182,0.004805590026080608,0.0007571364985778928,-0.00014126305177342147,-0.007332265377044678
-0.004950993228703737,-0.0056418199092149734,0.005129027646034956,0.0006882465677335858,-0.00013519980711862445,-0.0073594884015619755
-0.005208329297602177,-0.006083725020289421,0.004851960111409426,0.0006996790179982781,-0.00013235941878519952,-0.007273515686392784
-0.005398239009082317,-0.006811510305851698,0.00431055435910821,0.0006404487648978829,-0.00012963570770807564,-0.007146114017814398
-0.004922236315906048,-0.00631432980298996,0.004541048314422369,0.0006428711931221187,-0.00014048372395336628,-0.007218581158667803
-0.004922236315906048,-0.00631432980298996,0.004541048314422369,0.0006428711931221187,-0.00014048372395336628,-0.007218581158667803
-0.004675079602748156,-0.005883334204554558,0.004791880026459694,0.0006074356497265399,-0.00014199288852978498,-0.00728687085211277
-0.004754689056426287,-0.00621131993830204,0.005115519743412733,0.0005725788068957627,-0.0001395207946188748,-0.007385346107184887
-0.0055109839886426926,-0.00642654113471508,0.004895161371678114,0.0005507649038918316,-0.00013433363346848637,-0.007239723112434149
-0.0055109839886426926,-0.00642654113471508,0.004895161371678114,0.0005507649038918316,-0.00013433363346848637,-0.007239723112434149
-0.00516879977658391,-0.006319185718894005,0.0044507780112326145,0.0005637252470478415,-0.00013187325384933501,-0.00735938735306263
-0.005198710132390261,-0.005811223294585943,0.004368350375443697,0.0005719813052564859,-0.00012950132077094167,-0.007462438195943832
-0.0049979593604803085,-0.00618897145614028,0.004530192818492651,0.0005622246535494924,-0.00012721320672426373,-0.0073433127254247665
-0.004555515944957733,-0.006735066417604685,0.004697291646152735,0.0006769360043108463,-0.00012500457523856312,-0.007353814318776131
-0.004895203281193972,-0.006488210987299681,0.004691023845225573,0.0007232504431158304,-0.00012287127901799977,-0.007915981113910675
-0.005305132828652859,-0.006257675122469664,0.004888975992798805,0.0007969964062795043,-0.00012080961460014805,-0.007935663685202599
-0.0050611114129424095,-0.006272976286709309,0.004338860046118498,0.0007743009482510388,-0.00011881592945428565,-0.007440296933054924
-0.004910040181130171,-0.006095942109823227,0.004408577457070351,0.0010735478717833757,-0.00011688697850331664,-0.007355783134698868
-0.004696876276284456,-0.006430687382817268,0.004171229433268309,0.0010616043582558632,-0.00011524698493303731,-0.007984318770468235
-0.004842759110033512,-0.006950648035854101,0.004474131856113672,0.0010050401324406266,-0.00012567118392325938,-0.007794548757374287
-0.004619891755282879,-0.006247546523809433,0.0044998410157859325,0.0009475660044699907,-0.00012312371109146625,-0.00772105623036623
-0.004795326851308346,-0.005967692006379366,0.004687604960054159,0.0009834656957536936,-0.00011990114580839872,-0.007515402045100927
-0.004790072795003653,-0.006680069491267204,0.004958941135555506,0.0009726680000312626,-0.00011679286399157718,-0.007444741670042276
-0.004844690673053265,-0.0070183235220611095,0.004822773393243551,0.000962513848207891,-0.00011383841774659231,-0.00743343448266387
-0.004560376517474651,-0.006362175568938255,0.004299310967326164,0.0009006556356325746,-0.00011102954886155203,-0.007402448449283838
-0.004853495862334967,-0.005682739894837141,0.004007525276392698,0.0008827344863675535,-0.00010835588909685612,-0.007750659715384245
-0.004813969600945711,-0.0057718814350664616,0.004109050612896681,0.0008816233603283763,-0.00010580796515569091,-0.007842262275516987
-0.004737624898552895,-0.0062890080735087395,0.004397986456751823,0.0008859446970745921,-0.00010105556430062279,-0.007814980112016201
-0.004891722463071346,-0.006167795974761248,0.004476193804293871,0.0009311674511991441,-9.883597522275522e-05,-0.008137686178088188
-0.004891722463071346,-0.006167795974761248,0.004476193804293871,0.0009311674511991441,-9.883597522275522e-05,-0.008137686178088188
-0.004772133659571409,-0.005986180622130632,0.004284958820790052,0.0009523564949631691,-0.00011105788144050166,-0.008022741414606571
-0.004372100345790386,-0.006339529994875193,0.004504537675529718,0.0009460540022701025,-0.00011328607070026919,-0.007973922416567802
-0.004164945799857378,-0.006303074304014444,0.004236331209540367,0.000917035446036607,-0.00010902318172156811,-0.007415243424475193
-0.00427213404327631,-0.006516008637845516,0.004122728947550058,0.0009061746532097459,-0.00010686681343941018,-0.007876343093812466
-0.004725336562842131,-0.006006523966789246,0.004401393700391054,0.0009048525826074183,-0.0001047929617925547,-0.007653895765542984
-0.004725336562842131,-0.006006523966789246,0.004401393700391054,0.0009048525826074183,-0.0001047929617925547,-0.007653895765542984
-0.004772133193910122,-0.006285463459789753,0.004723864607512951,0.0008462912519462407,-0.00011768587864935398,-0.007552784401923418
-0.004323185887187719,-0.006081575062125921,0.004433911759406328,0.0008515100344084203,-0.00011754392471630126,-0.008078282698988914
-0.004466468933969736,-0.006084532476961613,0.00452165212482214,0.0009527336223982275,-0.00011552269279491156,-0.008352642878890038
-0.004264864604920149,-0.006416869815438986,0.004128098022192717,0.0009872701484709978,-0.0001134511039708741,-0.007794534787535667
-0.003986964002251625,-0.005806212313473225,0.004128801170736551,0.0009779238607734442,-0.00011144462041556835,-0.007677017245441675
-0.004203370306640863,-0.00595207279548049,0.004133639857172966,0.0008971818024292588,-0.00010950757132377476,-0.008202442899346352
-0.004658314399421215,-0.006209112703800201,0.004338959231972694,0.0010122916428372264,-0.00010763663158286363,-0.008440690115094185
-0.004183654207736254,-0.006065301597118378,0.004607188515365124,0.0010008037788793445,-0.00011994272790616378,-0.008256709203124046
-0.004335487727075815,-0.005671610124409199,0.004726656712591648,0.000986546161584556,-0.0001188831593026407,-0.008306455798447132
-0.004299933090806007,-0.0043056379072368145,0.004353200551122427,0.0009309682063758373,-0.00011701119365170598,-0.008594674989581108
-0.004526650067418814,-0.004344190936535597,0.00401683896780014,0.000990263419225812,-0.00013730746286455542,-0.008377541787922382
-0.0040879761800169945,-0.004620329011231661,0.004088427871465683,0.0009076404967345297,-0.00015369946777354926,-0.008349152281880379
-0.00403984822332859,-0.005305848550051451,0.0039335801266133785,0.0009018268319778144,-0.00014995498349890113,-0.008283646777272224
-0.004017767496407032,-0.00511748343706131,0.0038697058334946632,0.0009011684451252222,-0.00016670508193783462,-0.008279428817331791
-0.003975441679358482,-0.004806690849363804,0.004325559828430414,0.0008916325168684125,-0.00016831392713356763,-0.008168203756213188
-0.004332240670919418,-0.0046331435441970825,0.004525503143668175,0.000900466344319284,-0.00016365699411835521,-0.008256630972027779
-0.004085831344127655,-0.005116219632327557,0.004467886406928301,0.000891797011718154,-0.00015887091285549104,-0.008483384735882282
-0.0038847445975989103,-0.005249124951660633,0.004648467525839806,0.0008922437555156648,-0.00015433169028256088,-0.008337575942277908
-0.0037473286502063274,-0.005787109024822712,0.004141786135733128,0.0008874023333191872,-0.00017175159882754087,-0.008410288020968437
-0.0042749326676130295,-0.00529154296964407,0.004457979463040829,0.0008909962489269674,-0.00016582019452471286,-0.008426574990153313
-0.004179033916443586,-0.004861161112785339,0.004177005961537361,0.000890161085408181,-0.00016157985373865813,-0.008430016227066517
-0.00440285075455904,-0.004512876737862825,0.003907247446477413,0.0008481000550091267,-0.00015753996558487415,-0.008425651118159294
-0.00440285075455904,-0.004512876737862825,0.003907247446477413,0.0008481000550091267,-0.00015753996558487415,-0.008425651118159294
-0.004166485276073217,-0.005119455512613058,0.0037688943557441235,0.000982756493613124,-0.00017276401922572404,-0.008364287205040455
-0.003968770615756512,-0.005059005692601204,0.0042921700514853,0.0009778703097254038,-0.00017128107720054686,-0.008242735639214516
-0.0037962698843330145,-0.004959722515195608,0.004248797427862883,0.0011037633521482348,-0.00024692778242751956,-0.008925577625632286
-0.0037962698843330145,-0.004959722515195608,0.004248797427862883,0.0011037633521482348,-0.00024692778242751956,-0.008925577625632286
-0.0038623656146228313,-0.004654569551348686,0.003912246320396662,0.0011760566849261522,-0.0002595845435280353,-0.008439182303845882
-0.0038838537875562906,-0.004752786830067635,0.0038387090899050236,0.0011367994593456388,-0.00024708762066438794,-0.008495038375258446
-0.0037611050065606833,-0.005141668487340212,0.003999017644673586,0.0010555697372183204,-0.0002343317901249975,-0.008529618382453918
-0.0035381184425204992,-0.005490361247211695,0.004047372378408909,0.0011071565095335245,-0.00025561125949025154,-0.008533800020813942
-0.00383357098326087,-0.005084471311420202,0.004312122706323862,0.001183976884931326,-0.0002539131382945925,-0.008380550891160965
-0.003966653719544411,-0.00475640594959259,0.004294807557016611,0.0012681829975917935,-0.00024315205519087613,-0.00865605566650629
-0.0037090512923896313,-0.004602016881108284,0.004032887984067202,0.0013263860018923879,-0.00026632362278178334,-0.008823271840810776
-0.003443768946453929,-0.004692817106842995,0.0034382748417556286,0.0013933019945397973,-0.00025994685711339116,-0.009012340568006039
-0.0034926801454275846,-0.0052253385074436665,0.003495447337627411,0.0012906708288937807,-0.00024993441184051335,-0.00868064071983099
-0.0038487946148961782,-0.0055326116271317005,0.0037698799278587103,0.0012598519679158926,-0.0002724281221162528,-0.008551711216568947
-0.003912662621587515,-0.005053472239524126,0.00429500499740243,0.0012878456618636847,-0.0002645073691383004,-0.008768754079937935
-0.003554054768756032,-0.0049656047485768795,0.0036527449265122414,0.0012789687607437372,-0.00025526457466185093,-0.008910458534955978
-0.003500549588352442,-0.004821691662073135,0.0036003421992063522,0.001393891405314207,-0.0003213261952623725,-0.009107611142098904
-0.0037563566584140062,-0.00494891544803977,0.00417224271222949,0.0013548070564866066,-0.0003103732888121158,-0.008973857387900352
-0.003874804824590683,-0.00501656997948885,0.004235044587403536,0.0012699970975518227,-0.0003338668611831963,-0.008856615982949734
-0.0038450369611382484,-0.0051789963617920876,0.003506211331114173,0.0012485877377912402,-0.0003270565939601511,-0.009081036783754826
-0.0034227583091706038,-0.004988033790141344,0.0035558135714381933,0.0011976535897701979,-0.00030920185963623226,-0.009426025673747063
-0.0034566610120236874,-0.005065291654318571,0.0037949744146317244,0.0011661904864013195,-0.00029250423540361226,-0.008906982839107513
-0.0037069350946694613,-0.004978208336979151,0.0040296162478625774,0.0012157080927863717,-0.00032053375616669655,-0.008872836828231812
-0.0034833410754799843,-0.005688436329364777,0.003581447061151266,0.0012996698496863246,-0.00029352845740504563,-0.00915675237774849
-0.003658332396298647,-0.0053044818341732025,0.0034361628349870443,0.0013360788580030203,-0.0003151814453303814,-0.009141302667558193
-0.003658332396298647,-0.0053044818341732025,0.0034361628349870443,0.0013360788580030203,-0.0003151814453303814,-0.009141302667558193
-0.0032854231540113688,-0.0050473520532250404,0.003670190926641226,0.0014003278920426965,-0.0003065225319005549,-0.009340760298073292
-0.003194569144397974,-0.005107281729578972,0.003831468289718032,0.0015364702558144927,-0.0003633254091255367,-0.009341752156615257
-0.003236241638660431,-0.005125611089169979,0.0038604671135544777,0.0015047213528305292,-0.00035755836870521307,-0.009022451937198639
-0.00314539042301476,-0.005557754077017307,0.0033167952205985785,0.0014188815839588642,-0.0003815160598605871,-0.009192317724227905
-0.0030306640546768904,-0.005416707135736942,0.0033713998273015022,0.0014688458759337664,-0.0003706197312567383,-0.009450610727071762
-0.003346063429489732,-0.00586891220882535,0.003625300247222185,0.0014893218176439404,-0.0003477434511296451,-0.009177861735224724
-0.002978936303406954,-0.005739603191614151,0.003451043041422963,0.00150416255928576,-0.0003267568536102772,-0.009837444871664047
-0.0030647884123027325,-0.005527987144887447,0.0034111167769879103,0.0015279913786798716,-0.0003559032338671386,-0.009750843979418278
-0.0031933882273733616,-0.005292194429785013,0.0032355363946408033,0.0014548130566254258,-0.00033981772139668465,-0.009193318895995617
-0.003357775742188096,-0.005724926479160786,0.0036186985671520233,0.001459685037843883,-0.0003226139524485916,-0.009744986891746521
-0.0031250575557351112,-0.005745308008044958,0.003353467909619212,0.0014471688773483038,-0.000328310823533684,-0.009630140848457813
-0.002758392598479986,-0.0062009599059820175,0.0034591355361044407,0.0015523440670222044,-0.00033298777998425066,-0.008644027635455132
-0.0026897734496742487,-0.005349874962121248,0.003220104845240712,0.0017330049304291606,-0.0003195073513779789,-0.009231502190232277
-0.002684440463781357,-0.005510077811777592,0.003328267950564623,0.0017783408984541893,-0.0003060099552385509,-0.009631928987801075
-0.0028149692807346582,-0.005392833612859249,0.003395653096958995,0.0018873712979257107,-0.0003222893865313381,-0.009675521403551102
-0.0029035951010882854,-0.005739831831306219,0.003292919136583805,0.0017131021013483405,-0.0003105141513515264,-0.01043609343469143
-0.0031510558910667896,-0.00539698451757431,0.0030199922621250153,0.0016656712396070361,-0.00029110247851349413,-0.009557864628732204
-0.002774881897494197,-0.005670888815075159,0.0029739912133663893,0.0016381784807890654,-0.000300062820315361,-0.009815171360969543
-0.002579582156613469,-0.005299360491335392,0.0034245483111590147,0.0016749842325225472,-0.00030750251607969403,-0.009679506532847881
-0.0026883690152317286,-0.005452045239508152,0.00377369555644691,0.0017293430864810944,-0.00029245030600577593,-0.009661147370934486
-0.002849411917850375,-0.005658140406012535,0.003456433303654194,0.0017529967008158565,-0.0003175596066284925,-0.009670174680650234
-0.002906938549131155,-0.005587719846516848,0.003259162185713649,0.0017885681008920074,-0.00030754448380321264,-0.0104773985221982
-0.0026696377899497747,-0.005623636767268181,0.0031787485349923372,0.0016812626272439957,-0.00029356838786043227,-0.010123291984200478
-0.002515932312235236,-0.005119535140693188,0.0030341006349772215,0.0017299822065979242,-0.0003152354620397091,-0.009579882025718689
-0.0024486968759447336,-0.00530928885564208,0.002924612956121564,0.001703463844023645,-0.00036994466790929437,-0.010023349896073341
-0.0024486968759447336,-0.00530928885564208,0.002924612956121564,0.001703463844023645,-0.00036994466790929437,-0.010023349896073341
-0.0023830709978938103,-0.005200249142944813,0.0032269770745187998,0.0017883193213492632,-0.00033954266109503806,-0.01049107126891613
-0.0023830709978938103,-0.005200249142944813,0.0032269770745187998,0.0017883193213492632,-0.00033954266109503806,-0.01049107126891613
-0.002465049037709832,-0.005452571902424097,0.0033960542641580105,0.001795987132936716,-0.00037035593413747847,-0.010186941362917423
-0.0022872257977724075,-0.00548126082867384,0.0031840347219258547,0.0018537938594818115,-0.0003535480354912579,-0.010623936541378498
-0.002214014297351241,-0.005544980056583881,0.0030629003886133432,0.0018703204113990068,-0.0003322702832520008,-0.010402131825685501
-0.0023668103385716677,-0.005567438434809446,0.002802079077810049,0.0019012718694284558,-0.0003130313416477293,-0.0105779143050313
-0.0026284358464181423,-0.005479578860104084,0.0029187791515141726,0.0019051480339840055,-0.0003417800471652299,-0.010617382824420929
-0.0025209560990333557,-0.005506531335413456,0.0029780170880258083,0.0020462139509618282,-0.0003270275192335248,-0.010479804128408432
-0.002164428820833564,-0.005123401526361704,0.0029369527474045753,0.002035534707829356,-0.0003110708494205028,-0.010525419376790524
-0.002050376497209072,-0.0059583671391010284,0.0026847331319004297,0.00193456606939435,-0.00033588873338885605,-0.010448664426803589
-0.0019037950551137328,-0.005588027648627758,0.0026514194905757904,0.0017738713650032878,-0.0003233739407733083,-0.010130269452929497
-0.0018777503864839673,-0.005877348594367504,0.002837900072336197,0.0016705472953617573,-0.00035032452433370054,-0.009896580129861832
-0.002075670287013054,-0.0053654927760362625,0.002833334496244788,0.001707928255200386,-0.0003710634773597121,-0.010322712361812592
-0.0020290478132665157,-0.005055008456110954,0.002807486103847623,0.001763649401254952,-0.0003761995176319033,-0.010536347515881062
-0.0020394609309732914,-0.005620739422738552,0.002453663619235158,0.002035844838246703,-0.00039696478052064776,-0.010387353599071503
-0.0019791864324361086,-0.005525944754481316,0.0023760912008583546,0.0020917607471346855,-0.0003862828016281128,-0.01042166817933321
-0.0018913807580247521,-0.005874409340322018,0.002539243083447218,0.0020581427961587906,-0.0003901849268004298,-0.010410471819341183
-0.0018692881567403674,-0.005450115539133549,0.0028311058413237333,0.0020248382352292538,-0.00039240409387275577,-0.010589349083602428
-0.0018791559850797057,-0.0051794773899018764,0.002927229506894946,0.0019941371865570545,-0.00037357566179707646,-0.010291005484759808
-0.0018012654036283493,-0.004959773737937212,0.002828190801665187,0.0021716831251978874,-0.0004843496426474303,-0.01018524169921875
-0.0018213674193248153,-0.0053862701170146465,0.0028219930827617645,0.002166900085285306,-0.0004758609866257757,-0.010273078456521034
-0.0018298354698345065,-0.005559864453971386,0.0024994835257530212,0.0022582293022423983,-0.0004328486684244126,-0.01042860560119152
-0.002106849104166031,-0.005756036844104528,0.0023875758051872253,0.0020661698654294014,-0.0004331555974204093,-0.010757207870483398
-0.0020570545457303524,-0.005616316106170416,0.0026703285984694958,0.002002282300963998,-0.0004330565279815346,-0.010615818202495575
-0.002030662028118968,-0.00499044731259346,0.002904024440795183,0.0018895665416494012,-0.000402990699512884,-0.010718468576669693
-0.0019065802916884422,-0.004847482778131962,0.0028556042816489935,0.0019484732765704393,-0.0003751243348233402,-0.011066436767578125
-0.0016612343024462461,-0.005638078320771456,0.0029181332793086767,0.0014957066159695387,-0.0003697723150253296,-0.010643066838383675
-0.0016612343024462461,-0.005638078320771456,0.0029181332793086767,0.0014957066159695387,-0.0003697723150253296,-0.010643066838383675
-0.0017354288138449192,-0.005684204399585724,0.0029537035152316093,0.0015191149432212114,-0.000361198908649385,-0.010574105195701122
-0.001764638931490481,-0.005266204942017794,0.0028330348432064056,0.0016003145137801766,-0.00034238884109072387,-0.011004544794559479
-0.001641407492570579,-0.005230448208749294,0.002510250546038151,0.0017563470173627138,-0.00032478541834279895,-0.011687741614878178
-0.0016107383416965604,-0.005206729285418987,0.0023140127304941416,0.002042945707216859,-0.00034706544829532504,-0.011398796923458576
-0.0014958959072828293,-0.005574313923716545,0.0022763062734156847,0.0022286265157163143,-0.0003360963601153344,-0.011181136593222618
-0.0013965093530714512,-0.005253573879599571,0.0025920425541698933,0.0025381508748978376,-0.000321430794429034,-0.01099940575659275
-0.0013926033861935139,-0.005453783553093672,0.002845631679520011,0.002396129071712494,-0.000292320764856413,-0.011059845797717571
-0.001432966091670096,-0.005671026650816202,0.002826567040756345,0.0022686601150780916,-0.00027311232406646013,-0.011398338712751865
-0.0017081903060898185,-0.005072467029094696,0.002608179347589612,0.0019539021886885166,-0.00030191632686182857,-0.011095015332102776
-0.0015960129676386714,-0.005199568811804056,0.0025995508767664433,0.0016870421823114157,-0.00029168897890485823,-0.01115396898239851
-0.0014694222481921315,-0.00519527168944478,0.0025529158301651478,0.0016995305195450783,-0.00027711346046999097,-0.01116027683019638
-0.001454277546145022,-0.005077752750366926,0.00244065816514194,0.0020273346453905106,-0.0002850554883480072,-0.010898489505052567
-0.001381981186568737,-0.00523307966068387,0.0028826906345784664,0.002118878299370408,-0.00029175731469877064,-0.011048918589949608
-0.0013094661990180612,-0.005051734391599894,0.0026048433501273394,0.002369362860918045,-0.0002800858346745372,-0.011226720176637173
-0.0013907281681895256,-0.004986235406249762,0.002424010541290045,0.002224431373178959,-0.00030395053909160197,-0.01119308453053236
-0.00143235654104501,-0.004856074694544077,0.002413809299468994,0.0021148580126464367,-0.00037643074756488204,-0.011261491104960442
-0.0015103324549272656,-0.00493325712159276,0.0023017050698399544,0.0017979864496737719,-0.00041990852332673967,-0.011050776578485966
-0.0015934143448248506,-0.004825243726372719,0.00242782779969275,0.0017697634175419807,-0.0004610416362993419,-0.011102138087153435
-0.0014542060671374202,-0.005289221648126841,0.0023570593912154436,0.0017862374661490321,-0.00046409087372012436,-0.011131885461509228
-0.0012716050259768963,-0.005198006983846426,0.0023154912050813437,0.0020406630355864763,-0.0004619983956217766,-0.011668024584650993
-0.0011920377146452665,-0.004730573855340481,0.0023338079918175936,0.0022361231967806816,-0.00048574229003861547,-0.011707342229783535
-0.0011383048258721828,-0.004849041346460581,0.002355357399210334,0.0022711623460054398,-0.0004619820392690599,-0.011556410230696201
-0.0011126003228127956,-0.0049663144163787365,0.0022189572919160128,0.002389228669926524,-0.0006082438048906624,-0.011496305465698242
-0.0010508078848943114,-0.005195926874876022,0.002483629621565342,0.0023977116215974092,-0.0006413924274966121,-0.011746137402951717
-0.001029743580147624,-0.005623635835945606,0.0024455247912555933,0.002278967760503292,-0.0005971204955130816,-0.011735938489437103
-0.000983266974799335,-0.004850437398999929,0.0023919970262795687,0.0022319513373076916,-0.0006106017390266061,-0.011372479610145092
-0.0009644137462601066,-0.005091451574116945,0.0022137172054499388,0.0025239705573767424,-0.0005964245647192001,-0.011527526192367077
-0.0009791528573259711,-0.0051358952187001705,0.0019678929820656776,0.0025305459275841713,-0.000662658188957721,-0.011770975776016712
-0.0009350150357931852,-0.0049887425266206264,0.0019225968280807137,0.0024160149041563272,-0.0005942534189671278,-0.01171166356652975
-0.0009350150357931852,-0.0049887425266206264,0.0019225968280807137,0.0024160149041563272,-0.0005942534189671278,-0.01171166356652975
-0.0008512979256920516,-0.005342794116586447,0.0022179405204951763,0.0022765016183257103,-0.0006233440362848341,-0.011801881715655327
-0.0008559473208151758,-0.005149488337337971,0.002586070913821459,0.002160975243896246,-0.0005645391065627337,-0.011996891349554062
-0.0008278709719888866,-0.004788429941982031,0.00252281385473907,0.002281519118696451,-0.0005848078872077167,-0.012344171293079853
-0.0007279340643435717,-0.004730100743472576,0.001950580277480185,0.002279260428622365,-0.0005442370311357081,-0.01213889941573143
-0.0007364882039837539,-0.005167436320334673,0.00136655627284199,0.0022872595582157373,-0.0005633359542116523,-0.011807420291006565
-0.0006599820335395634,-0.005104269832372665,0.001252946094609797,0.002460859017446637,-0.0005302815116010606,-0.012097918428480625
-0.0006820576381869614,-0.005358861759305,0.0011279168538749218,0.002687010681256652,-0.0005148130003362894,-0.01213499903678894
-0.000618765945546329,-0.005188402719795704,0.0010910539422184229,0.0030355111230164766,-0.0005161477020010352,-0.012453384697437286
-0.000563451845664531,-0.004927389789372683,0.0008539719274267554,0.003498178906738758,-0.0005500586703419685,-0.012433073483407497
-0.0005171811790205538,-0.005186785943806171,0.0008839516085572541,0.003292636014521122,-0.0005997293046675622,-0.012542705982923508
-0.0004779333539772779,-0.005060992669314146,0.0009163315407931805,0.002897674450650811,-0.0007876383606344461,-0.01246568001806736
-0.00044422526843845844,-0.005334089510142803,0.0016409865347668529,0.0023007176350802183,-0.000986067927442491,-0.012593378312885761
-0.0004733856185339391,-0.005708990152925253,0.001507806358858943,0.0022537359036505222,-0.0008613301906734705,-0.012458235025405884
-0.0004449184634722769,-0.005201290361583233,0.0013755840482190251,0.0021070828661322594,-0.0008590856450609863,-0.012450983747839928
-0.0004190303443465382,-0.005206982605159283,0.0011701486073434353,0.002163722412660718,-0.0007625339785590768,-0.01266980729997158
-0.00039598418516106904,-0.005115005653351545,0.0010291426442563534,0.002705755876377225,-0.000751466432120651,-0.012514263391494751
-0.0003445973270572722,-0.004951914772391319,0.0008762865327298641,0.0032533921767026186,-0.0007013201829977334,-0.012175683863461018
-0.00010297574772266671,-0.0053750560618937016,0.0009083301411010325,0.003240040736272931,-0.000628202105872333,-0.012338701635599136
-2.8838308026024606e-06,-0.005173488054424524,0.0009169242111966014,0.003069142811000347,-0.0006548362434841692,-0.012536820955574512
-3.8690270542929284e-08,-0.00533498078584671,0.001079847919754684,0.0028796494007110596,-0.0007284351740963757,-0.012445825152099133
-5.190793350706713e-10,-0.005425572395324707,0.001055073575116694,0.0029219125863164663,-0.000713188957888633,-0.012425650842487812
-6.964112446439241e-12,-0.004948242101818323,0.0008845197153277695,0.0025307757314294577,-0.0010513302404433489,-0.012753759510815144
-9.343245713786322e-14,-0.005007321480661631,0.0008707901579327881,0.002395259914919734,-0.0010660585248842835,-0.01271183229982853
-1.2535155883121665e-15,-0.005365901626646519,0.0007768996292725205,0.002386802574619651,-0.0010267106117680669,-0.01278265193104744
-1.6817511604211562e-17,-0.005150473210960627,0.0007784184999763966,0.002736486494541168,-0.0009251376613974571,-0.01293347030878067
-3.027092695186772e-21,-0.0050816466100513935,0.0006654671742580831,0.00299121905118227,-0.000754027278162539,-0.01296745240688324
-4.061231067198728e-23,-0.004959455691277981,0.0006240131333470345,0.0030167805962264538,-0.00064794288482517,-0.012984110973775387
-5.4486603002092655e-25,-0.005540533922612667,0.0006204502424225211,0.002953615039587021,-0.0005663480842486024,-0.013256669975817204
-5.4486603002092655e-25,-0.005540533922612667,0.0006204502424225211,0.002953615039587021,-0.0005663480842486024,-0.013256669975817204
-7.310073563611792e-27,-0.005344738252460957,0.0005912658525630832,0.002923831809312105,-0.0005961146671324968,-0.01327788271009922
-9.807396805769215e-29,-0.005439694505184889,0.0005408775759860873,0.002767498604953289,-0.0005422662361524999,-0.013477330096065998
-1.315787344643774e-30,-0.005528664216399193,0.0005606773775070906,0.00298784370534122,-0.0004930851282551885,-0.01318280678242445
-1.7652967311690502e-32,-0.005091347731649876,0.0005295513547025621,0.0031315553933382034,-0.0005070275510661304,-0.013487874530255795
-2.368370865179879e-34,-0.005437051877379417,0.0005568276974372566,0.0031031316611915827,-0.000485068914713338,-0.013438361696898937
-3.1774719350934023e-36,-0.005434720311313868,0.0005943941068835557,0.00286086299456656,-0.0004514117317739874,-0.013469306752085686
-4.262983665059943e-38,-0.005661323666572571,0.0006222961819730699,0.0027940403670072556,-0.00047327569336630404,-0.013323263265192509
-5.719343630203168e-40,-0.005284574348479509,0.0005694248829968274,0.0027486251201480627,-0.00045073911314830184,-0.01332000084221363
0.00035835549351759255,-0.004931079689413309,0.0005222730105742812,0.0028112707659602165,-0.0004246098396833986,-0.013587531633675098
0.0003471066302154213,-0.005151735618710518,0.0005482927081175148,0.0027657717000693083,-0.0003597270406316966,-0.013506844639778137
0.00032244957401417196,-0.005084765609353781,0.0005119355628266931,0.0030627662781625986,-0.0003218605706933886,-0.01400679536163807
0.00035385138471610844,-0.005217731464654207,0.0005538614932447672,0.003116883337497711,-0.0002996211114805192,-0.015669265761971474
0.0003383350558578968,-0.0054673501290380955,0.0005027590086683631,0.003208656795322895,-0.00033311560400761664,-0.014116639271378517
0.00035320583265274763,-0.005072757601737976,0.0005414588376879692,0.0031541583593934774,-0.0003427029587328434,-0.01395558100193739
0.00035060610389336944,-0.005205987021327019,0.0004931931616738439,0.0033655567094683647,-0.00034775526728481054,-0.014145771972835064
0.0003791457274928689,-0.0052074166014790535,0.00045191784738563,0.0032593111973255873,-0.00036593881668522954,-0.013814061880111694
0.0005097667453810573,-0.004960508085787296,0.0004170094325672835,0.003239809302613139,-0.00047259285929612815,-0.01402436476200819
0.0005591955850832164,-0.005300486460328102,0.00042924477020278573,0.0032074847258627415,-0.0006035773549228907,-0.014069326221942902
0.0005723822396248579,-0.0052465214394032955,0.00042110969661735,0.00353531027212739,-0.0006404461455531418,-0.014161083847284317
0.000549544405657798,-0.0050632404163479805,0.00039497899706475437,0.0033156066201627254,-0.0006769233150407672,-0.014122823253273964
0.0005749998963437974,-0.005198856815695763,0.0003716770152095705,0.003460495499894023,-0.0011419509537518024,-0.014435608871281147
0.0008157906122505665,-0.005722853820770979,0.00037926508230157197,0.0034192048478871584,-0.001044116448611021,-0.014526980929076672
0.0008006044081412256,-0.005677440203726292,0.0003608840343076736,0.0036464009899646044,-0.0009611244313418865,-0.014553932473063469
0.0007431060657836497,-0.0056820516474545,0.00034366469481028616,0.0034975851885974407,-0.0008956077508628368,-0.014118319377303123
0.0007586980937048793,-0.005162456072866917,0.00032800770713947713,0.0033625417854636908,-0.0007995474734343588,-0.014139763079583645
0.0008500943658873439,-0.0053832922130823135,0.00031371525255963206,0.003263870719820261,-0.0006841964204795659,-0.01438085362315178
0.0008640895830467343,-0.005588716361671686,0.00030061547295190394,0.0033975541591644287,-0.0005891267792321742,-0.014659086242318153
0.0008690409595146775,-0.005434528924524784,0.0002606527996249497,0.0036325606051832438,-0.0006098357262089849,-0.015378683805465698
0.0008690409595146775,-0.005434528924524784,0.0002606527996249497,0.0036325606051832438,-0.0006098357262089849,-0.015378683805465698
0.0008727360982447863,-0.0057147894985973835,0.000243348054937087,0.0037724622525274754,-0.0006035938858985901,-0.015287947840988636
0.0011219080770388246,-0.005431479308754206,0.00023082092229742557,0.0035296776331961155,-0.0005883410340175033,-0.014390592463314533
0.0011045425198972225,-0.0052121044136583805,0.00021955707052256912,0.0034124022349715233,-0.000597140344325453,-0.014470935799181461
0.0010819229064509273,-0.005373035557568073,0.00020934261556249112,0.003172950353473425,-0.0005702838534489274,-0.014695951715111732
0.0013641843106597662,-0.006168739404529333,0.00020003571989946067,0.003490404924377799,-0.0007007364765740931,-0.014179667457938194
0.0014127569738775492,-0.0056463563814759254,0.0001915216416819021,0.0037884835619479418,-0.0007448091055266559,-0.014510562643408775
0.001673149410635233,-0.005855809897184372,0.0001837026939028874,0.003883155295625329,-0.001109734526835382,-0.015057431533932686
0.00156990229152143,-0.0052879806607961655,0.00017649729852564633,0.003506772918626666,-0.0014520256081596017,-0.01524034421890974
0.0014939445536583662,-0.005498018581420183,0.00016983598470687866,0.003363340860232711,-0.001378604443743825,-0.015737682580947876
0.00153694290202111,-0.00568750174716115,0.00013138266513124108,0.0034488998353481293,-0.0012264312244951725,-0.015481843613088131
0.0015315029304474592,-0.005606090184301138,0.0001263387966901064,0.003587464801967144,-0.0011045833816751838,-0.015752658247947693
0.0013425661018118262,-0.0049768416211009026,0.00012204948870930821,0.003654248546808958,-0.0010302758309990168,-0.015322808176279068
0.00124925107229501,-0.004136732313781977,0.00011804690439021215,0.0036737050395458937,-0.0008979688864201307,-0.015094990842044353
0.0012214886955916882,-0.0038387782406061888,0.00011429922597017139,0.0037356442771852016,-0.0008650435484014452,-0.015123805962502956
0.0013456426095217466,-0.0038388678804039955,0.0001107817588490434,0.003825088031589985,-0.0007854140130802989,-0.015710577368736267
0.0016814203700050712,-0.004326696041971445,0.00010747413034550846,0.0038190283812582493,-0.0007857705350033939,-0.015508679673075676
0.0027298934292048216,-0.004626078065484762,0.00010435885633341968,0.0035798910539597273,-0.0007233345531858504,-0.015313368290662766
0.00297304755076766,-0.004539017099887133,0.00010141875827684999,0.0036082721780985594,-0.0005985694006085396,-0.015279377810657024
0.002691555768251419,-0.0046013533137738705,9.86398954410106e-05,0.003979857079684734,-0.0006031710072420537,-0.01582978665828705
0.002383654937148094,-0.004239095840603113,9.600934572517872e-05,0.004044799599796534,-0.0006087883375585079,-0.016105808317661285
0.0033266963437199593,-0.004003163427114487,9.11475726752542e-05,0.0036336141638457775,-0.0006121614133007824,-0.016356006264686584
0.0033266963437199593,-0.004003163427114487,9.11475726752542e-05,0.0036336141638457775,-0.0006121614133007824,-0.016356006264686584
0.0035393647849559784,-0.00420744251459837,8.675469871377572e-05,0.0038891718722879887,-0.000634462689049542,-0.016027582809329033
0.0032351347617805004,-0.00440269336104393,6.438461423385888e-05,0.003982925787568092,-0.0005716024897992611,-0.016240227967500687
0.0032351347617805004,-0.00440269336104393,6.438461423385888e-05,0.003982925787568092,-0.0005716024897992611,-0.016240227967500687
0.0032170230988413095,-0.004356757737696171,6.208547711139545e-05,0.0038650142960250378,-0.000582217937335372,-0.016538482159376144
0.0035664695315063,-0.004044781904667616,6.0679343732772395e-05,0.0037245803978294134,-0.0005460605025291443,-0.016592727974057198
0.003908758983016014,-0.00388526264578104,5.934544969932176e-05,0.0037723241839557886,-0.00055790034821257,-0.016667427495121956
0.004000494256615639,-0.004243156872689724,5.806904300698079e-05,0.0038204884622246027,-0.0005854257615283132,-0.016319725662469864
0.0034282030537724495,-0.0042484961450099945,5.684646384906955e-05,0.004249376244843006,-0.0006147928652353585,-0.015708761289715767
0.004037450533360243,-0.004368920810520649,5.56743070774246e-05,0.00411249790340662,-0.0006919498555362225,-0.01627914421260357
0.004233051091432571,-0.004434643778949976,5.454948404803872e-05,0.003907941281795502,-0.0007188875460997224,-0.0164521262049675
0.004234142601490021,-0.004505057353526354,5.360411887522787e-05,0.0037949606776237488,-0.0007380062597803771,-0.016551773995161057
0.0039996071718633175,-0.0043090335093438625,-5.092467836220749e-05,0.00420784205198288,-0.0009468922507949173,-0.016524270176887512
0.003916515503078699,-0.004043597262352705,-5.0867791287600994e-05,0.004173217806965113,-0.0009845742024481297,-0.017398934811353683
0.004493838641792536,-0.0038573734927922487,-4.948774221702479e-05,0.004025733098387718,-0.0009931981330737472,-0.01753648743033409
0.005089996848255396,-0.004337947349995375,-4.816373257199302e-05,0.003956906497478485,-0.0008745579980313778,-0.016821961849927902
0.005128116812556982,-0.00423990935087204,-4.6908549848012626e-05,0.004329624120146036,-0.0008705241489224136,-0.01708717830479145
0.004792879801243544,-0.004317058715969324,-6.765704893041402e-05,0.004671527072787285,-0.000782493909355253,-0.01699676550924778
0.00504083838313818,-0.004440927412360907,-8.152137888828292e-05,0.005060846917331219,-0.0007082467200234532,-0.017380917444825172
0.005053966771811247,-0.004199418239295483,-8.69116120156832e-05,0.004577773157507181,-0.0006211968138813972,-0.017711346969008446
0.005430051125586033,-0.004544208291918039,-0.00010590782039798796,0.00452203955501318,-0.0006258550565689802,-0.016890589147806168
0.005412121303379536,-0.004108570981770754,-0.00010374850535299629,0.004215045366436243,-0.0005825857515446842,-0.01692766509950161
0.006043402943760157,-0.004358666017651558,-0.00010141418897546828,0.004408626817166805,-0.0006087578949518502,-0.016846995800733566
0.005779399536550045,-0.004103169776499271,-9.917912393575534e-05,0.004938607569783926,-0.0006343434797599912,-0.017186496406793594
0.0060996441170573235,-0.004218613728880882,-9.704031981527805e-05,0.004949649330228567,-0.0007433915161527693,-0.017676876857876778
0.006334241013973951,-0.004596707411110401,-9.499189764028415e-05,0.004984303377568722,-0.0007831575348973274,-0.01812148094177246
0.006092519033700228,-0.004252979066222906,-0.000227301410632208,0.0045238761231303215,-0.0007913360605016351,-0.0184618029743433
0.006349628325551748,-0.004492228385061026,-0.00027924508322030306,0.00448951218277216,-0.0007899713236838579,-0.0181865394115448
0.006684621796011925,-0.004091312177479267,-0.00031022465554997325,0.004635113291442394,-0.0007332077948376536,-0.01783853955566883
0.006789214443415403,-0.004286088515073061,-0.00029891851590946317,0.0049071526154875755,-0.0007800683379173279,-0.01761094480752945
0.007176105864346027,-0.004313958343118429,-0.0002833124599419534,0.005287012085318565,-0.0006829099147580564,-0.017470503225922585
0.00760536128655076,-0.004165854770690203,-0.00025640620151534677,0.0047804322093725204,-0.0006787052261643112,-0.018015414476394653
0.007761696353554726,-0.004483208991587162,-0.0002850060991477221,0.004641082603484392,-0.0006540186004713178,-0.018117209896445274
0.007761696353554726,-0.004483208991587162,-0.0002850060991477221,0.004641082603484392,-0.0006540186004713178,-0.018117209896445274
0.007764820940792561,-0.0046943058259785175,-0.00029878385248593986,0.004669059533625841,-0.0006759935640729964,-0.018540367484092712
0.007644385565072298,-0.004378474783152342,-0.00029960370738990605,0.004906142596155405,-0.0007498161285184324,-0.01840466819703579
0.007405831478536129,-0.004538447596132755,-0.00043351019849069417,0.004932303912937641,-0.0008026002324186265,-0.018408410251140594
0.008147490210831165,-0.004307169932872057,-0.0004735402762889862,0.0050123766995966434,-0.000833009195048362,-0.018772678449749947
0.008230677805840969,-0.004522946197539568,-0.0004381690814625472,0.005000762641429901,-0.0013126990525051951,-0.018535852432250977
0.008236884139478207,-0.004950281232595444,-0.0004700444405898452,0.004789385944604874,-0.001283198711462319,-0.0186593197286129
0.008393168449401855,-0.004950417671352625,-0.000439805822679773,0.004620748106390238,-0.0011611460940912366,-0.01902821473777294
0.008639817126095295,-0.004416118375957012,-0.000467432604636997,0.004673920571804047,-0.001055878703482449,-0.018950268626213074
0.008895214647054672,-0.0044278488494455814,-0.0004410456749610603,0.0045027956366539,-0.0009243065142072737,-0.01860802061855793
0.008447217755019665,-0.004982740618288517,-0.0005600404692813754,0.004579618573188782,-0.0007796544232405722,-0.018596619367599487
0.008601982146501541,-0.0045145610347390175,-0.0005922274431213737,0.004639443010091782,-0.0006633874727413058,-0.01848134957253933
0.008790231309831142,-0.004530955106019974,-0.0006025719922035933,0.005003911908715963,-0.0006847852491773665,-0.019072312861680984
0.008852669969201088,-0.004674992524087429,-0.0005759055493399501,0.005068088416010141,-0.0006884429603815079,-0.01934109255671501
0.008523538708686829,-0.005023648031055927,-0.0006023341557011008,0.004951416049152613,-0.0007087356643751264,-0.019067823886871338
0.008980104699730873,-0.004949042573571205,-0.0005567501066252589,0.005333357024937868,-0.000671348359901458,-0.018577979877591133
0.009129524230957031,-0.004663195461034775,-0.0006553484126925468,0.005192770157009363,-0.0007686099852435291,-0.019096355885267258
0.008747916668653488,-0.004826075863093138,-0.0006790519692003727,0.004879377782344818,-0.0007901393692009151,-0.019392946735024452
0.009517369791865349,-0.004785008728504181,-0.0007041263161227107,0.005180194973945618,-0.0008167441701516509,-0.01931012235581875
0.009568014182150364,-0.004983676131814718,-0.0007241640705615282,0.005151054821908474,-0.0010165616404265165,-0.01933867670595646
0.008853434585034847,-0.004476210102438927,-0.0009156721644103527,0.005291664507240057,-0.0011608197819441557,-0.01938244327902794
0.00924126710742712,-0.004405242390930653,-0.0009402585565112531,0.005627718288451433,-0.0011660264572128654,-0.019653504714369774
0.00939179491251707,-0.004525305237621069,-0.0009383959113620222,0.005438623484224081,-0.0011561136925593019,-0.020034927874803543
0.009398620575666428,-0.004624255001544952,-0.000934524170588702,0.005524081643670797,-0.0011916350340470672,-0.0202789306640625
0.009992371313273907,-0.004568596836179495,-0.0011365670943632722,0.005631789565086365,-0.0013159977970644832,-0.020133674144744873
0.009992371313273907,-0.004568596836179495,-0.0011365670943632722,0.005631789565086365,-0.0013159977970644832,-0.020133674144744873
0.010220292024314404,-0.004625535104423761,-0.001111718243919313,0.005535923410207033,-0.001382484333589673,-0.019815286621451378
0.009779656305909157,-0.004611905664205551,-0.0013505854876711965,0.00575723871588707,-0.0013663922436535358,-0.01992139220237732
0.009841754101216793,-0.0044749886728823185,-0.001449892995879054,0.005330175627022982,-0.0012871839571744204,-0.020337654277682304
0.009760826826095581,-0.005069505888968706,-0.0016526646213606,0.005310726817697287,-0.0011618927819654346,-0.020691096782684326
0.009760826826095581,-0.005069505888968706,-0.0016526646213606,0.005310726817697287,-0.0011618927819654346,-0.020691096782684326
0.010500824078917503,-0.004896578378975391,-0.0015019681304693222,0.0059773060493171215,-0.0011441921815276146,-0.020619703456759453
0.010198444128036499,-0.0048859878443181515,-0.0014097278472036123,0.005674315150827169,-0.0013198221568018198,-0.021057747304439545
0.010224011726677418,-0.004552103579044342,-0.0014877672074362636,0.0056785717606544495,-0.0013107015984132886,-0.021020159125328064
0.011078612878918648,-0.004317805171012878,-0.0017254247795790434,0.005292478017508984,-0.001414990401826799,-0.02107262797653675
0.010290835052728653,-0.004447794985026121,-0.0018411411438137293,0.005379349924623966,-0.0015352778136730194,-0.021128838881850243
0.010118710808455944,-0.004659256897866726,-0.0024170619435608387,0.005626433063298464,-0.0014460076345130801,-0.02110918052494526
0.010734746232628822,-0.0047196089290082455,-0.0022522020153701305,0.006149384193122387,-0.0014106712769716978,-0.021129542961716652
0.010591825470328331,-0.005102892406284809,-0.0021434063091874123,0.006101884413510561,-0.0013094455935060978,-0.021144431084394455
0.010590274818241596,-0.0048653664998710155,-0.001931001665070653,0.00569350877776742,-0.0012758902739733458,-0.021148955449461937
0.01060569379478693,-0.00429917499423027,-0.002077637240290642,0.00569645781069994,-0.0011659321608021855,-0.021163316443562508
0.010846699588000774,-0.00440549710765481,-0.002686056774109602,0.005451776087284088,-0.0012047721538692713,-0.021283531561493874
0.011158246546983719,-0.004679887089878321,-0.00319099985063076,0.005773910321295261,-0.0012082424946129322,-0.021536976099014282
0.010010777972638607,-0.005221603903919458,-0.0029475477058440447,0.005876647308468819,-0.0015198307810351253,-0.021524127572774887
0.009141607210040092,-0.004917871672660112,-0.002910324838012457,0.006253194063901901,-0.0015510596567764878,-0.0210947934538126
0.009516357444226742,-0.00474596256390214,-0.0027187459636479616,0.0058207157999277115,-0.0015244727255776525,-0.02141556702554226
0.00958788301795721,-0.004489812534302473,-0.0027038436383008957,0.005827685352414846,-0.001484971260651946,-0.02181503176689148
0.009542211890220642,-0.0045107402838766575,-0.003275476396083832,0.005591819994151592,-0.0013776917476207018,-0.022397730499505997
0.01013910211622715,-0.0046866233460605145,-0.0033882735297083855,0.005849498324096203,-0.0012802788987755775,-0.021824464201927185
0.010266471654176712,-0.004915486089885235,-0.003421961097046733,0.005628525745123625,-0.0010941370856016874,-0.021723609417676926
0.010867449454963207,-0.005179797299206257,-0.0034498583991080523,0.005914302077144384,-0.0008783782832324505,-0.021908603608608246
0.009596266783773899,-0.004904855042695999,-0.003551644738763571,0.006275325547903776,-0.000941057747695595,-0.022647064179182053
0.010267852805554867,-0.00472577940672636,-0.003586834529414773,0.005834911018610001,-0.001131455646827817,-0.023582249879837036
0.010267852805554867,-0.00472577940672636,-0.003586834529414773,0.005834911018610001,-0.001131455646827817,-0.023582249879837036
0.010162679478526115,-0.004819327965378761,-0.0036090712528675795,0.006152376066893339,-0.0012923688627779484,-0.022968003526329994
0.010288741439580917,-0.004844745621085167,-0.0038213368970900774,0.006003085989505053,-0.0018601708579808474,-0.022860070690512657
0.010521505028009415,-0.005487146787345409,-0.004140624310821295,0.006045456975698471,-0.002052067779004574,-0.023480568081140518
0.010713008232414722,-0.00527364294975996,-0.004445742815732956,0.006058514583855867,-0.00181546900421381,-0.023885896429419518
0.010591033846139908,-0.004664784763008356,-0.004025999456644058,0.006295712664723396,-0.00159865349996835,-0.02282932959496975
0.01076208520680666,-0.004352350253611803,-0.004197424743324518,0.006257884670048952,-0.0015347999287769198,-0.022218607366085052
0.010655209422111511,-0.004492870066314936,-0.004232702776789665,0.005800704937428236,-0.0013320986181497574,-0.022463303059339523
0.010519964620471,-0.0046338047832250595,-0.004386979155242443,0.005594660062342882,-0.001317706424742937,-0.023062223568558693
0.010999375954270363,-0.004760678391903639,-0.004287476185709238,0.005557696335017681,-0.0012871265644207597,-0.02350860834121704
0.01073465496301651,-0.005085259210318327,-0.0046082111075520515,0.006328089628368616,-0.0012420493876561522,-0.023311961442232132
0.01098102517426014,-0.004893786273896694,-0.0051119341515004635,0.006084510590881109,-0.0012216420145705342,-0.02311651222407818
0.011007306165993214,-0.004726584535092115,-0.005065306089818478,0.005986406467854977,-0.0010388200171291828,-0.022890912368893623
0.01120963878929615,-0.004636943805962801,-0.004971206653863192,0.005931680090725422,-0.0010078012710437179,-0.023052910342812538
0.011319122277200222,-0.004965753760188818,-0.00483107753098011,0.006309127900749445,-0.0009834518423303962,-0.0231100395321846
0.011176847852766514,-0.00504537345841527,-0.0048647052608430386,0.00623317202553153,-0.000950467016082257,-0.023382121697068214
0.011128189973533154,-0.004370309878140688,-0.004972581285983324,0.00635461276397109,-0.0009789494797587395,-0.023359891027212143
0.011019534431397915,-0.0040109772235155106,-0.005227794870734215,0.006052107084542513,-0.0009933551773428917,-0.023514488711953163
0.010379279032349586,-0.003609553910791874,-0.004937510006129742,0.005935238674283028,-0.0015586582012474537,-0.023670414462685585
0.01087163481861353,-0.0038308375515043736,-0.005235301796346903,0.006452298257499933,-0.0015491005033254623,-0.023341046646237373
0.011417292058467865,-0.004010939970612526,-0.005467668641358614,0.006698394659906626,-0.001822157995775342,-0.023656930774450302
0.011021255515515804,-0.004421729128807783,-0.0053358557634055614,0.006340612657368183,-0.0017969900509342551,-0.023669250309467316
0.011129263788461685,-0.004226059652864933,-0.005770374089479446,0.00614743959158659,-0.0017350532580167055,-0.023436306044459343
0.011112111620604992,-0.003959903493523598,-0.005751331802457571,0.006530871614813805,-0.001602231408469379,-0.024477776139974594
0.011882798746228218,-0.004412936046719551,-0.005612508859485388,0.006710685323923826,-0.001484443317167461,-0.024752041324973106
0.010967361740767956,-0.003927077632397413,-0.005541419144719839,0.006696069147437811,-0.0013390050735324621,-0.02457108162343502
0.011538319289684296,-0.004241298418492079,-0.005969642195850611,0.006442228332161903,-0.0014408119022846222,-0.023748736828565598
0.011562739498913288,-0.004240764770656824,-0.006192670203745365,0.006442311219871044,-0.0015465380856767297,-0.023140043020248413
0.011412866413593292,-0.0040232171304523945,-0.006065103691071272,0.006794075947254896,-0.001486490829847753,-0.024359766393899918
0.012273374944925308,-0.0038488637655973434,-0.006093713454902172,0.00723098311573267,-0.0015493197133764625,-0.024435803294181824
0.011701119132339954,-0.004018403589725494,-0.006271051708608866,0.007349664811044931,-0.0015324386768043041,-0.024524323642253876
0.011919450014829636,-0.004068601410835981,-0.0067217699252069,0.006974445655941963,-0.0015916003612801433,-0.025122718885540962
0.011919450014829636,-0.004068601410835981,-0.0067217699252069,0.006974445655941963,-0.0015916003612801433,-0.025122718885540962
0.011641534976661205,-0.004362862091511488,-0.006658956408500671,0.007284943014383316,-0.0016788044013082981,-0.025443652644753456
0.012222576886415482,-0.0037090713158249855,-0.006253774277865887,0.007331018336117268,-0.001598596922121942,-0.024721287190914154
0.011807817034423351,-0.004064022097736597,-0.006442429963499308,0.0070935930125415325,-0.0016243315767496824,-0.02429232746362686
0.011526044458150864,-0.004147878382354975,-0.006992722861468792,0.006966148503124714,-0.001620791619643569,-0.02412700094282627
0.012007784098386765,-0.0039856815710663795,-0.0070121451281011105,0.007420971989631653,-0.0017602555453777313,-0.024540280923247337
0.011949208565056324,-0.004328642040491104,-0.0067024026066064835,0.007160938810557127,-0.0018346338765695691,-0.025503698736429214
0.012154694646596909,-0.004184497985988855,-0.006351383402943611,0.007110829930752516,-0.0017205526819452643,-0.025205636397004128
0.012696666643023491,-0.003929669503122568,-0.0064848726615309715,0.006608853116631508,-0.0017334294971078634,-0.024945924058556557
0.011872643604874611,-0.004288813099265099,-0.007311089430004358,0.007098758593201637,-0.0016174587653949857,-0.02507666125893593
0.012178907170891762,-0.004125687293708324,-0.007029881700873375,0.006933188531547785,-0.00168872089125216,-0.024885371327400208
0.012103963643312454,-0.00374047365039587,-0.007245568558573723,0.00704601127654314,-0.0021080938167870045,-0.025327706709504128
0.012362683191895485,-0.0038897006306797266,-0.006837441120296717,0.006957594770938158,-0.002315033692866564,-0.025685254484415054
0.012328981421887875,-0.004128848202526569,-0.007144847884774208,0.007805772125720978,-0.0021995585411787033,-0.025699298828840256
0.012361066415905952,-0.003536259289830923,-0.008135732263326645,0.007635809481143951,-0.00194856699090451,-0.025464516133069992
0.01272673811763525,-0.004241158254444599,-0.007100845221430063,0.007326172199100256,-0.001703082351014018,-0.025844519957900047
0.012766198255121708,-0.004505944438278675,-0.006369264330714941,0.007260402198880911,-0.001394067076034844,-0.026229334995150566
0.012882146053016186,-0.004084913991391659,-0.007193603552877903,0.007892423309385777,-0.0013476335443556309,-0.025980472564697266
0.01256080437451601,-0.003975044935941696,-0.008055425249040127,0.0075348662212491035,-0.0014531969791278243,-0.025623982772231102
0.012799934484064579,-0.004335362929850817,-0.008290152996778488,0.0067999823950231075,-0.001635417458601296,-0.0254822950810194
0.012861596420407295,-0.004332527052611113,-0.006621025037020445,0.00683786952868104,-0.0015534366248175502,-0.0258729737251997
0.01288615819066763,-0.004193782340735197,-0.008647617883980274,0.007859908975660801,-0.0014590434730052948,-0.025540810078382492
0.01308431290090084,-0.004122781101614237,-0.007775746751576662,0.007551169488579035,-0.0014398132916539907,-0.02643592283129692
0.013568875379860401,-0.003913585562258959,-0.007483187131583691,0.007015813607722521,-0.0014970025513321161,-0.026952436193823814
0.013127142563462257,-0.003779503284022212,-0.008300283923745155,0.007521348539739847,-0.0014704117784276605,-0.02700231969356537
0.013201515190303326,-0.0038512626197189093,-0.008092285133898258,0.007959704846143723,-0.0018286480335518718,-0.02666650339961052
0.012896406464278698,-0.004410054534673691,-0.0077612437307834625,0.007556711323559284,-0.0017812675796449184,-0.026568129658699036
0.013489273376762867,-0.004140804521739483,-0.007900684140622616,0.007430544123053551,-0.0019844083581119776,-0.026476288214325905
0.013489273376762867,-0.004140804521739483,-0.007900684140622616,0.007430544123053551,-0.0019844083581119776,-0.026476288214325905
0.013450904749333858,-0.003900146810337901,-0.00920136272907257,0.008478713221848011,-0.001870197942480445,-0.026631969958543777
0.014037507586181164,-0.004302918910980225,-0.008129597641527653,0.00807879213243723,-0.001774630043655634,-0.026734821498394012
0.01362080592662096,-0.004167938604950905,-0.008045753464102745,0.007850231602787971,-0.0017439975636079907,-0.02698761411011219
0.013301384635269642,-0.003949030768126249,-0.008248886093497276,0.007693727500736713,-0.0016622630646452308,-0.02694248966872692
0.01358900684863329,-0.003860205179080367,-0.00904032401740551,0.008603716269135475,-0.0016982564702630043,-0.026601731777191162
0.014103328809142113,-0.004299124702811241,-0.008651970885694027,0.007974161766469479,-0.0018667116528376937,-0.027130121365189552
0.013997608795762062,-0.004128920380026102,-0.008434821851551533,0.007969839498400688,-0.0019078076584264636,-0.027562594041228294
0.01460953988134861,-0.003931689076125622,-0.008928574621677399,0.007994471117854118,-0.0019663041457533836,-0.02746761031448841
0.014012648724019527,-0.004109447356313467,-0.006931873969733715,0.008068992756307125,-0.0018037655390799046,-0.027567872777581215
0.01439837459474802,-0.004058414604514837,-0.0056236558593809605,0.0076929423958063126,-0.0017345828237012029,-0.027739694342017174
0.013927661813795567,-0.004356252029538155,-0.006039304193109274,0.007414460182189941,-0.0017110704211518168,-0.028017936274409294
0.014260933734476566,-0.004196021240204573,-0.007940605282783508,0.007727837655693293,-0.0016546722035855055,-0.02802940458059311
0.014110312797129154,-0.004424986895173788,-0.00776221277192235,0.007495500147342682,-0.0018750252202153206,-0.027415910735726357
0.014245535247027874,-0.0046356599777936935,-0.006875728257000446,0.00740320747718215,-0.0017645409097895026,-0.028606664389371872
0.014719407074153423,-0.004405582789331675,-0.006445045582950115,0.007556084543466568,-0.0017619843129068613,-0.029319945722818375
0.01500052958726883,-0.004274182021617889,-0.007040201220661402,0.009029732085764408,-0.0017225102055817842,-0.029570508748292923
0.015167354606091976,-0.004223670344799757,-0.007309871260076761,0.009234665893018246,-0.0018412783974781632,-0.028977148234844208
0.015255606733262539,-0.004394265823066235,-0.006767272483557463,0.00947206187993288,-0.0019157909555360675,-0.027667352929711342
0.014888586476445198,-0.0042131394147872925,-0.006349495612084866,0.0092635378241539,-0.002483429852873087,-0.027204211801290512
0.015704480931162834,-0.004033850505948067,-0.007169946096837521,0.009479161351919174,-0.0025878404267132282,-0.028645062819123268
0.015259014442563057,-0.004377914592623711,-0.007719394750893116,0.008864286355674267,-0.002496027620509267,-0.029182592406868935
0.01600688137114048,-0.004343610256910324,-0.007386926561594009,0.009353614412248135,-0.002091021742671728,-0.029861455783247948
0.016272926703095436,-0.004179242067039013,-0.0074866474606096745,0.009035853669047356,-0.0018450719071552157,-0.029887095093727112
0.016900768503546715,-0.004044629633426666,-0.008016028441488743,0.008593830280005932,-0.001789451576769352,-0.029301071539521217
0.015340142883360386,-0.0039625405333936214,-0.007399727124720812,0.00825324933975935,-0.0017700812313705683,-0.027884455397725105
0.015318208374083042,-0.0039039088878780603,-0.007239313330501318,0.008607419207692146,-0.0017869615694507957,-0.028160335496068
0.015997111797332764,-0.003864634083583951,-0.008090742863714695,0.008315393701195717,-0.002109300112351775,-0.02969536744058132
0.015997111797332764,-0.003864634083583951,-0.008090742863714695,0.008315393701195717,-0.002109300112351775,-0.02969536744058132
0.016774002462625504,-0.004385180771350861,-0.008961026556789875,0.008544589392840862,-0.0019508794648572803,-0.030155880376696587
0.01608547568321228,-0.004254797473549843,-0.007998322136700153,0.00860462337732315,-0.0019097770564258099,-0.029864221811294556
0.01692645438015461,-0.004503956530243158,-0.007841856218874454,0.008406607434153557,-0.0018904421012848616,-0.029973242431879044
0.016930092126131058,-0.004109914414584637,-0.00843795109540224,0.008353895507752895,-0.001892560045234859,-0.02977796643972397
0.016850853338837624,-0.004205095116049051,-0.008786429651081562,0.008807803504168987,-0.001962055452167988,-0.029812807217240334
0.01673625223338604,-0.004303677473217249,-0.008464219979941845,0.008638429455459118,-0.0025274751242250204,-0.030040863901376724
0.01667373813688755,-0.004578948486596346,-0.008638610132038593,0.008485122583806515,-0.0027378492522984743,-0.030304668471217155
0.017125271260738373,-0.00500589981675148,-0.009055600501596928,0.00851503200829029,-0.0025686349254101515,-0.030059464275836945
0.01647278293967247,-0.004944370128214359,-0.008703257888555527,0.00950535200536251,-0.0024043640587478876,-0.030089017003774643
0.01727929525077343,-0.004312862642109394,-0.00917389988899231,0.009385772049427032,-0.002117232186719775,-0.030194725841283798
0.01723628304898739,-0.004198826849460602,-0.00903585646301508,0.009799865074455738,-0.0021756761707365513,-0.02967321313917637
0.016900936141610146,-0.004775630310177803,-0.008773069828748703,0.00968803372234106,-0.0018968710210174322,-0.02998339757323265
0.01692342199385166,-0.00485896784812212,-0.008494306355714798,0.009194565005600452,-0.001876074355095625,-0.03100721165537834
0.017069505527615547,-0.004860231187194586,-0.008792986162006855,0.009166782721877098,-0.0018035067478194833,-0.03172856569290161
0.017840253189206123,-0.004761801101267338,-0.008756479248404503,0.009037353098392487,-0.0018537526484578848,-0.030905041843652725
0.0177153367549181,-0.005014063324779272,-0.008590877056121826,0.009022491984069347,-0.002090722555294633,-0.029249561950564384
0.017481336370110512,-0.004856351763010025,-0.008803221397101879,0.008799773640930653,-0.0021632625721395016,-0.030166741460561752
0.017638513818383217,-0.004409344866871834,-0.008854076266288757,0.009501591324806213,-0.0019227979937568307,-0.0315374918282032
0.017642972990870476,-0.0041974205523729324,-0.008757083676755428,0.009250562638044357,-0.0018678804626688361,-0.0318179614841938
0.017642972990870476,-0.0041974205523729324,-0.008757083676755428,0.009250562638044357,-0.0018678804626688361,-0.0318179614841938
0.017730379477143288,-0.004259973298758268,-0.009903700090944767,0.009370999410748482,-0.002119776327162981,-0.031011370941996574
0.018274039030075073,-0.004553420003503561,-0.008754384703934193,0.009478851221501827,-0.002164955483749509,-0.03074108064174652
0.01812046766281128,-0.00417084526270628,-0.010071560740470886,0.009724822826683521,-0.0021254485473036766,-0.03189332038164139
0.018143080174922943,-0.004318409599363804,-0.009051747620105743,0.009615978226065636,-0.0020553511567413807,-0.032479554414749146
0.018143080174922943,-0.004318409599363804,-0.009051747620105743,0.009615978226065636,-0.0020553511567413807,-0.032479554414749146
0.018199723213911057,-0.004154627211391926,-0.008953647688031197,0.00908079743385315,-0.002169223502278328,-0.0327298678457737
0.018277162685990334,-0.0042436979711055756,-0.009496413171291351,0.010003728792071342,-0.0021804380230605602,-0.03268291428685188
0.018646853044629097,-0.004120960831642151,-0.009709314443171024,0.009858024306595325,-0.002358326455578208,-0.03277037665247917
0.018666883930563927,-0.004415109753608704,-0.009554852731525898,0.009255217388272285,-0.002541247522458434,-0.03192506358027458
0.018866322934627533,-0.004089902155101299,-0.010193456895649433,0.010139224119484425,-0.0027033337391912937,-0.03334500640630722
0.018852345645427704,-0.003893462475389242,-0.010089491493999958,0.010059842839837074,-0.0026222639717161655,-0.03363325074315071
0.018615933135151863,-0.0037888807710260153,-0.009955490939319134,0.009636018425226212,-0.002610615687444806,-0.03327067568898201
0.018574127927422523,-0.0042629241943359375,-0.010115263052284718,0.01011598203331232,-0.002335749566555023,-0.03288242965936661
0.019072379916906357,-0.004266535397619009,-0.009774838574230671,0.009670699015259743,-0.002403974300250411,-0.032945241779088974
0.018968481570482254,-0.004467302467674017,-0.009623736143112183,0.009013155475258827,-0.002332089003175497,-0.033499930053949356
0.018798166885972023,-0.0041456338949501514,-0.01076305378228426,0.00955370906740427,-0.0022018004674464464,-0.03328453376889229
0.019093172624707222,-0.004229087848216295,-0.010190663859248161,0.009764525108039379,-0.0021099629811942577,-0.03324573487043381
0.01900218054652214,-0.004133193287998438,-0.009735376574099064,0.009585625492036343,-0.0020399303175508976,-0.033616505563259125
0.01928112842142582,-0.0038980033714324236,-0.010816434398293495,0.010509585030376911,-0.0021924034226685762,-0.034388843923807144
0.019812442362308502,-0.004243907518684864,-0.010293792001903057,0.010121133178472519,-0.0024097554851323366,-0.03413523733615875
0.019502999261021614,-0.004085844848304987,-0.010003342293202877,0.00955139473080635,-0.002447782550007105,-0.03344714641571045
0.019115518778562546,-0.003880302421748638,-0.010617045685648918,0.009974784217774868,-0.002688422566279769,-0.033778805285692215
0.01949697732925415,-0.004323917906731367,-0.0109921395778656,0.01070844754576683,-0.002660925965756178,-0.0340716615319252
0.01923981122672558,-0.004146982450038195,-0.010349963791668415,0.010203732177615166,-0.002637926023453474,-0.03437970578670502
0.01899384893476963,-0.0039977626875042915,-0.011074520647525787,0.01039892341941595,-0.0025463292840868235,-0.03453925997018814
0.019862940534949303,-0.0039556291885674,-0.010795725509524345,0.010420001111924648,-0.0024500174913555384,-0.03478158265352249
0.019428953528404236,-0.004324641078710556,-0.010332910344004631,0.010737640783190727,-0.0025958321057260036,-0.03500084951519966
0.019639041274785995,-0.0044895922765135765,-0.010113750584423542,0.010704675689339638,-0.002600552048534155,-0.03494618088006973
0.019729964435100555,-0.004512503743171692,-0.010538855567574501,0.01101122610270977,-0.002627403475344181,-0.03480084240436554
0.01980300433933735,-0.004118957091122866,-0.01061712671071291,0.011065160855650902,-0.0028521879576146603,-0.03426840901374817
0.01983734406530857,-0.0038973612245172262,-0.010756677016615868,0.010533769614994526,-0.0027839059475809336,-0.035674337297677994
0.02046625129878521,-0.004354715812951326,-0.011584185995161533,0.01063979510217905,-0.002525454154238105,-0.03705378249287605
0.01986689865589142,-0.004165165591984987,-0.01134452410042286,0.010595578700304031,-0.0026383104268461466,-0.0358474999666214
0.01986689865589142,-0.004165165591984987,-0.01134452410042286,0.010595578700304031,-0.0026383104268461466,-0.0358474999666214
0.01970626600086689,-0.004002854228019714,-0.011333703063428402,0.01063500065356493,-0.002699054777622223,-0.03411312401294708
0.02028064616024494,-0.0038721219170838594,-0.010766291059553623,0.011019369587302208,-0.0024016075767576694,-0.03563454747200012
0.020626503974199295,-0.0043320185504853725,-0.01070372387766838,0.010828537866473198,-0.0024637633468955755,-0.03608926758170128
0.01972564496099949,-0.004109237343072891,-0.0118235033005476,0.011090490967035294,-0.002691213507205248,-0.037956222891807556
0.02142878621816635,-0.004162895958870649,-0.011251194402575493,0.01049728225916624,-0.0025388102512806654,-0.03833897411823273
0.020661761984229088,-0.003966725897043943,-0.01105591468513012,0.009692912921309471,-0.002597287530079484,-0.03589979186654091
0.020332330837845802,-0.003822264028713107,-0.011892430484294891,0.010079520754516125,-0.0026940430980175734,-0.03568320348858833
0.020488347858190536,-0.004314139019697905,-0.011239202693104744,0.010503459721803665,-0.00242209667339921,-0.036786098033189774
0.021083513274788857,-0.004548090975731611,-0.011396096087992191,0.010097235441207886,-0.0024779746308922768,-0.03691179305315018
0.02120058611035347,-0.004324777517467737,-0.010830862447619438,0.010815117508172989,-0.002304580295458436,-0.03699936717748642
0.02057548612356186,-0.003974974621087313,-0.011026347056031227,0.010273590683937073,-0.00217128312215209,-0.03677956387400627
0.02115940861403942,-0.003878539428114891,-0.012056365609169006,0.009826458059251308,-0.0019973451271653175,-0.03666127473115921
0.021031739190220833,-0.004344182554632425,-0.011756764724850655,0.010572473518550396,-0.001946758246049285,-0.036763425916433334
0.021170340478420258,-0.004383486229926348,-0.011656324379146099,0.010404062457382679,-0.00201313104480505,-0.03740045428276062
0.021027274429798126,-0.00414013396948576,-0.011149387806653976,0.010503862984478474,-0.0021125737112015486,-0.037328287959098816
0.021342411637306213,-0.003937520086765289,-0.010800635442137718,0.011214882135391235,-0.0026627322658896446,-0.037224192172288895
0.021721167489886284,-0.003851156448945403,-0.011097931303083897,0.010814775712788105,-0.0028929668478667736,-0.037476517260074615
0.021373389288783073,-0.004279267508536577,-0.010513881221413612,0.011576655320823193,-0.002664869884029031,-0.03761686012148857
0.020877942442893982,-0.004483712371438742,-0.011052693240344524,0.011401776224374771,-0.0026607224717736244,-0.037042636424303055
0.02150907926261425,-0.004299018997699022,-0.011144817806780338,0.010491366498172283,-0.0024396416265517473,-0.03855866566300392
0.021725445985794067,-0.003965048119425774,-0.010684075765311718,0.01104979682713747,-0.002261750167235732,-0.03937283903360367
0.022049393504858017,-0.004201299976557493,-0.011446396820247173,0.011752940714359283,-0.0022505358792841434,-0.03826771676540375
0.022054150700569153,-0.003980305045843124,-0.010996522381901741,0.011202061548829079,-0.002364229178056121,-0.03785940259695053
0.022521600127220154,-0.004072979558259249,-0.011043515987694263,0.010982541367411613,-0.002445014426484704,-0.038968525826931
0.022461529821157455,-0.004033169709146023,-0.010313712991774082,0.011206171475350857,-0.002312558935955167,-0.04034009203314781
0.02231011912226677,-0.004403549712151289,-0.010888145305216312,0.011655939742922783,-0.0023401754442602396,-0.039541542530059814
0.022608552128076553,-0.004224269185215235,-0.011159507557749748,0.011116738431155682,-0.0025011731777340174,-0.03749826177954674
0.022627267986536026,-0.0039654928259551525,-0.010549948550760746,0.011005104519426823,-0.0025432752445340157,-0.03826137259602547
0.022627267986536026,-0.0039654928259551525,-0.010549948550760746,0.011005104519426823,-0.0025432752445340157,-0.03826137259602547
0.02282669208943844,-0.0038792481645941734,-0.011138634756207466,0.010813913308084011,-0.003063091542571783,-0.03935711085796356
0.022763904184103012,-0.004434967879205942,-0.010757653042674065,0.011005599983036518,-0.0031032355036586523,-0.039295393973588943
0.022688282653689384,-0.004225471988320351,-0.010852733626961708,0.011518522165715694,-0.0027521902229636908,-0.03920235112309456
0.023127611726522446,-0.00439009303227067,-0.010917505249381065,0.011378208175301552,-0.0024282776284962893,-0.03896813467144966
0.023237010464072227,-0.004181239753961563,-0.01039216760545969,0.011889863759279251,-0.0020985552109777927,-0.03978661820292473
0.023645877838134766,-0.003671246115118265,-0.010889020748436451,0.011623729951679707,-0.0020763531792908907,-0.040006861090660095
0.023673102259635925,-0.003516928758472204,-0.010934935882687569,0.01202088687568903,-0.0022371916566044092,-0.039512280374765396
0.023716503754258156,-0.0036053427029401064,-0.010871797800064087,0.012456513941287994,-0.002725806087255478,-0.0392315499484539
0.023797158151865005,-0.004276015795767307,-0.011285781860351562,0.011292991228401661,-0.002703844802454114,-0.03985622152686119
0.0230120699852705,-0.0040785279124975204,-0.010673652403056622,0.011771204881370068,-0.0026263087056577206,-0.03991593420505524
0.02354324422776699,-0.0038177098613232374,-0.010749941691756248,0.011555558070540428,-0.0024918154813349247,-0.03982756286859512
0.02398969791829586,-0.0038896019104868174,-0.011170001700520515,0.011066927574574947,-0.0023737901356071234,-0.03961353376507759
0.024084921926259995,-0.0038447214756160975,-0.010590437799692154,0.01138719730079174,-0.0027863180730491877,-0.040682580322027206
0.02322257310152054,-0.003689308650791645,-0.01098435465246439,0.011049478314816952,-0.002766003366559744,-0.04060561954975128
0.024380655959248543,-0.003538913559168577,-0.011142134666442871,0.011457505635917187,-0.0026628102641552687,-0.0400591604411602
0.024855313822627068,-0.0035976478829979897,-0.010774394497275352,0.011591481976211071,-0.0027302002999931574,-0.040659546852111816
0.02483729086816311,-0.0038031600415706635,-0.011873435229063034,0.011218367144465446,-0.0029139649122953415,-0.04092257097363472
0.024438150227069855,-0.004027221351861954,-0.010923911817371845,0.011871227994561195,-0.0029611987993121147,-0.040479183197021484
0.02406187355518341,-0.003950599115341902,-0.010932037606835365,0.011558454483747482,-0.002791184699162841,-0.04015924036502838
0.023617465049028397,-0.003763718530535698,-0.011164294555783272,0.01188646536320448,-0.0027564545162022114,-0.04002434015274048
0.02426770143210888,-0.0036834776401519775,-0.01095940824598074,0.011746994219720364,-0.0025230594910681248,-0.03994102403521538
0.024985311552882195,-0.003722802735865116,-0.011677808128297329,0.012369084171950817,-0.0025724295992404222,-0.04179413616657257
0.025336531922221184,-0.003696854691952467,-0.01128227449953556,0.011782223358750343,-0.002517868299037218,-0.041153132915496826
0.025336531922221184,-0.003696854691952467,-0.01128227449953556,0.011782223358750343,-0.002517868299037218,-0.041153132915496826
0.02491600252687931,-0.003758043050765991,-0.01038922369480133,0.012722590938210487,-0.0029135618824511766,-0.04067622125148773
0.025148896500468254,-0.003762186737731099,-0.011034307070076466,0.012446310371160507,-0.00316312606446445,-0.039966922253370285
0.025403596460819244,-0.0037850330118089914,-0.011384605430066586,0.012152676470577717,-0.003129092277958989,-0.04271801561117172
0.025332245975732803,-0.003807188244536519,-0.010687648318707943,0.011833609081804752,-0.002845481736585498,-0.04265574365854263
0.025332245975732803,-0.003807188244536519,-0.010687648318707943,0.011833609081804752,-0.002845481736585498,-0.04265574365854263
0.02558409422636032,-0.0037445269990712404,-0.01121008861809969,0.01280613150447607,-0.002631115261465311,-0.040816619992256165
0.025959189981222153,-0.0036532010417431593,-0.011311998590826988,0.011647745966911316,-0.0024296476040035486,-0.04132691025733948
0.02596651390194893,-0.003654081840068102,-0.011270606890320778,0.012041459791362286,-0.00248763058334589,-0.041377563029527664
0.02574811317026615,-0.0042088888585567474,-0.011403354816138744,0.01226777769625187,-0.002459482289850712,-0.04149608686566353
0.02620353177189827,-0.004065114539116621,-0.010738697834312916,0.012329555116593838,-0.0028758137486875057,-0.042076416313648224
0.02644229121506214,-0.0034871387761086226,-0.012108719907701015,0.012925652787089348,-0.002996380440890789,-0.04235054552555084
0.026159249246120453,-0.004002665635198355,-0.011490671895444393,0.012913736514747143,-0.0029477200005203485,-0.0422649048268795
0.026080908253788948,-0.004150651395320892,-0.011366702616214752,0.011715108528733253,-0.00270932842977345,-0.04211219400167465
0.025705523788928986,-0.0039997948333621025,-0.01160474680364132,0.01281930785626173,-0.0026713861152529716,-0.042824774980545044
0.02636098861694336,-0.0037839689757674932,-0.011165851727128029,0.01358929742127657,-0.002631755080074072,-0.04257693141698837
0.026625586673617363,-0.003742838744074106,-0.011883093975484371,0.012856405228376389,-0.002598911290988326,-0.04311762750148773
0.026467127725481987,-0.004263599868863821,-0.01182474847882986,0.012993392534554005,-0.0025337347760796547,-0.04226752370595932
0.026578888297080994,-0.004139732103794813,-0.011331072077155113,0.012854674831032753,-0.002487592399120331,-0.04297639802098274
0.027150427922606468,-0.003996205981820822,-0.01194046251475811,0.013017227873206139,-0.0024236124008893967,-0.044328056275844574
0.02643674612045288,-0.003932783380150795,-0.01164143718779087,0.01272187102586031,-0.002774916123598814,-0.04436785727739334
0.027069009840488434,-0.004338604398071766,-0.012581520713865757,0.012636406347155571,-0.0029524918645620346,-0.04233701154589653
0.028060780838131905,-0.004175117705017328,-0.011580471880733967,0.013116929680109024,-0.003045563120394945,-0.04286741092801094
0.027203725650906563,-0.0038631593342870474,-0.012018777430057526,0.012764766812324524,-0.0032926269341260195,-0.04327141121029854
0.02680676244199276,-0.0038239317946135998,-0.013646590523421764,0.013292468152940273,-0.0030612428672611713,-0.04483175650238991
0.024598006159067154,-0.0039505744352936745,-0.013329003937542439,0.013002369552850723,-0.003171533579006791,-0.04526650905609131
0.0279493797570467,-0.003948715515434742,-0.013511852361261845,0.013509406708180904,-0.003029541578143835,-0.04296393319964409
0.028179163113236427,-0.0037606062833219767,-0.013086448423564434,0.013455535285174847,-0.002863768022507429,-0.04367690905928612
0.02782973274588585,-0.003520330647006631,-0.013463931158185005,0.013325889594852924,-0.0029482191894203424,-0.043632324784994125
0.027819430455565453,-0.0036782887764275074,-0.013801706954836845,0.013378716073930264,-0.003261552657932043,-0.043950118124485016
0.028015436604619026,-0.003416776889935136,-0.013840827159583569,0.012999674305319786,-0.003174174576997757,-0.045355040580034256
0.02722863480448723,-0.003880618140101433,-0.014779101125895977,0.013138721697032452,-0.003059729002416134,-0.045505475252866745
0.026829730719327927,-0.0041368273086845875,-0.013832458294928074,0.013336649164557457,-0.0028441401664167643,-0.0454435721039772
0.0278620608150959,-0.0036430559121072292,-0.014521528966724873,0.013019169680774212,-0.0028579679783433676,-0.045169491320848465
0.028849828988313675,-0.0035325761418789625,-0.014635373838245869,0.013523081317543983,-0.0030316468328237534,-0.045909956097602844
0.028318768367171288,-0.0038078208453953266,-0.014778941869735718,0.013533830642700195,-0.0028055806178599596,-0.04591263458132744
0.02814251370728016,-0.0039182864129543304,-0.01370273157954216,0.01386865321546793,-0.0026412359438836575,-0.046004634350538254
0.02814251370728016,-0.0039182864129543304,-0.01370273157954216,0.01386865321546793,-0.0026412359438836575,-0.046004634350538254
0.028182214125990868,-0.003950295504182577,-0.014467093162238598,0.013385366648435593,-0.0027202630881220102,-0.045986611396074295
0.028872985392808914,-0.0039226943626999855,-0.014353696256875992,0.013748858124017715,-0.0027721200603991747,-0.04639551788568497
0.028882388025522232,-0.0035081796813756227,-0.015218673273921013,0.013317983597517014,-0.0028340036515146494,-0.046238843351602554
0.028659570962190628,-0.003989423159509897,-0.014512878842651844,0.014305604621767998,-0.0028627284336835146,-0.04619985446333885
0.029198266565799713,-0.004197453148663044,-0.014759726822376251,0.014160694554448128,-0.0030468208715319633,-0.04712313786149025
0.029048722237348557,-0.0039970832876861095,-0.013865060172975063,0.014630547724664211,-0.00295646907761693,-0.0469113290309906
0.0289537962526083,-0.004302195273339748,-0.014894065447151661,0.013876163400709629,-0.002861632499843836,-0.045456063002347946
0.02911398373544216,-0.003684564493596554,-0.014375497587025166,0.014353438280522823,-0.0026777242310345173,-0.04647858440876007
0.0288913082331419,-0.003578861942514777,-0.014903235249221325,0.014361427165567875,-0.002856302307918668,-0.04813249036669731
0.02905283309519291,-0.0036571663804352283,-0.014179477468132973,0.014342265203595161,-0.0032222457230091095,-0.04573618248105049
0.029076948761940002,-0.003866828279569745,-0.014603981748223305,0.01378471590578556,-0.003537150099873543,-0.045853935182094574
0.029006585478782654,-0.004323599394410849,-0.014131824485957623,0.014051997102797031,-0.0034234013874083757,-0.04662514850497246
0.02943417988717556,-0.004133636597543955,-0.014990069903433323,0.014009998179972172,-0.0029480450320988894,-0.04892274737358093
0.029850341379642487,-0.003910426516085863,-0.014020678587257862,0.014386304654181004,-0.0026081432588398457,-0.047982726246118546
0.029509129002690315,-0.003927094861865044,-0.01443064771592617,0.014041528105735779,-0.0025212664622813463,-0.04684935510158539
0.030035145580768585,-0.004062614403665066,-0.014168469235301018,0.01458465214818716,-0.003076511202380061,-0.04840429872274399
0.030303841456770897,-0.003828397486358881,-0.014620316214859486,0.014281721785664558,-0.0036472370848059654,-0.048827141523361206
0.030354326590895653,-0.00361040560528636,-0.015131467953324318,0.014358732849359512,-0.0031200596131384373,-0.04888230562210083
0.03051571734249592,-0.0040271528996527195,-0.014575141482055187,0.014899926260113716,-0.0030760876834392548,-0.049178142100572586
0.029575929045677185,-0.0040601277723908424,-0.015183762647211552,0.01460913848131895,-0.003246996086090803,-0.04933853819966316
0.030587248504161835,-0.0037258509546518326,-0.014276470057666302,0.0151548245921731,-0.0033645667135715485,-0.04950021207332611
0.03160221129655838,-0.0035196500830352306,-0.015058018267154694,0.014889558777213097,-0.0034955693408846855,-0.0497431643307209
0.03160221129655838,-0.0035196500830352306,-0.015058018267154694,0.014889558777213097,-0.0034955693408846855,-0.0497431643307209
0.03132256492972374,-0.0035048704594373703,-0.015233639627695084,0.014712798409163952,-0.0031539620831608772,-0.04980790615081787
0.03132256492972374,-0.0035048704594373703,-0.015233639627695084,0.014712798409163952,-0.0031539620831608772,-0.04980790615081787
0.029825102537870407,-0.0034844940528273582,-0.015069520100951195,0.014622497372329235,-0.003437667153775692,-0.049756769090890884
0.029966598376631737,-0.003696076339110732,-0.015374311245977879,0.013780762441456318,-0.003733734367415309,-0.050593480467796326
0.03116072341799736,-0.0038724306505173445,-0.015013421885669231,0.01415789034217596,-0.003483944572508335,-0.05129066854715347
0.030592290684580803,-0.004105348605662584,-0.015400766395032406,0.014058875851333141,-0.003202153369784355,-0.048800744116306305
0.03126783296465874,-0.003941301256418228,-0.015595976263284683,0.014911960810422897,-0.003179291496053338,-0.04920310899615288
0.032173238694667816,-0.0037408240605145693,-0.015656692907214165,0.014640777371823788,-0.003046395955607295,-0.05030510574579239
0.03137063980102539,-0.0036910129711031914,-0.015624841675162315,0.014718952588737011,-0.0034944401122629642,-0.05247311666607857
0.03154243901371956,-0.0037132767029106617,-0.015250314958393574,0.014422192238271236,-0.003834132570773363,-0.050400376319885254
0.03120318055152893,-0.004200369585305452,-0.015972761437296867,0.015127371065318584,-0.0034617427736520767,-0.04837920889258385
0.032046955078840256,-0.004073785152286291,-0.015205135568976402,0.014126076363027096,-0.0035397198516875505,-0.05016745626926422
0.03231211006641388,-0.004369181580841541,-0.015675002709031105,0.01444034744054079,-0.0033798441290855408,-0.051114629954099655
0.031891170889139175,-0.004322825465351343,-0.014914468862116337,0.014219270087778568,-0.0032183690927922726,-0.051039885729551315
0.03188811615109444,-0.004456757102161646,-0.015664488077163696,0.01517059188336134,-0.0031376834958791733,-0.05062119662761688
0.03186514228582382,-0.004316418897360563,-0.015352104790508747,0.015662163496017456,-0.0031355218961834908,-0.05056951940059662
0.03204226866364479,-0.004095788113772869,-0.015938159078359604,0.01590518280863762,-0.003518278943374753,-0.05121435970067978
0.0322231762111187,-0.0038461082149297,-0.015907226130366325,0.015598425641655922,-0.00410642521455884,-0.05056413263082504
0.03278934210538864,-0.004093194380402565,-0.01597188040614128,0.01560662779957056,-0.0039025291334837675,-0.05144442245364189
0.032285429537296295,-0.004139699507504702,-0.015939954668283463,0.015828249976038933,-0.003595109097659588,-0.05091220512986183
0.032402779906988144,-0.004322355147451162,-0.0158165842294693,0.015993596985936165,-0.003341228701174259,-0.04943682253360748
0.03276396915316582,-0.0044678980484604836,-0.016269976273179054,0.01673688367009163,-0.0032321633771061897,-0.05222403630614281
0.0325552299618721,-0.004356834571808577,-0.01565619558095932,0.015959614887833595,-0.002923540538176894,-0.05231919512152672
0.0335547961294651,-0.00381964142434299,-0.01568451337516308,0.015462495386600494,-0.003082103095948696,-0.0514361746609211
0.0335547961294651,-0.00381964142434299,-0.01568451337516308,0.015462495386600494,-0.003082103095948696,-0.0514361746609211
0.032745663076639175,-0.004135339520871639,-0.01622994802892208,0.015658767893910408,-0.0036021992564201355,-0.05399955064058304
0.03291916474699974,-0.00410032831132412,-0.016551747918128967,0.01588318683207035,-0.0042099617421627045,-0.051798611879348755
0.03291916474699974,-0.00410032831132412,-0.016551747918128967,0.01588318683207035,-0.0042099617421627045,-0.051798611879348755
0.033728357404470444,-0.0039323922246694565,-0.016644690185785294,0.016247225925326347,-0.004140480421483517,-0.05251665040850639
0.03422260284423828,-0.00388136925175786,-0.016124675050377846,0.015745030716061592,-0.0035090057644993067,-0.05373074859380722
0.034336645156145096,-0.004255227744579315,-0.016966018825769424,0.015807930380105972,-0.0031150109134614468,-0.055050306022167206
0.03278253227472305,-0.0044199079275131226,-0.01631990820169449,0.015785815194249153,-0.0032767322845757008,-0.05316591635346413
0.03381151705980301,-0.004360320046544075,-0.016918307170271873,0.016348380595445633,-0.0030828514136373997,-0.05366850271821022
0.034195102751255035,-0.004417764488607645,-0.01636609062552452,0.015753408893942833,-0.0033030144404619932,-0.053915947675704956
0.03415635600686073,-0.004342867527157068,-0.01673128642141819,0.016271036118268967,-0.0033124838955700397,-0.053925078362226486
0.03528575971722603,-0.004052841570228338,-0.017472760751843452,0.015983033925294876,-0.003531155874952674,-0.05440877377986908
0.03521617129445076,-0.003922661766409874,-0.017136527225375175,0.016207868233323097,-0.003293451387435198,-0.05439366027712822
0.034189093858003616,-0.004218246787786484,-0.01766456663608551,0.016364749521017075,-0.00351729360409081,-0.054192088544368744
0.033955249935388565,-0.004433950409293175,-0.017090601846575737,0.016158977523446083,-0.0032989541068673134,-0.054291337728500366
0.03530903905630112,-0.00417413329705596,-0.017559824511408806,0.016431262716650963,-0.003501752857118845,-0.05324607342481613
0.0352579802274704,-0.003985053393989801,-0.017552167177200317,0.016361182555556297,-0.0037247149739414454,-0.0547768697142601
0.0354263111948967,-0.004331136122345924,-0.01666705496609211,0.016833387315273285,-0.0038093363400548697,-0.05557117238640785
0.035482361912727356,-0.004645944107323885,-0.017861267551779747,0.016412338241934776,-0.003356463275849819,-0.054789949208498
0.035212378948926926,-0.0047078486531972885,-0.017788775265216827,0.01651090942323208,-0.003400713438168168,-0.05449077859520912
0.03357548639178276,-0.004418604075908661,-0.01788531430065632,0.016913512721657753,-0.0037084820214658976,-0.05612991005182266
0.03564363718032837,-0.004358341917395592,-0.017802231013774872,0.01699286885559559,-0.0037421241868287325,-0.05448616296052933
0.03649552911520004,-0.004197010304778814,-0.016791867092251778,0.017216244712471962,-0.0035677968990057707,-0.0547536239027977
0.03628452867269516,-0.004459606949239969,-0.017896801233291626,0.016574576497077942,-0.0033691537100821733,-0.05571979284286499
0.035954799503088,-0.004821472801268101,-0.018368491902947426,0.01680850051343441,-0.0030810649041086435,-0.057360291481018066
0.03620978072285652,-0.004372221417725086,-0.017836038023233414,0.016715409234166145,-0.003385092131793499,-0.05355207994580269
0.03685693070292473,-0.004291032440960407,-0.017515838146209717,0.016963250935077667,-0.0037727775052189827,-0.055606577545404434
0.03649115934967995,-0.004451116546988487,-0.01697247102856636,0.016920849680900574,-0.003919482231140137,-0.05664849653840065
0.03679775074124336,-0.004010745789855719,-0.018656348809599876,0.016833635047078133,-0.0035897097550332546,-0.05602822080254555
0.03705519810318947,-0.004312117118388414,-0.017729196697473526,0.01634313352406025,-0.0033996107522398233,-0.05614478886127472
0.037462107837200165,-0.004683555103838444,-0.017940882593393326,0.016307124868035316,-0.0030442203860729933,-0.05638166889548302
0.037188634276390076,-0.004444006364792585,-0.018536420539021492,0.016316384077072144,-0.003101350273936987,-0.056587088853120804
0.037188634276390076,-0.004444006364792585,-0.018536420539021492,0.016316384077072144,-0.003101350273936987,-0.056587088853120804
0.03743946552276611,-0.00438209343701601,-0.018551209941506386,0.016513405367732048,-0.003367394907400012,-0.05677521601319313
0.03793405741453171,-0.004096208140254021,-0.018710236996412277,0.017469318583607674,-0.0036750086583197117,-0.05705253779888153
0.038090843707323074,-0.0042337472550570965,-0.018709493800997734,0.01736314781010151,-0.0033819698728621006,-0.057199109345674515
0.03801170736551285,-0.0040756636299192905,-0.01853545568883419,0.017815371975302696,-0.0034985363017767668,-0.0558171421289444
0.03964335843920708,-0.004654271528124809,-0.018659338355064392,0.016749683767557144,-0.00465032272040844,-0.057872224599123
0.03964335843920708,-0.004654271528124809,-0.018659338355064392,0.016749683767557144,-0.00465032272040844,-0.057872224599123
0.0377284400165081,-0.004290695767849684,-0.018882030621170998,0.017132963985204697,-0.0047207302413880825,-0.05956677347421646
0.03786691650748253,-0.004353240132331848,-0.019270936027169228,0.01720910705626011,-0.0035216277465224266,-0.05667434260249138
0.039110586047172546,-0.004582687746733427,-0.018709033727645874,0.01767685078084469,-0.0029403213411569595,-0.05664364621043205
0.03873918578028679,-0.00459753442555666,-0.01893918402493,0.017225081101059914,-0.003091320162639022,-0.05856630206108093
0.0397428534924984,-0.0042975652031600475,-0.019199594855308533,0.01725282147526741,-0.003584181424230337,-0.0591338612139225
0.039951976388692856,-0.003969731740653515,-0.018715884536504745,0.017265047878026962,-0.0034129200503230095,-0.05662846192717552
0.03841124102473259,-0.0034283276181668043,-0.019252808764576912,0.01648758165538311,-0.0034464793279767036,-0.057858437299728394
0.038472797721624374,-0.0035736998543143272,-0.01955278031527996,0.017006201669573784,-0.003634648397564888,-0.05807635188102722
0.03954422473907471,-0.0037360445130616426,-0.01892225816845894,0.017132602632045746,-0.004234043415635824,-0.057898879051208496
0.03979720175266266,-0.004342392552644014,-0.019196411594748497,0.017589816823601723,-0.004075224045664072,-0.057730115950107574
0.039536457508802414,-0.004103762563318014,-0.019393067806959152,0.01791136898100376,-0.0036242420319467783,-0.058957524597644806
0.03928221017122269,-0.0034456285648047924,-0.019047481939196587,0.017309673130512238,-0.0033033015206456184,-0.05862877145409584
0.03943348303437233,-0.003560749813914299,-0.019234919920563698,0.018101943656802177,-0.0032020159997045994,-0.058418504893779755
0.03939732909202576,-0.0038652510847896338,-0.019644899293780327,0.018743934109807014,-0.0035549213644117117,-0.057908836752176285
0.040022727102041245,-0.004011465702205896,-0.019503872841596603,0.01875675469636917,-0.003799586556851864,-0.05815945193171501
0.03961664438247681,-0.003960919100791216,-0.01963692530989647,0.018526306375861168,-0.0040039862506091595,-0.05823711305856705
