davideferrari95/blind_handover_controller/data/Test 198 - [2024-02-08 -- 11-33-11]/joint_states_data.csv
shoulder_pan_joint,shoulder_lift_joint,elbow_joint,wrist_1_joint,wrist_2_joint,wrist_3_joint
-0.0027096313424408436,-5.427786163636483e-05,-6.206598765829852e-19,-0.0018085506744682789,-0.0,-0.002921588718891144
-0.0027096313424408436,-5.427786163636483e-05,-6.206598765829852e-19,-0.0018085506744682789,-0.0,-0.002921588718891144
-0.0023362396750599146,-5.347173646441661e-05,-8.326944498822898e-21,-0.001670998171903193,-0.0,-0.002543116919696331
-0.0023722327314317226,-5.2689112635562196e-05,-1.1171658813122716e-22,-0.002107468666508794,-0.0,-0.0021357140503823757
-0.002856758190318942,-5.1190771046094596e-05,-2.010859294926033e-26,-0.0027519925497472286,-0.0,-0.002141407923772931
-0.002758146496489644,-5.047302693128586e-05,-2.6978243697631683e-28,-0.002524983836337924,-0.0,-0.0022622812539339066
-0.0026828418485820293,-4.977520802640356e-05,-3.619475752283577e-30,-0.002317511709406972,-0.0,-0.0028458875603973866
-0.0024114856496453285,-4.909636118100025e-05,-4.855988616018772e-32,-0.002261366927996278,-0.0,-0.003030948806554079
-0.0025249754544347525,-4.8435827920911834e-05,-6.51492856523794e-34,-0.0024354986380785704,-0.0,-0.0026087884325534105
-0.002741843694821,-4.779286973644048e-05,-8.740607646279159e-36,-0.0024524431210011244,-0.0,-0.0024741925299167633
-0.0025934160221368074,-4.716678449767642e-05,-1.17266417633986e-37,-0.0025757779367268085,-0.0,-0.002250662539154291
-0.002578921616077423,-4.655675729736686e-05,-1.5732784235529375e-39,-0.0023805275559425354,-0.0,-0.0021989010274410248
-0.0023096089717000723,-4.59624279756099e-05,-2.110775876812472e-41,-0.002425398910418153,-0.0,-0.002679142402485013
-0.0024589693639427423,-4.538293796940707e-05,-2.8306228979361305e-43,-0.0022958507761359215,-0.0,-0.002741988282650709
-0.002456641523167491,-4.481869109440595e-05,-4.203895392974451e-45,-0.002168079139664769,-0.0,-0.0026543689891695976
-0.002382459817454219,-4.426759551279247e-05,-0.0,-0.002016340848058462,-0.0,-0.0026498225051909685
-0.00266200746409595,-4.372990224510431e-05,0.00019481702474877238,-0.0019590607844293118,-0.0,-0.0023915304336696863
-0.002448085695505142,-4.320451625972055e-05,0.00018748847651295364,-0.0022502506617456675,-0.0,-0.0023099060636013746
-0.002448085695505142,-4.320451625972055e-05,0.00018748847651295364,-0.0022502506617456675,-0.0,-0.0023099060636013746
-0.0023325078655034304,-4.2692827264545485e-05,0.00017999904230237007,-0.0023138970136642456,-0.0,-0.002332912292331457
-0.0023771009873598814,-4.219182301312685e-05,0.00017307637608610094,-0.0023146537132561207,-0.0,-0.0024995128624141216
-0.0025649818126112223,-4.170373358647339e-05,0.00016666570445522666,-0.0020818342454731464,-0.0,-0.0024054304230958223
-0.0024696586187928915,-4.122616155655123e-05,0.00016071331629063934,-0.002001788467168808,-0.0,-0.0024807527661323547
-0.0025985855609178543,-4.075941615155898e-05,0.00018577447917778045,-0.0021421960555016994,-0.0,-0.0022907392121851444
-0.0027180977631360292,-4.0303093555849046e-05,0.00017999275587499142,-0.0021629962138831615,-0.0,-0.002490587066859007
-0.002486700192093849,-3.9856920921010897e-05,0.00017419192590750754,-0.0024256566539406776,-0.0,-0.0027175061404705048
-0.0023366587702184916,-1.5668889545850107e-06,0.00018722635286394507,-0.0023216386325657368,-0.0,-0.002801901428028941
-0.0021834566723555326,-2.1021815399535626e-08,0.00019077793695032597,-0.0022622786927968264,-0.0,-0.002699400531128049
-0.0022446997463703156,-2.8203445134877825e-10,0.00020864879479631782,-0.0020627067424356937,-0.0,-0.0026007615961134434
-0.002057087142020464,-3.783852137867472e-12,0.0002056706289295107,-0.0019914484582841396,-0.0,-0.0024167185183614492
-0.0021469932980835438,-5.076520529900125e-14,0.00019999753567390144,-0.0018330537714064121,-0.0,-0.0024534419644623995
-0.002013747114688158,-6.810800287667513e-16,0.00030908637563697994,-0.001868730178102851,-0.0,-0.002640587743371725
-0.0021921650040894747,-9.137558997227265e-18,0.00029371853452175856,-0.0019032795680686831,-0.0,-0.002959981793537736
-0.002262420253828168,-1.2259200541538883e-19,0.0003243440587539226,-0.0020002664532512426,-0.0,-0.0027796579524874687
-0.002319949446246028,-2.2066129259090684e-23,0.000294796860544011,-0.0019537394400686026,-0.0,-0.00224457960575819
-0.002206886187195778,-2.9604524892934518e-25,0.00032058500801213086,-0.0019057218451052904,-0.0,-0.0021594653371721506
-0.0021436901297420263,-3.971824909452386e-27,0.0003099982859566808,-0.001946484437212348,-0.0,-0.0024491159711033106
-0.0019880158361047506,-5.328709914672999e-29,0.0003360177797731012,-0.0018863409059122205,-0.0,-0.002438825787976384
-0.0021562003530561924,-7.149145052718005e-31,0.0004465125675778836,-0.001918417983688414,-0.0,-0.002695368602871895
-0.002128846012055874,-9.591490236572611e-33,0.00046135071897879243,-0.0018560587195679545,-0.0,-0.002592198085039854
-0.002120949560776353,-1.2868207830961104e-34,0.0005017727962695062,-0.0019068272085860372,-0.0,-0.002630592091009021
-0.0023102532140910625,-1.7264343257254373e-36,0.0004601307737175375,-0.0017783163348212838,-0.0,-0.0027840249240398407
-0.002092743059620261,-2.3162321557040801e-38,0.000470133702037856,-0.001964643830433488,-0.0,-0.0030272456351667643
-0.002132767578586936,-3.1075194744867143e-40,0.00045831967145204544,-0.0018068230710923672,-0.0,-0.0028080688789486885
-0.0019786166958510876,-4.168862931366331e-42,0.00048605233314447105,-0.001890347572043538,-0.0,-0.002639767015352845
-0.002047060988843441,-5.605193857299268e-44,0.00046086873044259846,-0.0017693142872303724,-0.0,-0.0024891793727874756
-0.001986024435609579,-1.401298464324817e-45,0.0005370494909584522,-0.0017108514439314604,-0.0,-0.002165840473026037
-0.002190221333876252,-0.0,0.0005734957521781325,-0.001662015332840383,-0.0,-0.0020409144926816225
-0.002162828342989087,0.0,0.0005981216090731323,-0.0015280937077477574,-0.0,-0.00216290052048862
-0.0021384211722761393,0.0,0.0006066630012355745,-0.001542204525321722,-0.0,-0.0021763707045465708
-0.0021384211722761393,0.0,0.0006066630012355745,-0.001542204525321722,-0.0,-0.0021763707045465708
-0.002120325807482004,0.0,0.0005826467531733215,-0.001512611866928637,-0.0,-0.002442366210743785
-0.002036277437582612,0.0,0.000734224624466151,-0.001636376022361219,-0.0,-0.0023354857694357634
-0.002212078310549259,0.0,0.0006390599301084876,-0.001678953063674271,-0.0,-0.002416993724182248
-0.0019515939056873322,0.0,0.000666690815705806,-0.001529226778075099,-0.0,-0.002541806548833847
-0.002049423521384597,0.0,0.0006845007883384824,-0.0015190449776127934,-0.0,-0.002319746883586049
-0.0019074088195338845,0.0,0.0006855141255073249,-0.0014462742256000638,-0.0,-0.002345706569030881
-0.002147958381101489,0.0,0.0006515905843116343,-0.0014353955630213022,-0.0,-0.002384848427027464
-0.002066770102828741,0.0,0.000670868728775531,-0.001422224217094481,-0.0,-0.0022492946591228247
-0.0020502146799117327,0.0,0.000690261775162071,-0.0015196281019598246,-0.0,-0.0024074946995824575
-0.0018387103918939829,0.0,0.0006907354108989239,-0.0016252330970019102,-0.0,-0.002380076562985778
-0.00185673707164824,0.0,0.0007121337694115937,-0.0015732446918264031,-0.0,-0.0024901609867811203
-0.0017478035297244787,0.0,0.0006748130545020103,-0.001649791025556624,-0.0,-0.0026910449378192425
-0.0019455882720649242,0.0,0.0007873538415879011,-0.0015255368780344725,-0.0,-0.0025161162484437227
-0.0020432225428521633,0.0,0.0007060330826789141,-0.0014404702233150601,-0.0,-0.002331575844436884
-0.0019750657957047224,0.0,0.0007157938089221716,-0.0014335544547066092,-0.0,-0.002271563047543168
-0.0019169680308550596,0.0,0.0007135389605537057,-0.00135345000308007,-0.0,-0.0024533430114388466
-0.0017540233675390482,0.0,0.0006757561350241303,-0.0013125749537721276,-0.0,-0.002603585831820965
-0.001657316111959517,0.0,0.0006637087208218873,-0.0013312110677361488,-0.0,-0.002543101320043206
-0.001689518103376031,0.0,0.0006825441378168762,-0.0013648192398250103,-0.0,-0.002519112778827548
-0.001689518103376031,0.0,0.0006825441378168762,-0.0013648192398250103,-0.0,-0.002519112778827548
-0.0018102388130500913,0.0,0.0007267637993209064,-0.0012334901839494705,-0.0,-0.0024981137830764055
-0.001911671133711934,0.0,0.0009019167628139257,-0.0010408401722088456,-0.0,-0.0026703434996306896
-0.0018892519874498248,0.0,0.0009272830211557448,-0.0010113926837220788,-0.0,-0.002832419238984585
-0.0017790744313970208,0.0,0.00088249531108886,-0.0008962339488789439,-0.0,-0.0026997209060937166
-0.0017811839934438467,0.0,0.0008092907955870032,-0.0007166307768784463,-0.0,-0.0025325557217001915
-0.0017811839934438467,0.0,0.0008092907955870032,-0.0007166307768784463,-0.0,-0.0025325557217001915
-0.0016862298361957073,0.0,0.0007357138674706221,-0.0006992105045355856,-0.0,-0.00224017514847219
-0.0016862298361957073,0.0,0.0007357138674706221,-0.0006992105045355856,-0.0,-0.00224017514847219
-0.0017416205955669284,0.0,0.0006982839549891651,-0.0006724984268657863,-0.0,-0.0020954222418367863
-0.001822908641770482,0.0,0.0006097063887864351,-0.000685497943777591,-0.0,-0.00211838586255908
-0.0016666180454194546,0.0,0.0006427379557862878,-0.0006959725869819522,-0.0,-0.002443434204906225
-0.0018123761983588338,0.0,0.0006674419855698943,-0.0007217065431177616,-0.0,-0.0025655608624219894
-0.0016591681633144617,0.0,0.0006950129754841328,-0.0006892505334690213,-0.0,-0.0024632674176245928
-0.0017497356748208404,0.0,0.0009702597744762897,-0.0007095405599102378,-0.0,-0.0022442848421633244
-0.0017680758610367775,0.0,0.0009626710671000183,-0.0007322868332266808,-0.0,-0.0021199428010731936
-0.0017903330735862255,0.0,0.0008481669356115162,-0.0010043625952675939,-0.0,-0.00204837997443974
-0.0016555488109588623,0.0,0.0008498106617480516,-0.0010229548206552863,-0.0,-0.0021041566506028175
-0.001634820830076933,0.0,0.0007700984133407474,-0.0010077243205159903,-0.0,-0.0026874979957938194
-0.001561695826239884,-6.129610596872226e-09,0.0007773295510560274,-0.001110298209823668,-0.0,-0.002787363715469837
-0.0015789115568622947,-8.223654396344315e-11,0.0007545807748101652,-0.0010701499413698912,-0.0,-0.0023785314988344908
-0.0014926993753761053,-1.1033080915892612e-12,0.0007049301057122648,-0.001044652657583356,-0.0,-0.0019207419827580452
-0.0014219566946849227,-1.4802287000292846e-14,0.0007211488555185497,-0.0009535434655845165,-0.0,-0.0018679454224184155
-0.0014107496244832873,-1.9859157286965002e-16,0.0007374778506346047,-0.0009439121349714696,-0.0,-0.0017897661309689283
-0.0013203085400164127,-2.6643595063812653e-18,0.0007567683351226151,-0.0009370844345539808,-0.0,-0.0018165305955335498
-0.0013677029637619853,-3.574578299086654e-20,0.000675934599712491,-0.000932080380152911,-0.0,-0.0022541789803653955
-0.0013677029637619853,-3.574578299086654e-20,0.000675934599712491,-0.000932080380152911,-0.0,-0.0022541789803653955
-0.0013926774263381958,-6.434114809342216e-24,0.0005406696582213044,-0.0010325184557586908,-0.0,-0.0023988522589206696
-0.0013926774263381958,-6.434114809342216e-24,0.0005406696582213044,-0.0010325184557586908,-0.0,-0.0023988522589206696
-0.0015767979202792048,-8.632186259983533e-26,0.0004914382589049637,-0.0010136867640540004,-0.0,-0.002200910821557045
-0.001513515948317945,-1.1581180090109182e-27,0.00045043157297186553,-0.0009507652139291167,-0.0,-0.0020902513060718775
-0.0014154533855617046,-1.5537630914705695e-29,0.00041574169881641865,-0.001035318593494594,-0.0,-0.001960917841643095
-0.0014632790116593242,-2.0845713705900295e-31,0.0003860147262457758,-0.0010575444903224707,-0.0,-0.0019188125152140856
-0.001359565882012248,-2.7967181597191395e-33,0.0003602582437451929,-0.0010370910167694092,-0.0,-0.002014376688748598
-0.0012775015784427524,-3.752154434978851e-35,0.0003872766101267189,-0.0010841211769729853,-0.0,-0.0018985981587320566
-0.0013329373905435205,-5.033994110985889e-37,0.00037072470877319574,-0.001178148901090026,-0.0,-0.0020916913636028767
-0.0012645290698856115,-6.753745722807675e-39,0.0003501981555018574,-0.0011396269546821713,-0.0,-0.001920923707075417
-0.0014267342630773783,-9.061076130017132e-41,0.00033175473799929023,-0.0011421380331739783,-0.0,-0.0020500083919614553
-0.0013928795233368874,-1.2163270670339412e-42,0.00031515807495452464,-0.0011686619836837053,-0.0,-0.0019158095819875598
-0.0014166600303724408,-1.6815581571897805e-44,0.00030014177900739014,-0.0011361960787326097,-0.0,-0.0021215614397078753
-0.001264872495085001,-0.0,0.0002864919079001993,-0.0011140588903799653,-0.0,-0.00206425366923213
-0.0012547180522233248,0.0,0.0003126271767541766,-0.0012366604059934616,-0.0,-0.0020768577232956886
-0.001187616609968245,0.0,0.00030011485796421766,-0.0012057378189638257,-0.0,-0.0019551070872694254
-0.0012836919631808996,0.0,0.00027702547959052026,-0.0011019222438335419,-0.0,-0.0018993470584973693
-0.0012255968758836389,0.0,0.00021161686163395643,-0.0010500338394194841,-0.0,-0.002072878647595644
-0.0011765980161726475,0.0,0.00020006073464173824,-0.0010238372487947345,-0.0,-0.0021776040084660053
-0.0011385857360437512,0.0,0.0002292841236339882,-0.0010229019680991769,-0.0,-0.0022168990690261126
-0.0012118513695895672,0.0,0.00022043079661671072,-0.0010914437007158995,-0.0,-0.002295863116160035
-0.001161023392342031,0.0,0.00024291971931234002,-0.0011124357115477324,-0.0,-0.0021014113444834948
-0.0011264297645539045,0.0,0.00023770831467118114,-0.0011014260817319155,-0.0,-0.001907659345306456
-0.0011174125829711556,1.3022995517530944e-05,0.0002613915712572634,-0.001303691416978836,-0.0,-0.0018706952687352896
-0.0011174125829711556,1.3022995517530944e-05,0.0002613915712572634,-0.001303691416978836,-0.0,-0.0018706952687352896
-0.0010802502511069179,0.0001320916198892519,0.0002526536409277469,-0.0013275567907840014,-0.0,-0.001823163009248674
-0.0010574233019724488,0.00012988230446353555,0.00048411430907435715,-0.0012942625908181071,-0.0,-0.001766134868375957
-0.0010483820224180818,0.00012625982344616205,0.00046490022214129567,-0.0014562007272616029,-0.0,-0.0019524849485605955
-0.0011346355313435197,0.00012281422095838934,0.000495821877848357,-0.001457934733480215,-0.0,-0.001943696290254593
-0.0011317977914586663,0.00011955136869801208,0.00046256277710199356,-0.0013148741563782096,-0.0,-0.002197732450440526
-0.0011171592632308602,0.00013881252380087972,0.0004725328180938959,-0.00129156862385571,-0.0,-0.0020353817380964756
-0.001125595299527049,0.0001362111943308264,0.0004604900605045259,-0.0012176883174106479,-0.0,-0.002088921144604683
-0.0010915441671386361,0.0001328716753050685,0.000429400970460847,-0.0011644919868558645,-0.0,-0.0020594808738678694
-0.0010631134500727057,0.00012968078954145312,0.00043956137960776687,-0.0010694994125515223,-0.0,-0.0020872345194220543
-0.0010387860238552094,0.00012663978850468993,0.0004316012200433761,-0.0010352188255637884,-0.0,-0.001995268976315856
-0.0010168603621423244,0.00014194419782143086,0.000450471939984709,-0.0010125195840373635,-0.0,-0.001992101315408945
-0.0009940523887053132,0.00014109487528912723,0.0004287145857233554,-0.0009963723132386804,-0.0,-0.001829425455071032
-0.0009810477495193481,0.000138034563860856,0.00039167236536741257,-0.0011341322679072618,-0.0,-0.0017893178155645728
-0.0009530131355859339,0.0001350754901068285,0.000431313383160159,-0.0011797779006883502,-0.0,-0.001660939771682024
-0.0009508506045676768,0.00013224035501480103,0.0004002934438176453,-0.0011914544738829136,-0.0,-0.0017081451369449496
-0.000901241204701364,0.00014728368842042983,0.00043388913036324084,-0.001630955608561635,-0.0,-0.0017439567018300295
-0.0008290092227980494,0.00014217861462384462,0.0004300978616811335,-0.0015805186703801155,-0.0,-0.0018275792244821787
-0.0007469250122085214,0.00013942539226263762,0.00041156550287269056,-0.0015148795209825039,-0.0,-0.0018287809798493981
-0.0006943325861357152,0.00022139193606562912,0.00038956411299295723,-0.001421350403688848,-0.0,-0.0016939268680289388
-0.0007085276301950216,0.0002143565216101706,0.00043295996147207916,-0.0013957038754597306,-0.0,-0.001591869629919529
-0.0007067877450026572,0.00020465429406613111,0.00039594361442141235,-0.0013782880268990993,-0.0,-0.0015772976912558079
-0.0006651125731877983,0.00022142817033454776,0.0002466903533786535,-0.0014774802839383483,-0.0,-0.0015434317756444216
-0.0006867008050903678,0.00022492889547720551,-0.0003785626031458378,-0.0016591973835602403,-7.908869292805321e-07,-0.001471127150580287
-0.0006867008050903678,0.00022492889547720551,-0.0003785626031458378,-0.0016591973835602403,-7.908869292805321e-07,-0.001471127150580287
-0.0007220421684905887,0.00021609783289022744,-0.000549809483345598,-0.0015672619920223951,-5.1639268860981247e-08,-0.0015362103004008532
-0.0006616255850531161,0.0002383248502155766,-0.0003088061057496816,-0.0015382993733510375,-3.3716751612899998e-09,-0.0016169603914022446
-0.0006877074483782053,0.00023337830498348922,-0.00013296984252519906,-0.0013956266921013594,-2.2014629008637598e-10,-0.0017709649400785565
-0.0006138699245639145,0.00025594563339836895,-0.00011427925346652046,-0.0013430760009214282,-1.4373979437265483e-11,-0.0016580766532570124
-0.0006318859523162246,0.0002483572461642325,-0.00010137274512089789,-0.001275713206268847,-9.385181434090617e-13,-0.0018624155782163143
-0.0005833575851283967,0.00041061078081838787,-0.00013897320604883134,-0.001365627977065742,-6.1278524030213e-14,-0.001724625239148736
-0.0006071026436984539,0.00038287611096166074,-0.00012211845023557544,-0.0016599900554865599,-4.001049911848097e-15,-0.0016383572947233915
-0.0005625667981803417,0.0003529349633026868,-0.00010754061077022925,-0.0017707468941807747,-2.612399428284808e-16,-0.001529763569124043
-0.0005322720389813185,0.00037001725286245346,-9.605583909433335e-05,-0.0016282169381156564,-1.7057102814276322e-17,-0.0014306415105238557
-0.0004807079676538706,0.0003657814231701195,-8.6787978943903e-05,-0.0015518824802711606,-1.113706981152235e-18,-0.0014421830419450998
-0.00043435519910417497,0.00034283471177332103,-7.915205787867308e-05,-0.0016010324470698833,-7.271710514506428e-20,-0.0014572527725249529
-0.00044774884008802474,0.00037533132126554847,-7.27514925529249e-05,-0.0016665636794641614,-4.747907260026058e-21,-0.001526085427030921
-0.00043649045983329415,0.00035489731817506254,-6.73092290526256e-05,-0.0015899029094725847,-3.1000438758854205e-22,-0.0016130643198266625
-0.00040414987597614527,0.0003832929069176316,-6.262447277549654e-05,-0.0014778446638956666,-2.0241069578147474e-23,-0.0015030993381515145
-0.0004311537486501038,0.00036452419590204954,-5.85497691645287e-05,-0.001400896580889821,-1.3215971141404206e-24,-0.0013137802015990019
-0.0004100122314412147,0.0004478120827116072,-5.497273014043458e-05,-0.0013755961554124951,-8.6290844342523e-26,-0.001221350859850645
-0.00038504155236296356,0.00045980821596458554,-5.1807855925289914e-05,-0.0013052495196461678,0.00019445864018052816,-0.001240113633684814
-0.00039009813917800784,0.0003934284904971719,-4.6458462747978047e-05,-0.0012819109251722693,0.00023300696921069175,-0.0012106350623071194
-0.0003718319348990917,0.0003667045966722071,-4.4177821109769866e-05,-0.0014057550579309464,0.00026017468189820647,-0.0012899379944428802
-0.0003535951836965978,0.00034338244586251676,-8.25006645754911e-05,-0.0015441704308614135,0.00025324919261038303,-0.001505164778791368
-0.0003370422055013478,0.00032284975168295205,-8.04332594270818e-05,-0.0014984055887907743,0.0002720528282225132,-0.0016317340778186917
-0.0003219688660465181,0.00040199761861003935,-7.701329741394147e-05,-0.001666226889938116,0.0002698043826967478,-0.001845684484578669
-0.0003081873001065105,0.000384430488338694,-7.38538074074313e-05,-0.001529352506622672,0.00025931181153282523,-0.0017435720656067133
-0.0002955362724605948,0.00040997113683260977,-7.094281318131834e-05,-0.0014233645051717758,0.0002822636452037841,-0.0015903894091024995
-0.0002838832442648709,0.000581225089263171,-6.82527243043296e-05,-0.0013715984532609582,0.00037271869950927794,-0.0013275904348120093
-0.0002463830169290304,0.000633459712844342,-6.575915904249996e-05,-0.0013913559960201383,0.0004304586909711361,-0.0012255918700248003
-0.00023267425422091037,0.0006620837957598269,-6.344137364067137e-05,-0.0016314652748405933,0.00046719692181795835,-0.0011636365670710802
-0.00023267425422091037,0.0006620837957598269,-6.344137364067137e-05,-0.0016314652748405933,0.00046719692181795835,-0.0011636365670710802
-0.00022122167865745723,0.0013908743858337402,-6.128136010374874e-05,-0.0017364075174555182,0.0004744062025565654,-0.0011216466082260013
-0.0002108540793415159,0.0012972464319318533,-5.9263762523187324e-05,-0.0019427243387326598,0.0004718067357316613,-0.001049500540830195
-0.00020141637651249766,0.0010921674547716975,-5.7374651078134775e-05,-0.0019730706699192524,0.0004953451571054757,-0.0010606128489598632
-0.00019278722174931318,0.0010167838772758842,-5.5602351494599134e-05,-0.001974943559616804,0.0004705263418145478,-0.0013093032175675035
-0.00018486613407731056,0.0009261112427338958,-8.053135388763621e-05,-0.001799909514375031,0.0005826516426168382,-0.0015980832977220416
-0.0001775715936673805,0.0007864095387049019,-7.854557770770043e-05,-0.001628879108466208,0.0006116642616689205,-0.00172616436611861
-0.00017083017155528069,0.0007689763442613184,-6.107697845436633e-05,-0.0015435792738571763,0.0005951449857093394,-0.0016271901549771428
-0.00013212423073127866,0.0007943445816636086,-8.42834051582031e-05,-0.0014297266025096178,0.000616342993453145,-0.001305487472563982
-9.571268310537562e-05,0.0011331293499097228,-8.491136395605281e-05,-0.0013700203271582723,0.0005711305420845747,-0.0012151370756328106
-9.202409273711964e-05,0.0013604004634544253,-8.236514258896932e-05,-0.0015096527058631182,0.0005938233225606382,-0.001027070451527834
-8.898576925275847e-05,0.001347102108411491,-7.992744940565899e-05,-0.0014984668232500553,0.0005559594719670713,-0.0009912103414535522
-8.614619582658634e-05,0.0016589595470577478,-7.762940367683768e-05,-0.0018852739594876766,0.0005983667797408998,-0.0008183043682947755
-8.348258415935561e-05,0.0015009703347459435,-7.54596694605425e-05,-0.0018048613565042615,0.0006267254357226193,-0.0007547059212811291
-8.097884710878134e-05,0.0014010233571752906,-7.340811134781688e-05,-0.0019863969646394253,0.0006190478452481329,-0.0008290042751468718
-7.862094207666814e-05,0.0013434335123747587,-9.24905325518921e-05,-0.0018748065922409296,0.0006436906405724585,-0.00121546711307019
9.408226469531655e-05,0.001386447693221271,-9.279223013436422e-05,-0.0019719081465154886,0.0006321136024780571,-0.0013740735594183207
9.584226063452661e-05,0.001409132732078433,-9.049572690855712e-05,-0.0018508582143113017,0.0008575806859880686,-0.0012978005688637495
9.10831440705806e-05,0.0017160899005830288,-8.827711280900985e-05,-0.0017702591139823198,0.0008759801276028156,-0.001243830076418817
8.27129406388849e-05,0.0020542822312563658,-8.415014599449933e-05,-0.0017758664907887578,0.0010413757991045713,-0.0011465732241049409
7.907904364401475e-05,0.002132253721356392,-0.00010822321200976148,-0.0017912861658260226,0.0010728586930781603,-0.0011072675697505474
7.575071504106745e-05,0.0020461499225348234,-0.00011444873962318525,-0.0018835229566320777,0.0010473362635821104,-0.0010326395276933908
0.00010474039299879223,0.0019850749522447586,-0.000107773274066858,-0.0018830838380381465,0.0009763835114426911,-0.0010134581243619323
0.00010474713053554296,0.0019456582376733422,-0.00010168511653319001,-0.0019011226249858737,0.0009088970837183297,-0.000995249836705625
0.00010088759881909937,0.002221725881099701,-9.625440725358203e-05,-0.0018896019319072366,0.0008401104132644832,-0.0009818318067118526
9.725419658934698e-05,0.0025069897528737783,-0.00013517076149582863,-0.0018005672609433532,0.0008391845622099936,-0.0009820619598031044
0.00012389734911266714,0.0024456484243273735,-0.00013040556223131716,-0.0018077852437272668,0.0008468391606584191,-0.0010085656540468335
0.00012389734911266714,0.0024456484243273735,-0.00013040556223131716,-0.0018077852437272668,0.0008468391606584191,-0.0010085656540468335
0.00012094149133190513,0.0025413476396352053,-0.00012441276339814067,-0.0019934356678277254,0.0008639846928417683,-0.0009936224669218063
0.00011702606570906937,0.002674587769433856,-0.00011893158807652071,-0.0019829340744763613,0.0011156446998938918,-0.000980609911493957
0.0001133418845711276,0.002525198506191373,-0.00011392081796657294,-0.00223417766392231,0.0011146832257509232,-0.0008963867439888418
0.00010988240683218464,0.002547127427533269,-0.00010930763528449461,-0.0024220114573836327,0.0011061807163059711,-0.0009349376778118312
0.0001329159567831084,0.00262449961155653,-0.00012803137360606343,-0.0024416139349341393,0.0013282410800457,-0.0009681429946795106
0.00012944535410497338,0.0024731080047786236,-0.00013466578093357384,-0.0023388047702610493,0.001257598982192576,-0.0009776215301826596
0.00022701104171574116,0.0026683092582970858,-0.00012542519834823906,-0.0019821759779006243,0.0011145812459290028,-0.0012601310154423118
0.00022701104171574116,0.0026683092582970858,-0.00012542519834823906,-0.0019821759779006243,0.0011145812459290028,-0.0012601310154423118
0.00021627102978527546,0.0025509819388389587,-0.00015028468624223024,-0.0018491004593670368,0.0010070675052702427,-0.0012162505881860852
0.00020635493274312466,0.002802422037348151,-0.00014655893028248101,-0.0019136847695335746,0.0009846166940405965,-0.0013195089995861053
0.00019730663916561753,0.002518982859328389,-0.0001419512409484014,-0.0019228083547204733,0.0009099521557800472,-0.0011641160817816854
0.00022629232262261212,0.0024245528038591146,-0.00024289618886541575,-0.002246427582576871,0.000896646233741194,-0.0011118955444544554
0.00021767121506854892,0.0026757903397083282,-0.00023452822642866522,-0.0021896264515817165,0.000836173421703279,-0.0010179764358326793
0.0002427004073979333,0.002925960812717676,-0.00022296248062048107,-0.002360479673370719,0.0008517937385477126,-0.0009419283014722168
0.00023499126837123185,0.0030038170516490936,-0.00021243863739073277,-0.0023659977596253157,0.0008586857002228498,-0.0008040603715926409
0.00022655827342532575,0.002765865996479988,-0.0002386105916230008,-0.0023323926143348217,0.0008659851737320423,-0.00077617890201509
0.0002486706944182515,0.002805192954838276,-0.00023286738723982126,-0.002396449912339449,0.001095696585252881,-0.0007896627648733556
0.00023375285672955215,0.0025407762732356787,-0.00023788330145180225,-0.0020839404314756393,0.0010483259102329612,-0.0007426484953612089
0.00032922308309935033,0.0028426977805793285,-0.00024045049212872982,-0.0021998570300638676,0.0009779222309589386,-0.0006815645028837025
0.0003484788758214563,0.0033153011463582516,-0.00023176065587904304,-0.002202677307650447,0.0010194547940045595,-0.0006894214311614633
0.00034585417597554624,0.0032531318720430136,-0.00025502851349301636,-0.0024433843791484833,0.0010416436707600951,-0.0006617683102376759
0.0003252824244555086,0.002708808518946171,-0.00024671287974342704,-0.002653924748301506,0.0009905004408210516,-0.0006353495409712195
0.0003558295429684222,0.0027422986458986998,-0.0003104917414020747,-0.0025513304863125086,0.0009216083562932909,-0.0006409786292351782
0.00037035028799436986,0.003085580188781023,-0.00032426847610622644,-0.002498351037502289,0.0008897216175682843,-0.0006428507040254772
0.0003671006124932319,0.003152203978970647,-0.0003029247163794935,-0.002554573118686676,0.0008403384708799422,-0.0006258789217099547
0.000561041641049087,0.003081683535128832,-0.00033976772101596,-0.002493720268830657,0.0007833151612430811,-0.0005781410145573318
0.000561041641049087,0.003081683535128832,-0.00033976772101596,-0.002493720268830657,0.0007833151612430811,-0.0005781410145573318
0.0005464522982947528,0.002868441166356206,-0.000335431337589398,-0.0026813780423253775,0.0007848091190680861,-0.0005036083748564124
0.0005464522982947528,0.002868441166356206,-0.000335431337589398,-0.0026813780423253775,0.0007848091190680861,-0.0005036083748564124
0.000550522527191788,0.003241063328459859,-0.0003338852257002145,-0.0025556173641234636,0.0007288714405149221,-0.0004974655457772315
0.0005301758646965027,0.003242021193727851,-0.00035722830216400325,-0.00249444879591465,0.0006920394371263683,-0.0004915969329886138
0.0005563136073760688,0.003083959687501192,-0.0003451555676292628,-0.00253532687202096,0.0008305914816446602,-0.00045291814603842795
0.0006193257286213338,0.0028442353941500187,-0.00048361055087298155,-0.0023833352606743574,0.0008461267570964992,-0.0004781109164468944
0.0006648056441918015,0.002912223106250167,-0.0004427491803653538,-0.002289755968376994,0.0008526967721991241,-0.0004519919166341424
0.0006245916010811925,0.0029328048694878817,-0.0004803829942829907,-0.0022014358546584845,0.0011979364790022373,-0.00047832156997174025
0.0006522314506582916,0.003386089811101556,-0.00044395308941602707,-0.00251512392424047,0.0010943886591121554,-0.00045197500730864704
0.0006731514586135745,0.003226666245609522,-0.0004776393179781735,-0.0028348518535494804,0.0010616595391184092,-0.0004254939849488437
0.0006233183667063713,0.003024460282176733,-0.0005007308791391551,-0.0029733292758464813,0.001032338012009859,-0.0004349795344751328
0.0007155818166211247,0.003003049409016967,-0.00047473853919655085,-0.0028964648954570293,0.0009327406296506524,-0.0004022579232696444
0.0007415703148581088,0.0032059394288808107,-0.000565635971724987,-0.0027417682576924562,0.0007844965439289808,-0.00040535914013162255
0.0007489267736673355,0.0036219984758645296,-0.0005167662166059017,-0.0026821806095540524,0.0007919304771348834,-0.0004073621239513159
0.000679856981150806,0.0037947220262140036,-0.0005550457281060517,-0.002525739371776581,0.0007972479797899723,-0.00038076008786447346
0.0006976985605433583,0.003446262562647462,-0.0005849323933944106,-0.0026775640435516834,0.0008180689765140414,-0.0003557977615855634
0.0006473342073149979,0.0034973674919456244,-0.0006118135643191636,-0.002869558986276388,0.0010460909688845277,-0.00037476266152225435
0.0008874903433024883,0.003840048098936677,-0.0008098981925286353,-0.002773827873170376,0.0010337814455851912,-0.00034650645102374256
0.0019777705892920494,0.003527389606460929,-0.0008219945011660457,-0.0026805135421454906,0.0011338470503687859,-0.0003513758711051196
0.002530952449887991,0.0034635455813258886,-0.0008310354896821082,-0.0025958691257983446,0.0011123341973870993,-0.00035524036502465606
0.0021268650889396667,0.0036440137773752213,-0.0009128586971201003,-0.0025385331828147173,0.0010769424261525273,-0.0003398545377422124
0.0019132246961817145,0.0037061891052871943,-0.0008248292724601924,-0.0028800833970308304,0.0010415505385026336,-0.0003246186242904514
0.0017650248482823372,0.004239870700985193,-0.000835160375572741,-0.003273009555414319,0.0009463441092520952,-0.00031061668414622545
0.0016859709285199642,0.004160970915108919,-0.0008306382806040347,-0.003188788192346692,0.000929908303078264,-0.0002977695257868618
0.0021704493556171656,0.0036558350548148155,-0.0008386961999349296,-0.0030466329772025347,0.0009248645510524511,-0.0002859413798432797
0.0021704493556171656,0.0036558350548148155,-0.0008386961999349296,-0.0030466329772025347,0.0009248645510524511,-0.0002859413798432797
0.0027655698359012604,0.0035367957316339016,-0.0008118337136693299,-0.002836979925632477,0.0009371701744385064,-0.00027501772274263203
0.0029690375085920095,0.0035965079441666603,-0.0008449844899587333,-0.002726436359807849,0.0011723365169018507,-0.0002648976515047252
0.002817016327753663,0.004212545696645975,-0.0008527024765498936,-0.002602870110422373,0.0011984299635514617,-0.000255496270256117
0.002896967576816678,0.004177741706371307,-0.0008583561866544187,-0.0025278350804001093,0.0011737345485016704,-0.0002467396261636168
0.0029158485122025013,0.004038036800920963,-0.0011606309562921524,-0.0027833099011331797,0.0012047733180224895,-0.00023856290499679744
0.0029179281555116177,0.004027747083455324,-0.0011627401690930128,-0.0028764340095221996,0.0011611179215833545,-0.00023091149341780692
0.0030141922179609537,0.0036933256778866053,-0.0011334138689562678,-0.002874084049835801,0.0011152654187753797,-0.0002237597800558433
0.003062349744141102,0.004114584531635046,-0.0011129494523629546,-0.002738494658842683,0.0010822934564203024,-0.00021699321223422885
0.0031741515267640352,0.004174354486167431,-0.0011073867790400982,-0.002920566825196147,0.000976084906142205,-0.00021066496265120804
0.003193117678165436,0.003979878965765238,-0.001185156055726111,-0.002996216993778944,0.0010380817111581564,-0.00020467683498281986
0.003269192297011614,0.003913629334419966,-0.0012392380740493536,-0.0034103693906217813,0.0010564278345555067,-0.0001990195014514029
0.003184487810358405,0.002936654258519411,-0.0013786404160782695,-0.0032745557837188244,0.0010804637568071485,-0.0001936656335601583
0.003450209042057395,0.0018044539028778672,-0.0013445637887343764,-0.0030642871279269457,0.001143056433647871,-0.00018859270494431257
0.003725203452631831,0.0017002389067783952,-0.0015934390248730779,-0.003000665921717882,0.001233697053976357,-0.00018377878586761653
0.003399655455723405,0.0015707320999354124,-0.0016024172073230147,-0.0032376092858612537,0.001487050554715097,-0.00017920405662152916
0.0033337536733597517,0.0014134550001472235,-0.0017777493922039866,-0.0032015994656831026,0.0014767245156690478,-0.0001748522336129099
0.0034132751170545816,0.0025868979282677174,-0.0016561381053179502,-0.0032858913764357567,0.0013849243987351656,-0.00017070640751626343
0.0035707675851881504,0.0033163283951580524,-0.0015488219214603305,-0.003325083525851369,0.0012472093803808093,-0.00016675253573339432
0.0035166980233043432,0.0023101677652448416,-0.001563298050314188,-0.0033753749448806047,0.0011263766791671515,-0.00015937042189761996
0.0036965918261557817,0.002132896101102233,-0.0019140299409627914,-0.0035090658348053694,0.0010818345472216606,-0.00015591892588417977
0.004027693998068571,0.001926268683746457,-0.002124789636582136,-0.0036515463143587112,0.0009529129019938409,-0.00015261428779922426
0.003943169955164194,0.0019483418436720967,-0.002093013608828187,-0.00357439205981791,0.0010148751316592097,-0.00014944645226933062
0.003746033413335681,0.002468158956617117,-0.0018613984575495124,-0.003307522274553776,0.0010361592285335064,-0.00014640740118920803
0.003808138892054558,0.002665269188582897,-0.0016207376029342413,-0.002953245537355542,0.0011904516723006964,-0.0001301824813708663
0.0048512984067201614,0.0024912599474191666,-0.0017060962272807956,-0.0032304306514561176,0.001300729694776237,-0.00012340242392383516
0.004427273292094469,0.0024087612982839346,-0.0021775662899017334,-0.0036931922659277916,0.0012798524694517255,-0.0001207605964737013
0.004483612719923258,0.002163420431315899,-0.002598716178908944,-0.0038948524743318558,0.0012544591445475817,-0.0001184715874842368
0.004163411445915699,0.0022073276340961456,-0.0024703119415789843,-0.003784035798162222,0.0012173826107755303,-7.897609611973166e-05
0.004419750068336725,0.002409786218777299,-0.0019593958277255297,-0.0033192250411957502,0.001160436775535345,-4.20141477661673e-05
0.004917777609080076,0.0023505622521042824,-0.001886401092633605,-0.003023577854037285,0.0011095069348812103,-3.8810718251625076e-05
0.004917777609080076,0.0023505622521042824,-0.001886401092633605,-0.003023577854037285,0.0011095069348812103,-3.8810718251625076e-05
0.004961514845490456,0.002537788124755025,-0.002094227820634842,-0.003123224712908268,0.0010004735086113214,-3.784458021982573e-05
0.005235758610069752,0.0025814760010689497,-0.0021248809061944485,-0.003339448245242238,0.000978663912974298,-3.705574636114761e-05
0.005339814815670252,0.002465079305693507,-0.002560489811003208,-0.00347666023299098,0.0009475237457081676,-3.63075960194692e-05
0.0050430758856236935,0.002541742753237486,-0.0022482771892100573,-0.003605244215577841,0.0009094647830352187,-1.8980166714754887e-05
0.004793503321707249,0.002562602050602436,-0.002120210323482752,-0.0037054158747196198,0.0008646007627248764,-1.7527212548884563e-05
0.005173720885068178,0.002422354416921735,-0.002186064375564456,-0.0034111812710762024,0.00097225810168311,-1.7122971257776953e-05
0.005727408453822136,0.0024270073045045137,-0.0020867378916591406,-0.0033589268568903208,0.000967574305832386,-2.2009012354828883e-06
0.005793004296720028,0.002616928657516837,-0.0021611384581774473,-0.0031843127217143774,0.0009749735472723842,-1.4370311873790342e-07
0.005212008487433195,0.0025938376784324646,-0.002079218393191695,-0.0030025176238268614,0.0010924909729510546,-9.38278699180728e-09
0.005153362639248371,0.0028223686385899782,-0.0020172474905848503,-0.003048322629183531,0.0011661730241030455,-6.12628892060485e-10
0.0050928909331560135,0.002826220355927944,-0.001977441366761923,-0.0033044193405658007,0.0011667090002447367,-4.0000294743158804e-11
0.00586300902068615,0.0028877276927232742,-0.0024981729220598936,-0.003621585201472044,0.001203605905175209,-2.61173309541729e-12
0.005547435488551855,0.002769739367067814,-0.002981427824124694,-0.0038181766867637634,0.0012516736751422286,-1.705274918668842e-13
0.005742921493947506,0.003080816939473152,-0.003048673504963517,-0.0036563207395374775,0.001236480544321239,-1.113422606880115e-14
0.005726634990423918,0.00332813011482358,-0.002770731458440423,-0.0034695914946496487,0.0012126759393140674,-7.269854028596717e-16
0.005606570281088352,0.003186879213899374,-0.0026591785717755556,-0.0035757841542363167,0.0011445690179243684,-4.746695212307764e-17
0.006128039211034775,0.0032762885093688965,-0.0032635058742016554,-0.003915248438715935,0.0009609684930182993,0.0006420048885047436
0.005849091801792383,0.0030962310265749693,-0.0034492127597332,-0.004270673263818026,0.000928250199649483,0.0006992151611484587
0.005470088683068752,0.0031128921546041965,-0.0030074208043515682,-0.0037326919846236706,0.0008551041828468442,0.0006271632155403495
0.006373920477926731,0.0033332945313304663,-0.003037499263882637,-0.003536249976605177,0.0007837993907742202,0.0005623536417260766
0.006615034304559231,0.003400252666324377,-0.0034927912056446075,-0.0037432736717164516,0.000794632884208113,0.0005092762294225395
0.006437120959162712,0.00355366338044405,-0.003854940412566066,-0.004318845923990011,0.000834172242321074,0.0005373578751459718
0.006234625820070505,0.0036591908428817987,-0.003908929880708456,-0.004293803125619888,0.0009362605633214116,0.0005610146326944232
0.006562632042914629,0.0036314218305051327,-0.003486071480438113,-0.00432831235229969,0.001059370581060648,0.0005559501005336642
0.006696500815451145,0.0036790010053664446,-0.0033952428493648767,-0.004028738010674715,0.0010516747133806348,0.0006422302103601396
0.0066159809939563274,0.0036497097462415695,-0.003209722228348255,-0.0037997583858668804,0.001174852135591209,0.0006938510341569781
0.006747283507138491,0.003622908378019929,-0.004209454171359539,-0.0037511144764721394,0.0012392267817631364,0.0009323065169155598
0.00655888207256794,0.003673211671411991,-0.004190394654870033,-0.0037924174685031176,0.0012756718788295984,0.0011260028695687652
0.00655888207256794,0.003673211671411991,-0.004190394654870033,-0.0037924174685031176,0.0012756718788295984,0.0011260028695687652
0.006927717011421919,0.003374872263520956,-0.003905763616785407,-0.0038191103376448154,0.0012880082940682769,0.0009804574074223638
0.006983796134591103,0.003870768705382943,-0.003338912967592478,-0.0037061350885778666,0.0013063636142760515,0.0009330023312941194
0.007452836725860834,0.004191565793007612,-0.003488586749881506,-0.0036785760894417763,0.0013740401482209563,0.0008390162256546319
0.0067121488973498344,0.0035966080613434315,-0.0038465976249426603,-0.0041772047989070415,0.001495305565185845,0.0008192170062102377
0.006632770411670208,0.0035172575153410435,-0.004378303419798613,-0.00415035430341959,0.001471534837037325,0.0007375520654022694
0.0068954965099692345,0.0036503486335277557,-0.004337781108915806,-0.003949022386223078,0.001366536016575992,0.0007189628086052835
0.00702637480571866,0.003699997905641794,-0.004048050846904516,-0.00373462843708694,0.001270140171982348,0.0007528010755777359
0.007210885174572468,0.003702979302033782,-0.003876839531585574,-0.0037021618336439133,0.0012016305699944496,0.00077847670763731
0.006906684022396803,0.004205602221190929,-0.0039017535746097565,-0.004244424402713776,0.0011460994137451053,0.0011883125407621264
0.007141486741602421,0.00411613704636693,-0.004068080335855484,-0.0041268025524914265,0.0011170494835823774,0.0013100316282361746
0.007558687124401331,0.00400780001655221,-0.004559411201626062,-0.004459296353161335,0.0011162590235471725,0.0016015077708289027
0.008072135038673878,0.003939901944249868,-0.00444084033370018,-0.00413585314527154,0.0011255646822974086,0.0017832197481766343
0.007313215639442205,0.0042175911366939545,-0.00399455800652504,-0.004080190788954496,0.001111894380301237,0.0023354836739599705
0.00717924116179347,0.004770549945533276,-0.0037592537701129913,-0.003966818563640118,0.001165031804703176,0.0021892141085118055
0.008131066337227821,0.004291187040507793,-0.003957078792154789,-0.004371216520667076,0.0012218266492709517,0.0019557189662009478
0.007687294855713844,0.004396533127874136,-0.00494283065199852,-0.004681736696511507,0.0012122886255383492,0.0016756400000303984
0.007444741204380989,0.003990139812231064,-0.004449528641998768,-0.004516692366451025,0.0011630728840827942,0.0013002349296584725
0.0074529931880533695,0.00429873913526535,-0.003959158435463905,-0.004102977924048901,0.0011190359946340322,0.0011004512198269367
0.007177342195063829,0.004548010416328907,-0.004132922738790512,-0.003857775591313839,0.0010949557181447744,0.0011798522900789976
0.00783159863203764,0.004758496768772602,-0.005193913821130991,-0.003861781442537904,0.001139410538598895,0.0017915143398568034
0.007779572159051895,0.004200934898108244,-0.005005849525332451,-0.004259738605469465,0.0011737276799976826,0.0023906126152724028
0.00784164946526289,0.003912071231752634,-0.004449786152690649,-0.0044529372826218605,0.0013754344545304775,0.0024848547764122486
0.007509585469961166,0.003853393718600273,-0.004126642365008593,-0.004373482428491116,0.001447484828531742,0.002212952356785536
0.008074825629591942,0.004411457572132349,-0.004914909601211548,-0.0042796386405825615,0.0014464078703895211,0.00195203663315624
0.007836489006876945,0.004546342417597771,-0.005348777864128351,-0.004333195276558399,0.0013430422404780984,0.001748889684677124
0.008406012319028378,0.00440361350774765,-0.00463796267285943,-0.0043844678439199924,0.0012645499082282186,0.0016638811212033033
0.007987803779542446,0.00453687971457839,-0.004378894343972206,-0.004126362968236208,0.001313676591962576,0.0018036924302577972
0.007987803779542446,0.00453687971457839,-0.004378894343972206,-0.004126362968236208,0.001313676591962576,0.0018036924302577972
0.005815431475639343,0.004483077675104141,-0.00451828446239233,-0.004190564621239901,0.0013082395307719707,0.0020946504082530737
0.005384707823395729,0.004081384278833866,-0.0037069267127662897,-0.004104119259864092,0.0013116528280079365,0.002373708877712488
0.0057988958433270454,0.004404559265822172,-0.002517867134884,-0.004284769296646118,0.0013328121276572347,0.002297906670719385
0.006534202955663204,0.004620332736521959,-0.002253310987725854,-0.004620203748345375,0.0014822713565081358,0.0021250618156045675
0.00635684235021472,0.004252673592418432,-0.001970843644812703,-0.004716380964964628,0.001595211448147893,0.0019510944839566946
0.006086654029786587,0.0044789994135499,-0.0026311506517231464,-0.005158721935003996,0.002055305754765868,0.001808104570955038
0.005898617208003998,0.004996752832084894,-0.003124092472717166,-0.004952507559210062,0.002105805790051818,0.0017993730725720525
0.0065225884318351746,0.004443387966603041,-0.003120728535577655,-0.004879169166088104,0.0019470718689262867,0.0020501159597188234
0.00607296684756875,0.004485622514039278,-0.002760650822892785,-0.004609706345945597,0.0016761713195592165,0.0021338611841201782
0.0062599098309874535,0.004416624084115028,-0.0023410592693835497,-0.004103252664208412,0.0015022687148302794,0.0023885625414550304
0.005737625062465668,0.0044127414003014565,-0.0021816384978592396,-0.003926007077097893,0.0013137023197486997,0.002460349816828966
0.006124251987785101,0.004876261577010155,-0.0023192160297185183,-0.004341579508036375,0.0010209399042651057,0.0024006576277315617
0.006941724102944136,0.004975016228854656,-0.0027009891346096992,-0.004113935399800539,0.0009301008540205657,0.0024285796098411083
0.0071066878736019135,0.004893018864095211,-0.002871091477572918,-0.0038261148147284985,0.000938891782425344,0.0025309170596301556
0.006349044386297464,0.005060323514044285,-0.002783247036859393,-0.004224345553666353,0.0009345986181870103,0.0024908832274377346
0.006193447858095169,0.004955208394676447,-0.0023494823835790157,-0.004169343505054712,0.0009509255178272724,0.0026030659209936857
0.007027300074696541,0.005578034091740847,-0.0023863997776061296,-0.0044142864644527435,0.001088001299649477,0.00284349056892097
0.00663935299962759,0.005477454513311386,-0.0024738016072660685,-0.004756765905767679,0.0014242051402106881,0.0028357221744954586
0.007114961743354797,0.00590558210387826,-0.0029487006831914186,-0.0048318225890398026,0.001541498233564198,0.0027363388799130917
0.006902636960148811,0.005349667742848396,-0.002874799305573106,-0.004757517017424107,0.0018141859909519553,0.0024851306807249784
0.007112395018339157,0.005058473441749811,-0.0027888354379683733,-0.0047799162566661835,0.0018485150067135692,0.002518358873203397
0.007262573577463627,0.005720790475606918,-0.002641575178131461,-0.005081188399344683,0.001938164816237986,0.0024058979470282793
0.0071718767285346985,0.005585799925029278,-0.0028413687832653522,-0.005448741372674704,0.0019243541173636913,0.0023526905570179224
0.007310949731618166,0.005316609982401133,-0.00288003240711987,-0.005067517980933189,0.001920213457196951,0.0026029532309621572
0.00802546925842762,0.004794923588633537,-0.0028923428617417812,-0.00468764454126358,0.0019007372902706265,0.0030024629086256027
0.00802546925842762,0.004794923588633537,-0.0028923428617417812,-0.00468764454126358,0.0019007372902706265,0.0030024629086256027
0.007143402937799692,0.004607461392879486,-0.003107756143435836,-0.004866030998528004,0.0015671681612730026,0.0028104062657803297
0.007143402937799692,0.004607461392879486,-0.003107756143435836,-0.004866030998528004,0.0015671681612730026,0.0028104062657803297
0.007337645161896944,0.004611849319189787,-0.0031550880521535873,-0.004943414591252804,0.001506491913460195,0.0028847279027104378
0.008159610442817211,0.004906852263957262,-0.0029305836651474237,-0.005150136537849903,0.0014341429341584444,0.0031264128629118204
0.00798511877655983,0.004955836571753025,-0.002746241632848978,-0.005343029275536537,0.0013842147309333086,0.003170277224853635
0.007877388037741184,0.005119963549077511,-0.002835305407643318,-0.005135270766913891,0.0015121633186936378,0.003463342087343335
0.008039372973144054,0.0045184544287621975,-0.0032164400909096003,-0.0053628794848918915,0.0017113452777266502,0.0032550119794905186
0.008442994207143784,0.0045401169918477535,-0.003494927892461419,-0.005557662807404995,0.0016335127875208855,0.0031694185454398394
0.008378068916499615,0.004545425996184349,-0.0033403094857931137,-0.0057986099272966385,0.001871429500170052,0.0031951498240232468
0.00815010629594326,0.005224816966801882,-0.0033722780644893646,-0.005392811726778746,0.0017686972860246897,0.003408241318538785
0.008370614610612392,0.005297976080328226,-0.003744712797924876,-0.005141957197338343,0.0017624591710045934,0.0034550866112113
0.009096940979361534,0.004783706273883581,-0.004000742919743061,-0.004972877912223339,0.0017391083529219031,0.0034905753564089537
0.008101616986095905,0.004835273139178753,-0.0035330343525856733,-0.005257457960397005,0.001702162786386907,0.0036612823605537415
0.008367117494344711,0.004835945554077625,-0.0035359684843569994,-0.005580115597695112,0.001599828596226871,0.0037716426886618137
0.009560829028487206,0.004923668690025806,-0.0031719382386654615,-0.005997198633849621,0.0016421751352027059,0.003446147544309497
0.008932117372751236,0.004807100631296635,-0.003456439822912216,-0.005486093927174807,0.001752548268996179,0.003550343681126833
0.008962778374552727,0.005247791297733784,-0.004242195747792721,-0.005068265367299318,0.0017664703773334622,0.0032923705875873566
0.008896508254110813,0.005069808103144169,-0.004022573120892048,-0.005147700197994709,0.0017899411031976342,0.0032327405642718077
0.008920787833631039,0.004792087711393833,-0.0038120781537145376,-0.005306723061949015,0.0016922770300880075,0.0032117972150444984
0.008809326216578484,0.005152313970029354,-0.0032860636711120605,-0.0054881880059838295,0.001664672396145761,0.003193486947566271
0.00930232647806406,0.005028841085731983,-0.004280673805624247,-0.0051147788763046265,0.0016975022153928876,0.0037595564499497414
0.00928873848170042,0.0059026568196713924,-0.004590539261698723,-0.0055097658187150955,0.001721734763123095,0.004210854880511761
0.008978014811873436,0.005353741347789764,-0.0037432932294905186,-0.005401599686592817,0.00183087436016649,0.003972189966589212
0.009072821587324142,0.005427267402410507,-0.003491843119263649,-0.005339357536286116,0.0017533067148178816,0.003744728397578001
0.009248103015124798,0.005518308840692043,-0.004082872066646814,-0.005130792502313852,0.0017365118255838752,0.0036888830363750458
0.010133902542293072,0.005601167678833008,-0.004800692200660706,-0.0056585995480418205,0.0018361603142693639,0.003322403412312269
0.0093111302703619,0.005220457911491394,-0.0046828207559883595,-0.005416106432676315,0.0017006017733365297,0.003204752691090107
0.0093111302703619,0.005220457911491394,-0.0046828207559883595,-0.005416106432676315,0.0017006017733365297,0.003204752691090107
0.009582580998539925,0.005477295257151127,-0.0035896371118724346,-0.0055391243658959866,0.001631182269193232,0.004419031552970409
0.009582580998539925,0.005477295257151127,-0.0035896371118724346,-0.0055391243658959866,0.001631182269193232,0.004419031552970409
0.00940555240958929,0.005169508047401905,-0.0037802988663315773,-0.0053435578010976315,0.0014773872680962086,0.00419602170586586
0.009672368876636028,0.005280119366943836,-0.004537982400506735,-0.005952842067927122,0.001525741652585566,0.003962485119700432
0.009840223006904125,0.005093083716928959,-0.00511552020907402,-0.006273172330111265,0.001481677987612784,0.004188480321317911
0.009914061054587364,0.005750040058046579,-0.004524514079093933,-0.005596375558525324,0.0017943712882697582,0.00433177687227726
0.009431920014321804,0.005442967638373375,-0.004217977169901133,-0.005386644043028355,0.0018854269292205572,0.004542001523077488
0.009593156166374683,0.005794905591756105,-0.004172282759100199,-0.005676384549587965,0.001999002182856202,0.004262864124029875
0.010107411071658134,0.005429180338978767,-0.004961247555911541,-0.005594789516180754,0.001908190082758665,0.00400835694745183
0.010195278562605381,0.005853412207216024,-0.0048496718518435955,-0.005717365071177483,0.0019195451168343425,0.0041550989262759686
0.009510762989521027,0.005606045946478844,-0.004388310480862856,-0.005505087319761515,0.00174149707891047,0.004156948532909155
0.00970201101154089,0.005824848543852568,-0.004084171261638403,-0.005660467781126499,0.0018106653587892652,0.004401516634970903
0.010546025820076466,0.005580458790063858,-0.004083981737494469,-0.005674188025295734,0.0017362871440127492,0.00419673603028059
0.010317335836589336,0.005574297159910202,-0.0050453380681574345,-0.005942585412412882,0.0020505781285464764,0.004438489209860563
0.01000161562114954,0.005309548694640398,-0.004902662243694067,-0.0060052103362977505,0.002374709816649556,0.004154454916715622
0.00968144740909338,0.005792437586933374,-0.004317023791372776,-0.005656644701957703,0.002387427259236574,0.004329805262386799
0.010658535175025463,0.005867856554687023,-0.004397513810545206,-0.0054677678272128105,0.002124228049069643,0.004218039568513632
0.010370723903179169,0.006053620018064976,-0.004412035923451185,-0.005642469506710768,0.0018523003673180938,0.004256675019860268
0.009612565860152245,0.0055331639014184475,-0.004929388873279095,-0.0062841796316206455,0.0016636132495477796,0.004057551734149456
0.01026200968772173,0.006019713822752237,-0.0041973101906478405,-0.006011133082211018,0.0015239579370245337,0.004517275374382734
0.01026200968772173,0.006019713822752237,-0.0041973101906478405,-0.006011133082211018,0.0015239579370245337,0.004517275374382734
0.011435733176767826,0.006030235439538956,-0.004604899790138006,-0.005722255911678076,0.0019098841585218906,0.0043974812142550945
0.010647444054484367,0.005384271033108234,-0.004734840244054794,-0.005997282452881336,0.002133225090801716,0.004240508656948805
0.0105717983096838,0.005984130315482616,-0.0046827904880046844,-0.00628754124045372,0.0020784379448741674,0.004162892699241638
0.011171679943799973,0.005986248143017292,-0.004701186902821064,-0.005990070756524801,0.002079207915812731,0.004221706185489893
0.011426793411374092,0.0061927419155836105,-0.004204088356345892,-0.006075119134038687,0.0018990326207131147,0.004491179715842009
0.011179503053426743,0.005539903417229652,-0.004352941177785397,-0.006073033437132835,0.0018235931638628244,0.004595301114022732
0.011064586229622364,0.005835498683154583,-0.0051323301158845425,-0.006402517203241587,0.0016841365722939372,0.0045868586748838425
0.010666018351912498,0.0056121693924069405,-0.004572164732962847,-0.006375843193382025,0.0016962549416348338,0.0045395782217383385
0.010666018351912498,0.0056121693924069405,-0.004572164732962847,-0.006375843193382025,0.0016962549416348338,0.0045395782217383385
0.011217311024665833,0.005879402160644531,-0.004530964884907007,-0.005860690027475357,0.0017310823313891888,0.004809281788766384
0.01110040582716465,0.006321115884929895,-0.004186287056654692,-0.005725460592657328,0.0021219507325440645,0.0051061068661510944
0.010951817966997623,0.0059606474824249744,-0.004438645206391811,-0.0061280811205506325,0.002191780600696802,0.005161682143807411
0.010950162075459957,0.006182487588375807,-0.004570342600345612,-0.006416503340005875,0.002376068849116564,0.005333153530955315
0.010733695700764656,0.005704911425709724,-0.004606001544743776,-0.006371186580508947,0.002236525760963559,0.005040629301220179
0.011019298806786537,0.005855712573975325,-0.004651728551834822,-0.0063663567416369915,0.0021010402124375105,0.00486130453646183
0.011042088270187378,0.006550551857799292,-0.004326921422034502,-0.006112593226134777,0.0019199905218556523,0.005026019643992186
0.011003345251083374,0.00631008530035615,-0.0042952499352395535,-0.006109102629125118,0.001762230647727847,0.00493205152451992
0.011177949607372284,0.005988619290292263,-0.004974193871021271,-0.006807658821344376,0.0017156508984044194,0.0043965596705675125
0.011054866015911102,0.006300074048340321,-0.005010273307561874,-0.0065407766960561275,0.0019468863029032946,0.004462120123207569
0.010816269554197788,0.006191214546561241,-0.004686026368290186,-0.006194307468831539,0.002074711723253131,0.004993717186152935
0.011294164694845676,0.006830909289419651,-0.004441093187779188,-0.006148047279566526,0.002055959776043892,0.005104833748191595
0.011234643869102001,0.006297948770225048,-0.004977626260370016,-0.0061178915202617645,0.00209198915399611,0.005019975360482931
0.011498836800456047,0.005779378581792116,-0.004899971652776003,-0.00690432358533144,0.002049571368843317,0.005097209010273218
0.01233708392828703,0.0058435420505702496,-0.005565960891544819,-0.006481415592133999,0.0020306434016674757,0.004969428293406963
0.011600365862250328,0.006542777642607689,-0.005261994898319244,-0.00634614797309041,0.001991958124563098,0.005262407939881086
0.011658593080937862,0.006844281684607267,-0.004550706595182419,-0.006038825027644634,0.002411812311038375,0.005396734457463026
0.011614653281867504,0.006121716927736998,-0.005118423607200384,-0.006857150699943304,0.0027223287615925074,0.005857144948095083
0.011738813482224941,0.006452988833189011,-0.005387014243751764,-0.007050123065710068,0.0028016262222081423,0.005658953916281462
0.012065311893820763,0.0066933161579072475,-0.005453706253319979,-0.006843909155577421,0.002454461995512247,0.005458686500787735
0.012086337432265282,0.006692530587315559,-0.005010627675801516,-0.006991692818701267,0.002252320060506463,0.005307058338075876
0.011829902417957783,0.006299884989857674,-0.00470517436042428,-0.006687328219413757,0.001969036879017949,0.005567315965890884
0.012470687739551067,0.006500672549009323,-0.005249325651675463,-0.006623467430472374,0.0019112697336822748,0.005717365071177483
0.011686263605952263,0.006274470128118992,-0.0052688829600811005,-0.006997708231210709,0.001876979018561542,0.006105166859924793
0.011712384410202503,0.006832778919488192,-0.005049125291407108,-0.007414405234158039,0.0019223341951146722,0.005765490233898163
0.011844782158732414,0.006633626762777567,-0.0052748979069292545,-0.007102403324097395,0.0021443888545036316,0.005776749923825264
0.01214793510735035,0.006395210046321154,-0.005440500099211931,-0.006852105725556612,0.0021008639596402645,0.005509325303137302
0.01214793510735035,0.006395210046321154,-0.005440500099211931,-0.006852105725556612,0.0021008639596402645,0.005509325303137302
0.012091552838683128,0.006251322105526924,-0.0054872301407158375,-0.007133085746318102,0.0021071413066238165,0.006129158660769463
0.012116157449781895,0.006787706166505814,-0.005106199998408556,-0.007685668300837278,0.0019829811062663794,0.006313646212220192
0.01230656262487173,0.0068879080936312675,-0.004917830694466829,-0.006959725171327591,0.0021522275637835264,0.006056472659111023
0.012162438593804836,0.006929927971214056,-0.005050619598478079,-0.006584407761693001,0.0022914910223335028,0.005649311933666468
0.011807838454842567,0.006996744312345982,-0.005391152575612068,-0.0065620169043540955,0.0022174976766109467,0.005397002212703228
0.012508458457887173,0.006899259053170681,-0.0055773318745195866,-0.007042630109935999,0.0022902393247932196,0.005607296247035265
0.012111925520002842,0.007262497674673796,-0.005248278845101595,-0.00726011348888278,0.002207086654379964,0.005785178393125534
0.012368028983473778,0.007436265237629414,-0.005717620253562927,-0.007610777858644724,0.0023724378552287817,0.006251256447285414
0.012243303470313549,0.006880035623908043,-0.005393422674387693,-0.0070906952023506165,0.0022605264093726873,0.006239326670765877
0.012183006852865219,0.00676378421485424,-0.005157823674380779,-0.006850557867437601,0.0021491097286343575,0.0055313087068498135
0.01257585920393467,0.007305734790861607,-0.005618351977318525,-0.007130249869078398,0.002114072907716036,0.005881955847144127
0.012383379973471165,0.0069151041097939014,-0.005776465404778719,-0.006789041217416525,0.002118818461894989,0.005758695770055056
0.012789561413228512,0.007008000276982784,-0.0057625179179012775,-0.00654093362390995,0.0023435631301254034,0.006338570266962051
0.012558573856949806,0.007019111420959234,-0.005481967702507973,-0.006805563345551491,0.0023773813154548407,0.00563619751483202
0.012828083708882332,0.00743510527536273,-0.005525694228708744,-0.007027994375675917,0.002355437260121107,0.005378450267016888
0.012714934535324574,0.007451361510902643,-0.005769531708210707,-0.006878980901092291,0.0024581067264080048,0.005221493076533079
0.012915042228996754,0.006924905814230442,-0.005733970552682877,-0.0070838360115885735,0.0026231941301375628,0.0051216986030340195
0.012764321640133858,0.007841083221137524,-0.0054925354197621346,-0.006693622097373009,0.0029972402844578028,0.005941377021372318
0.012899399735033512,0.006965933833271265,-0.005188692361116409,-0.006941718515008688,0.003041472751647234,0.005801103077828884
0.012803983874619007,0.006935120094567537,-0.005361991468816996,-0.007339222822338343,0.0026816714089363813,0.00545053044334054
0.013621417805552483,0.007178648840636015,-0.00548964599147439,-0.007206656038761139,0.0026272383984178305,0.005756453610956669
0.013141586445271969,0.007179887965321541,-0.005561006721109152,-0.007435091771185398,0.0026928735896945,0.005755437538027763
0.013507361523807049,0.007605429273098707,-0.005219869781285524,-0.007403452880680561,0.002479898976162076,0.006266693118959665
0.013455059379339218,0.007203984539955854,-0.005233132746070623,-0.0073586441576480865,0.0025031117256730795,0.006414267234504223
0.013817437924444675,0.006819730158895254,-0.005485057830810547,-0.0071205985732376575,0.0023568824399262667,0.005691588390618563
0.013429720886051655,0.00738303130492568,-0.006159962620586157,-0.007284507155418396,0.0022777195554226637,0.005965329706668854
0.013429720886051655,0.00738303130492568,-0.006159962620586157,-0.007284507155418396,0.0022777195554226637,0.005965329706668854
0.013734262436628342,0.007182317785918713,-0.0053259870037436485,-0.007896235212683678,0.0024523159954696894,0.006314171478152275
0.013734262436628342,0.007182317785918713,-0.0053259870037436485,-0.007896235212683678,0.0024523159954696894,0.006314171478152275
0.014013324864208698,0.007131611462682486,-0.0056021735072135925,-0.007205350790172815,0.002534633269533515,0.006518631707876921
0.013744869269430637,0.007461961358785629,-0.005206668749451637,-0.007245218381285667,0.0027962480671703815,0.0058187819086015224
0.014526317827403545,0.007822902873158455,-0.005856686737388372,-0.007821476086974144,0.0027761412784457207,0.005825858097523451
0.013981178402900696,0.007292179856449366,-0.006433242466300726,-0.00819663517177105,0.0025450026150792837,0.0064376178197562695
0.014018072746694088,0.007175411097705364,-0.005606707185506821,-0.00790276937186718,0.002577259438112378,0.007264900952577591
0.014049900695681572,0.007439135108143091,-0.005367424339056015,-0.007672176696360111,0.0026892689056694508,0.007054152898490429
0.014021184295415878,0.007366151083260775,-0.005428431089967489,-0.008189601823687553,0.002463024342432618,0.0064906529150903225
0.0139318211004138,0.006972759496420622,-0.005400196649134159,-0.007910878397524357,0.002480289665982127,0.006431634072214365
0.013366916216909885,0.00706692598760128,-0.005963486153632402,-0.007800446357578039,0.002360382815822959,0.006810137536376715
0.015070248395204544,0.007120314985513687,-0.006064880173653364,-0.00764967268332839,0.0022886062506586313,0.00687583489343524
0.014603973366320133,0.007643906399607658,-0.005421728361397982,-0.007900485768914223,0.0023069619201123714,0.0064086089842021465
0.014369691722095013,0.007287994492799044,-0.00509036285802722,-0.007555167190730572,0.0024246692191809416,0.006210688501596451
0.01422214601188898,0.007115693297237158,-0.005823560059070587,-0.007329176180064678,0.0022877242881804705,0.00616535684093833
0.014195935800671577,0.007306803483515978,-0.006374439224600792,-0.0075606899335980415,0.0021102584432810545,0.006170555949211121
0.015031911432743073,0.007305597420781851,-0.005336293019354343,-0.008066258393228054,0.0024583402555435896,0.006802775897085667
0.01425004843622446,0.007142515387386084,-0.005426772870123386,-0.007974942214787006,0.002758004004135728,0.006673597265034914
0.014981752261519432,0.007440962363034487,-0.0051927827298641205,-0.008019219152629375,0.0026517286896705627,0.0064158993773162365
0.014702893793582916,0.007513065356761217,-0.0059384312480688095,-0.0079201003536582,0.0026878188364207745,0.0063277496956288815
0.014862603507936,0.00740631902590394,-0.006166287697851658,-0.00809654500335455,0.0024631067644804716,0.006565305404365063
0.014311437495052814,0.007454761303961277,-0.005441875662654638,-0.00840061530470848,0.0023751305416226387,0.006288920529186726
0.014781038276851177,0.007556531578302383,-0.0052481405436992645,-0.008408552035689354,0.002448249841108918,0.00650051748380065
0.014534013345837593,0.007882872596383095,-0.005439188331365585,-0.008433164097368717,0.002935274038463831,0.0068869516253471375
0.014538873918354511,0.007489771116524935,-0.005562863312661648,-0.008674350567162037,0.0030649069231003523,0.00705212214961648
0.014538873918354511,0.007489771116524935,-0.005562863312661648,-0.008674350567162037,0.0030649069231003523,0.00705212214961648
0.014927241019904613,0.007031768094748259,-0.005780491046607494,-0.008734751492738724,0.0030057826079428196,0.006814693100750446
0.014900004491209984,0.007311875466257334,-0.005969580262899399,-0.008745448663830757,0.0029005680698901415,0.0066217160783708096
0.015262258239090443,0.007822049781680107,-0.005455303937196732,-0.00842201430350542,0.0028335063252598047,0.006285208743065596
0.015093600377440453,0.007426214870065451,-0.005808798596262932,-0.008597242645919323,0.0025248907040804625,0.005830656737089157
0.015043617226183414,0.007333046291023493,-0.0055251652374863625,-0.008686471730470657,0.0025359310675412416,0.006992424838244915
0.01507122814655304,0.007634647190570831,-0.005967050325125456,-0.008118501864373684,0.0027005583979189396,0.007163214031606913
0.015305111184716225,0.00800094474107027,-0.006057982333004475,-0.008449211716651917,0.0028446915093809366,0.006814766675233841
0.015070192515850067,0.008163156919181347,-0.006040762644261122,-0.00932552944868803,0.002808261662721634,0.007116242777556181
0.01531911175698042,0.007836011238396168,-0.005297628231346607,-0.008683895692229271,0.0029530145693570375,0.0064574372954666615
0.015087012201547623,0.008164895698428154,-0.005773225799202919,-0.0077435774728655815,0.0029521503020077944,0.006496202666312456
0.015865672379732132,0.00783399399369955,-0.005765884183347225,-0.008617369458079338,0.002833787351846695,0.006723206955939531
0.015543569810688496,0.007826062850654125,-0.005977339576929808,-0.009804231114685535,0.0026213473174721003,0.007245589047670364
0.015833299607038498,0.008362279273569584,-0.006129397079348564,-0.008781308308243752,0.002559373388066888,0.00719126733019948
0.015480739064514637,0.008661037310957909,-0.005782703869044781,-0.007920892909169197,0.00271837180480361,0.007021580822765827
0.01595696061849594,0.007968547753989697,-0.006176264490932226,-0.008465125225484371,0.0027466416358947754,0.006952494848519564
0.016050728037953377,0.007984994910657406,-0.0061788721941411495,-0.009122119285166264,0.0030114089604467154,0.006735437083989382
0.01607034169137478,0.008239339105784893,-0.006006757728755474,-0.008868035860359669,0.003092352766543627,0.007177130319178104
0.015824856236577034,0.008163285441696644,-0.005897763185203075,-0.009079613722860813,0.0028598052449524403,0.006800369825214148
0.01643725112080574,0.008166463114321232,-0.005922557786107063,-0.008730320259928703,0.002528324956074357,0.007021155208349228
0.01615767367184162,0.008466207422316074,-0.005802706815302372,-0.009107928723096848,0.002599305473268032,0.007081079762428999
0.01643935590982437,0.0089319022372365,-0.005723982583731413,-0.009553479962050915,0.002947314642369747,0.007383118849247694
0.01620337925851345,0.00808784831315279,-0.006013194099068642,-0.00908142514526844,0.002869398333132267,0.007648699451237917
0.01646575517952442,0.00833609513938427,-0.005844904109835625,-0.009275395423173904,0.0029294572304934263,0.007700167130678892
0.01643821783363819,0.008700909093022346,-0.006082618609070778,-0.009672070853412151,0.0030973057728260756,0.008219215087592602
0.016487574204802513,0.008485829457640648,-0.005798271857202053,-0.00918054673820734,0.003075583837926388,0.007858650758862495
0.01662738248705864,0.008277276530861855,-0.0059415739960968494,-0.008982032537460327,0.003047778969630599,0.007664065342396498
0.016179095953702927,0.008711451664566994,-0.00628299405798316,-0.009225877933204174,0.0031646331772208214,0.007882879115641117
0.016179095953702927,0.008711451664566994,-0.00628299405798316,-0.009225877933204174,0.0031646331772208214,0.007882879115641117
0.01671113818883896,0.008576663210988045,-0.006162669975310564,-0.00928416382521391,0.002946652937680483,0.008439499884843826
0.016661200672388077,0.008823278360068798,-0.006387633737176657,-0.009257964789867401,0.0030108781065791845,0.008398723788559437
0.01675291545689106,0.009167099371552467,-0.006376650650054216,-0.009101412259042263,0.0030666557140648365,0.007877238094806671
0.017149318009614944,0.008800312876701355,-0.005526189226657152,-0.009159129112958908,0.003400818444788456,0.007564028725028038
0.016663629561662674,0.00921752117574215,-0.006113418377935886,-0.008799183182418346,0.003233563154935837,0.007958191446959972
0.01702863536775112,0.008537081070244312,-0.006226380821317434,-0.009352614171802998,0.00305342860519886,0.007851846516132355
0.01706421561539173,0.008893371559679508,-0.006407033186405897,-0.009535450488328934,0.0030593357514590025,0.0077233449555933475
0.01738513633608818,0.008732171729207039,-0.0067132203839719296,-0.00939208548516035,0.00318708922713995,0.008178132586181164
0.01744523085653782,0.008877418003976345,-0.0057694693095982075,-0.009516295976936817,0.00313087971881032,0.008397495374083519
0.017308147624135017,0.009304222650825977,-0.005998223088681698,-0.009323960170149803,0.0030408543534576893,0.008169103413820267
0.017977399751544,0.008191742934286594,-0.006070796865969896,-0.008827576413750648,0.003254613606259227,0.007968655787408352
0.017947359010577202,0.008179786615073681,-0.00648894626647234,-0.009347451850771904,0.0031183527316898108,0.007794571574777365
0.018172424286603928,0.009545753709971905,-0.006370986811816692,-0.009620864875614643,0.0032993601635098457,0.008163818158209324
0.018274154514074326,0.008607435040175915,-0.005748377647250891,-0.00926954671740532,0.003276864532381296,0.008247144520282745
0.01761440560221672,0.008475493639707565,-0.0056879534386098385,-0.009426829405128956,0.003433083649724722,0.008132836781442165
0.018118135631084442,0.00915413349866867,-0.0061208209954202175,-0.009431755170226097,0.003271878929808736,0.008149928413331509
0.018536416813731194,0.008948810398578644,-0.005985366180539131,-0.009498275816440582,0.003070996841415763,0.00787079706788063
0.01932959258556366,0.008759533055126667,-0.005942827556282282,-0.00947715062648058,0.0032679634168744087,0.00850937981158495
0.018895141780376434,0.00951370783150196,-0.00585171626880765,-0.009381423704326153,0.0035429378040134907,0.008302650414407253
0.018233945593237877,0.008566397242248058,-0.006113244686275721,-0.009598879143595695,0.0033713234588503838,0.008431538939476013
0.01884559541940689,0.008300385437905788,-0.006305126938968897,-0.010259709320962429,0.003127071773633361,0.007929346524178982
0.018791228532791138,0.009672610089182854,-0.006352814845740795,-0.009272545576095581,0.003352089785039425,0.008607885800302029
0.0189590435475111,0.008787360973656178,-0.006459488533437252,-0.008931477554142475,0.003211691277101636,0.00868618581444025
0.018761146813631058,0.008479657582938671,-0.0068600536324083805,-0.009360620751976967,0.003498320234939456,0.008538665249943733
0.018428441137075424,0.009058202616870403,-0.007779455278068781,-0.009544365108013153,0.003274116199463606,0.008813614025712013
0.01897951401770115,0.009739739820361137,-0.007642826065421104,-0.009413315914571285,0.0034272735938429832,0.008658614940941334
0.019502580165863037,0.009077333845198154,-0.007260127924382687,-0.009798428043723106,0.0035083589609712362,0.008827595971524715
0.019115330651402473,0.008811553940176964,-0.0075003961101174355,-0.009510857053101063,0.0034798732958734035,0.008921061642467976
0.01834816485643387,0.009792545810341835,-0.00758839538320899,-0.008959995582699776,0.0035016643814742565,0.00911361537873745
0.01871679164469242,0.009471594356000423,-0.008209594525396824,-0.009999018162488937,0.0036237535532563925,0.008508903905749321
0.01871679164469242,0.009471594356000423,-0.008209594525396824,-0.009999018162488937,0.0036237535532563925,0.008508903905749321
0.019235357642173767,0.009436352178454399,-0.007765390910208225,-0.00985390692949295,0.0033019715920090675,0.007892263121902943
0.02009800635278225,0.009923732839524746,-0.007081950549036264,-0.009306652471423149,0.003491487819701433,0.00864506233483553
0.019380412995815277,0.009817331098020077,-0.008119873702526093,-0.010557696223258972,0.003400542074814439,0.00859622098505497
0.018912671133875847,0.00868946686387062,-0.008061416447162628,-0.010623847134411335,0.003508394118398428,0.00860729068517685
0.01936516724526882,0.01002839021384716,-0.007382845506072044,-0.010307682678103447,0.0036228864919394255,0.008801113814115524
0.019378818571567535,0.009094266220927238,-0.007258422672748566,-0.01013140194118023,0.003720003878697753,0.008925871923565865
0.019203443080186844,0.009628175757825375,-0.007916309870779514,-0.010011942125856876,0.0033014777582138777,0.008383657783269882
0.019299084320664406,0.009594039991497993,-0.008178097195923328,-0.01040050107985735,0.003316178685054183,0.008262553252279758
0.01996070146560669,0.009304479695856571,-0.007801620755344629,-0.011076511815190315,0.0035975074861198664,0.008714357390999794
0.01976046711206436,0.00920009147375822,-0.007983144372701645,-0.010402865707874298,0.0035666381008923054,0.008650977164506912
0.019389962777495384,0.009371938183903694,-0.00834973156452179,-0.010453558526933193,0.003566284663975239,0.008556022308766842
0.020155571401119232,0.009620877914130688,-0.008048702962696552,-0.010300015099346638,0.0037796313408762217,0.008726677857339382
0.01987276040017605,0.00916994083672762,-0.008268889971077442,-0.009806092828512192,0.0036367501597851515,0.008648711256682873
0.019842855632305145,0.009884358383715153,-0.007910646498203278,-0.01075888890773058,0.0034641630481928587,0.008808141574263573
0.020336907356977463,0.011153259314596653,-0.00889546051621437,-0.010635013692080975,0.0031861490570008755,0.008754465728998184
0.02004885859787464,0.010302328504621983,-0.008253180421888828,-0.009892944246530533,0.0033686556853353977,0.008373691700398922
0.01978195644915104,0.010501540265977383,-0.008761291392147541,-0.01034102775156498,0.003408468561246991,0.00991376768797636
0.02014501579105854,0.010381322354078293,-0.008518281392753124,-0.010352984070777893,0.0036709834821522236,0.009151211939752102
0.01978624053299427,0.010741997510194778,-0.007889410480856895,-0.010264611802995205,0.0036642365157604218,0.008584847673773766
0.02000679075717926,0.010312734171748161,-0.008124020881950855,-0.010502873919904232,0.00368137052282691,0.008708222769200802
0.020186249166727066,0.010482181794941425,-0.009677070192992687,-0.009911405853927135,0.0041871871799230576,0.009285531006753445
0.01969246380031109,0.010891120880842209,-0.008742484264075756,-0.010244777426123619,0.004112173803150654,0.009242428466677666
0.01963970996439457,0.01111925020813942,-0.007517957594245672,-0.010486584156751633,0.0034078119788318872,0.008496568538248539
0.01963970996439457,0.01111925020813942,-0.007517957594245672,-0.010486584156751633,0.0034078119788318872,0.008496568538248539
0.020465275272727013,0.011372960172593594,-0.007910050451755524,-0.010402913205325603,0.003073829924687743,0.008685517124831676
0.02065347135066986,0.011373652145266533,-0.009219064377248287,-0.010364810936152935,0.0034512996207922697,0.009124772623181343
0.020176395773887634,0.011489965952932835,-0.008508186787366867,-0.010591533035039902,0.004107734654098749,0.009125086478888988
0.020205823704600334,0.011726250872015953,-0.00814731139689684,-0.010120890103280544,0.0047344183549284935,0.009290898218750954
0.0216054804623127,0.010660776868462563,-0.008956992998719215,-0.010672404430806637,0.00435021985322237,0.00991477258503437
0.02099151350557804,0.010754060000181198,-0.00852629542350769,-0.009762689471244812,0.004375786986202002,0.009675047360360622
0.02093849703669548,0.011708210222423077,-0.008239179849624634,-0.010518435388803482,0.004221261944621801,0.00940342154353857
0.021267589181661606,0.011492103338241577,-0.009081360884010792,-0.011144798249006271,0.003919788636267185,0.009569446556270123
0.021208668127655983,0.010746952146291733,-0.008734404109418392,-0.010292237624526024,0.003895836416631937,0.009659579023718834
0.021063951775431633,0.010874421335756779,-0.00848133023828268,-0.010820778086781502,0.004014468286186457,0.009758317843079567
0.020902851596474648,0.011729239486157894,-0.009201906621456146,-0.010839483700692654,0.00405857153236866,0.009762450121343136
0.02183695137500763,0.011509966105222702,-0.00918184407055378,-0.01069432683289051,0.004038357175886631,0.009703890420496464
0.02239735797047615,0.011187786236405373,-0.00882071815431118,-0.01128149963915348,0.004185029771178961,0.009842789731919765
0.02172788232564926,0.01139174122363329,-0.008433463983237743,-0.011579510755836964,0.004299671854823828,0.010523607023060322
0.02226487547159195,0.01126149296760559,-0.00905023142695427,-0.01133644673973322,0.004381685052067041,0.009985905140638351
0.021235862746834755,0.010977531783282757,-0.00907976645976305,-0.011453038081526756,0.003941782750189304,0.009472205303609371
0.021584253758192062,0.011271931231021881,-0.008098237216472626,-0.011028672568500042,0.00348125328309834,0.009587274864315987
0.022203346714377403,0.011150363832712173,-0.008703888393938541,-0.010951911099255085,0.0038783899508416653,0.009631396271288395
0.022329941391944885,0.010716130957007408,-0.009272001683712006,-0.010760480538010597,0.004525050986558199,0.009572776034474373
0.02184617705643177,0.011109331622719765,-0.00832095742225647,-0.01061374694108963,0.004663361702114344,0.009820431470870972
0.022263702005147934,0.010691579431295395,-0.00838281400501728,-0.0111417630687356,0.004447930958122015,0.009372689761221409
0.022449178621172905,0.01063538622111082,-0.009297199547290802,-0.010836903005838394,0.004081482533365488,0.009749643504619598
0.022894656285643578,0.011084684170782566,-0.008648820221424103,-0.011053942143917084,0.0037751824129372835,0.009387998841702938
0.02346733957529068,0.011290445923805237,-0.00900963507592678,-0.010923059657216072,0.003755090292543173,0.009645971469581127
0.022510260343551636,0.011093776673078537,-0.008838653564453125,-0.011478031985461712,0.004145916551351547,0.010331622324883938
0.022702358663082123,0.010919786058366299,-0.007826786488294601,-0.010984554886817932,0.00419226149097085,0.009809069335460663
0.022735701873898506,0.011167282238602638,-0.008883201517164707,-0.010497049428522587,0.003662913106381893,0.00952097773551941
0.023291749879717827,0.010893577709794044,-0.008601246401667595,-0.011907503940165043,0.004029084462672472,0.009574050083756447
0.02356078289449215,0.011196332052350044,-0.008325228467583656,-0.011864456348121166,0.0041106813587248325,0.01009064819663763
0.02348542958498001,0.011168104596436024,-0.008513418026268482,-0.011552007868885994,0.003982562106102705,0.010202603414654732
0.02348542958498001,0.011168104596436024,-0.008513418026268482,-0.011552007868885994,0.003982562106102705,0.010202603414654732
0.02354542165994644,0.010760069824755192,-0.00872619915753603,-0.011596070602536201,0.0038969297893345356,0.009915659204125404
0.023388803005218506,0.011207173578441143,-0.00904252752661705,-0.011451808735728264,0.003928880672901869,0.009911753237247467
0.02327396161854267,0.010780233889818192,-0.008431040681898594,-0.01183726079761982,0.003958085551857948,0.010186567902565002
0.023467082530260086,0.010776965878903866,-0.008448136039078236,-0.011748853139579296,0.0035051957238465548,0.010540763847529888
0.023609576746821404,0.011705544777214527,-0.009018645621836185,-0.011999319307506084,0.0035726893693208694,0.01038815826177597
0.023735834285616875,0.010984798893332481,-0.008706394582986832,-0.012044049799442291,0.004180901683866978,0.01075648795813322
0.024745076894760132,0.012110344134271145,-0.0080716572701931,-0.011763405054807663,0.004583294503390789,0.010293553583323956
0.024339647963643074,0.011430522426962852,-0.008838209323585033,-0.011969315819442272,0.004318364895880222,0.010191858746111393
0.024007601663470268,0.011120139621198177,-0.00885815266519785,-0.011479917913675308,0.0042560892179608345,0.01073523424565792
0.024554021656513214,0.01125334296375513,-0.00796967837959528,-0.011931163258850574,0.003634808352217078,0.01073457207530737
0.024747414514422417,0.011050852946937084,-0.008038954809308052,-0.01202348805963993,0.0033398966770619154,0.010744305327534676
0.02477845549583435,0.011086644604802132,-0.008724142797291279,-0.011812510900199413,0.0032595305237919092,0.010922408662736416
0.024749375879764557,0.011362474411725998,-0.00851376075297594,-0.012267181649804115,0.003971711732447147,0.010436848737299442
0.02474183589220047,0.011214182712137699,-0.008437756448984146,-0.012236025184392929,0.004537180997431278,0.010261870920658112
0.025020793080329895,0.012005841359496117,-0.009359488263726234,-0.012630868703126907,0.0047710915096104145,0.010065409354865551
0.024539215490221977,0.011290866881608963,-0.008174609392881393,-0.012207257561385632,0.004796958062797785,0.010267111472785473
0.024776412174105644,0.011874277144670486,-0.008033289574086666,-0.011324374936521053,0.00405377522110939,0.011017471551895142
0.025275971740484238,0.01164063811302185,-0.008465730585157871,-0.011558542028069496,0.003527088323608041,0.010586419142782688
0.02525472454726696,0.01122920960187912,-0.00879671424627304,-0.012018808163702488,0.0036565333139151335,0.010704080574214458
0.025430627167224884,0.011865655891597271,-0.008600838482379913,-0.011992105282843113,0.004848559387028217,0.010598614811897278
0.025376882404088974,0.011868534609675407,-0.009232581593096256,-0.012307117693126202,0.005808576475828886,0.010084467008709908
0.02548004873096943,0.01140566822141409,-0.008971434086561203,-0.012227204628288746,0.005002156365662813,0.01059749536216259
0.025640010833740234,0.011284902691841125,-0.008746964856982231,-0.012303177267313004,0.00419260049238801,0.010831251740455627
0.025890523567795753,0.012067381292581558,-0.010366138070821762,-0.012724329717457294,0.003770897863432765,0.010867031291127205
0.026198124513030052,0.012559586204588413,-0.009108188562095165,-0.012235995382070541,0.004128457512706518,0.01064253132790327
0.02647947520017624,0.012119805440306664,-0.008538255468010902,-0.01283455640077591,0.004582629073411226,0.01039862260222435
0.02647947520017624,0.012119805440306664,-0.008538255468010902,-0.01283455640077591,0.004582629073411226,0.01039862260222435
0.026219863444566727,0.012092316523194313,-0.009164188988506794,-0.012295333668589592,0.004720689263194799,0.010421400889754295
0.026252537965774536,0.011701716110110283,-0.009186708368360996,-0.01281784102320671,0.004549026023596525,0.010641848668456078
0.026852121576666832,0.012369356118142605,-0.008794008754193783,-0.012818770483136177,0.004418106283992529,0.010787428356707096
0.02740168385207653,0.01198253408074379,-0.00912561733275652,-0.012800266034901142,0.004513845779001713,0.010972862131893635
0.02785610407590866,0.01184561476111412,-0.009385106153786182,-0.012726278975605965,0.004594616591930389,0.011028002016246319
0.026654286310076714,0.011801478452980518,-0.009314719587564468,-0.012414082884788513,0.004568452015519142,0.010784154757857323
0.025245748460292816,0.011450684629380703,-0.008942303247749805,-0.012676874175667763,0.004309787414968014,0.01077338494360447
0.02746509574353695,0.011907368898391724,-0.009528951719403267,-0.012467254884541035,0.004317022394388914,0.011216588318347931
0.027727659791707993,0.011619893833994865,-0.009007850661873817,-0.01384010910987854,0.004600028973072767,0.011498937383294106
0.02640543505549431,0.012136314995586872,-0.008808295242488384,-0.012497898191213608,0.004941968712955713,0.010685625486075878
0.02703097090125084,0.011903028935194016,-0.00947459414601326,-0.012449025176465511,0.004772710148245096,0.010641445405781269
0.027695029973983765,0.01172075979411602,-0.009023772552609444,-0.012400900945067406,0.004566017538309097,0.011044617742300034
0.027323350310325623,0.012423432432115078,-0.008583071641623974,-0.012553364038467407,0.004215420689433813,0.011556480079889297
0.02674400992691517,0.012098520062863827,-0.009509388357400894,-0.012780175544321537,0.004042964894324541,0.011370435357093811
0.026277363300323486,0.012922242283821106,-0.009078490547835827,-0.012601790018379688,0.004012127872556448,0.011293713003396988
0.026979714632034302,0.012603344395756721,-0.008812719024717808,-0.01307078916579485,0.004018684383481741,0.011252363212406635
0.027912631630897522,0.012515726499259472,-0.009196365252137184,-0.012691379524767399,0.004894397687166929,0.01166998315602541
0.027414100244641304,0.012716473080217838,-0.0094903614372015,-0.013065743260085583,0.0050519616343081,0.011702240444719791
0.02751634642481804,0.012813865207135677,-0.010414889082312584,-0.013764683157205582,0.004270989913493395,0.012019023299217224
0.02763284742832184,0.013106654398143291,-0.009325651451945305,-0.013707434758543968,0.004264820367097855,0.011495436541736126
0.02748912386596203,0.013408688828349113,-0.008851855993270874,-0.01388640608638525,0.004609798081219196,0.011800001375377178
0.02748912386596203,0.013408688828349113,-0.008851855993270874,-0.01388640608638525,0.004609798081219196,0.011800001375377178
0.02768193557858467,0.012940023094415665,-0.009713256731629372,-0.013322274200618267,0.004495271015912294,0.011483598500490189
0.027443211525678635,0.012380577623844147,-0.009359573014080524,-0.013752406463027,0.004600082524120808,0.011645088903605938
0.027695495635271072,0.01304264459758997,-0.009140881709754467,-0.013621624559164047,0.004334182944148779,0.011379512026906013
0.028055718168616295,0.012945161201059818,-0.00959940254688263,-0.014058118686079979,0.0040219430811703205,0.01189232338219881
0.02801523543894291,0.013263442553579807,-0.009485669434070587,-0.013948998413980007,0.004287253133952618,0.012061573565006256
0.02801523543894291,0.013263442553579807,-0.009485669434070587,-0.013948998413980007,0.004287253133952618,0.012061573565006256
0.028277767822146416,0.012857741676270962,-0.009639588184654713,-0.013228951022028923,0.004910973832011223,0.011712558567523956
0.028277767822146416,0.012857741676270962,-0.009639588184654713,-0.013228951022028923,0.004910973832011223,0.011712558567523956
0.028445882722735405,0.013334028422832489,-0.009174204431474209,-0.013618823140859604,0.004665972664952278,0.011503161862492561
0.02819138392806053,0.013121419586241245,-0.009374849498271942,-0.013201279565691948,0.0049745566211640835,0.012320178560912609
0.02674572356045246,0.013387423008680344,-0.009890819899737835,-0.013643916696310043,0.004838904365897179,0.012204284779727459
0.028854697942733765,0.013761201873421669,-0.009665604680776596,-0.013240262866020203,0.004422659520059824,0.011208085343241692
0.029203329235315323,0.013216261751949787,-0.00909495260566473,-0.013861147686839104,0.00434461934491992,0.01248081587255001
0.029465844854712486,0.013271348550915718,-0.009975606575608253,-0.0138051463291049,0.004364211577922106,0.012722479179501534
0.02905065193772316,0.013832658529281616,-0.009357500821352005,-0.014249872416257858,0.004935169592499733,0.012598058208823204
0.028181996196508408,0.013586290180683136,-0.009117509238421917,-0.01379312016069889,0.005310001317411661,0.012210050597786903
0.02857416681945324,0.01318020187318325,-0.009912523441016674,-0.013589597307145596,0.005050961393862963,0.012344206683337688
0.02970452792942524,0.013506303541362286,-0.009759743697941303,-0.013933458365499973,0.004865247756242752,0.012244715355336666
0.02919605001807213,0.013706797733902931,-0.00948137417435646,-0.01434355229139328,0.004775929264724255,0.012467822059988976
0.02912204898893833,0.013870460912585258,-0.010002490133047104,-0.013905414380133152,0.004988905042409897,0.012673476710915565
0.02937910333275795,0.013137809932231903,-0.010481704957783222,-0.014039605855941772,0.005780731327831745,0.01242367085069418
0.029706859961152077,0.013787590898573399,-0.009282508864998817,-0.014051401987671852,0.00544842891395092,0.01255872379988432
0.0289671141654253,0.013554905541241169,-0.009850519709289074,-0.014143271371722221,0.004828987177461386,0.012184850871562958
0.02886885404586792,0.014099232852458954,-0.010569763369858265,-0.014256976544857025,0.00491177337244153,0.012697115540504456
0.029432494193315506,0.01361989974975586,-0.009981460869312286,-0.014372467063367367,0.004896392580121756,0.012380257248878479
0.02989654242992401,0.014486568979918957,-0.010133751668035984,-0.014433473348617554,0.004712349735200405,0.012887216173112392
0.030148694291710854,0.014007261022925377,-0.00983465276658535,-0.014307050034403801,0.004647904075682163,0.012722085230052471
0.029810311272740364,0.013884642161428928,-0.010298269800841808,-0.014361510053277016,0.00496368482708931,0.012609229423105717
0.029634999111294746,0.014518656767904758,-0.009639215655624866,-0.014431396499276161,0.004822894465178251,0.012521588243544102
0.030049890279769897,0.014173352159559727,-0.009275093674659729,-0.014224758371710777,0.004594585858285427,0.012834416702389717
0.030049890279769897,0.014173352159559727,-0.009275093674659729,-0.014224758371710777,0.004594585858285427,0.012834416702389717
0.030153760686516762,0.01395232044160366,-0.011054814793169498,-0.01399433333426714,0.004629448987543583,0.013263383880257607
0.030088264495134354,0.014330082572996616,-0.011235815472900867,-0.014212856069207191,0.004786646459251642,0.013217850588262081
0.03021237812936306,0.013947217725217342,-0.011117419227957726,-0.013800184242427349,0.005022677592933178,0.013369758613407612
0.03080623410642147,0.014816921204328537,-0.010751543566584587,-0.013803249225020409,0.004576637875288725,0.01327082235366106
0.030782945454120636,0.01448917668312788,-0.011404561810195446,-0.013407125137746334,0.004550641868263483,0.012679077684879303
0.03009972721338272,0.015066149644553661,-0.011764918453991413,-0.013937311246991158,0.004637278150767088,0.012736162170767784
0.03009972721338272,0.015066149644553661,-0.011764918453991413,-0.013937311246991158,0.004637278150767088,0.012736162170767784
0.03094446286559105,0.014334617182612419,-0.010615101084113121,-0.013827621005475521,0.004931614268571138,0.012832095846533775
0.03095388412475586,0.014876943081617355,-0.01151505671441555,-0.014163820073008537,0.0048217810690402985,0.013361502438783646
0.03096061572432518,0.01435217633843422,-0.011061937548220158,-0.013921841979026794,0.004589147865772247,0.013096490874886513
0.03091990202665329,0.014960027299821377,-0.011712824925780296,-0.014344701543450356,0.005011073313653469,0.012946336530148983
0.031068094074726105,0.01423573587089777,-0.011606641113758087,-0.014571868814527988,0.00487608602270484,0.013219309039413929
0.031557802110910416,0.014589887112379074,-0.011420303024351597,-0.015042816288769245,0.004813571460545063,0.013546069152653217
0.030972395092248917,0.014322969131171703,-0.012124906294047832,-0.014573183842003345,0.004756860435009003,0.013423296622931957
0.03156724199652672,0.015086964704096317,-0.011662217788398266,-0.014928831718862057,0.005085388198494911,0.013814307749271393
0.03142520785331726,0.015012388117611408,-0.011921336874365807,-0.014933135360479355,0.0051962160505354404,0.01385482493788004
0.03121284209191799,0.015323727391660213,-0.011701120994985104,-0.015146833844482899,0.005531294737011194,0.01380953099578619
0.03167695179581642,0.01426706463098526,-0.011856507509946823,-0.01469018217176199,0.005274275783449411,0.013785288669168949
0.03156343102455139,0.014831234700977802,-0.012354092672467232,-0.014775383286178112,0.005181438755244017,0.013457461260259151
0.03121364675462246,0.014224895276129246,-0.011569284833967686,-0.014394366182386875,0.004990996792912483,0.013020869344472885
0.03149624168872833,0.014754087664186954,-0.011082595214247704,-0.014304619282484055,0.004882202483713627,0.01413735467940569
0.03136827424168587,0.014097022823989391,-0.012406979687511921,-0.014469999819993973,0.00464944913983345,0.014208385720849037
0.03196902945637703,0.014450549148023129,-0.011495904996991158,-0.014986041001975536,0.005032207816839218,0.013878019526600838
0.03153431415557861,0.015263286419212818,-0.011302289552986622,-0.014783988706767559,0.004825351759791374,0.013875816948711872
0.031239967793226242,0.015245835296809673,-0.012272954918444157,-0.014353985898196697,0.004709405358880758,0.01409160252660513
0.03234387934207916,0.01458605658262968,-0.011862710118293762,-0.015460014343261719,0.004773435182869434,0.013684079051017761
0.03232680633664131,0.01459949929267168,-0.011363381519913673,-0.014858470298349857,0.005119898356497288,0.014037106186151505
0.032488271594047546,0.014915463514626026,-0.012125001288950443,-0.01433078944683075,0.005537126213312149,0.013800202868878841
0.03359409049153328,0.0148368114605546,-0.011713086627423763,-0.01476401835680008,0.005547070410102606,0.013777662068605423
0.03248162195086479,0.015360968187451363,-0.01168888621032238,-0.015211228281259537,0.00556409964337945,0.013443460687994957
0.03240809217095375,0.015363157726824284,-0.011905434541404247,-0.01538610178977251,0.005360384937375784,0.013795800507068634
0.0322236530482769,0.014403179287910461,-0.011860804632306099,-0.015083715319633484,0.00537934759631753,0.013749262318015099
0.0322236530482769,0.014403179287910461,-0.011860804632306099,-0.015083715319633484,0.00537934759631753,0.013749262318015099
0.033532772213220596,0.015150526538491249,-0.012177985161542892,-0.015182056464254856,0.005686063785105944,0.01430159155279398
0.03359876200556755,0.01496057491749525,-0.011645695194602013,-0.014689026400446892,0.00556242885068059,0.014302126131951809
0.03284157067537308,0.014990677125751972,-0.012016256339848042,-0.0153113454580307,0.005704504903405905,0.014320116490125656
0.03360844403505325,0.014669643715023994,-0.011866272427141666,-0.015052072703838348,0.005318053998053074,0.01380359847098589
0.03351004794239998,0.015229731798171997,-0.012624569237232208,-0.015525272116065025,0.005563943646848202,0.014203897677361965
0.033016324043273926,0.014895172789692879,-0.012017734348773956,-0.015125114470720291,0.005461715627461672,0.014535493217408657
0.03398517891764641,0.015626665204763412,-0.011503172107040882,-0.015535474754869938,0.005614051595330238,0.015175996348261833
0.03409123793244362,0.014689228497445583,-0.012152277864515781,-0.01552041806280613,0.005493087228387594,0.014752080664038658
0.03321443125605583,0.015176967717707157,-0.011586151085793972,-0.015922237187623978,0.005348795559257269,0.014185192994773388
0.03382517024874687,0.01487516425549984,-0.011900866404175758,-0.015250232070684433,0.005327995400875807,0.014134124852716923
0.03402016684412956,0.015546654351055622,-0.011631069704890251,-0.015501807443797588,0.005543633364140987,0.014601209200918674
0.03379347547888756,0.014808684587478638,-0.011384302750229836,-0.015296678990125656,0.005611271131783724,0.014106514863669872
0.033884596079587936,0.01521524228155613,-0.012132330797612667,-0.015665996819734573,0.00563062634319067,0.014188366010785103
0.03408875688910484,0.014658564701676369,-0.01149607915431261,-0.016525153070688248,0.005230618640780449,0.014151551760733128
0.035321176052093506,0.015255885198712349,-0.011809407733380795,-0.016576554626226425,0.005037116352468729,0.014568564482033253
0.034623727202415466,0.014950703829526901,-0.011686372570693493,-0.017249329015612602,0.005827430635690689,0.014649525284767151
0.03368253633379936,0.015264264307916164,-0.012308412231504917,-0.01684611476957798,0.005371443927288055,0.015361149795353413
0.03487049788236618,0.015263672918081284,-0.012157246470451355,-0.016234228387475014,0.005227402783930302,0.014983847737312317
0.035075005143880844,0.01530555821955204,-0.012680979445576668,-0.015510056167840958,0.005526075139641762,0.014719611033797264
0.035767655819654465,0.015348575077950954,-0.01209292747080326,-0.015863055363297462,0.005407491698861122,0.014055659994482994
0.036188483238220215,0.015649929642677307,-0.012209993787109852,-0.01600795052945614,0.005781014449894428,0.014575566165149212
0.03435448929667473,0.015585663728415966,-0.012104818597435951,-0.01662467047572136,0.005492488853633404,0.015554128214716911
0.03473244979977608,0.015660904347896576,-0.011542328633368015,-0.016310691833496094,0.005678708665072918,0.015441320836544037
0.03578609600663185,0.01530068926513195,-0.012081865221261978,-0.016253525391221046,0.005485746078193188,0.015356677584350109
0.03565957769751549,0.015514484606683254,-0.011680140160024166,-0.016307512298226357,0.00567617965862155,0.01505034975707531
0.035695310682058334,0.015403282828629017,-0.012343321926891804,-0.01685122400522232,0.006134600378572941,0.015077060088515282
0.03563971444964409,0.015422036871314049,-0.012312686070799828,-0.017083682119846344,0.006245647557079792,0.014769071713089943
0.03572652116417885,0.015056213364005089,-0.011663850396871567,-0.016710331663489342,0.006091208662837744,0.014930433593690395
0.03572652116417885,0.015056213364005089,-0.011663850396871567,-0.016710331663489342,0.006091208662837744,0.014930433593690395
0.03547099605202675,0.015359760262072086,-0.012287678197026253,-0.016951587051153183,0.00597491255030036,0.015046662651002407
0.03575005382299423,0.01527602132409811,-0.011914869770407677,-0.016165629029273987,0.006046911235898733,0.01531093381345272
0.03574642911553383,0.015283090062439442,-0.012641691602766514,-0.016821570694446564,0.0055924030020833015,0.015333909541368484
0.03588024154305458,0.0156010203063488,-0.012086370959877968,-0.016604876145720482,0.005833349656313658,0.015123194083571434
0.036155976355075836,0.01550817210227251,-0.012188837863504887,-0.016454927623271942,0.005851251073181629,0.01535753346979618
0.036490652710199356,0.015676792711019516,-0.01223349291831255,-0.016559923067688942,0.00579881202429533,0.015258966013789177
0.03607555851340294,0.015197178348898888,-0.011581281200051308,-0.01632091961801052,0.005282058380544186,0.015401341952383518
0.036337804049253464,0.015617448836565018,-0.012706805020570755,-0.016888614743947983,0.005579542368650436,0.01521566603332758
0.03622769936919212,0.015205223113298416,-0.011990988627076149,-0.016634410247206688,0.00551039632409811,0.015469972044229507
0.034811872988939285,0.015753990039229393,-0.012420848943293095,-0.0170037392526865,0.005769982002675533,0.015475837513804436
0.03674899786710739,0.015101220458745956,-0.012556609697639942,-0.016949407756328583,0.0058564175851643085,0.015794256702065468
0.036567315459251404,0.01584361307322979,-0.012378348037600517,-0.016655119135975838,0.005843996535986662,0.015256360173225403
0.036407340317964554,0.015433475375175476,-0.013001613318920135,-0.01694306544959545,0.0059932516887784,0.015460770577192307
0.035993777215480804,0.015747657045722008,-0.011933745816349983,-0.016584094613790512,0.005787352100014687,0.015360934659838676
0.036131422966718674,0.015277676284313202,-0.012709270231425762,-0.01693299040198326,0.006258794106543064,0.015529981814324856
0.03695318475365639,0.01549541112035513,-0.012583994306623936,-0.017900539562106133,0.005956755951046944,0.016071610152721405
0.03653520345687866,0.015811974182724953,-0.012272563762962818,-0.017014438286423683,0.006042698863893747,0.015965014696121216
0.03636353090405464,0.015933454036712646,-0.012045723386108875,-0.016031835228204727,0.006119355093687773,0.0156683549284935
0.0361541248857975,0.015448608435690403,-0.012691809795796871,-0.01701265014708042,0.006184619385749102,0.01608281023800373
0.036511603742837906,0.016080431640148163,-0.012247920967638493,-0.017106512561440468,0.006098928861320019,0.01554353628307581
0.03781360387802124,0.015456839464604855,-0.013053200207650661,-0.01726529374718666,0.005719208624213934,0.01566782221198082
0.03694351017475128,0.016163187101483345,-0.012174072675406933,-0.017659775912761688,0.005683479830622673,0.0160450991243124
0.03587062656879425,0.015628596767783165,-0.012775128707289696,-0.0177288930863142,0.005640401039272547,0.0162648968398571
0.036456070840358734,0.016065210103988647,-0.012544728815555573,-0.018484486266970634,0.005661948584020138,0.016504677012562752
0.036289650946855545,0.015695687383413315,-0.012438840232789516,-0.018148085102438927,0.0057863397523760796,0.017333639785647392
0.036544546484947205,0.016264956444501877,-0.012878060340881348,-0.01742214523255825,0.005924580153077841,0.017079045996069908
0.03830999881029129,0.016353342682123184,-0.012458963319659233,-0.018371812999248505,0.005919028073549271,0.016089892014861107
0.037550464272499084,0.016594192013144493,-0.012959437444806099,-0.018521545454859734,0.005869660060852766,0.0157276950776577
