davideferrari95/blind_handover_controller/data/Test 220 - [2024-02-08 -- 12-14-20]/joint_states_data.csv
shoulder_pan_joint,shoulder_lift_joint,elbow_joint,wrist_1_joint,wrist_2_joint,wrist_3_joint
0.003916967194527388,0.0048196399584412575,-0.010732797905802727,0.007350036408752203,-0.0,0.004212981555610895
0.003944712225347757,0.00448705954477191,-0.0107853002846241,0.007361637428402901,-0.0,0.0040468513034284115
0.003944712225347757,0.00448705954477191,-0.0107853002846241,0.007361637428402901,-0.0,0.0040468513034284115
0.003952716011554003,0.004861546214669943,-0.011067261919379234,0.0075631518848240376,-0.0,0.0039029172621667385
0.0038706413470208645,0.004496466368436813,-0.010111811570823193,0.007110984064638615,-0.0,0.004100417252629995
0.0039040972478687763,0.004584259819239378,-0.010699710808694363,0.006848531775176525,-0.0,0.004211915656924248
0.003921947441995144,0.004690421745181084,-0.010582685470581055,0.006470667198300362,-0.0,0.004059400875121355
0.00394524447619915,0.005214781500399113,-0.011002219282090664,0.006981935817748308,-0.0,0.003928034566342831
0.003486535744741559,0.0048909359611570835,-0.011192824691534042,0.0070699118077754974,-0.0,0.0038499520160257816
0.003523383056744933,0.004669217858463526,-0.01101347990334034,0.007131301332265139,-0.0,0.0035933286417275667
0.00414729118347168,0.005038910545408726,-0.011280922219157219,0.007117363624274731,-0.0,0.0034432087559252977
0.004244303796440363,0.004563036374747753,-0.011013786308467388,0.007117166183888912,-0.0,0.0035959514789283276
0.003978995606303215,0.00463787280023098,-0.010748038999736309,0.0073503851890563965,-0.0,0.0037490029353648424
0.0035878203343600035,0.005139870103448629,-0.010942572727799416,0.007331027649343014,-0.0,0.0034240796230733395
0.0034754846710711718,0.005260707810521126,-0.010802664794027805,0.007480652071535587,-0.0,0.0033405707217752934
0.0036455527879297733,0.0046378266997635365,-0.010958295315504074,0.007058811839669943,-0.0,0.003454107092693448
0.0037354384548962116,0.005040483083575964,-0.01122583169490099,0.007836434058845043,-0.0,0.003490484319627285
0.004250771831721067,0.005025428254157305,-0.01034059189260006,0.00784001499414444,-0.0,0.003536446252837777
0.00365150417201221,0.004864877555519342,-0.010669859126210213,0.007134612184017897,-0.0,0.003696585074067116
0.0035539777018129826,0.005124877206981182,-0.010940352454781532,0.007485569920390844,-0.0,0.0038363789208233356
0.0036522340960800648,0.004876177292317152,-0.010682506486773491,0.007053549867123365,-0.0,0.003890329273417592
0.004115080460906029,0.005145673640072346,-0.010739424265921116,0.00730955321341753,-0.0,0.003413013881072402
0.004115080460906029,0.005145673640072346,-0.010739424265921116,0.00730955321341753,-0.0,0.003413013881072402
0.0035917970817536116,0.005330085288733244,-0.011041938327252865,0.007765156216919422,-0.0,0.003865110455080867
0.0036455942317843437,0.005937881302088499,-0.010185102000832558,0.007282129488885403,-0.0,0.003994859755039215
0.0036455942317843437,0.005937881302088499,-0.010185102000832558,0.007282129488885403,-0.0,0.003994859755039215
0.004074654541909695,0.0051934365183115005,-0.010487782768905163,0.006759299896657467,-0.0,0.003963814582675695
0.004303386434912682,0.005008847452700138,-0.011180039495229721,0.006884377915412188,-0.0,0.003914832603186369
0.004036726430058479,0.005311512853950262,-0.010389700531959534,0.007348439656198025,-0.0,0.0042981975711882114
0.0036820529494434595,0.005266902968287468,-0.010657161474227905,0.007402677554637194,-0.0,0.003979479894042015
0.003513770643621683,0.006523979362100363,-0.010877656750380993,0.006865199189633131,-0.0,0.003593029687181115
0.0036592045798897743,0.006060256622731686,-0.010353841818869114,0.00668855756521225,-0.0,0.0032162165734916925
0.004163573496043682,0.004728207364678383,-0.010819897055625916,0.007043374702334404,-0.0,0.003376118838787079
0.004160758573561907,0.004687778651714325,-0.010939547792077065,0.006990860216319561,-0.0,0.003721875138580799
0.004006903152912855,0.004969791509211063,-0.010235455818474293,0.006540810689330101,-0.0,0.00418791314586997
0.003953253850340843,0.005264542065560818,-0.010894440114498138,0.006217115558683872,-0.0,0.004299985244870186
0.003462007036432624,0.005400131456553936,-0.009703242219984531,0.006662174127995968,-0.0,0.0045597064308822155
0.003643707139417529,0.005177782382816076,-0.010085541754961014,0.007162147201597691,-0.0,0.004165593069046736
0.004335287492722273,0.005341284442692995,-0.01096317544579506,0.006996577139943838,-0.0,0.003428815398365259
0.00413903221487999,0.005168341565877199,-0.010247456841170788,0.006670273374766111,-0.0,0.0034693977795541286
0.00384344975464046,0.004947831854224205,-0.009978757239878178,0.006393035873770714,-0.0,0.0032904313411563635
0.0037333806976675987,0.005277168471366167,-0.010608171112835407,0.006721006240695715,-0.0,0.003517438191920519
0.004033504519611597,0.005170829128473997,-0.01022217608988285,0.006941900588572025,-0.0,0.0036463288124650717
0.004113859497010708,0.005350172054022551,-0.010770833119750023,0.006856532301753759,-0.0,0.0041947499848902225
0.004369446542114019,0.005525371991097927,-0.010429874062538147,0.006742365658283234,-0.0,0.004122364800423384
0.0041184877045452595,0.005095881409943104,-0.009919927455484867,0.006713734939694405,-0.0,0.003534332849085331
0.0035073503386229277,0.0052983942441642284,-0.010659649968147278,0.006604646798223257,-0.0,0.0034387335181236267
0.0034590784925967455,0.00522495387122035,-0.010729781351983547,0.00681357691064477,-0.0,0.003017149865627289
0.004179777577519417,0.00584358861669898,-0.011265138164162636,0.00620341906324029,-0.0,0.003066446864977479
0.0044909026473760605,0.005312917288392782,-0.011565371416509151,0.006412398535758257,-0.0,0.0033040931448340416
0.0043107676319777966,0.005802944302558899,-0.0103285051882267,0.006665929686278105,-0.0,0.0034186113625764847
0.0034398785792291164,0.005488541908562183,-0.009830309078097343,0.006348680704832077,-0.0,0.0036249083932489157
0.0034398785792291164,0.005488541908562183,-0.009830309078097343,0.006348680704832077,-0.0,0.0036249083932489157
0.003477255580946803,0.006050358526408672,-0.010565201751887798,0.005917580798268318,-0.0,0.003611385589465499
0.003477255580946803,0.006050358526408672,-0.010565201751887798,0.005917580798268318,-0.0,0.003611385589465499
0.004201801493763924,0.005441585555672646,-0.01033860631287098,0.006271933671087027,-0.0,0.003662171307951212
0.004058669786900282,0.005751475226134062,-0.009711363352835178,0.00672874366864562,-0.0,0.0031764903105795383
0.0035532566253095865,0.005372949875891209,-0.010448478162288666,0.00653761625289917,-0.0,0.0030663576908409595
0.0033648591488599777,0.005395111627876759,-0.01054252590984106,0.006495418958365917,-0.0,0.0030249354895204306
0.003439428983256221,0.005635937675833702,-0.010156185366213322,0.006632726173847914,-0.0,0.003116003470495343
0.003547701984643936,0.005362964700907469,-0.010285872034728527,0.006580461282283068,-0.0,0.003385030198842287
0.0036489292979240417,0.005386275704950094,-0.010567319579422474,0.006393061019480228,-0.0,0.0035973640624433756
0.0036315906327217817,0.005225537344813347,-0.00987278949469328,0.006031431723386049,-0.0,0.003955713473260403
0.003516789060086012,0.005372718907892704,-0.01077706553041935,0.00622320594266057,-0.0,0.0036783607210963964
0.0035848405677825212,0.00551160704344511,-0.010005954653024673,0.006437962409108877,-0.0,0.0035735173150897026
0.003982851281762123,0.005691340193152428,-0.009778234176337719,0.006357309874147177,-0.0,0.003582944395020604
0.004115716554224491,0.00514513673260808,-0.010768989101052284,0.006086970679461956,-0.0,0.0031913958955556154
0.0043041398748755455,0.0053148395381867886,-0.011021066457033157,0.0055588483810424805,-0.0,0.0027947956696152687
0.0040587568655610085,0.005612563341856003,-0.01028465200215578,0.005902646575123072,-0.0,0.0026995528023689985
0.0035197020042687654,0.005489828530699015,-0.010133570060133934,0.006282850168645382,-0.0,0.0029967331793159246
0.00382435554638505,0.005684567149728537,-0.010102475062012672,0.005714339669793844,-0.0,0.003032279433682561
0.0038027875125408173,0.00527689466252923,-0.010333921760320663,0.005701270420104265,-0.0,0.003388301469385624
0.004475330468267202,0.0052081323228776455,-0.010866411030292511,0.005423137918114662,-0.0,0.0037076435983181
0.004166227299720049,0.005273791030049324,-0.009970556013286114,0.005422963760793209,-0.0,0.0035437997430562973
0.0038818882312625647,0.005453725811094046,-0.010013248771429062,0.005770473275333643,-0.0,0.003441323759034276
0.0040622251108288765,0.005186058115214109,-0.010113867931067944,0.0059552062302827835,-0.0,0.003345358418300748
0.004186613019555807,0.005338724236935377,-0.010499217547476292,0.005777023267000914,-0.0,0.0031549425330013037
0.00374582433141768,0.0055872173979878426,-0.010172655805945396,0.00611409917473793,-0.0,0.002916706260293722
0.003557379823178053,0.005128562916070223,-0.009542305953800678,0.005884936545044184,-0.0,0.0028225183486938477
0.00366365909576416,0.005252336151897907,-0.010013917461037636,0.005832294467836618,-0.0,0.002920526312664151
0.004255384206771851,0.005175688304007053,-0.01022827997803688,0.005629413761198521,-0.0,0.0031461508478969336
0.00413678539916873,0.005871822126209736,-0.009781377390027046,0.005492357537150383,-0.0,0.0034917474258691072
0.003908917773514986,0.005489406641572714,-0.00953530240803957,0.005116314627230167,-0.0,0.003310055937618017
0.003908917773514986,0.005489406641572714,-0.00953530240803957,0.005116314627230167,-0.0,0.003310055937618017
0.003947695251554251,0.00521552050486207,-0.01002906821668148,0.0055547538213431835,-0.0,0.003287314670160413
0.0038768616504967213,0.005373801104724407,-0.009219691157341003,0.005641005001962185,-0.0,0.003112811828032136
0.003728906624019146,0.00559640396386385,-0.00953664630651474,0.005193127319216728,-0.0,0.002952798269689083
0.0037573014851659536,0.005743433255702257,-0.009912833571434021,0.004859840497374535,-0.0,0.0026098911184817553
0.0038758262526243925,0.005768182221800089,-0.00972689688205719,0.0050775217823684216,-0.0,0.002638666657730937
0.00434438232332468,0.005163266323506832,-0.010367216542363167,0.005096666514873505,-0.0,0.0028614928014576435
0.00402687955647707,0.004293258301913738,-0.00964321754872799,0.005410296376794577,-0.0,0.003306654980406165
0.004266828764230013,0.0036206336226314306,-0.009321990422904491,0.005568124353885651,-0.0,0.003407232230529189
0.004233546555042267,0.003659730777144432,-0.010528679005801678,0.005258108489215374,-0.0,0.003165374044328928
0.003960651345551014,0.004783247597515583,-0.009819239377975464,0.0052973125129938126,-0.0,0.002960536628961563
0.003793517593294382,0.004944295156747103,-0.008984739892184734,0.005051630549132824,-0.0,0.002718031406402588
0.00429122056812048,0.004476605448871851,-0.010586830787360668,0.005083795636892319,-0.0,0.0029369480907917023
0.00410739379003644,0.004119207616895437,-0.009598786011338234,0.0053381044417619705,-0.0,0.0030693658627569675
0.004119928926229477,0.004443987738341093,-0.009395386092364788,0.0051508741453289986,-3.396450665604789e-06,0.0026659793220460415
0.00402431795373559,0.004731141030788422,-0.009541706182062626,0.0047930702567100525,-2.217639689661155e-07,0.002409721026197076
0.004495066124945879,0.004757306072860956,-0.009190471842885017,0.0047229742631316185,-1.4479603294148546e-08,0.0020946930162608624
0.004637873265892267,0.004425931256264448,-0.009223231114447117,0.004327930044382811,-9.454146354670456e-10,0.0020021931268274784
0.004267373587936163,0.004123424645513296,-0.009624811820685863,0.004032708238810301,-6.172882344168684e-11,0.002393231261521578
0.004430068656802177,0.003928571008145809,-0.009966974146664143,0.004394843243062496,-4.030450886233217e-12,0.00295274774543941
0.004216478671878576,0.004385775420814753,-0.009168960154056549,0.004710029345005751,-2.6315963839486367e-13,0.003200861858204007
0.004287254065275192,0.004213297739624977,-0.009631762281060219,0.004698475822806358,-1.718244619394564e-14,0.003153028665110469
0.0045414818450808525,0.003941568545997143,-0.01065811887383461,0.004476030822843313,-1.1218909034735845e-15,0.002806237433105707
0.0047193728387355804,0.004337258171290159,-0.009402688592672348,0.0044159069657325745,-7.3251468835556e-17,0.0024495739489793777
0.004442197736352682,0.004602848086506128,-0.009559116326272488,0.004319730214774609,-4.782797592860702e-18,0.0025179735384881496
0.004406692460179329,0.004018932115286589,-0.0094984769821167,0.004461139906197786,-2.0389819538086002e-20,0.0027296673506498337
0.004424172453582287,0.0039272489957511425,-0.00975561048835516,0.0048744287341833115,-1.3313095325290392e-21,0.0025570292491465807
0.004361018072813749,0.004204999189823866,-0.009655913338065147,0.004701433703303337,-8.692499966486125e-23,0.0025026248767971992
0.004361018072813749,0.004204999189823866,-0.009655913338065147,0.004701433703303337,-8.692499966486125e-23,0.0025026248767971992
0.004598227329552174,0.00473018316552043,-0.010025987401604652,0.0044370051473379135,-3.705749044061699e-25,0.0025351333897560835
0.004598227329552174,0.00473018316552043,-0.010025987401604652,0.0044370051473379135,-3.705749044061699e-25,0.0025351333897560835
0.004553134553134441,0.004890724550932646,-0.010586955584585667,0.004457227885723114,-2.4195892381132298e-26,0.0026685472112149
0.00466376356780529,0.004336269106715918,-0.009800146333873272,0.004651633556932211,-1.5798189555584669e-27,0.002435410860925913
0.004734420217573643,0.004003806971013546,-0.01003609411418438,0.004735067952424288,-1.0315088189143597e-28,0.0022625711280852556
0.004855701699852943,0.004235090687870979,-0.009927723556756973,0.004866178147494793,-6.735016135974159e-30,0.0022403199691325426
0.004499598406255245,0.004461080767214298,-0.00903270486742258,0.004761845339089632,-4.397483929420509e-31,0.0022090335842221975
0.004479000344872475,0.004582362715154886,-0.009865728206932545,0.004194219131022692,-2.871242811788143e-32,0.0024616876617074013
0.0046458193100988865,0.004720526281744242,-0.01044496614485979,0.0037453584372997284,-1.8747164105867935e-33,0.0026389104314148426
0.0042236559092998505,0.004632560536265373,-0.00967961736023426,0.0034035032149404287,0.00014137678954284638,0.002584487898275256
0.004444195423275232,0.0046804193407297134,-0.009954641573131084,0.0034292773343622684,0.00017811841098591685,0.002543381182476878
0.004607992246747017,0.0046653151512146,-0.010168303735554218,0.0037759733386337757,0.0002042020787484944,0.002278767991811037
0.004533875267952681,0.004720471799373627,-0.00903661735355854,0.0039020641706883907,0.00020093201601412147,0.0022167847491800785
0.004163587000221014,0.004436749033629894,-0.009900722652673721,0.0035358774475753307,0.00019399554003030062,0.0022624563425779343
0.004399881698191166,0.004375448450446129,-0.009904198348522186,0.0032316625583916903,0.00021435933012980968,0.0022118466440588236
0.004178875591605902,0.004771564621478319,-0.00930414255708456,0.0032358961179852486,0.00021090483642183244,0.002459408948197961
0.004487086087465286,0.004788354970514774,-0.01024136133491993,0.0032430856954306364,0.00022591525339521468,0.0026934512425214052
0.004224731121212244,0.0044591231271624565,-0.010977860540151596,0.0032844909001141787,0.00022568214626517147,0.0026933581102639437
0.00446485448628664,0.0045530120842158794,-0.00913305301219225,0.0034125843085348606,0.00021950542577542365,0.002660416066646576
0.00446485448628664,0.0045530120842158794,-0.00913305301219225,0.0034125843085348606,0.00021950542577542365,0.002660416066646576
0.004588198848068714,0.004539916291832924,-0.009510344825685024,0.0035403810907155275,0.0004214507935103029,0.002555031096562743
0.004520009271800518,0.004334069788455963,-0.009684585966169834,0.003446317045018077,0.00039869348984211683,0.0023355332668870687
0.004535620100796223,0.004837843589484692,-0.009071381762623787,0.003147916868329048,0.00036709828418679535,0.0020777275785803795
0.004329713061451912,0.00507892481982708,-0.009406544268131256,0.003027179976925254,0.0004025421803817153,0.001987803727388382
0.004341647960245609,0.004761766642332077,-0.009585333056747913,0.0032026125118136406,0.0003538904129527509,0.0019440822070464492
0.005004548933357,0.004879605956375599,-0.009346582926809788,0.0033379781525582075,0.0003836340911220759,0.0020976541563868523
0.004874920938163996,0.004827036522328854,-0.010332333855330944,0.003471862059086561,0.0003647739358711988,0.0020461739040911198
0.004737026058137417,0.00474688783288002,-0.009649576619267464,0.0030264139641076326,0.0003908939834218472,0.002006707713007927
0.004634182434529066,0.0051923105493187904,-0.009313628077507019,0.002747140359133482,0.0003736111684702337,0.001962044509127736
0.004656474106013775,0.005042358301579952,-0.009940849617123604,0.0026546893641352654,0.0003833443915937096,0.0018837994430214167
0.004724698141217232,0.004655866418033838,-0.009331759996712208,0.002767271129414439,0.00037896030698902905,0.0018695188919082284
0.0049562007188797,0.004352701362222433,-0.009251745417714119,0.0028814803808927536,0.0004118199576623738,0.001962082227692008
0.0048969099298119545,0.0048580351285636425,-0.009783009067177773,0.002898388309404254,0.0004383024643175304,0.001862353878095746
0.004715559538453817,0.004840467125177383,-0.009380921721458435,0.003189793322235346,0.0004242262803018093,0.0016561608063057065
0.004646583925932646,0.00477225286886096,-0.009097735397517681,0.0030292049050331116,0.0004513541061896831,0.0016327438643202186
0.004674799740314484,0.004942094907164574,-0.009528597816824913,0.0028217697981745005,0.00042944386950694025,0.0015318748774006963
0.0046035246923565865,0.00479541439563036,-0.008932502940297127,0.002547457115724683,0.0006135356379672885,0.0015017425175756216
0.004728875122964382,0.0048961094580590725,-0.008860788308084011,0.0024930445943027735,0.0006347521557472646,0.0015738365473225713
0.004771343432366848,0.004767409525811672,-0.00999853853136301,0.0024972257670015097,0.0005909326137043536,0.00183450139593333
0.004638065118342638,0.004802362062036991,-0.009634412825107574,0.00246614683419466,0.0005340969073586166,0.0018996375147253275
0.004628550261259079,0.005318023730069399,-0.009406054392457008,0.0027502591256052256,0.0005454001948237419,0.0019401266472414136
0.004593166522681713,0.005284665618091822,-0.00944558810442686,0.0028846990317106247,0.0005187955684959888,0.00177792611066252
0.004585449583828449,0.004848793148994446,-0.009395048022270203,0.0029229475185275078,0.00048040805268101394,0.00158512475900352
0.004673749674111605,0.004668370820581913,-0.008799738250672817,0.0027341176755726337,0.00044641990098170936,0.0013155180495232344
0.005134302657097578,0.0047627659514546394,-0.009817901998758316,0.0024744966067373753,0.0004722544690594077,0.0011237473227083683
0.0049592480063438416,0.005108515731990337,-0.00960833951830864,0.0022502075880765915,0.0004465638776309788,0.0011170427314937115
0.004869954194873571,0.005525412503629923,-0.009208894334733486,0.002267170464619994,0.0004206953744869679,0.0011340489145368338
0.005091241095215082,0.005123578477650881,-0.008894451893866062,0.0023342103231698275,0.00038110464811325073,0.0014034329215064645
0.005091241095215082,0.005123578477650881,-0.008894451893866062,0.0023342103231698275,0.00038110464811325073,0.0014034329215064645
0.004807852674275637,0.004961974453181028,-0.008782871067523956,0.0024304459802806377,0.00035649840719997883,0.001730619347654283
0.004807852674275637,0.004961974453181028,-0.008782871067523956,0.0024304459802806377,0.00035649840719997883,0.001730619347654283
0.005325539503246546,0.0049692969769239426,-0.008428215980529785,0.002178861992433667,0.0003614917804952711,0.0015524362679570913
0.00505988672375679,0.005256066098809242,-0.009349936619400978,0.0019442106131464243,0.0003701815730892122,0.0012037341948598623
0.0049771773628890514,0.005024033598601818,-0.00860538799315691,0.0019473244901746511,0.00038986458093859255,0.0009357890230603516
0.004836019594222307,0.005258574150502682,-0.009176780469715595,0.0019152687164023519,0.000381075224140659,0.0008989903144538403
0.004909356590360403,0.005072878208011389,-0.009023013524711132,0.002132422523573041,0.00036483723670244217,0.0008970376802608371
0.005638337228447199,0.005304901860654354,-0.008957000449299812,0.0021333624608814716,0.0004619005776476115,0.0010425755754113197
0.00527116097509861,0.0056264386512339115,-0.009133837185800076,0.0020784621592611074,0.0004894661251455545,0.001223116647452116
0.005363318137824535,0.005324745550751686,-0.009186360985040665,0.0018073293613269925,0.00046699013910256326,0.0012312905164435506
0.005583242513239384,0.0056925066746771336,-0.008973181247711182,0.0018053553067147732,0.0004929667338728905,0.0013999619986861944
0.005071880295872688,0.005299855023622513,-0.008764726109802723,0.0018052184022963047,0.00046507822116836905,0.0014245252823457122
0.005032299552112818,0.004833177197724581,-0.009807282127439976,0.0020477240905165672,0.0004871172714047134,0.0012460231082513928
0.005470726173371077,0.005085516255348921,-0.00861812848597765,0.002129877218976617,0.0004631108895409852,0.0011829760624095798
0.005162178073078394,0.005096248351037502,-0.008630742318928242,0.0019181963289156556,0.0005432218313217163,0.0010036805178970098
0.0052475640550255775,0.005979199893772602,-0.009329191409051418,0.0017251565586775541,0.0005482749547809362,0.000961909769102931
0.0051919217221438885,0.005325438920408487,-0.008787354454398155,0.0015298393554985523,0.0005379037465900183,0.0010261442512273788
0.005028402432799339,0.004907576832920313,-0.008818760514259338,0.001414487836882472,0.0004917775513604283,0.0010977380443364382
0.005367201752960682,0.005086819641292095,-0.009241275489330292,0.0013561573578044772,0.0005206557107158005,0.001168007729575038
0.005212014075368643,0.005004443693906069,-0.009352789260447025,0.0013406416401267052,0.0005360201466828585,0.00113794079516083
0.00566535908728838,0.005382339470088482,-0.008384687826037407,0.0013678902760148048,0.0005138568812981248,0.001102051930502057
0.005330195650458336,0.005194284953176975,-0.008774428628385067,0.0013459428446367383,0.0005306245875544846,0.0010566450655460358
0.005384846590459347,0.004940198268741369,-0.008905859664082527,0.0014351900899782777,0.0005181933520361781,0.0009999480098485947
0.0052658673375844955,0.005202794913202524,-0.008359594270586967,0.0013988487189635634,0.0005124798626638949,0.0008761562639847398
0.005205668043345213,0.005137338303029537,-0.008173885755240917,0.0015318315709009767,0.0005051926709711552,0.0009320864919573069
0.005205668043345213,0.005137338303029537,-0.008173885755240917,0.0015318315709009767,0.0005051926709711552,0.0009320864919573069
0.0054685203358531,0.005738914478570223,-0.008961656130850315,0.00142621377017349,0.0004939721547998488,0.0009235037723556161
0.0054685203358531,0.005738914478570223,-0.008961656130850315,0.00142621377017349,0.0004939721547998488,0.0009235037723556161
0.00526102539151907,0.005548718385398388,-0.008528785780072212,0.0014338800683617592,0.0004940867656841874,0.0009402312571182847
0.004920959006994963,0.005204902961850166,-0.008862151764333248,0.0014589449856430292,0.0004900408675894141,0.0009443588787689805
0.005732428282499313,0.005782443564385176,-0.008855069056153297,0.0013385353377088904,0.0004845083167310804,0.0010702558793127537
0.005207850132137537,0.0054483008570969105,-0.008666211739182472,0.00135214370675385,0.0004415653820615262,0.0009125860524363816
0.00576774962246418,0.005929490085691214,-0.009085480123758316,0.0012863472802564502,0.00047704303869977593,0.000781585811637342
0.005405287723988295,0.005444420035928488,-0.00857720710337162,0.0012570194667205215,0.0004969700239598751,0.0006825965247116983
0.005336161237210035,0.005708985961973667,-0.008074862882494926,0.0012855572858825326,0.0005095539963804185,0.0006794797373004258
0.005246036220341921,0.0053011951968073845,-0.008861379697918892,0.0011712455889210105,0.000505140342283994,0.0006336264195851982
0.005766124930232763,0.005324737634509802,-0.008803562261164188,0.0011918168747797608,0.0006801590789109468,0.0006480138981714845
0.005766124930232763,0.005324737634509802,-0.008803562261164188,0.0011918168747797608,0.0006801590789109468,0.0006480138981714845
0.005620234180241823,0.005605743266642094,-0.008108681999146938,0.0011407771380618215,0.000774629763327539,0.0005450954777188599
0.005212664604187012,0.005597245413810015,-0.008553686551749706,0.0010214856592938304,0.0009395739180035889,0.0005862383986823261
0.005859770812094212,0.005207614507526159,-0.008058358915150166,0.0010078564519062638,0.0011133053340017796,0.0006140103796496987
0.005536254029721022,0.005450966767966747,-0.0081449830904603,0.000990280881524086,0.0010877738241106272,0.000799351604655385
0.005858900025486946,0.00520289596170187,-0.008478165604174137,0.0010099973296746612,0.0010602348484098911,0.000978477532044053
0.0054128034971654415,0.005779946222901344,-0.008263831958174706,0.000921793223824352,0.0011814417084679008,0.0008713275310583413
0.0054105850867927074,0.005745669361203909,-0.008067664690315723,0.0009182087960653007,0.0011492742924019694,0.0007528586429543793
0.005500327330082655,0.005560822784900665,-0.008217554539442062,0.0009148211684077978,0.0011094986693933606,0.0006607177783735096
0.005563368089497089,0.004757896531373262,-0.008218711242079735,0.0008873501792550087,0.0009469944052398205,0.0005306370439939201
0.005563368089497089,0.004757896531373262,-0.008218711242079735,0.0008873501792550087,0.0009469944052398205,0.0005306370439939201
0.005563368089497089,0.004757896531373262,-0.008218711242079735,0.0008873501792550087,0.0009469944052398205,0.0005306370439939201
0.005365155171602964,0.0044885724782943726,-0.008058089762926102,0.0008134634117595851,0.0009204198722727597,0.0005219766171649098
0.00547775300219655,0.004701504483819008,-0.008412559516727924,0.0007592238835059106,0.0009340624674223363,0.0005145720788277686
0.005533833522349596,0.004945171531289816,-0.008268081583082676,0.0007515495526604354,0.0009306539432145655,0.0004778288130182773
0.005938948597759008,0.004815524909645319,-0.008321629837155342,0.0006838572444394231,0.0013174363411962986,0.0004701291327364743
0.005386937875300646,0.004739928990602493,-0.008744795806705952,0.0006374201620928943,0.0015814944636076689,0.0004446768434718251
0.005850502755492926,0.0046393973752856255,-0.008676283061504364,0.0005801499937660992,0.001790261478163302,0.0004190215840935707
0.006090126466006041,0.0051248688250780106,-0.008525180630385876,0.0005413011531345546,0.0013982296222820878,0.00037533228169195354
0.006090126466006041,0.0051248688250780106,-0.008525180630385876,0.0005413011531345546,0.0013982296222820878,0.00037533228169195354
0.006076457444578409,0.005624196492135525,-0.008692307397723198,0.0005182671593502164,0.0012763561680912971,0.0002877200022339821
0.0057672373950481415,0.005357197020202875,-0.008311429060995579,0.0004844230425078422,0.0012839395785704255,0.00026187062030658126
0.00555785046890378,0.004795788321644068,-0.008262998424470425,0.0004539320070762187,0.0011913295602425933,0.00024690007558092475
0.005540261976420879,0.004935596603900194,-0.008581786416471004,0.00042700301855802536,0.0011278439778834581,0.0002340166101930663
0.005687261465936899,0.0054489243775606155,-0.008937391452491283,0.0004030865675304085,0.0010867087403312325,0.0002224425843451172
0.006233177613466978,0.0050871241837739944,-0.008565453812479973,0.00038170823245309293,0.0010239498224109411,0.0002119615237461403
0.006307746283710003,0.005900632124394178,-0.00842810608446598,0.0003624844248406589,0.0009484578622505069,0.00020242414029780775
0.005744644906371832,0.005147045012563467,-0.008589329198002815,0.0003451049269642681,0.0008790126885287464,0.00019370860536582768
0.0057997386902570724,0.004595799837261438,-0.008807978592813015,0.00032931604073382914,0.0009525669156573713,0.00018571270629763603
0.005840749479830265,0.004904233384877443,-0.008650482632219791,0.0003149090043734759,0.0009499054285697639,0.00017835060134530067
0.006403909996151924,0.005569371860474348,-0.009063288569450378,0.00030170974787324667,0.0009011711808852851,0.00017155017121694982
0.006092544179409742,0.005206075496971607,-0.008587471209466457,0.0002895732468459755,0.0010850403923541307,0.00016524945385754108
0.005971093196421862,0.005124240648001432,-0.008097317069768906,0.00027837560628540814,0.001064914045855403,0.00015939507284201682
0.006034206598997116,0.0050140125676989555,-0.008880878798663616,0.0002680110337678343,0.0010409957030788064,0.00015394174261018634
0.006305424962192774,0.004804445896297693,-0.008774484507739544,0.0002583914319984615,0.0010225465521216393,0.00014884899428579956
0.00617663050070405,0.0053080180659890175,-0.007864126935601234,0.0002494382788427174,0.000993226421996951,0.00012274898472242057
0.006293376442044973,0.005234853830188513,-0.008192385546863079,0.00021494239626917988,0.0010151345049962401,0.00011217818973818794
0.006141704972833395,0.0050107138231396675,-0.008760576136410236,0.0002043748099822551,0.0010180413955822587,0.00010836031287908554
0.005777526646852493,0.00503902044147253,-0.008533939719200134,0.00019772494852077216,0.0010279467096552253,0.00010516576003283262
0.005777526646852493,0.00503902044147253,-0.008533939719200134,0.00019772494852077216,0.0010279467096552253,0.00010516576003283262
0.006332997232675552,0.004935935605317354,-0.008250233717262745,0.0001916927722049877,0.001027358928695321,0.00010217852832283825
0.007112511899322271,0.005161332432180643,-0.009540161117911339,0.00018603065109346062,0.0010878719622269273,9.935810521710664e-05
0.006300874054431915,0.005435871426016092,-0.008776552975177765,0.00018069453653879464,0.0010139027144759893,8.481895929435268e-05
0.006526344921439886,0.005151223856955767,-0.008666710928082466,0.00017089083848986775,0.0011452616890892386,6.887255585752428e-05
0.0068533942103385925,0.004934769589453936,-0.008752254769206047,0.00016637744556646794,0.0011087878374382854,6.711283640470356e-05
0.007409559562802315,0.005206890404224396,-0.008597682230174541,0.000162096373969689,0.0012397469254210591,6.548197416123003e-05
0.00645347498357296,0.005525948479771614,-0.00845844391733408,6.588720134459436e-05,0.001196118420921266,6.393121293513104e-05
0.006264940835535526,0.005660856608301401,-0.00884588249027729,5.1331011491129175e-05,0.001185481552965939,-4.833293496631086e-05
0.006121024023741484,0.005614981986582279,-0.008731259033083916,4.910177813144401e-05,0.0010519004426896572,-6.184219819260761e-05
0.006585202179849148,0.0052942149341106415,-0.008935652673244476,4.774509579874575e-05,0.0010584265692159534,-6.0746140661649406e-05
0.0066459402441978455,0.0052716415375471115,-0.008881453424692154,2.9273718610056676e-05,0.0010728994384407997,-8.059918036451563e-05
0.006643116008490324,0.005461157765239477,-0.00899960845708847,2.306113310623914e-05,0.0010674167424440384,-8.495292422594503e-05
0.006766508333384991,0.0060775745660066605,-0.008586048148572445,2.213682273577433e-05,0.0013220134424045682,-0.00010324263712391257
0.006636266130954027,0.0057747564278542995,-0.008224673569202423,5.583056008617859e-06,0.001270616427063942,-0.00012652226723730564
0.006818214897066355,0.005722566973417997,-0.008924280293285847,3.645336619229056e-07,0.001208326779305935,-0.00012974717537872493
0.006750144530087709,0.0053867436945438385,-0.008760100230574608,2.3801444370974423e-08,0.0010828174417838454,-0.0004861493653152138
0.006692645139992237,0.005376084707677364,-0.008209560997784138,1.5540643216738204e-09,0.0010477816686034203,-0.0005282678175717592
0.007249088492244482,0.005445200018584728,-0.008897856809198856,1.0146929130261384e-10,0.0010615999344736338,-0.0005015578935854137
0.007017052266746759,0.006170111708343029,-0.008512222208082676,6.625219470257626e-12,0.0010400338796898723,-0.000516482163220644
0.007295355200767517,0.0056045460514724255,-0.008267396129667759,4.325795093223367e-13,0.001064963755197823,-0.0004935053875669837
0.00741897476837039,0.005386658012866974,-0.008179156109690666,2.8244350895644324e-14,0.0010606145951896906,-0.0005203837645240128
0.00683220848441124,0.005392027553170919,-0.00872725434601307,1.8441544152896687e-15,0.001117343665100634,-0.0007398909656330943
0.007202691398561001,0.005476983264088631,-0.00803392380475998,-0.00021040863066446036,0.0010435398435220122,-0.0008492872584611177
0.007202691398561001,0.005476983264088631,-0.00803392380475998,-0.00021040863066446036,0.0010435398435220122,-0.0008492872584611177
0.00721728103235364,0.005563498940318823,-0.007955611683428288,-0.0009558327728882432,0.001181703875772655,-0.00135269935708493
0.006984667386859655,0.005485825706273317,-0.008442291989922523,-0.0012531050015240908,0.0011370843276381493,-0.0013075798051431775
0.006984667386859655,0.005485825706273317,-0.008442291989922523,-0.0012531050015240908,0.0011370843276381493,-0.0013075798051431775
0.007776640355587006,0.005473156925290823,-0.008063990622758865,-0.0021333403419703245,0.0012508671497926116,-0.0010591722093522549
0.007168617565184832,0.006380853708833456,-0.008328385651111603,-0.002751704305410385,0.001222387421876192,-0.0009349073516204953
0.006856021471321583,0.00620081415399909,-0.008324796333909035,-0.0028927484527230263,0.0012820599367842078,-0.0009545556386001408
0.0074470373801887035,0.005867850035429001,-0.007858065888285637,-0.003349553793668747,0.0012586282100528479,-0.0012766134459525347
0.0073880888521671295,0.005572406575083733,-0.008305806666612625,-0.0035643510054796934,0.0012001491850242019,-0.0017706427024677396
0.007285991683602333,0.005695137660950422,-0.008074755780398846,-0.0036919766571372747,0.0010928616393357515,-0.0020542130805552006
0.00735378498211503,0.006080762483179569,-0.00775090791285038,-0.004180239047855139,0.0010699493577703834,-0.00215693237259984
0.007792803458869457,0.005956490058451891,-0.00759023055434227,-0.004581778310239315,0.0010420741746202111,-0.0017902181716635823
0.007612016052007675,0.0062245591543614864,-0.00833098404109478,-0.004949885420501232,0.0010304013267159462,-0.0016819846350699663
0.007332412526011467,0.005702555645257235,-0.008153342641890049,-0.004999036435037851,0.0011498047970235348,-0.0015644959639757872
0.007517257705330849,0.00602909829467535,-0.007880620658397675,-0.0051035573706030846,0.0011674786219373345,-0.0015130031388252974
0.008100589737296104,0.006391697097569704,-0.007743640802800655,-0.004971965681761503,0.0011475434293970466,-0.0015746334102004766
0.007647199090570211,0.006209250073879957,-0.008025914430618286,-0.004927660338580608,0.0013027312234044075,-0.001898028771393001
0.00801319070160389,0.006035709287971258,-0.007622279692441225,-0.0055285245180130005,0.0012479221913963556,-0.00191641750279814
0.007898570038378239,0.005868134088814259,-0.008026479743421078,-0.005585887469351292,0.0012489762157201767,-0.0019175625639036298
0.008009194396436214,0.005814703181385994,-0.00837617740035057,-0.006035506259649992,0.0013224758440628648,-0.0018203650834038854
0.007805209141224623,0.0062372419051826,-0.008024411275982857,-0.005728790070861578,0.0013244140427559614,-0.0017734881257638335
0.007737716659903526,0.0059989760629832745,-0.007504695560783148,-0.005775082390755415,0.0012991318944841623,-0.0018853014335036278
0.007764358539134264,0.005594794638454914,-0.007396644912660122,-0.006133297923952341,0.0014563550939783454,-0.002774932188913226
0.008829151280224323,0.005513603799045086,-0.00820617750287056,-0.00620864424854517,0.0014848395949229598,-0.00357625144533813
0.008059343323111534,0.006264128256589174,-0.008009305223822594,-0.006513587199151516,0.0014169617788866162,-0.003778372658416629
0.007612136192619801,0.006138189695775509,-0.00752249825745821,-0.006787480786442757,0.0013650086475536227,-0.003225708147510886
0.008052770048379898,0.006120079196989536,-0.008220977149903774,-0.006099955644458532,0.0013736713444814086,-0.0026474904734641314
0.008769179694354534,0.005900484975427389,-0.008309434168040752,-0.006135579198598862,0.0012905201874673367,-0.002175315050408244
0.007878934033215046,0.005636938847601414,-0.00797346793115139,-0.006187699735164642,0.0012557485606521368,-0.002092767972499132
0.008247637189924717,0.0056336564011871815,-0.007663612253963947,-0.006177480798214674,0.0012842124560847878,-0.0023484749253839254
0.008247637189924717,0.0056336564011871815,-0.007663612253963947,-0.006177480798214674,0.0012842124560847878,-0.0023484749253839254
0.008364323526620865,0.005865403916686773,-0.007687211036682129,-0.006139463745057583,0.0012892832746729255,-0.0031695219222456217
0.0082768015563488,0.006125552114099264,-0.008739342913031578,-0.006266971584409475,0.0012743478873744607,-0.003444457659497857
0.008599984459578991,0.005933030508458614,-0.00763164134696126,-0.0063813356682658195,0.0011542540742084384,-0.0032533484045416117
0.008379935286939144,0.00624413788318634,-0.007846055552363396,-0.006696345750242472,0.0010716309770941734,-0.0030181671027094126
0.008111334405839443,0.006353875156491995,-0.008141827769577503,-0.006433339323848486,0.001040268805809319,-0.0027611814439296722
0.00780454371124506,0.00578569620847702,-0.008003657683730125,-0.006035329774022102,0.0010976465418934822,-0.0029683024622499943
0.008296975865960121,0.005802887957543135,-0.00769598176702857,-0.006646481342613697,0.0013462018687278032,-0.0035468980204313993
0.008306184783577919,0.005648899357765913,-0.00891428254544735,-0.007208460476249456,0.0014037837972864509,-0.003901987336575985
0.008173572830855846,0.00569316279143095,-0.008007939904928207,-0.006988979876041412,0.0015790218021720648,-0.0035067701246589422
0.009020163677632809,0.00538142304867506,-0.007713021710515022,-0.006775588262826204,0.0019589632283896208,-0.003971818834543228
0.008687013760209084,0.006298025604337454,-0.0077020167373120785,-0.007553432136774063,0.001808044733479619,-0.004162305034697056
0.008312658406794071,0.006116517819464207,-0.007663161028176546,-0.007703821174800396,0.0017763745272532105,-0.004036537371575832
0.008264828473329544,0.00593519164249301,-0.007782191503793001,-0.0074419681914150715,0.0016519544878974557,-0.0042123943567276
0.008758041076362133,0.006080613937228918,-0.007733179721981287,-0.006784673780202866,0.0014002686366438866,-0.004130271263420582
0.00853153970092535,0.005941454786807299,-0.008203443139791489,-0.007343702018260956,0.00128025165759027,-0.004244615323841572
0.00832598190754652,0.00627599423751235,-0.008388007991015911,-0.007991896942257881,0.0013001203769817948,-0.004070716444402933
0.00881106499582529,0.0062553538009524345,-0.007972569204866886,-0.008195550180971622,0.0014718568418174982,-0.004057318437844515
0.008538233116269112,0.0060593923553824425,-0.007522223517298698,-0.007228465285152197,0.0014569219201803207,-0.004486792720854282
0.008801472373306751,0.006412020418792963,-0.00771886995062232,-0.007865647785365582,0.0013872754061594605,-0.004524394869804382
0.008596095256507397,0.006649936083704233,-0.007853264920413494,-0.007946047000586987,0.0016509724082425237,-0.004434534348547459
0.00867657270282507,0.0066408622078597546,-0.007667552214115858,-0.00771121121942997,0.001573306741192937,-0.004387348424643278
0.009498984552919865,0.006034074351191521,-0.0074827950447797775,-0.007631000131368637,0.0017721947515383363,-0.004144303500652313
0.008526141755282879,0.0063261170871555805,-0.008239833638072014,-0.00821048766374588,0.0017318633617833257,-0.003963395953178406
0.00884744431823492,0.006368211470544338,-0.008312543854117393,-0.008540618233382702,0.0016054360894486308,-0.0047269356437027454
0.008824320510029793,0.0060484809800982475,-0.007761982269585133,-0.008184312842786312,0.0015774997882544994,-0.0050721727311611176
0.008824320510029793,0.0060484809800982475,-0.007761982269585133,-0.008184312842786312,0.0015774997882544994,-0.0050721727311611176
0.008448380045592785,0.006305206101387739,-0.007611424662172794,-0.007685154210776091,0.0014900665264576674,-0.004932418931275606
0.009619747288525105,0.00601181061938405,-0.007749742362648249,-0.008253931067883968,0.0014786581741645932,-0.0051024253480136395
0.009069944731891155,0.005886550061404705,-0.007821562699973583,-0.0089502464979887,0.0015417333925142884,-0.004578077234327793
0.008891508914530277,0.0062447814270854,-0.00751212565228343,-0.008902035653591156,0.0017322063213214278,-0.0045258342288434505
0.009019739925861359,0.006350338459014893,-0.008258167654275894,-0.00922360084950924,0.0019374386174604297,-0.005353198386728764
0.009092424996197224,0.006027014926075935,-0.008352245204150677,-0.008743326179683208,0.001797560602426529,-0.005579438526183367
0.009301804006099701,0.007024252321571112,-0.007767616305500269,-0.009613112546503544,0.0016809519147500396,-0.005724000278860331
0.009387991391122341,0.006444111932069063,-0.007723541464656591,-0.00929983053356409,0.001723418477922678,-0.005532951559871435
0.009128901176154613,0.006513579282909632,-0.007864083163440228,-0.008902546018362045,0.001616613706573844,-0.005479984916746616
0.009112083353102207,0.006286205258220434,-0.007513114716857672,-0.008502128534018993,0.0016977229388430715,-0.005355925299227238
0.009360694326460361,0.0060049425810575485,-0.0076580108143389225,-0.008871720172464848,0.0016656845109537244,-0.0051331063732504845
0.00895217526704073,0.006220216862857342,-0.007938208989799023,-0.008508906699717045,0.0015622172504663467,-0.005520911421626806
0.009348702616989613,0.0064898887649178505,-0.008159644901752472,-0.00843917578458786,0.001661431510001421,-0.005531441420316696
0.009355828166007996,0.006368231028318405,-0.0077960598282516,-0.008992304094135761,0.0015718681970611215,-0.00551213975995779
0.00979671161621809,0.00610803859308362,-0.007733997888863087,-0.009270836599171162,0.0018285793485119939,-0.005086021963506937
0.00905564147979021,0.005659846588969231,-0.00825558416545391,-0.008817874826490879,0.0019117611227557063,-0.005590112879872322
0.009695639833807945,0.0057246084325015545,-0.007910637184977531,-0.008985468186438084,0.0019238564418628812,-0.005521016661077738
0.009679554961621761,0.006181451492011547,-0.007423861417919397,-0.009479982778429985,0.0018353357445448637,-0.005947965197265148
0.009027931839227676,0.006460641510784626,-0.007878528907895088,-0.00922439619898796,0.0018775141797959805,-0.0061379075050354
0.01010542456060648,0.005925779230892658,-0.008469099178910255,-0.009351433254778385,0.0017722907941788435,-0.006016372237354517
0.00982612743973732,0.0060022203251719475,-0.007855236530303955,-0.00961080752313137,0.0019097808981314301,-0.006234372034668922
0.009109573438763618,0.006083931773900986,-0.007644993253052235,-0.009607337415218353,0.0018000965937972069,-0.006182385142892599
0.009512089192867279,0.006560092326253653,-0.0078520392999053,-0.010487537831068039,0.002000326756387949,-0.006464794278144836
0.009620620869100094,0.0067499238066375256,-0.008240265771746635,-0.011104164645075798,0.0018677149200811982,-0.006222711410373449
0.009606813080608845,0.006448881234973669,-0.007884322665631771,-0.010258825495839119,0.002005404094234109,-0.0061271945014595985
0.009440944530069828,0.0061210524290800095,-0.00765689741820097,-0.009942698292434216,0.0018215816235169768,-0.00611683027818799
0.00963410921394825,0.0063993739895522594,-0.007871079258620739,-0.010349061340093613,0.0017030962044373155,-0.006499656476080418
0.009374703280627728,0.00702654430642724,-0.007695461623370647,-0.0095419492572546,0.0016168076545000076,-0.0067450846545398235
0.009374703280627728,0.00702654430642724,-0.007695461623370647,-0.0095419492572546,0.0016168076545000076,-0.0067450846545398235
0.009772490710020065,0.006839953362941742,-0.007845444604754448,-0.009692943654954433,0.001621129224076867,-0.006469391286373138
0.009967584162950516,0.006249145604670048,-0.00748941907659173,-0.010398170910775661,0.001737878774292767,-0.006533810868859291
0.009850836358964443,0.006912297569215298,-0.007687638513743877,-0.010550746694207191,0.0020950797479599714,-0.006817084737122059
0.009889796376228333,0.0070158676244318485,-0.00732807582244277,-0.010556084103882313,0.0018465822795405984,-0.006485989782959223
0.010278254747390747,0.006464376114308834,-0.00819520466029644,-0.010070271790027618,0.0018505951156839728,-0.006260972004383802
0.009605750441551208,0.006440091412514448,-0.008565437979996204,-0.010745935142040253,0.0018092532409355044,-0.006743280217051506
0.010175796225667,0.006647794507443905,-0.008027128875255585,-0.010496030561625957,0.0017843921668827534,-0.006747089792042971
0.00995316170156002,0.007461941335350275,-0.00763011584058404,-0.00991071481257677,0.0017350350972265005,-0.007258127443492413
0.009889123030006886,0.00712957140058279,-0.007652883417904377,-0.010348180308938026,0.001864885212853551,-0.0067824749276041985
0.01001279428601265,0.006364930886775255,-0.008713364601135254,-0.009921899065375328,0.0019215177744626999,-0.006766641978174448
0.008916175924241543,0.00621757423505187,-0.008638683706521988,-0.010379386134445667,0.0021730640437453985,-0.006724604405462742
0.010355418547987938,0.006563081406056881,-0.007951267994940281,-0.011374150402843952,0.002311303745955229,-0.006926294416189194
0.011025548912584782,0.007365888450294733,-0.008295077830553055,-0.01099149789661169,0.0022623019758611917,-0.006863589398562908
0.009943482466042042,0.0066483900882303715,-0.00819656066596508,-0.010710370726883411,0.0022937050089240074,-0.006649307906627655
0.00993294082581997,0.006448224186897278,-0.008032174780964851,-0.010598305612802505,0.0020948515739291906,-0.007032392080873251
0.01026539783924818,0.00669648265466094,-0.008227938786149025,-0.010585671290755272,0.002079530619084835,-0.007304253987967968
0.010288172401487827,0.006888645701110363,-0.008213803172111511,-0.01103127095848322,0.002029045717790723,-0.007405797019600868
0.009996911510825157,0.006543667521327734,-0.008350227028131485,-0.01036809477955103,0.0020427131094038486,-0.007331572938710451
0.009660691022872925,0.0064795310609042645,-0.007887212559580803,-0.010001937858760357,0.0021549209486693144,-0.007494081277400255
0.010163451544940472,0.006596289109438658,-0.008838365785777569,-0.010541367344558239,0.00209666695445776,-0.007472003810107708
0.010198631323873997,0.007307553198188543,-0.008068305440247059,-0.010428710840642452,0.0021749523002654314,-0.007497546728700399
0.01008591242134571,0.00710131274536252,-0.007881596684455872,-0.010794691741466522,0.002202420262619853,-0.007521520834416151
0.009617999196052551,0.006584288086742163,-0.00784851610660553,-0.010899252258241177,0.0024248487316071987,-0.007487007882446051
0.01049383357167244,0.006349514238536358,-0.008481806144118309,-0.010539216920733452,0.0024559274315834045,-0.007937749847769737
0.010201286524534225,0.0065729087218642235,-0.008636067621409893,-0.011591722257435322,0.002368397079408169,-0.007842973805963993
0.009391549043357372,0.007280048914253712,-0.007936951704323292,-0.011424914002418518,0.002449339022859931,-0.0076900990679860115
0.010435479693114758,0.007561734411865473,-0.007760471664369106,-0.011499921791255474,0.002592306351289153,-0.008085379377007484
0.010435479693114758,0.007561734411865473,-0.007760471664369106,-0.011499921791255474,0.002592306351289153,-0.008085379377007484
0.009976706467568874,0.007049578242003918,-0.008559118025004864,-0.011470223776996136,0.002457431750372052,-0.00810592994093895
0.009425145573914051,0.006553153973072767,-0.008371888659894466,-0.01145419292151928,0.0021723611280322075,-0.008105181157588959
0.009961703792214394,0.006935782730579376,-0.00843177828937769,-0.01119749154895544,0.002068867441266775,-0.007789558731019497
0.009135029278695583,0.0068612778559327126,-0.008022496476769447,-0.011299317702651024,0.002090015448629856,-0.008684378117322922
0.009990189224481583,0.006906385067850351,-0.007831046357750893,-0.012091699987649918,0.0025400365702807903,-0.009345928207039833
0.010312067344784737,0.007347046863287687,-0.007492892909795046,-0.011823026463389397,0.002635373966768384,-0.00881773978471756
0.00960339605808258,0.0070837573148310184,-0.008153176866471767,-0.011982048861682415,0.0024590350221842527,-0.008578750304877758
0.010069751180708408,0.0066313729621469975,-0.008638273924589157,-0.0120736388489604,0.002342084888368845,-0.008227012120187283
0.009916848503053188,0.006766113452613354,-0.008113758638501167,-0.012044660747051239,0.0021967103239148855,-0.0082701425999403
0.009797973558306694,0.006825416814535856,-0.008398502133786678,-0.012210110202431679,0.0022918153554201126,-0.008718747645616531
0.010221322998404503,0.0071860081516206264,-0.008447926491498947,-0.01166911143809557,0.002367354929447174,-0.008537080138921738
0.010209418833255768,0.006988503038883209,-0.008378252387046814,-0.012133423238992691,0.002277940511703491,-0.007960292510688305
0.00973507110029459,0.0069768428802490234,-0.007730122655630112,-0.01219912339001894,0.002450785133987665,-0.00813970621675253
0.010054619051516056,0.007218432147055864,-0.0082479827105999,-0.012733005918562412,0.002474032575264573,-0.00869764108210802
0.00999921839684248,0.0075731175020337105,-0.008281443268060684,-0.012887142598628998,0.002427541185170412,-0.008920145221054554
0.010489572770893574,0.00839211419224739,-0.00833065900951624,-0.012980179861187935,0.0025034123100340366,-0.008728398941457272
0.010063876397907734,0.006890295539051294,-0.008443989790976048,-0.013246076181530952,0.002595028607174754,-0.00900361780077219
0.009826469235122204,0.006426482927054167,-0.008451593108475208,-0.01265525072813034,0.002436043694615364,-0.009163794107735157
0.009950753301382065,0.008113063871860504,-0.008136444725096226,-0.01269004587084055,0.0022860667668282986,-0.009400613605976105
0.010751173831522465,0.007869420573115349,-0.008004327304661274,-0.012998862192034721,0.0021684428211301565,-0.009244025684893131
0.010201221331954002,0.0075912452302873135,-0.008411354385316372,-0.01350544672459364,0.002197492169216275,-0.009455714374780655
0.010619321838021278,0.00686282105743885,-0.008891713805496693,-0.013734834268689156,0.0023950997274369,-0.00901346281170845
0.011076278053224087,0.007291736546903849,-0.008491291664540768,-0.014545737765729427,0.0023455568589270115,-0.009409365244209766
0.010235059075057507,0.008062184788286686,-0.008551844395697117,-0.014393414370715618,0.0024916885886341333,-0.009273815900087357
0.010523268952965736,0.007042187266051769,-0.008263197727501392,-0.014702721498906612,0.002408290049061179,-0.009730549529194832
0.01064307987689972,0.006678175181150436,-0.007903309538960457,-0.014489206485450268,0.0025224231649190187,-0.009570281952619553
0.010162685066461563,0.007118528243154287,-0.006949273869395256,-0.014673955738544464,0.0026302237529307604,-0.009286979213356972
0.01093971636146307,0.007723929360508919,-0.006856549996882677,-0.014188697561621666,0.0023913709446787834,-0.008875253610312939
0.010536018759012222,0.0073120431043207645,-0.007984409108757973,-0.014807092025876045,0.002322322456166148,-0.009537054225802422
0.010841776616871357,0.007359930779784918,-0.006836272776126862,-0.015547235496342182,0.0023390394635498524,-0.009360111318528652
0.010841776616871357,0.007359930779784918,-0.006836272776126862,-0.015547235496342182,0.0023390394635498524,-0.009360111318528652
0.010850601829588413,0.007461985107511282,-0.0073352837935090065,-0.014892326667904854,0.00288941478356719,-0.009188290685415268
0.010899362154304981,0.007481244392693043,-0.007836682721972466,-0.01486118696630001,0.002967636100947857,-0.009481079876422882
0.010940436273813248,0.007003589533269405,-0.0070948912762105465,-0.014432184398174286,0.0028129322454333305,-0.00959065556526184
0.0109092453494668,0.007294524926692247,-0.006677223369479179,-0.014824841171503067,0.0026284281630069017,-0.009597506374120712
0.012521356344223022,0.007762248627841473,-0.006736081559211016,-0.014483751729130745,0.0027264533564448357,-0.009455486200749874
0.012745560146868229,0.007585133425891399,-0.007081861607730389,-0.014844425953924656,0.0029024460818618536,-0.00908662285655737
0.012671321630477905,0.007373965810984373,-0.00693495711311698,-0.014595516957342625,0.0025870823301374912,-0.009363684803247452
0.012704426422715187,0.007606797385960817,-0.006758228410035372,-0.015162650495767593,0.002448213752359152,-0.009865090250968933
0.012458905577659607,0.00818360224366188,-0.007324604317545891,-0.014968945644795895,0.0021647410467267036,-0.009644454345107079
0.012855484150350094,0.007740315981209278,-0.007879574783146381,-0.015297951176762581,0.002191880252212286,-0.009790449403226376
0.012176095508038998,0.008061600849032402,-0.007879800163209438,-0.015220592729747295,0.0024514012038707733,-0.010436289012432098
0.012666511349380016,0.007825053296983242,-0.007020329125225544,-0.015061324462294579,0.0027783315163105726,-0.010060261003673077
0.01275346614420414,0.007826345041394234,-0.006442591082304716,-0.015248841606080532,0.0028442416805773973,-0.009696081280708313
0.012985446490347385,0.007426855619996786,-0.006524933036416769,-0.015604393556714058,0.002970180008560419,-0.010051083751022816
0.012661289423704147,0.007367576472461224,-0.007145513314753771,-0.015726152807474136,0.0027054143138229847,-0.009615646675229073
0.012514904141426086,0.007606521714478731,-0.007259490434080362,-0.01575477048754692,0.0028905963990837336,-0.010329249314963818
0.01281251572072506,0.007783924229443073,-0.007222979795187712,-0.016166483983397484,0.0031794693786650896,-0.010139171034097672
0.012565093114972115,0.007529040332883596,-0.007311717141419649,-0.015946857631206512,0.0033614211715757847,-0.009064598008990288
0.013194352388381958,0.008272286504507065,-0.00715682515874505,-0.016380678862333298,0.0034965937957167625,-0.008734779432415962
0.012759759090840816,0.008455093950033188,-0.006854822859168053,-0.01584789715707302,0.0035305593628436327,-0.009390981867909431
0.01283836830407381,0.007837732322514057,-0.007257305551320314,-0.016085166484117508,0.0032975429203361273,-0.009147620759904385
0.012669853866100311,0.007596619427204132,-0.007642257492989302,-0.01618603989481926,0.002837890526279807,-0.009373011998832226
0.012669853866100311,0.007596619427204132,-0.007642257492989302,-0.01618603989481926,0.002837890526279807,-0.009373011998832226
0.013013330288231373,0.008162193931639194,-0.007870564237236977,-0.01686939038336277,0.0025955727323889732,-0.009840002283453941
0.012946405448019505,0.008083483204245567,-0.007269097957760096,-0.016790753230452538,0.0024168984964489937,-0.009887387976050377
0.012897067703306675,0.007482548709958792,-0.007081105373799801,-0.01717148721218109,0.0024882510770112276,-0.010209803469479084
0.012732838280498981,0.008252648636698723,-0.008538796566426754,-0.01707278937101364,0.002756684785708785,-0.010323715396225452
0.012902026064693928,0.00840093195438385,-0.007070099003612995,-0.016992531716823578,0.0025965033564716578,-0.009703200310468674
0.012519113719463348,0.007187551818788052,-0.007301063742488623,-0.017041591927409172,0.0026180590502917767,-0.009513008408248425
0.012824490666389465,0.008110960014164448,-0.007830399088561535,-0.016641048714518547,0.0028309421613812447,-0.009338383562862873
0.012584072537720203,0.008081892505288124,-0.0077426740899682045,-0.017038550227880478,0.003199812490493059,-0.009813769720494747
0.0130045460537076,0.007855677045881748,-0.006851181387901306,-0.016912609338760376,0.0030342969112098217,-0.010585634969174862
0.012963959947228432,0.007597603369504213,-0.006835105828940868,-0.017255717888474464,0.0032670488581061363,-0.010528061538934708
0.012864307500422001,0.00779921468347311,-0.0072473157197237015,-0.017115071415901184,0.0031407002825289965,-0.010038389824330807
0.013204840011894703,0.007949097082018852,-0.00761140463873744,-0.017150551080703735,0.0028771688230335712,-0.009914490394294262
0.013147269375622272,0.007997469045221806,-0.007186288945376873,-0.01781443879008293,0.002960952464491129,-0.01022915355861187
0.013359934091567993,0.007743086665868759,-0.006935258395969868,-0.017590565606951714,0.0030032338108867407,-0.010240140371024609
0.012629673816263676,0.00827765092253685,-0.006768846418708563,-0.018071211874485016,0.002720219548791647,-0.01045047864317894
0.012150910682976246,0.008049407973885536,-0.007892751134932041,-0.0182283166795969,0.0027001111302524805,-0.010241805575788021
0.01283664908260107,0.007879698649048805,-0.007713139522820711,-0.018143339082598686,0.00272548315115273,-0.01073499210178852
0.013539640232920647,0.0077012209221720695,-0.007197576109319925,-0.018031757324934006,0.0027972471434623003,-0.010682820342481136
0.013112294487655163,0.008104965090751648,-0.007057263050228357,-0.01801903173327446,0.002739150309935212,-0.010287754237651825
0.013316374272108078,0.008206787519156933,-0.007517520803958178,-0.017970914021134377,0.0025758431293070316,-0.0105129424482584
0.01295425370335579,0.007850869558751583,-0.007338002789765596,-0.0182727612555027,0.0024762596003711224,-0.01012879516929388
0.013243427500128746,0.007675470784306526,-0.007264100480824709,-0.018489720299839973,0.0023607509210705757,-0.009902463294565678
0.013321103528141975,0.008137935772538185,-0.007054812740534544,-0.01870686188340187,0.002521515591070056,-0.011232271790504456
0.013321103528141975,0.008137935772538185,-0.007054812740534544,-0.01870686188340187,0.002521515591070056,-0.011232271790504456
0.0132671557366848,0.007870836183428764,-0.0077471355907619,-0.01865294948220253,0.002613746328279376,-0.010538242757320404
0.013847654685378075,0.007426058873534203,-0.007482151500880718,-0.018480833619832993,0.002656275639310479,-0.009830414317548275
0.01341426931321621,0.007562841288745403,-0.0068334536626935005,-0.018642785027623177,0.0029449977446347475,-0.010508584789931774
0.012528753839433193,0.00808677077293396,-0.007427610922604799,-0.0188765712082386,0.0027526775375008583,-0.010554201900959015
0.013311941176652908,0.00806653406471014,-0.007906490005552769,-0.0198080874979496,0.0027534188702702522,-0.010775664821267128
0.01321862917393446,0.007782218512147665,-0.0076284692622721195,-0.019672103226184845,0.003214564174413681,-0.0108163608238101
0.013497786596417427,0.00819385051727295,-0.006845605093985796,-0.018886089324951172,0.0035168807953596115,-0.010373781435191631
0.013486874289810658,0.007934642024338245,-0.007390120066702366,-0.01926439069211483,0.0034942214842885733,-0.010344416834414005
0.013125498779118061,0.007447858806699514,-0.0073251971043646336,-0.019425196573138237,0.003026107791811228,-0.010372853837907314
0.012918886728584766,0.007556329481303692,-0.007560378406196833,-0.01981016993522644,0.0027832353953272104,-0.010715777054429054
0.013310221955180168,0.008226637728512287,-0.007518790662288666,-0.02036888524889946,0.002711731009185314,-0.0104824248701334
0.013587740249931812,0.008279313333332539,-0.0075325435027480125,-0.019624872133135796,0.003034084802493453,-0.010698948986828327
0.013512243516743183,0.007834945805370808,-0.0072111207991838455,-0.019063012674450874,0.003477510530501604,-0.010920275934040546
0.01425204612314701,0.007902114652097225,-0.006779438350349665,-0.0188146885484457,0.003532583126798272,-0.01101669017225504
0.013314705342054367,0.008001262322068214,-0.0068290140479803085,-0.018976788967847824,0.003498953767120838,-0.01114205364137888
0.013734478503465652,0.007723654620349407,-0.007347974926233292,-0.01889987289905548,0.0032928958535194397,-0.01120045967400074
0.013361459597945213,0.007513337768614292,-0.007874331437051296,-0.019631462171673775,0.0034053348936140537,-0.0107274129986763
0.014307009987533092,0.008425774984061718,-0.007357047405093908,-0.02024427242577076,0.0035961135290563107,-0.010849518701434135
0.013497603125870228,0.008445704355835915,-0.007132552098482847,-0.019462553784251213,0.0033070126082748175,-0.011533963494002819
0.01384084764868021,0.0077834418043494225,-0.007471287623047829,-0.01946433074772358,0.002954930067062378,-0.011549348011612892
0.01352920662611723,0.00775426859036088,-0.007100735791027546,-0.020102357491850853,0.002936946926638484,-0.011357282288372517
0.013841682113707066,0.008595422841608524,-0.006706887390464544,-0.02021241933107376,0.003128597978502512,-0.011346652172505856
0.013841682113707066,0.008595422841608524,-0.006706887390464544,-0.02021241933107376,0.003128597978502512,-0.011346652172505856
0.013920330442488194,0.007877865806221962,-0.008233246393501759,-0.01955900341272354,0.003329635364934802,-0.011486964300274849
0.013920330442488194,0.007877865806221962,-0.008233246393501759,-0.01955900341272354,0.003329635364934802,-0.011486964300274849
0.013726565055549145,0.008237951435148716,-0.007689471356570721,-0.018708720803260803,0.0033258902840316296,-0.011271842755377293
0.014084112830460072,0.008365468122065067,-0.0072549148462712765,-0.01902172528207302,0.0032778934109956026,-0.01138847041875124
0.013860905542969704,0.008134535513818264,-0.007335771340876818,-0.01979825273156166,0.0032178505789488554,-0.011587784625589848
0.014095676131546497,0.00831813644617796,-0.007228042930364609,-0.019937949255108833,0.0034701284021139145,-0.011736464686691761
0.013961540535092354,0.008328871801495552,-0.00724944518879056,-0.02057001367211342,0.003796716220676899,-0.01165667362511158
0.014419324696063995,0.007991974242031574,-0.007479110732674599,-0.02083028107881546,0.0034927104134112597,-0.012128591537475586
0.0145647581666708,0.008763531222939491,-0.008193105459213257,-0.02088025026023388,0.0035457422491163015,-0.012400208972394466
0.01440903265029192,0.008151894435286522,-0.007703977636992931,-0.020768454298377037,0.0037870327942073345,-0.012402823194861412
0.014362450689077377,0.007939445786178112,-0.006947874557226896,-0.020913846790790558,0.0034294617362320423,-0.011851941235363483
0.014672442339360714,0.008090163581073284,-0.006567813456058502,-0.021112818270921707,0.003533164504915476,-0.011831847950816154
0.014553220011293888,0.008807194419205189,-0.006991488393396139,-0.02132689580321312,0.0036903524305671453,-0.012530175037682056
0.014294678345322609,0.008662617765367031,-0.007461327128112316,-0.021524759009480476,0.003645113902166486,-0.012835382483899593
0.015136693604290485,0.00885031744837761,-0.0073623135685920715,-0.022094782441854477,0.0036835847422480583,-0.013096618466079235
0.014918145723640919,0.008815404027700424,-0.0072007072158157825,-0.022221045568585396,0.003784959902986884,-0.013142730109393597
0.014566367492079735,0.008738229051232338,-0.007264595944434404,-0.02179490029811859,0.003763631684705615,-0.012907512485980988
0.014381920918822289,0.00906741339713335,-0.00722127640619874,-0.021825389936566353,0.003791688708588481,-0.012749086134135723
0.014926244504749775,0.008394804783165455,-0.006936625577509403,-0.022407012060284615,0.0037344906013458967,-0.012702547945082188
0.01491658017039299,0.00861546490341425,-0.0067668999545276165,-0.023541592061519623,0.0038510088343173265,-0.012516163289546967
0.014887802302837372,0.008994260802865028,-0.007546889130026102,-0.024360772222280502,0.0034447757061570883,-0.013082322664558887
0.014561411924660206,0.008451217785477638,-0.008025695569813251,-0.02390114590525627,0.003369114128872752,-0.01296413317322731
0.014959803782403469,0.008880019187927246,-0.00721863005310297,-0.0232352577149868,0.003327228594571352,-0.013047652319073677
0.01498411688953638,0.008689656853675842,-0.006779219955205917,-0.023091958835721016,0.0035361889749765396,-0.013302639126777649
0.015214990824460983,0.008369908668100834,-0.007396308705210686,-0.02303873747587204,0.0037520762998610735,-0.013451686128973961
0.01491810567677021,0.009132551960647106,-0.007844164967536926,-0.023512687534093857,0.004019682761281729,-0.014153232797980309
0.014844129793345928,0.00878527294844389,-0.007308709900826216,-0.02430650219321251,0.0040079038590192795,-0.013872827403247356
0.015949690714478493,0.00869359727948904,-0.00705786282196641,-0.023760395124554634,0.003907917533069849,-0.013551910407841206
0.015965329483151436,0.009091305546462536,-0.007783201523125172,-0.02407996542751789,0.0038603320717811584,-0.013615936040878296
0.01530845183879137,0.009345156140625477,-0.0077296472154557705,-0.024970300495624542,0.003993675112724304,-0.014114122837781906
0.01530845183879137,0.009345156140625477,-0.0077296472154557705,-0.024970300495624542,0.003993675112724304,-0.014114122837781906
0.01566467620432377,0.009143535047769547,-0.0071985539980232716,-0.024926524609327316,0.004076738841831684,-0.014052688144147396
0.015721771866083145,0.008747739717364311,-0.007054092828184366,-0.0240011103451252,0.004057842772454023,-0.014271479099988937
0.015906088054180145,0.008853841572999954,-0.008119400590658188,-0.022919882088899612,0.003964300267398357,-0.014288080856204033
0.015692181885242462,0.008592371828854084,-0.008156034164130688,-0.02348690666258335,0.003852373920381069,-0.014007532969117165
0.015654662624001503,0.009150221012532711,-0.007700158283114433,-0.02425617352128029,0.0038186528254300356,-0.01411441806703806
0.01555084902793169,0.008930410258471966,-0.007137088570743799,-0.02417502924799919,0.004220228176563978,-0.01397248450666666
0.016254831105470657,0.008827443234622478,-0.008021817542612553,-0.024252967908978462,0.0036965510807931423,-0.013901352882385254
0.016639847308397293,0.009261957369744778,-0.007935663685202599,-0.024479851126670837,0.0035560696851462126,-0.01407476793974638
0.016737807542085648,0.00925559550523758,-0.0077238790690898895,-0.024500738829374313,0.004044441506266594,-0.01450258120894432
0.016592252999544144,0.008731015026569366,-0.008170715533196926,-0.02493423968553543,0.0042716702446341515,-0.014759460464119911
0.016541924327611923,0.009763607755303383,-0.007474228739738464,-0.025320464745163918,0.004054796416312456,-0.015345596708357334
0.016190893948078156,0.009608699940145016,-0.006793385837227106,-0.02514469064772129,0.0038313770201057196,-0.015030388720333576
0.01578848995268345,0.00930807925760746,-0.006711458321660757,-0.02594395913183689,0.003716622944921255,-0.014156105928122997
0.016986379399895668,0.00878372136503458,-0.00762894144281745,-0.02607746236026287,0.00412211287766695,-0.015071951784193516
0.016716348007321358,0.009718572720885277,-0.00819192174822092,-0.026233980432152748,0.004119054414331913,-0.01574116013944149
0.01692364737391472,0.008581169880926609,-0.007274310104548931,-0.02614343911409378,0.004332148935645819,-0.015288899652659893
0.017017588019371033,0.008732468821108341,-0.007190031465142965,-0.025688262656331062,0.004464262630790472,-0.015112331137061119
0.01664149947464466,0.009371338412165642,-0.007771385833621025,-0.024767370894551277,0.0040890853852033615,-0.014907428994774818
0.017262892797589302,0.0091954804956913,-0.006935694254934788,-0.025132831186056137,0.004064798820763826,-0.015030285343527794
0.016894031316041946,0.008867851458489895,-0.0069742752239108086,-0.02546476572751999,0.004151820205152035,-0.015048092231154442
0.017921747639775276,0.010147016495466232,-0.007182061206549406,-0.02568272314965725,0.004056014586240053,-0.014960180036723614
0.017671460285782814,0.009120636619627476,-0.00702594593167305,-0.026365114375948906,0.004251173697412014,-0.015272298827767372
0.017259685322642326,0.009101376868784428,-0.007133152335882187,-0.02614903636276722,0.004009526688605547,-0.015326261520385742
0.018055586144328117,0.009114631451666355,-0.006818253081291914,-0.025917747989296913,0.0039743464440107346,-0.015395320020616055
0.017353473231196404,0.009315304458141327,-0.006941173225641251,-0.0258218701928854,0.004065253771841526,-0.015282506123185158
0.017353473231196404,0.009315304458141327,-0.006941173225641251,-0.0258218701928854,0.004065253771841526,-0.015282506123185158
0.017457975074648857,0.010063737630844116,-0.0075704981572926044,-0.02615753747522831,0.004510669503360987,-0.015507137402892113
0.017875196412205696,0.00866859219968319,-0.007862025871872902,-0.02616213820874691,0.004668220411986113,-0.01532681193202734
0.017373910173773766,0.00933472253382206,-0.006984696723520756,-0.02584957890212536,0.00457334890961647,-0.015556843020021915
0.01823175698518753,0.00929000973701477,-0.006605090573430061,-0.02636820264160633,0.003924638964235783,-0.015696905553340912
0.01800464279949665,0.009728986769914627,-0.007303954567760229,-0.026331396773457527,0.003721817396581173,-0.015478774905204773
0.018093964084982872,0.009770920500159264,-0.006780196912586689,-0.026513366028666496,0.004193414933979511,-0.01527065597474575
0.01794806681573391,0.009480740875005722,-0.0067020198330283165,-0.026233309879899025,0.0041860006749629974,-0.015346529893577099
0.018333401530981064,0.009998847730457783,-0.007209308445453644,-0.02655172534286976,0.004438932053744793,-0.015853866934776306
0.01836373470723629,0.009529894217848778,-0.007591916248202324,-0.026859907433390617,0.004561690613627434,-0.015627507120370865
0.018224595114588737,0.009440772235393524,-0.007360296789556742,-0.026565875858068466,0.004498115740716457,-0.015575877390801907
0.01858007162809372,0.00996766984462738,-0.0061960965394973755,-0.026839520782232285,0.00432790769264102,-0.015541593544185162
0.01839069277048111,0.009232457727193832,-0.006405843421816826,-0.026906339451670647,0.004466666374355555,-0.01554052159190178
0.016895558685064316,0.009667377918958664,-0.00709961773827672,-0.027321649715304375,0.004718099255114794,-0.01595921628177166
0.019388021901249886,0.011332817375659943,-0.007629843428730965,-0.027425775304436684,0.004742260091006756,-0.016070155426859856
0.019433030858635902,0.011232119053602219,-0.006704399362206459,-0.026979446411132812,0.004911019001156092,-0.01592869497835636
0.01868869550526142,0.011202545836567879,-0.006794713903218508,-0.027247102931141853,0.005132946185767651,-0.015772433951497078
0.019337603822350502,0.010786160826683044,-0.006995064206421375,-0.02792299911379814,0.004824744071811438,-0.01608683168888092
0.019434738904237747,0.010124189779162407,-0.007517936173826456,-0.02848072722554207,0.004667981062084436,-0.016186684370040894
0.019283944740891457,0.01065480150282383,-0.007429271470755339,-0.0283985398709774,0.004258768167346716,-0.01631246879696846
0.019489837810397148,0.01052998099476099,-0.0075264242477715015,-0.027258777990937233,0.004713740199804306,-0.016123611479997635
0.019395440816879272,0.01023233961313963,-0.006716253235936165,-0.027155965566635132,0.0048678782768547535,-0.016254201531410217
0.0192143265157938,0.010957512073218822,-0.0070905545726418495,-0.028211086988449097,0.004593495279550552,-0.016233040019869804
0.01984146237373352,0.01047736220061779,-0.006467066239565611,-0.028334731236100197,0.004498204216361046,-0.01620439440011978
0.01995617337524891,0.010824335739016533,-0.0062287431210279465,-0.028369639068841934,0.004545793868601322,-0.01649276167154312
0.019730646163225174,0.010938083752989769,-0.006064809858798981,-0.02945290505886078,0.004242687951773405,-0.01645355112850666
0.019842227920889854,0.010626008734107018,-0.006676004733890295,-0.03006737492978573,0.004278881940990686,-0.016727996990084648
0.019873151555657387,0.011167218908667564,-0.006814220920205116,-0.02909937873482704,0.004321933723986149,-0.016592200845479965
0.019893648102879524,0.01104126125574112,-0.006208532955497503,-0.027889305725693703,0.004545712843537331,-0.016662897542119026
0.01967768929898739,0.010628935880959034,-0.005856702104210854,-0.028517430648207664,0.004791806451976299,-0.01666368916630745
0.01967768929898739,0.010628935880959034,-0.005856702104210854,-0.028517430648207664,0.004791806451976299,-0.01666368916630745
0.020031636580824852,0.011030099354684353,-0.006085285916924477,-0.029774751514196396,0.004728282801806927,-0.017156919464468956
0.019642528146505356,0.010339546948671341,-0.007279600016772747,-0.030110038816928864,0.005017387215048075,-0.017633581534028053
0.02009671740233898,0.010867912322282791,-0.006214933004230261,-0.029739493504166603,0.004399105906486511,-0.01694127358496189
0.020204568281769753,0.010751672089099884,-0.006282486487179995,-0.030145008116960526,0.004617382772266865,-0.01730610616505146
0.02050723508000374,0.010626642033457756,-0.0065267146565020084,-0.030457256361842155,0.004895749501883984,-0.016762638464570045
0.02050723508000374,0.010626642033457756,-0.0065267146565020084,-0.030457256361842155,0.004895749501883984,-0.016762638464570045
0.020324114710092545,0.010066204704344273,-0.006688819732517004,-0.030831728130578995,0.004873909056186676,-0.016567673534154892
0.020454680547118187,0.010564783588051796,-0.006918071303516626,-0.031107312068343163,0.004672485403716564,-0.01680944859981537
0.02116592600941658,0.010079387575387955,-0.00674071628600359,-0.031180528923869133,0.004143135156482458,-0.0176417026668787
0.02092886157333851,0.010204277001321316,-0.0076492782682180405,-0.03151661530137062,0.004165067337453365,-0.017965534701943398
0.020582575350999832,0.010543952696025372,-0.006823474075645208,-0.030723536387085915,0.004256319720298052,-0.01741061359643936
0.020720217376947403,0.010327865369617939,-0.006375403609126806,-0.03280483931303024,0.0045277150347828865,-0.01719028130173683
0.021042123436927795,0.010138276033103466,-0.00678244698792696,-0.03188157081604004,0.0050178938545286655,-0.017262499779462814
0.021323326975107193,0.010662524029612541,-0.006916628684848547,-0.030875833705067635,0.005309686996042728,-0.017801159992814064
0.021330256015062332,0.010752425529062748,-0.00734800286591053,-0.030031030997633934,0.004839317407459021,-0.017968855798244476
0.02135322615504265,0.011352995410561562,-0.007326395250856876,-0.03065543808043003,0.004432196728885174,-0.01774400845170021
0.021394141018390656,0.010551787912845612,-0.00651918537914753,-0.03182825818657875,0.005055086221545935,-0.017415115609765053
0.02086050994694233,0.009778335690498352,-0.006380403880029917,-0.03158560022711754,0.005359460599720478,-0.017317181453108788
0.020034726709127426,0.010202381759881973,-0.006868999917060137,-0.0324682854115963,0.005428551230579615,-0.017513351514935493
0.021739594638347626,0.010729660280048847,-0.007260485552251339,-0.0340052954852581,0.005784966982901096,-0.01779240183532238
0.021860066801309586,0.010279799811542034,-0.0069532236084342,-0.03330840542912483,0.005301879718899727,-0.01827944442629814
0.02145898900926113,0.011151915416121483,-0.006535055581480265,-0.03188604488968849,0.005014457739889622,-0.018567774444818497
0.020953631028532982,0.010125244967639446,-0.006575654726475477,-0.03200912848114967,0.004859081003814936,-0.018206804990768433
0.021872306242585182,0.009733113460242748,-0.006630562245845795,-0.03319098800420761,0.00469541922211647,-0.01835893839597702
0.021872306242585182,0.009733113460242748,-0.006630562245845795,-0.03319098800420761,0.00469541922211647,-0.01835893839597702
0.02229567989706993,0.01043128501623869,-0.006850854493677616,-0.03285106644034386,0.0048097530379891396,-0.018610281869769096
0.021390270441770554,0.009805695153772831,-0.006652591284364462,-0.033911217004060745,0.0050012520514428616,-0.018634473904967308
0.021390270441770554,0.009805695153772831,-0.006652591284364462,-0.033911217004060745,0.0050012520514428616,-0.018634473904967308
0.02118024230003357,0.010650965385138988,-0.007137618027627468,-0.03353412076830864,0.005228932946920395,-0.01853116787970066
0.021151721477508545,0.00981999933719635,-0.0065994965843856335,-0.03315034136176109,0.0044374363496899605,-0.018811436370015144
0.021624527871608734,0.01072910986840725,-0.006285206414759159,-0.03268476948142052,0.0046965694054961205,-0.01903214305639267
0.02180885151028633,0.01014259085059166,-0.007170039229094982,-0.03293532133102417,0.005087890662252903,-0.01911805011332035
0.021773090586066246,0.010219777934253216,-0.007486524060368538,-0.03363000601530075,0.0054305121302604675,-0.018973112106323242
0.021980807185173035,0.010274030268192291,-0.006773983594030142,-0.033552732318639755,0.005264297593384981,-0.01909765601158142
0.021702714264392853,0.01000511646270752,-0.006482724100351334,-0.032935336232185364,0.004871136974543333,-0.019032945856451988
0.021814676001667976,0.010343221016228199,-0.006594421807676554,-0.032609857618808746,0.004787656478583813,-0.019196772947907448
0.022096233442425728,0.010908538475632668,-0.006977100390940905,-0.03295258805155754,0.004706312902271748,-0.019428696483373642
0.021957483142614365,0.010049330070614815,-0.006288749165832996,-0.03335017338395119,0.004726920276880264,-0.01942174695432186
0.021852534264326096,0.010102570988237858,-0.006178331095725298,-0.033291641622781754,0.005668707191944122,-0.019498378038406372
0.021896662190556526,0.010240493342280388,-0.006847191136330366,-0.03356373310089111,0.0054964893497526646,-0.019291214644908905
0.022507743909955025,0.009971066378057003,-0.007148140575736761,-0.03378313034772873,0.005319040734320879,-0.019307803362607956
0.022184858098626137,0.010864481329917908,-0.00673423707485199,-0.034373607486486435,0.004615320824086666,-0.019651290029287338
0.02186419628560543,0.010806882753968239,-0.006091300863772631,-0.03297571465373039,0.004580743610858917,-0.019451400265097618
0.0217948779463768,0.010893755592405796,-0.006284736096858978,-0.03251110389828682,0.004721141420304775,-0.019656915217638016
0.02229618839919567,0.011650428175926208,-0.006056474521756172,-0.03372213616967201,0.0052894423715770245,-0.020092183724045753
0.02254537120461464,0.010514667257666588,-0.006633674260228872,-0.03410310298204422,0.005103416740894318,-0.019769325852394104
0.022341536357998848,0.010633649304509163,-0.00650219339877367,-0.03410766273736954,0.005306864622980356,-0.019703371450304985
0.022329801693558693,0.011235376819968224,-0.00610286695882678,-0.03426225110888481,0.00528002018108964,-0.01986229233443737
0.022627858445048332,0.010800947435200214,-0.005945584736764431,-0.03485409915447235,0.004722931422293186,-0.019967572763562202
0.023038649931550026,0.010909389704465866,-0.006185202859342098,-0.03436869755387306,0.0045918007381260395,-0.019818810746073723
0.0228683240711689,0.01075470820069313,-0.006370311137288809,-0.03483834117650986,0.005614511668682098,-0.01976308785378933
0.021597983315587044,0.01038995012640953,-0.006201546173542738,-0.03671254217624664,0.0058250827714800835,-0.019983239471912384
0.022799409925937653,0.01150530856102705,-0.006224407348781824,-0.036632198840379715,0.005897152703255415,-0.018969701603055
0.022799409925937653,0.01150530856102705,-0.006224407348781824,-0.036632198840379715,0.005897152703255415,-0.018969701603055
0.022839834913611412,0.010872633196413517,-0.006594684440642595,-0.034271303564310074,0.005215437151491642,-0.02073325775563717
0.023745782673358917,0.010479596443474293,-0.00668712891638279,-0.03467806428670883,0.005168271716684103,-0.021428802981972694
0.023733677342534065,0.01188386045396328,-0.006447900086641312,-0.036067068576812744,0.0055404105223715305,-0.02067612111568451
0.022321583703160286,0.01196012832224369,-0.006080043967813253,-0.037515368312597275,0.005676236469298601,-0.019817324355244637
0.023463787510991096,0.011745966039597988,-0.007068255916237831,-0.03699105978012085,0.005751380696892738,-0.020747650414705276
0.024245869368314743,0.011470195837318897,-0.006872205995023251,-0.035627614706754684,0.005490449257194996,-0.02099553681910038
0.02379857748746872,0.012172004207968712,-0.0060930452309548855,-0.035375773906707764,0.005697928834706545,-0.020692871883511543
0.023325366899371147,0.011314009316265583,-0.006161343771964312,-0.036497969180345535,0.005509266164153814,-0.020965175703167915
0.023627301678061485,0.01169529091566801,-0.0060845352709293365,-0.036940380930900574,0.005629490129649639,-0.021090712398290634
0.024043120443820953,0.011462053284049034,-0.006703158840537071,-0.036815401166677475,0.005338933784514666,-0.02170383371412754
0.02378205582499504,0.011303058825433254,-0.006951673422008753,-0.036717239767313004,0.005325749982148409,-0.021604906767606735
0.024150248616933823,0.012282827869057655,-0.00630670553073287,-0.03821804001927376,0.005241515580564737,-0.02108309604227543
0.023388555273413658,0.011739817447960377,-0.0058879791758954525,-0.03696737065911293,0.005457999650388956,-0.020679041743278503
0.023362886160612106,0.012243658304214478,-0.006194626912474632,-0.03664682060480118,0.005505405366420746,-0.020975599065423012
0.023685064166784286,0.012263766489923,-0.007277294993400574,-0.03722803294658661,0.005461265332996845,-0.02161819115281105
0.024135269224643707,0.01177945826202631,-0.007069596089422703,-0.03894863277673721,0.005733921192586422,-0.0225124079734087
0.023966506123542786,0.01192679163068533,-0.006243823561817408,-0.03816172108054161,0.005527295637875795,-0.022176748141646385
0.023967638611793518,0.011879603378474712,-0.0063097476959228516,-0.03787783533334732,0.005336270667612553,-0.021871576085686684
0.024136370047926903,0.011996498331427574,-0.006675884127616882,-0.0383603535592556,0.005277270916849375,-0.021788623183965683
0.02389165200293064,0.011745492927730083,-0.006646241061389446,-0.039634428918361664,0.005621776916086674,-0.0216523390263319
0.023738333955407143,0.012364380061626434,-0.006350767333060503,-0.0395783856511116,0.005792462732642889,-0.021480513736605644
0.023756060749292374,0.012180455029010773,-0.006552402395755053,-0.03797633573412895,0.005637784954160452,-0.02158048376441002
0.02390591986477375,0.01197848841547966,-0.006867539137601852,-0.03812430053949356,0.00571824936196208,-0.02166798710823059
0.023951908573508263,0.01250099390745163,-0.006671256385743618,-0.038542911410331726,0.006170159671455622,-0.021594427525997162
0.02435946650803089,0.012128674425184727,-0.006643865257501602,-0.03909549117088318,0.005747128278017044,-0.021513022482395172
0.023948967456817627,0.012570671737194061,-0.006469255778938532,-0.04006155952811241,0.005694566294550896,-0.021606849506497383
0.024085858836770058,0.01202721893787384,-0.006617947015911341,-0.03863629698753357,0.005979274865239859,-0.02193620800971985
0.024145836010575294,0.01221667230129242,-0.0062941936776041985,-0.037970464676618576,0.005905090365558863,-0.022179367020726204
0.02452145516872406,0.012446588836610317,-0.006804990116506815,-0.0393613837659359,0.005755942780524492,-0.022045323625206947
0.025044068694114685,0.012129453010857105,-0.006857001688331366,-0.03991449996829033,0.0053224116563797,-0.022180825471878052
0.023221919313073158,0.012954138219356537,-0.006399902515113354,-0.03991950303316116,0.005776244681328535,-0.02203928865492344
0.0247199609875679,0.013080141507089138,-0.006826222408562899,-0.0394183024764061,0.006027554161846638,-0.023225678130984306
0.0247199609875679,0.013080141507089138,-0.006826222408562899,-0.0394183024764061,0.006027554161846638,-0.023225678130984306
0.024475865066051483,0.012512492947280407,-0.00716263335198164,-0.03922329843044281,0.006002744194120169,-0.02190164476633072
0.024555612355470657,0.012546524405479431,-0.006706975866109133,-0.03954629227519035,0.005898923147469759,-0.02143695391714573
0.024705221876502037,0.012132453732192516,-0.006555294152349234,-0.03945036977529526,0.00613476661965251,-0.02220943383872509
0.02533702366054058,0.01171544473618269,-0.007294543087482452,-0.03924114629626274,0.005773115903139114,-0.022347597405314445
0.025137215852737427,0.012517740949988365,-0.007138752844184637,-0.039450354874134064,0.006305800750851631,-0.022463854402303696
0.025093479081988335,0.012184561230242252,-0.006627173162996769,-0.04006972163915634,0.006278386805206537,-0.023119671270251274
0.02450091764330864,0.012827983126044273,-0.006596043705940247,-0.03971666842699051,0.006133516784757376,-0.023096973076462746
0.02522028610110283,0.012440362013876438,-0.006573462393134832,-0.03999321162700653,0.0064949835650622845,-0.023521509021520615
0.024864433333277702,0.012339259497821331,-0.007205587811768055,-0.04003938287496567,0.00670181168243289,-0.023791102692484856
0.02473452500998974,0.012394190765917301,-0.0069875046610832214,-0.04038919135928154,0.006037556100636721,-0.0233607180416584
0.025329209864139557,0.012236170470714569,-0.00667965691536665,-0.040947236120700836,0.0062339394353330135,-0.023166753351688385
0.025391776114702225,0.012525630183517933,-0.0065665533766150475,-0.041154228150844574,0.005861463025212288,-0.023058872669935226
0.025605306029319763,0.01184703316539526,-0.006873826961964369,-0.041610874235630035,0.005970310419797897,-0.023009398952126503
0.025610104203224182,0.012603030540049076,-0.0077885412611067295,-0.04152053967118263,0.0062598190270364285,-0.02313786745071411
0.024975081905722618,0.012664738111197948,-0.006727756932377815,-0.04218475520610809,0.005741554778069258,-0.023245835676789284
0.025174183771014214,0.012645901180803776,-0.006411534734070301,-0.0417761392891407,0.006276795174926519,-0.02311713621020317
0.025290124118328094,0.012943924404680729,-0.007265313062816858,-0.04204295948147774,0.006594481877982616,-0.023751212283968925
0.026054954156279564,0.012650043703615665,-0.008352071046829224,-0.04367586597800255,0.006452872417867184,-0.024419670924544334
0.026488780975341797,0.012990644201636314,-0.007138160057365894,-0.04199693724513054,0.006435363553464413,-0.024771247059106827
0.026570376008749008,0.012649893760681152,-0.007097977213561535,-0.04058074951171875,0.006406833417713642,-0.02428109012544155
0.025430828332901,0.013102724216878414,-0.006657048594206572,-0.04179387912154198,0.0063348738476634026,-0.023656100034713745
0.025590334087610245,0.012224569916725159,-0.007492748089134693,-0.042626313865184784,0.0064998650923371315,-0.02344544604420662
0.026725435629487038,0.012659268453717232,-0.0072220140136778355,-0.044099874794483185,0.006606720853596926,-0.023468274623155594
0.026519494131207466,0.012502321042120457,-0.006849127355962992,-0.044019896537065506,0.0066218446008861065,-0.02405291236937046
0.025822242721915245,0.01246173307299614,-0.006619553547352552,-0.04150828719139099,0.006269761361181736,-0.023966118693351746
0.026874447241425514,0.013036834076046944,-0.007431051693856716,-0.0424603670835495,0.006233458407223225,-0.024159826338291168
0.02714761719107628,0.012728430330753326,-0.0070059336721897125,-0.04422995075583458,0.006008669268339872,-0.024883553385734558
0.02714761719107628,0.012728430330753326,-0.0070059336721897125,-0.04422995075583458,0.006008669268339872,-0.024883553385734558
0.026135852560400963,0.013810822740197182,-0.007303946651518345,-0.0438024178147316,0.00641341507434845,-0.02391366846859455
0.02614751271903515,0.012999357655644417,-0.007862010970711708,-0.0438198484480381,0.006200950127094984,-0.02337796613574028
0.026171019300818443,0.012640617787837982,-0.00771044148132205,-0.04411600902676582,0.0066398996859788895,-0.023203248158097267
0.027272319421172142,0.012886757031083107,-0.006681069266051054,-0.043695542961359024,0.006764110177755356,-0.023554248735308647
0.0270653385668993,0.013429064303636551,-0.006679356098175049,-0.04316384345293045,0.006852993741631508,-0.024299483746290207
0.02630314975976944,0.012962865643203259,-0.007123395334929228,-0.043533142656087875,0.006781180389225483,-0.024458546191453934
0.027822626754641533,0.013100693002343178,-0.007289593573659658,-0.044297635555267334,0.006278864108026028,-0.024557944387197495
0.027363352477550507,0.012857052497565746,-0.006763044744729996,-0.043495144695043564,0.006173152942210436,-0.024495381861925125
0.027154022827744484,0.0135175921022892,-0.006402110680937767,-0.04339686036109924,0.006854849401861429,-0.02451132796704769
0.026496363803744316,0.013276529498398304,-0.007296623662114143,-0.044979434460401535,0.006487961858510971,-0.02496352605521679
0.027069706469774246,0.013617883436381817,-0.0071779112331569195,-0.04504207521677017,0.0061805034056305885,-0.02483292855322361
0.027518892660737038,0.012968035414814949,-0.006136707030236721,-0.042095743119716644,0.006207122467458248,-0.024769145995378494
0.027133120223879814,0.013473082333803177,-0.00595282344147563,-0.04355258867144585,0.006562915164977312,-0.02523656375706196
0.02703605778515339,0.013131547719240189,-0.005962969269603491,-0.04330240935087204,0.006817201618105173,-0.02509874850511551
0.027402197942137718,0.013717270456254482,-0.006524698343127966,-0.04463955760002136,0.006473819725215435,-0.02471187710762024
0.02759512886404991,0.013278746046125889,-0.006898256950080395,-0.0441657118499279,0.006342602428048849,-0.02484368160367012
0.027611371129751205,0.013282758183777332,-0.006552938837558031,-0.042056452482938766,0.006942623760551214,-0.025256184861063957
0.02767767757177353,0.013212017714977264,-0.005880957935005426,-0.04298197105526924,0.00730822654440999,-0.025009457021951675
0.02741534821689129,0.01307307742536068,-0.00641626538708806,-0.04390173777937889,0.006538326386362314,-0.025036446750164032
0.028053436428308487,0.013465709052979946,-0.0069127995520830154,-0.044168367981910706,0.006041648332029581,-0.02532319910824299
0.029104851186275482,0.013263777829706669,-0.006332275457680225,-0.04415528476238251,0.006361003965139389,-0.025616560131311417
0.02858121320605278,0.01343915332108736,-0.006326459348201752,-0.044222597032785416,0.007142763119190931,-0.025832194834947586
0.027551844716072083,0.013073156587779522,-0.005803405772894621,-0.04495382681488991,0.006975451484322548,-0.025895699858665466
0.02788696251809597,0.013363834470510483,-0.006072206888347864,-0.044844888150691986,0.006127079948782921,-0.02595822699368
0.02891860529780388,0.013059787452220917,-0.006784134544432163,-0.043832533061504364,0.006134362425655127,-0.025537140667438507
0.02838669903576374,0.01367052923887968,-0.006607277784496546,-0.04389543458819389,0.0065685417503118515,-0.02594197541475296
0.029567094519734383,0.013811245560646057,-0.0063584647141397,-0.04467039927840233,0.007423195987939835,-0.027294915169477463
0.029014475643634796,0.013305328786373138,-0.0059478189796209335,-0.04408840462565422,0.006958559155464172,-0.025916023179888725
0.02870323322713375,0.013736258260905743,-0.006549689453095198,-0.04413815215229988,0.006376219447702169,-0.024478133767843246
0.02870323322713375,0.013736258260905743,-0.006549689453095198,-0.04413815215229988,0.006376219447702169,-0.024478133767843246
0.027831172570586205,0.013628647662699223,-0.006402331404387951,-0.04463065415620804,0.006572275888174772,-0.025303080677986145
0.028508678078651428,0.013964198529720306,-0.006511212792247534,-0.04464223235845566,0.006972812116146088,-0.026440134271979332
0.02927248366177082,0.013419660739600658,-0.006149803753942251,-0.044470448046922684,0.00714001664891839,-0.02614099346101284
0.02920151688158512,0.013231740333139896,-0.006570270750671625,-0.04520903527736664,0.007272684946656227,-0.026021800935268402
0.028694666922092438,0.013787955045700073,-0.006961659993976355,-0.04511255770921707,0.007040299940854311,-0.02717508375644684
0.02909780666232109,0.013598097488284111,-0.006639455910772085,-0.04547597095370293,0.007148774340748787,-0.026986481621861458
0.02871539816260338,0.013802500441670418,-0.006224491633474827,-0.046880532056093216,0.006873682141304016,-0.025754956528544426
0.028858652338385582,0.013177665881812572,-0.006498472299426794,-0.04591076076030731,0.0067818788811564445,-0.02546587958931923
0.02881052903831005,0.013882896862924099,-0.006997572258114815,-0.044761404395103455,0.006694632116705179,-0.026218703016638756
0.028578290715813637,0.013149035163223743,-0.0067030293866992,-0.04578769952058792,0.006764191202819347,-0.0269022136926651
0.028726695105433464,0.01403562817722559,-0.006285629700869322,-0.04847348853945732,0.007264656480401754,-0.025985803455114365
0.029004408046603203,0.013590660877525806,-0.006118499208241701,-0.047653574496507645,0.007188054732978344,-0.02619754895567894
0.028930362313985825,0.013901247642934322,-0.006583416368812323,-0.04460596293210983,0.006671938579529524,-0.026434816420078278
0.029039030894637108,0.013433371670544147,-0.006761398632079363,-0.04559038206934929,0.006803871598094702,-0.026352036744356155
0.029039030894637108,0.013433371670544147,-0.006761398632079363,-0.04559038206934929,0.006803871598094702,-0.026352036744356155
0.02964918501675129,0.014095557853579521,-0.006300634238868952,-0.04725933074951172,0.007110215723514557,-0.02662672847509384
0.02892349474132061,0.013529096730053425,-0.006145177874714136,-0.04644950479269028,0.006947362795472145,-0.026353886350989342
0.029052596539258957,0.013893046416342258,-0.006224917713552713,-0.0459616556763649,0.006825738120824099,-0.026465704664587975
0.029077179729938507,0.013761790469288826,-0.0068939910270273685,-0.04653424397110939,0.006893029436469078,-0.026904838159680367
0.028755107894539833,0.013702921569347382,-0.006147556938230991,-0.04615328460931778,0.007065574172884226,-0.026938188821077347
0.028979621827602386,0.014181306585669518,-0.006559835281223059,-0.04603639990091324,0.006821194663643837,-0.026699377223849297
0.030001197010278702,0.013824252411723137,-0.006918353494256735,-0.0460929274559021,0.006884475704282522,-0.026504985988140106
0.029485421255230904,0.014507884159684181,-0.007394628133624792,-0.04611935839056969,0.007154200226068497,-0.02662724070250988
0.02882949635386467,0.01454455778002739,-0.00672651082277298,-0.04585852473974228,0.007672443054616451,-0.02686586044728756
0.029126448556780815,0.014743353240191936,-0.006316161248832941,-0.04524371773004532,0.006895419210195541,-0.027088290080428123
0.028973346576094627,0.013998332433402538,-0.006576966494321823,-0.04580255225300789,0.006675972603261471,-0.027187418192625046
0.02910667657852173,0.014106129296123981,-0.007241509854793549,-0.04733278229832649,0.007331614848226309,-0.027282284572720528
0.029189208522439003,0.014212206937372684,-0.0074240281246602535,-0.04589597135782242,0.007645889185369015,-0.026893526315689087
0.029413392767310143,0.014334157109260559,-0.0069868601858615875,-0.04506704956293106,0.0070960139855742455,-0.02715228497982025
0.029158011078834534,0.014561504125595093,-0.006388572044670582,-0.04646429792046547,0.00680955545976758,-0.02721044048666954
0.02908286266028881,0.01456166710704565,-0.00680906604975462,-0.04686839506030083,0.007201879285275936,-0.027367964386940002
0.029080698266625404,0.014695890247821808,-0.007181511260569096,-0.04835893586277962,0.0068832081742584705,-0.02733101323246956
0.029004761949181557,0.014960545115172863,-0.006763049401342869,-0.04630149528384209,0.006809331942349672,-0.02721608243882656
0.029131881892681122,0.01420491375029087,-0.0065870126709342,-0.047776419669389725,0.007073827087879181,-0.027402061969041824
0.029943857342004776,0.014910776168107986,-0.006396340671926737,-0.04843854531645775,0.006986094173043966,-0.02735685557126999
0.030138377100229263,0.014518430456519127,-0.007064396981149912,-0.04815693572163582,0.007141449488699436,-0.027229294180870056
0.02924731746315956,0.015264180488884449,-0.006659708451479673,-0.04847601801156998,0.006622990593314171,-0.02718695066869259
0.028722763061523438,0.015316762961447239,-0.006113034673035145,-0.048438798636198044,0.006934942677617073,-0.027215545997023582
0.02907858043909073,0.015277319587767124,-0.006336596794426441,-0.04849884286522865,0.006839407607913017,-0.026888618245720863
0.029799291864037514,0.014833078719675541,-0.006660571321845055,-0.04907098785042763,0.007181165739893913,-0.02678872086107731
0.02954765409231186,0.015641983598470688,-0.006735165603458881,-0.048991911113262177,0.006960879545658827,-0.02803174965083599
0.030195264145731926,0.014501106925308704,-0.006634694058448076,-0.04873077571392059,0.006935047451406717,-0.027881484478712082
0.031055308878421783,0.015241893008351326,-0.006114168558269739,-0.04930949583649635,0.007130498997867107,-0.028184253722429276
0.031055308878421783,0.015241893008351326,-0.006114168558269739,-0.04930949583649635,0.007130498997867107,-0.028184253722429276
0.030545419082045555,0.01440891157835722,-0.006135447882115841,-0.04955071583390236,0.007934433408081532,-0.02809344418346882
0.029296940192580223,0.015145252458751202,-0.006880252156406641,-0.049806635826826096,0.007750875316560268,-0.02717701345682144
0.029245423153042793,0.014656231738626957,-0.006889835465699434,-0.04954373836517334,0.007061891723424196,-0.027490030974149704
0.030527634546160698,0.01523969229310751,-0.006697811186313629,-0.0495900996029377,0.007241362240165472,-0.02862265147268772
0.030330806970596313,0.01536294724792242,-0.006687988061457872,-0.05004701390862465,0.007388644851744175,-0.02848649211227894
0.030535483732819557,0.014828205108642578,-0.007198486011475325,-0.050936732441186905,0.00762429041787982,-0.029144536703824997
0.030494218692183495,0.015248600393533707,-0.007067353464663029,-0.049387264996767044,0.007218395359814167,-0.028699342161417007
0.030084874480962753,0.014608453959226608,-0.006932179443538189,-0.04790225997567177,0.007000953424721956,-0.027861256152391434
0.030054906383156776,0.015203445218503475,-0.0064308419823646545,-0.04918760061264038,0.007154276594519615,-0.027386588975787163
0.030329793691635132,0.01512205135077238,-0.0069619533605873585,-0.05043914169073105,0.006891818251460791,-0.02839970774948597
0.030302133411169052,0.015187286771833897,-0.007060841657221317,-0.05106765404343605,0.007199006620794535,-0.029088644310832024
0.0305433701723814,0.015268455259501934,-0.006930667441338301,-0.0483940988779068,0.007560010068118572,-0.029144616797566414
0.03071507439017296,0.015417030081152916,-0.0063844542019069195,-0.048542320728302,0.0077023315243422985,-0.028882959857583046
0.03093612752854824,0.015687666833400726,-0.00715508870780468,-0.04929376021027565,0.0073606474325060844,-0.028885265812277794
0.031047407537698746,0.015010322444140911,-0.007656820118427277,-0.049418821930885315,0.007182150613516569,-0.02900221385061741
0.03217879310250282,0.015209847129881382,-0.006712279282510281,-0.04924255609512329,0.007847506552934647,-0.02902262471616268
0.03218451142311096,0.014797776006162167,-0.006380138918757439,-0.04876299947500229,0.008110471069812775,-0.02885241061449051
0.030908389016985893,0.015374311245977879,-0.0068657174706459045,-0.04924454167485237,0.00783957913517952,-0.028868751600384712
0.031067783012986183,0.014878145419061184,-0.00724363187327981,-0.04948834329843521,0.007537548895925283,-0.02926970086991787
0.03196223825216293,0.015288802795112133,-0.0072671882808208466,-0.048996053636074066,0.007504270877689123,-0.028908872976899147
0.03149281069636345,0.014637279324233532,-0.006872027646750212,-0.04926798492670059,0.007987494580447674,-0.029564982280135155
0.032004982233047485,0.015251112170517445,-0.007538053207099438,-0.04981408268213272,0.007786134257912636,-0.028996141627430916
0.03260151669383049,0.014765054918825626,-0.007087210193276405,-0.049826428294181824,0.007564655039459467,-0.029298128560185432
0.032178908586502075,0.015363974496722221,-0.006897127255797386,-0.05018041282892227,0.007605318445712328,-0.029484672471880913
0.031455058604478836,0.014900706708431244,-0.006627699360251427,-0.05002189800143242,0.007618183735758066,-0.029377004131674767
0.031455058604478836,0.014900706708431244,-0.006627699360251427,-0.05002189800143242,0.007618183735758066,-0.029377004131674767
0.03152432292699814,0.0153105603531003,-0.006691480986773968,-0.05224233120679855,0.00722260307520628,-0.029834454879164696
0.032707761973142624,0.014806381426751614,-0.0069367047399282455,-0.049825459718704224,0.007950574159622192,-0.0301675982773304
0.032707761973142624,0.014806381426751614,-0.0069367047399282455,-0.049825459718704224,0.007950574159622192,-0.0301675982773304
0.032349783927202225,0.015543305315077305,-0.006561446934938431,-0.052331194281578064,0.007678559981286526,-0.028499692678451538
0.032556310296058655,0.015297885052859783,-0.006942762061953545,-0.05063837021589279,0.007595413364470005,-0.029161613434553146
0.03252905607223511,0.01526172086596489,-0.006938759237527847,-0.04994107410311699,0.007716025225818157,-0.030110087245702744
0.033128537237644196,0.015263712964951992,-0.006640841253101826,-0.05172133073210716,0.007900787517428398,-0.02996412105858326
0.03344377502799034,0.015124709345400333,-0.007118306588381529,-0.05238160118460655,0.007641176227480173,-0.030318129807710648
0.03274582326412201,0.01547972485423088,-0.006959711201488972,-0.05205269157886505,0.007827329449355602,-0.031271472573280334
0.033002305775880814,0.015270974487066269,-0.007981394417583942,-0.0522349514067173,0.008222813718020916,-0.030037175863981247
0.032739292830228806,0.01511836051940918,-0.007102901581674814,-0.0525350458920002,0.007911687716841698,-0.029000621289014816
