davideferrari95/blind_handover_controller/data/Test 212 - [2024-02-08 -- 12-09-49]/joint_states_data.csv
shoulder_pan_joint,shoulder_lift_joint,elbow_joint,wrist_1_joint,wrist_2_joint,wrist_3_joint
0.0027720804791897535,0.009246383793652058,-0.008251561783254147,-0.0014938927488401532,-0.0,0.0019379653967916965
0.0025027187075465918,0.009329181164503098,-0.007913387380540371,-0.001747491187416017,-0.0,0.002004198497161269
0.0025027187075465918,0.009329181164503098,-0.007913387380540371,-0.001747491187416017,-0.0,0.002004198497161269
0.002294899895787239,0.009589520283043385,-0.007474044803529978,-0.0018325250130146742,-0.0,0.0019410907989367843
0.0022614046465605497,0.009401409886777401,-0.008173350244760513,-0.001972824102267623,-0.0,0.0024033444933593273
0.002533013466745615,0.009055014699697495,-0.008338556624948978,-0.0019801848102360964,-0.0,0.0023487177677452564
0.0028021284379065037,0.009717223234474659,-0.007870412431657314,-0.0019441379699856043,-0.0,0.0022172913886606693
0.002887468319386244,0.009577378630638123,-0.007308452855795622,-0.0019890584517270327,-0.0,0.002030648523941636
0.0027070478536188602,0.008924291469156742,-0.00823537353426218,-0.0020653896499425173,-0.0,0.0018090844387188554
0.002988465828821063,0.009483981877565384,-0.00863739661872387,-0.002103368053212762,-0.0,0.001760078826919198
0.002724648918956518,0.009342075325548649,-0.008572094142436981,-0.0023297551088035107,-0.0,0.001974226674064994
0.00256443046964705,0.009015565738081932,-0.007859902456402779,-0.002127251820638776,-0.0,0.00221145898103714
0.002639372833073139,0.00924100074917078,-0.00813044048845768,-0.001976044848561287,-0.0,0.002251535654067993
0.002523886039853096,0.008906482718884945,-0.008069940842688084,-0.0018068961799144745,-0.0,0.0022687180899083614
0.002523886039853096,0.008906482718884945,-0.008069940842688084,-0.0018068961799144745,-0.0,0.0022687180899083614
0.0024404951836913824,0.008745821192860603,-0.008284137584269047,-0.001639311551116407,-0.0,0.0020817574113607407
0.0027110844384878874,0.0092157619073987,-0.00865002628415823,-0.0017051812028512359,-0.0,0.001986673567444086
0.0028511660639196634,0.009285020641982555,-0.008414983749389648,-0.002029696712270379,-0.0,0.001837044837884605
0.0028282413259148598,0.009057936258614063,-0.008171169087290764,-0.0021071278024464846,-0.0,0.0017385465325787663
0.0025950579438358545,0.009371352382004261,-0.007780849933624268,-0.0023288794327527285,-0.0,0.0017934102797880769
0.0025477490853518248,0.009269122034311295,-0.00903319288045168,-0.0023499077651649714,-0.0,0.0020248505752533674
0.0024853467475622892,0.00905644427984953,-0.008474518544971943,-0.0022799777798354626,-0.0,0.002122664824128151
0.002222012961283326,0.01078234426677227,-0.00923601072281599,-0.0021082062739878893,-0.0,0.001982445362955332
0.002036207588389516,0.010092017240822315,-0.008932295255362988,-0.0022062889765948057,-0.0,0.001964534865692258
0.0015949199441820383,0.009758186526596546,-0.008862289600074291,-0.002032844116911292,-0.0,0.0018882928416132927
0.001618916867300868,0.010184457525610924,-0.008674313314259052,-0.0020076176151633263,-0.0,0.001924159936606884
0.001721787266433239,0.009185504168272018,-0.008974859490990639,-0.0019463206408545375,-0.0,0.0019064778462052345
0.0020186882466077805,0.00951593741774559,-0.009274862706661224,-0.0021551435347646475,-0.0,0.002084580482915044
0.002215753309428692,0.009711185470223427,-0.008600933477282524,-0.0022977259941399097,-0.0,0.001879445742815733
0.0021259551867842674,0.009404662996530533,-0.009260843507945538,-0.002299787010997534,-0.0,0.0020027991849929094
0.0019824437331408262,0.01005845982581377,-0.0085686594247818,-0.0022718943655490875,-0.0,0.0020587982144206762
0.0017534001963213086,0.00984054896980524,-0.008105246350169182,-0.0020285025238990784,-0.0,0.0020297402516007423
0.0017115508671849966,0.009235727600753307,-0.008557697758078575,-0.001793965813703835,-0.0,0.0021733876783400774
0.0017798622138798237,0.009171613492071629,-0.00890748668462038,-0.0018334663473069668,-0.0,0.002154306275770068
0.001880222582258284,0.009727292694151402,-0.008942877873778343,-0.002046387642621994,-0.0,0.00220976653508842
0.001963114831596613,0.009789134375751019,-0.00863976776599884,-0.0019388031214475632,-0.0,0.0019896833691745996
0.0019568109419196844,0.009489793330430984,-0.00859029684215784,-0.0019980017095804214,-0.0,0.0017411151202395558
0.002157205482944846,0.009684449061751366,-0.008248165249824524,-0.0018447422189638019,-0.0,0.001621207338757813
0.0021591009572148323,0.009085000492632389,-0.008726779371500015,-0.00171995151322335,-0.0,0.0015651274006813765
0.002074379473924637,0.009010670706629753,-0.009126811288297176,-0.001736115082167089,-0.0,0.001641130424104631
0.0021653061266988516,0.009803244844079018,-0.008585067465901375,-0.0018687391420826316,-0.0,0.0015514522092416883
0.002008357783779502,0.009415088221430779,-0.008146004751324654,-0.0019025944638997316,-0.0,0.0017818775959312916
0.0019149638246744871,0.009165016934275627,-0.008460501208901405,-0.0022940095514059067,-0.0,0.0017263595946133137
0.0019468549871817231,0.009697634726762772,-0.009181668050587177,-0.0024567784275859594,-0.0,0.0019255392253398895
0.0022798834834247828,0.009301100857555866,-0.008901194669306278,-0.0021236795000731945,-0.0,0.0017998459516093135
0.0020674222614616156,0.00979029294103384,-0.008383447304368019,-0.0018947685603052378,-0.0,0.0017531507182866335
0.0020674222614616156,0.00979029294103384,-0.008383447304368019,-0.0018947685603052378,-0.0,0.0017531507182866335
0.0021619973704218864,0.009729895740747452,-0.008633485063910484,-0.0015683372039347887,-0.0,0.001711399294435978
0.00198806612752378,0.009286447428166866,-0.008684133179485798,-0.0016013605054467916,-0.0,0.001541363773867488
0.00198230124078691,0.00969934742897749,-0.008776303380727768,-0.002397049218416214,-0.0,0.0014684867346659303
0.002003677189350128,0.01059601828455925,-0.00886879675090313,-0.0025603524409234524,-0.0,0.001566911581903696
0.0019678366370499134,0.009483334608376026,-0.008051116019487381,-0.0023590100463479757,-0.0,0.0015664937673136592
0.0021847498137503862,0.009845436550676823,-0.007923716679215431,-0.002197352470830083,-0.0,0.0015262267552316189
0.0022724175360053778,0.00926751084625721,-0.009233546443283558,-0.0019315150566399097,-0.0,0.001603867276571691
0.0021593496203422546,0.00947092566639185,-0.008724636398255825,-0.0018871338106691837,-0.0,0.0015150438994169235
0.0022887662053108215,0.009586493484675884,-0.00815531425178051,-0.0019308039918541908,-0.0,0.0013318046694621444
0.0020426155533641577,0.009547652676701546,-0.008635756559669971,-0.001922423136420548,-0.0,0.0012564740609377623
0.002106201834976673,0.00936232227832079,-0.008516744710505009,-0.0021733036264777184,-0.0,0.0012826252495869994
0.002125085797160864,0.00926864705979824,-0.007993544451892376,-0.002037323545664549,-0.0,0.0012790082255378366
0.0023323544301092625,0.009807176887989044,-0.007802358362823725,-0.002149428240954876,-0.0,0.0013970667496323586
0.0026452280580997467,0.009546145796775818,-0.009029153734445572,-0.0020204177126288414,-0.0,0.0013134594773873687
0.0023022962268441916,0.009532353840768337,-0.008586851879954338,-0.0021813514176756144,-0.0,0.0011764528462663293
0.002192572457715869,0.009405748918652534,-0.008117878809571266,-0.002295195125043392,-0.0,0.0011530821211636066
0.00209815613925457,0.008995620533823967,-0.008210540749132633,-0.002215055050328374,-0.0,0.0011547229951247573
0.0022814630065113306,0.010026039555668831,-0.008624404668807983,-0.002068477449938655,-0.0,0.0011360211065039039
0.002392325783148408,0.009750175289809704,-0.008646538481116295,-0.0020007311832159758,-0.0,0.001290144631639123
0.0023458944633603096,0.009191557765007019,-0.008066595532000065,-0.002120348159223795,-0.0,0.001284612575545907
0.0023458944633603096,0.009191557765007019,-0.008066595532000065,-0.002120348159223795,-0.0,0.001284612575545907
0.002387232845649123,0.008918900042772293,-0.008495325222611427,-0.002221442060545087,-0.0,0.0012427084147930145
0.002431186381727457,0.009643892757594585,-0.008720607496798038,-0.0024163902271538973,-0.0,0.001293622306548059
0.002250903518870473,0.00899485219269991,-0.008365272544324398,-0.0024451157078146935,-0.0,0.0013925778912380338
0.002197801135480404,0.00891422014683485,-0.007675192318856716,-0.0024249055422842503,-0.0,0.0014479325618594885
0.00219048373401165,0.009443509392440319,-0.008252390660345554,-0.002594348043203354,-0.0,0.0015879633137956262
0.0025620884262025356,0.009200059808790684,-0.008799009025096893,-0.002500792033970356,-0.0,0.0015060724690556526
0.002412516390904784,0.008676967583596706,-0.008467708714306355,-0.002426465507596731,-0.0,0.0013329453067854047
0.0023884610272943974,0.009014006704092026,-0.008860627189278603,-0.002424552571028471,-0.0,0.001188768888823688
0.0021419378463178873,0.008734230883419514,-0.007861670106649399,-0.0023357493337243795,-0.0,0.0011519285617396235
0.002182971453294158,0.009468741714954376,-0.008191841654479504,-0.0025395688135176897,-0.0,0.0011585443280637264
0.0023790921550244093,0.009576070122420788,-0.00850024912506342,-0.0026150159537792206,-0.0,0.001162699656561017
0.002308425959199667,0.009317507036030293,-0.008235211484134197,-0.002644056687131524,-0.0,0.0011428170837461948
0.0025521060451865196,0.00915853027254343,-0.008185155689716339,-0.0027978948783129454,-0.0,0.0013049165718257427
0.0025834371335804462,0.009666677564382553,-0.008384696207940578,-0.0027804221026599407,-0.0,0.0012985952198505402
0.002454603323712945,0.009173043072223663,-0.007921425625681877,-0.002525993390008807,-0.0,0.0012540153693407774
0.002524862764403224,0.008797169663012028,-0.007987777702510357,-0.0026325813960283995,-0.0,0.0012264529941603541
0.002717906842008233,0.009054090827703476,-0.008025980554521084,-0.002796361455693841,-0.0,0.001172479591332376
0.0026705123018473387,0.008782969787716866,-0.008348940871655941,-0.002701502526178956,-0.0,0.0011124914744868875
0.0029005196411162615,0.008894465863704681,-0.00836329534649849,-0.0026049844454973936,-0.0,0.0009615743765607476
0.0026142566930502653,0.009388803504407406,-0.007789280265569687,-0.002723352750763297,-0.0,0.0008919138927012682
0.0024959330912679434,0.009071245789527893,-0.007676797918975353,-0.0025941638741642237,-0.0,0.0008383975946344435
0.0025929859839379787,0.008795511908829212,-0.008145494386553764,-0.002518902998417616,-0.0,0.0007044004742056131
0.002816063119098544,0.009450232610106468,-0.00776247214525938,-0.002845784416422248,-0.0,0.0007016841555014253
0.002872747601941228,0.00937570258975029,-0.007694626692682505,-0.003158256644383073,-0.0,0.0007808032678440213
0.002872747601941228,0.00937570258975029,-0.007694626692682505,-0.003158256644383073,-0.0,0.0007808032678440213
0.0029092892073094845,0.009007464163005352,-0.007588401902467012,-0.002907275455072522,-0.0,0.0013429858954623342
0.0029092892073094845,0.009007464163005352,-0.007588401902467012,-0.002907275455072522,-0.0,0.0013429858954623342
0.0027700834907591343,0.008816125802695751,-0.00788579136133194,-0.002985476516187191,-0.0,0.0012932514073327184
0.002708817133679986,0.009224667213857174,-0.008375312201678753,-0.00311105465516448,-0.0,0.001061825081706047
0.002708817133679986,0.009224667213857174,-0.008375312201678753,-0.00311105465516448,-0.0,0.001061825081706047
0.002927786437794566,0.009195318445563316,-0.00802629068493843,-0.00309475464746356,-0.0,0.0010084647219628096
0.0028288145549595356,0.009130549617111683,-0.0077051809057593346,-0.002872174372896552,-0.0,0.0008660163730382919
0.002880456391721964,0.009071819484233856,-0.007078779395669699,-0.0028728421311825514,-0.0,0.0008622031891718507
0.0028837001882493496,0.009452668949961662,-0.008225398138165474,-0.0034672245383262634,-0.0,0.0007831754046492279
0.0031423931941390038,0.008989043533802032,-0.007918554358184338,-0.0033220439217984676,-0.0,0.0007898015901446342
0.0030953465029597282,0.009459789842367172,-0.007414443884044886,-0.0032195670064538717,-0.0,0.0008294105646200478
0.0029909363947808743,0.008593754842877388,-0.007714101579040289,-0.0032229062635451555,-0.0,0.0010992111638188362
0.002764427335932851,0.008649122901260853,-0.008215392008423805,-0.0029705369379371405,-0.0,0.0011581743601709604
0.0030049860943108797,0.009437465108931065,-0.007729504257440567,-0.003097486449405551,-0.0,0.0011181782465428114
0.003132629906758666,0.009297129698097706,-0.008093130774796009,-0.0033572367392480373,-0.0,0.0010755995754152536
0.0029841808136552572,0.008987079374492168,-0.007809601258486509,-0.0036593999247998,-0.0,0.0009498435538262129
0.002766047138720751,0.00915668997913599,-0.007398523855954409,-0.0038185506127774715,-0.0,0.0008338656043633819
0.0028238880913704634,0.009681669063866138,-0.007353426422923803,-0.0036506440956145525,-0.0,0.0007077734335325658
0.0031357582192867994,0.008988752029836178,-0.008070236071944237,-0.003481998573988676,-0.0,0.0007246960885822773
0.003519190941005945,0.009489293210208416,-0.008099030703306198,-0.0035974723286926746,-0.0,0.0007377192378044128
0.003378609661012888,0.00945122167468071,-0.008180745877325535,-0.0034499994944781065,-0.0,0.0007545388652943075
0.003094858257099986,0.009230436757206917,-0.00778528256341815,-0.0035042858216911554,-0.0,0.000788716075476259
0.0028698225505650043,0.008840384893119335,-0.00828729011118412,-0.0036612253170460463,-0.0,0.0008058416424319148
0.002909971633926034,0.009638825431466103,-0.008050761185586452,-0.003797756042331457,-0.0,0.0008187051862478256
0.0032725930213928223,0.00888967514038086,-0.007721270434558392,-0.0041051702573895454,-0.0,0.0008284987416118383
0.0032725930213928223,0.00888967514038086,-0.007721270434558392,-0.0041051702573895454,-0.0,0.0008284987416118383
0.003239706624299288,0.008810746483504772,-0.007661245763301849,-0.0041903359815478325,-0.0,0.0008908348390832543
0.0035302399192005396,0.009465460665524006,-0.007496832404285669,-0.004011665005236864,-0.0,0.0008464466081932187
0.003322721691802144,0.00952630303800106,-0.006707003340125084,-0.004236243199557066,-0.0,0.00085168780060485
0.0031671756878495216,0.008799359202384949,-0.006829628720879555,-0.004218504764139652,-0.0,0.0007433821447193623
0.003099201712757349,0.00921752117574215,-0.007179520558565855,-0.004316870588809252,-0.0,0.0006537619628943503
0.0031343288719654083,0.008990554139018059,-0.007887057960033417,-0.004179463256150484,-0.0,0.0005830707959830761
0.003045182442292571,0.00928813312202692,-0.007342976983636618,-0.004312929697334766,-0.0,0.0005903026321902871
0.003539677709341049,0.009093324653804302,-0.0069135092198848724,-0.004211533814668655,-0.0,0.0005577584379352629
0.003327991347759962,0.009363186545670033,-0.007257293444126844,-0.004322316963225603,-0.0,0.0005135486135259271
0.002976161427795887,0.010173122398555279,-0.007203808054327965,-0.004571274854242802,-0.0,0.0004960666410624981
0.002978395903483033,0.009423348121345043,-0.007202709559351206,-0.004499829839915037,-0.0,0.00047103012911975384
0.0027727007400244474,0.009563176892697811,-0.007508573587983847,-0.004202767740935087,-0.0,0.00044255179818719625
0.0036159995943307877,0.00952133722603321,-0.007838426157832146,-0.004217279143631458,-0.0,0.00041694496758282185
0.003927276469767094,0.009578106924891472,-0.00781438872218132,-0.004188029561191797,-0.0,0.00039411321631632745
0.003385474206879735,0.009029711596667767,-0.006927183363586664,-0.0044022295624017715,-4.195511280613573e-07,0.00037365322350524366
0.003056097077205777,0.009108767844736576,-0.0069966125302016735,-0.004770203027874231,-2.7393690871235776e-08,0.00035521425888873637
0.003033747198060155,0.010483303107321262,-0.00737967761233449,-0.00463296240195632,-1.7886120362575753e-09,0.0003385088057257235
0.003279359545558691,0.009343095123767853,-0.007427465636283159,-0.004301879554986954,-1.1678359668199079e-10,0.00032330446993000805
0.0035246782936155796,0.009568005800247192,-0.007101116701960564,-0.0039886184968054295,-7.62513489849237e-12,0.0003094087296631187
0.0036365347914397717,0.00983343180269003,-0.007075961213558912,-0.004210770130157471,-4.978668302277334e-13,0.0002966565079987049
0.0037117681931704283,0.009473112411797047,-0.007043574005365372,-0.0045945593155920506,-3.250714584665526e-14,0.00028491573175415397
0.0037880847230553627,0.009368176572024822,-0.007686808705329895,-0.0049225883558392525,-2.1224841478015115e-15,0.00027406823937781155
0.003832111833617091,0.009824526496231556,-0.007016877643764019,-0.004882842767983675,-1.3858304726538628e-16,0.0002640171442180872
0.0033416040241718292,0.009708298370242119,-0.006844678893685341,-0.004614745732396841,-9.048481571422654e-18,0.0002546771720517427
0.0033416040241718292,0.009708298370242119,-0.006844678893685341,-0.004614745732396841,-9.048481571422654e-18,0.0002546771720517427
0.0037030354142189026,0.009882422164082527,-0.007364219520241022,-0.004286293871700764,0.00028724648291245103,0.00023784882796462625
0.0037030354142189026,0.009882422164082527,-0.007364219520241022,-0.004286293871700764,0.00028724648291245103,0.00023784882796462625
0.003735258476808667,0.009446750394999981,-0.00708019221201539,-0.004576683510094881,0.0003930787497665733,0.00022310682106763124
0.003735258476808667,0.009446750394999981,-0.00708019221201539,-0.004576683510094881,0.0003930787497665733,0.00022310682106763124
0.0034389961510896683,0.009559252299368382,-0.007610393688082695,-0.00460048159584403,0.0004005096561741084,0.0002164009347325191
0.0034265010617673397,0.009652970358729362,-0.00777342077344656,-0.004527905024588108,0.0004027191607747227,0.00021008589828852564
0.0036813775077462196,0.009463232010602951,-0.006926095578819513,-0.004281514324247837,0.0004066751862410456,0.00020412963931448758
0.0038084860425442457,0.009760274551808834,-0.006552841514348984,-0.004005201160907745,0.00040810968494042754,0.00019850113312713802
0.0033170890528708696,0.00984462071210146,-0.006836511194705963,-0.004651402588933706,0.00048696965677663684,0.00019317488477099687
0.0033514255192130804,0.009502438828349113,-0.007561506237834692,-0.004390676040202379,0.0005242186598479748,0.00018812752387020737
0.0035038962960243225,0.00988482404500246,-0.007219627965241671,-0.004426363855600357,0.000563167966902256,0.00018333694606553763
0.003454379504546523,0.010021192952990532,-0.00678945193067193,-0.004301286768168211,0.0005784315872006118,0.00017878397193271667
0.003550296649336815,0.009661233052611351,-0.006974988617002964,-0.00499947601929307,0.0005478961393237114,0.00017445236153434962
0.0037811913061887026,0.009764641523361206,-0.007070885505527258,-0.004787706770002842,0.0005339381168596447,0.0001663887669565156
0.0037152862641960382,0.00963472668081522,-0.006793205626308918,-0.004817198030650616,0.0005599893047474325,0.00016263067664112896
0.003628700040280819,0.010158741846680641,-0.0070731062442064285,-0.004884547088295221,0.0005510237533599138,0.00015903791063465178
0.0038683691527694464,0.00966437254101038,-0.00760393962264061,-0.004965620581060648,0.000586006382945925,0.00015560117026325315
0.003869902342557907,0.009157493710517883,-0.007756456267088652,-0.005334764253348112,0.000577136583160609,0.00015230948338285089
0.003727022558450699,0.009960364550352097,-0.006929249037057161,-0.005168471485376358,0.0005645037163048983,0.00014915420615579933
0.003484173910692334,0.009512241929769516,-0.007261135149747133,-0.004739267751574516,0.0005845338455401361,0.00014612689847126603
0.003565571503713727,0.00927122961729765,-0.007848542183637619,-0.004877400118857622,0.0005488434690050781,0.00014322035713121295
0.00394513551145792,0.009335699491202831,-0.008033099584281445,-0.005350413732230663,0.0005885293358005583,0.00014042686962056905
0.003881663316860795,0.009412776678800583,-0.007271274458616972,-0.005186631344258785,0.0005456653889268637,0.00013774029503110796
0.003675983753055334,0.008931517601013184,-0.00686868978664279,-0.004981780890375376,0.0005787672125734389,0.00012047377094859257
0.003684496507048607,0.00960466917604208,-0.007476039230823517,-0.005094466265290976,0.0006039512809365988,0.00011622588499449193
0.0037542893551290035,0.009285354055464268,-0.00768112950026989,-0.005124132614582777,0.000599575461819768,0.00011399068171158433
0.0037542893551290035,0.009285354055464268,-0.00768112950026989,-0.005124132614582777,0.000599575461819768,0.00011399068171158433
0.0036699017509818077,0.009396309033036232,-0.006960549391806126,-0.005605585873126984,0.0006809463375248015,0.00011000081576639786
0.003531757043674588,0.009565101936459541,-0.00744248041883111,-0.005998242646455765,0.0007004365907050669,0.00010811311949510127
0.003531757043674588,0.009565101936459541,-0.00744248041883111,-0.005998242646455765,0.0007004365907050669,0.00010811311949510127
0.003859776770696044,0.008928130380809307,-0.007738357875496149,-0.005917951464653015,0.000723783508874476,0.0001062890951288864
0.004050000570714474,0.009728653356432915,-0.006842208560556173,-0.005956591572612524,0.0007186424336396158,0.00010452573769725859
0.003832880174741149,0.009265019558370113,-0.0065922122448682785,-0.00607483834028244,0.0006927205831743777,0.00010281970753567293
0.0036718971095979214,0.009360810741782188,-0.008198845200240612,-0.006256671156734228,0.0007814759155735373,0.00010116875637322664
0.003660103539004922,0.00941931176930666,-0.008037020452320576,-0.006471814587712288,0.0007871432462707162,3.948986704926938e-05
0.004308434668928385,0.009439454413950443,-0.007036615163087845,-0.006340586114674807,0.0007716285763308406,3.052089596167207e-05
0.004206906072795391,0.008989430963993073,-0.007420883979648352,-0.00590421911329031,0.000734195695258677,2.2230338800000027e-05
0.00396020757034421,0.008947452530264854,-0.007862845435738564,-0.005986458621919155,0.0007480807253159583,1.4973574252508115e-05
0.004713043104857206,0.009320762939751148,-0.006789783481508493,-0.005994338076561689,0.0007713321829214692,6.38346904224818e-08
0.004496962297707796,0.009075942449271679,-0.006732685957103968,-0.005969619378447533,0.0007878007600083947,4.1679495410562595e-09
0.004346141591668129,0.00967338029295206,-0.007365942467004061,-0.0061021894216537476,0.0008142917067743838,2.7213731268460606e-10
0.004038854967802763,0.009340912103652954,-0.007676819805055857,-0.006367984227836132,0.000989030348137021,1.7768621643488025e-11
0.004419580567628145,0.009326500818133354,-0.007208238355815411,-0.006805076263844967,0.0010020846966654062,1.1601639787750528e-12
0.0047506047412753105,0.009887995198369026,-0.006799271795898676,-0.00659578014165163,0.0009876042604446411,7.575040719470447e-14
0.004997153300791979,0.009670177474617958,-0.007309580687433481,-0.00632696645334363,0.0009755605133250356,4.94596090428942e-15
0.004374717362225056,0.00890399795025587,-0.007539385464042425,-0.006345870438963175,0.0009504820918664336,-0.0005379776703193784
0.0042340075597167015,0.009625338949263096,-0.0072247907519340515,-0.006745950784534216,0.0010234591318294406,-0.0008851519669406116
0.004121920093894005,0.009770302101969719,-0.00698118144646287,-0.007217918522655964,0.0010442720958963037,-0.0009372113272547722
0.004352664574980736,0.008894884027540684,-0.0072379885241389275,-0.007065850310027599,0.0011245299829170108,-0.0008578200940974057
0.0045145852491259575,0.009680659510195255,-0.007315712980926037,-0.006471063010394573,0.001223903731442988,-0.0010273067746311426
0.004831078927963972,0.00960248988121748,-0.006965129170566797,-0.006173782050609589,0.001176822348497808,-0.0008731717243790627
0.004443991929292679,0.009669064544141293,-0.007237961515784264,-0.006650287192314863,0.0011701210169121623,-0.0008391435258090496
0.004443991929292679,0.009669064544141293,-0.007237961515784264,-0.006650287192314863,0.0011701210169121623,-0.0008391435258090496
0.004332605749368668,0.009343630634248257,-0.007642251905053854,-0.007363832090049982,0.001189401838928461,-0.0008451924077235162
0.00452219694852829,0.009492974728345871,-0.007690456695854664,-0.007099257316440344,0.0011408510617911816,-0.0008518312824890018
0.004696051124483347,0.009263071231544018,-0.0074912370182573795,-0.006506459321826696,0.0011160053545609117,-0.000877317797858268
0.004749624989926815,0.009375665336847305,-0.007044055499136448,-0.006365062203258276,0.0012897008564323187,-0.0009230779251083732
0.004788312129676342,0.010033227503299713,-0.006582408677786589,-0.0070593091659247875,0.0013531859731301665,-0.0013287652982398868
0.005166501738131046,0.008990454487502575,-0.007276197895407677,-0.007126952055841684,0.0012878912966698408,-0.0017368498956784606
0.004982469137758017,0.0095797348767519,-0.007340408395975828,-0.007191361393779516,0.001329581020399928,-0.001832656911574304
0.004771044943481684,0.0091953594237566,-0.007089683320373297,-0.007352943532168865,0.0012650644639506936,-0.0018619672628119588
0.004722279030829668,0.009428861550986767,-0.007009358145296574,-0.007860448211431503,0.0012031984515488148,-0.001716414699330926
0.005162907298654318,0.009075727313756943,-0.007336905226111412,-0.007631867192685604,0.0011252268450334668,-0.0014436835190281272
0.004943832755088806,0.009731330908834934,-0.006914679892361164,-0.007245483808219433,0.0010386479552835226,-0.0014193074312061071
0.005227518733590841,0.009387020021677017,-0.007114665117114782,-0.007993304170668125,0.0008467273437418044,-0.0016455281293019652
0.00498897023499012,0.009813430719077587,-0.00745836365967989,-0.007730431854724884,0.0009204609668813646,-0.0016190868336707354
0.0050789425149559975,0.009830573573708534,-0.007114776410162449,-0.007363568525761366,0.0010422191116958857,-0.0019805573392659426
0.004929916001856327,0.009512856602668762,-0.007225947920233011,-0.007895694114267826,0.001130667980760336,-0.0018606731900945306
0.0052279019728302956,0.009934901259839535,-0.006901665590703487,-0.00838213786482811,0.0011184265604242682,-0.0019601464737206697
0.005505455657839775,0.009346426464617252,-0.007871976122260094,-0.007996391505002975,0.0011071524349972606,-0.0018696679035201669
0.005175805184990168,0.009911468252539635,-0.007281134836375713,-0.007538883481174707,0.0012614261358976364,-0.0021122703328728676
0.005291483364999294,0.010094373486936092,-0.0071731675416231155,-0.007794028613716364,0.001226950203999877,-0.00203239219263196
0.005143825896084309,0.009444965049624443,-0.007501090876758099,-0.007566211279481649,0.001174755860120058,-0.002017865190282464
0.004853899125009775,0.009115164168179035,-0.00783520843833685,-0.007243659347295761,0.0012394662480801344,-0.0018872718792408705
0.005369894672185183,0.009599518962204456,-0.0077299256809055805,-0.007033277302980423,0.0012349350145086646,-0.0020300059113651514
0.005300453398376703,0.009430810809135437,-0.00694033969193697,-0.007915772497653961,0.001203437801450491,-0.0024067105259746313
0.005357574205845594,0.00880383886396885,-0.006814952939748764,-0.008067694492638111,0.001389215816743672,-0.002699588192626834
0.005488104186952114,0.009681166149675846,-0.007020704913884401,-0.007863897830247879,0.0013274571392685175,-0.0026654500979930162
0.00518451165407896,0.009792273864150047,-0.007131355814635754,-0.00804281234741211,0.0012651048600673676,-0.0025956002064049244
0.00538693368434906,0.009315010160207748,-0.007082784548401833,-0.00829328317195177,0.0011741981143131852,-0.002357895951718092
0.005228427238762379,0.010026195086538792,-0.007043167948722839,-0.00843415129929781,0.0011248772498220205,-0.0022461730986833572
0.005228427238762379,0.010026195086538792,-0.007043167948722839,-0.00843415129929781,0.0011248772498220205,-0.0022461730986833572
0.006028882227838039,0.009654057212173939,-0.007283850107342005,-0.007768187206238508,0.0010856965091079473,-0.0022869189269840717
0.005524169187992811,0.010357359424233437,-0.007160167675465345,-0.008091342635452747,0.0010700307320803404,-0.002330205636098981
0.00545974588021636,0.009105213917791843,-0.006670727394521236,-0.00863124430179596,0.0010604779236018658,-0.0027445750311017036
0.005564671941101551,0.008513146080076694,-0.0072803013026714325,-0.00818155612796545,0.0010949125280603766,-0.0032353228889405727
0.006025071255862713,0.008800326846539974,-0.007822544313967228,-0.008359621278941631,0.0010717742843553424,-0.003243305254727602
0.005730809643864632,0.00923322606831789,-0.007104937452822924,-0.00857425294816494,0.0012378465617075562,-0.0030825487338006496
0.005846643354743719,0.009694159962236881,-0.006676298566162586,-0.008592535741627216,0.0012532671680673957,-0.0027766369748860598
0.005554512143135071,0.010067439638078213,-0.007077936083078384,-0.008700658567249775,0.0014909848105162382,-0.002745517995208502
0.005554512143135071,0.010067439638078213,-0.007077936083078384,-0.008700658567249775,0.0014909848105162382,-0.002745517995208502
0.006256099324673414,0.00943630002439022,-0.007096565794199705,-0.008316301740705967,0.0015657985350117087,-0.0031030585523694754
0.00576247600838542,0.009343378245830536,-0.006862357258796692,-0.008263354189693928,0.0015248955460265279,-0.0031816407572478056
0.0060203298926353455,0.009604313410818577,-0.0075263408944010735,-0.00888005830347538,0.0014302302151918411,-0.0030138175934553146
0.005729096941649914,0.009992347098886967,-0.007925432175397873,-0.008549291640520096,0.0014068263117223978,-0.0028523493092507124
0.005793527700006962,0.008796905167400837,-0.007250294089317322,-0.008077564649283886,0.0013588789151981473,-0.0030473240185528994
0.006165372207760811,0.009911325760185719,-0.006643446162343025,-0.008346322923898697,0.001300255535170436,-0.0030090308282524347
0.005914796143770218,0.009154128842055798,-0.006628396455198526,-0.008736292831599712,0.0011968035250902176,-0.003273389069363475
0.006232009269297123,0.009360638447105885,-0.006945439614355564,-0.00865536741912365,0.0012319227680563927,-0.0032820808701217175
0.006260206922888756,0.009697720408439636,-0.007650066167116165,-0.008998812176287174,0.0012194750597700477,-0.0032177118118852377
0.005618238355964422,0.009356113150715828,-0.007161335088312626,-0.009194980375468731,0.0012043333845213056,-0.003282381221652031
0.005838742945343256,0.008997449651360512,-0.006683793384581804,-0.00945111270993948,0.0012735051568597555,-0.003684636438265443
0.006001745350658894,0.009643206372857094,-0.006360576953738928,-0.008874020539224148,0.0012554933782666922,-0.004473432432860136
0.006047180388122797,0.009750088676810265,-0.007278858218342066,-0.008934300392866135,0.001266604638658464,-0.004586514085531235
0.0060967192985117435,0.009374458342790604,-0.007391982711851597,-0.008886294439435005,0.0013845132198184729,-0.004360639024525881
0.005681510549038649,0.009332665242254734,-0.007082528900355101,-0.00882552657276392,0.0013417161535471678,-0.00397814717143774
0.005681510549038649,0.009332665242254734,-0.007082528900355101,-0.00882552657276392,0.0013417161535471678,-0.00397814717143774
0.006687312386929989,0.009169305674731731,-0.006891796365380287,-0.009035831317305565,0.0014963153516873717,-0.0037560577038675547
0.006134196184575558,0.00933870393782854,-0.0071264831349253654,-0.008858396671712399,0.001338780508376658,-0.004170806612819433
0.00632965425029397,0.009232272394001484,-0.007044663652777672,-0.009101422503590584,0.0013302193256095052,-0.004647550638765097
0.00632965425029397,0.009232272394001484,-0.007044663652777672,-0.009101422503590584,0.0013302193256095052,-0.004647550638765097
0.006380089558660984,0.008988292887806892,-0.0067090787924826145,-0.00982669834047556,0.0012479359284043312,-0.004635218996554613
0.007146757561713457,0.009195429272949696,-0.007379488088190556,-0.010258740745484829,0.0011885156854987144,-0.004232786595821381
0.006484196521341801,0.009379330091178417,-0.006915742065757513,-0.009420848451554775,0.0012482359306886792,-0.004167007282376289
0.006451471708714962,0.009198701940476894,-0.006389581132680178,-0.00964096374809742,0.0012665297836065292,-0.004680412355810404
0.006927598733454943,0.009262939915060997,-0.00680013932287693,-0.010517488233745098,0.0012246594997122884,-0.0047694602981209755
0.007062498480081558,0.009510819800198078,-0.0071075595915317535,-0.010518737137317657,0.001442388747818768,-0.004436106886714697
0.0064409528858959675,0.008929211646318436,-0.0074665783904492855,-0.010812058113515377,0.0013691094936802983,-0.004485521465539932
0.006234561093151569,0.009564523585140705,-0.007016676478087902,-0.01018545962870121,0.0011544033186510205,-0.004767757840454578
0.007120123598724604,0.00930799264460802,-0.0067572565749287605,-0.01039829570800066,0.0011161909205839038,-0.004783411975950003
0.006691649556159973,0.009730961173772812,-0.007199797313660383,-0.010225852951407433,0.0011916201328858733,-0.004849979653954506
0.006572562735527754,0.009329483844339848,-0.007151366677135229,-0.010701850056648254,0.0012432661605998874,-0.004657277371734381
0.006669638212770224,0.009394817985594273,-0.006946600507944822,-0.01090192049741745,0.0013723423471674323,-0.0048912446945905685
0.006131157279014587,0.008960418403148651,-0.006614577025175095,-0.011371971108019352,0.0013227976160123944,-0.004806942772120237
0.006623340770602226,0.009568020701408386,-0.00742312939837575,-0.009957900270819664,0.001492754672653973,-0.004770259372889996
0.007045838516205549,0.009276054799556732,-0.00733512407168746,-0.009904471226036549,0.0014042947441339493,-0.005082006566226482
0.006610549986362457,0.009273549541831017,-0.007016926538199186,-0.009862960316240788,0.0013332724338397384,-0.004951626993715763
0.0062538147903978825,0.009523843415081501,-0.006922478321939707,-0.011592907831072807,0.0013570798328146338,-0.004776160232722759
0.007043733261525631,0.009303261525928974,-0.007587243802845478,-0.010711644776165485,0.001269820611923933,-0.004669056739658117
0.006690262351185083,0.009167307987809181,-0.0077591873705387115,-0.010643434710800648,0.0012058628490194678,-0.005021901801228523
0.00660410663112998,0.009331327863037586,-0.007045348174870014,-0.01110707875341177,0.001136299571953714,-0.0053145261481404305
0.006628144532442093,0.009542961604893208,-0.006639745086431503,-0.010244169272482395,0.0012429616181179881,-0.005561814643442631
0.007148793898522854,0.008977673016488552,-0.006921567488461733,-0.010572141036391258,0.0012461846927180886,-0.005281111225485802
0.007097768131643534,0.00929747149348259,-0.007319308817386627,-0.010990462265908718,0.0016133598983287811,-0.005271560046821833
0.007097768131643534,0.00929747149348259,-0.007319308817386627,-0.010990462265908718,0.0016133598983287811,-0.005271560046821833
0.00746152875944972,0.009195275604724884,-0.007165849674493074,-0.01028535608202219,0.001549981883727014,-0.005463845562189817
0.00678950734436512,0.00915815494954586,-0.006780167575925589,-0.010606035590171814,0.0016966491239145398,-0.005320050287991762
0.006809954531490803,0.008822956122457981,-0.007197519298642874,-0.010697182267904282,0.0017427371349185705,-0.005668214056640863
0.006898229010403156,0.009467889554798603,-0.007701157126575708,-0.010485278442502022,0.001761964289471507,-0.005558190401643515
0.00707559660077095,0.008955623023211956,-0.006949142552912235,-0.011050930246710777,0.0016282543074339628,-0.005466338247060776
0.007037358824163675,0.009256817400455475,-0.006682245060801506,-0.01097950804978609,0.0015071380184963346,-0.005467400886118412
0.007275749929249287,0.009927020408213139,-0.006314333062618971,-0.011206983588635921,0.0014623961178585887,-0.00521355215460062
0.007680543698370457,0.00968333799391985,-0.007139098364859819,-0.01199642289429903,0.0014650175580754876,-0.00642861844971776
0.007722075097262859,0.009111259132623672,-0.006658307276666164,-0.011342796497046947,0.0014352868311107159,-0.006728394888341427
0.007645840756595135,0.009653606452047825,-0.006757594645023346,-0.011918598785996437,0.001584740006364882,-0.006131879054009914
0.006999902427196503,0.009924426674842834,-0.006432222668081522,-0.011770336888730526,0.0017023136606439948,-0.005877919029444456
0.007970410399138927,0.009789064526557922,-0.006583421025425196,-0.012193514965474606,0.0015940447337925434,-0.006405444350093603
0.007938346825540066,0.009686805307865143,-0.006315202917903662,-0.011779680848121643,0.0015691876178607345,-0.006803162395954132
0.00711523974314332,0.009353412315249443,-0.00647055683657527,-0.01224795076996088,0.00149595330003649,-0.00652368925511837
0.007983175106346607,0.009810443967580795,-0.006733587011694908,-0.012016010470688343,0.001627703895792365,-0.00631027901545167
0.00790867954492569,0.009603496640920639,-0.006597443483769894,-0.012286832556128502,0.001812522066757083,-0.006481877062469721
0.007880814373493195,0.009134686551988125,-0.006470952183008194,-0.01199894119054079,0.0016532031586393714,-0.00687737762928009
0.007314635906368494,0.009710019454360008,-0.0065315114334225655,-0.011227610521018505,0.001660178299061954,-0.0068344539031386375
0.007463982794433832,0.00967990979552269,-0.0065495045855641365,-0.011520372703671455,0.0015179045731201768,-0.007388539612293243
0.007867468520998955,0.009555625729262829,-0.006423587445169687,-0.01154420431703329,0.0014359824126586318,-0.00683175353333354
0.007825404405593872,0.009743831120431423,-0.006560544949024916,-0.0120081827044487,0.0015156285371631384,-0.0066518415696918964
0.007411168422549963,0.00977999996393919,-0.00652265315875411,-0.01184272300451994,0.0015198724577203393,-0.0069344621151685715
0.008151048794388771,0.009555882774293423,-0.006570491939783096,-0.011841488070786,0.002139594405889511,-0.006983575411140919
0.008204632438719273,0.0108091551810503,-0.006410424597561359,-0.01237992849200964,0.002414523623883724,-0.007388598285615444
0.007933934219181538,0.00989148672670126,-0.0068279048427939415,-0.012182575650513172,0.002322325948625803,-0.007533238735049963
0.00775168975815177,0.00919035542756319,-0.006460264790803194,-0.012894525192677975,0.002116554882377386,-0.008012478239834309
0.00819753110408783,0.00953620858490467,-0.00617187051102519,-0.01269257441163063,0.001964997034519911,-0.007919988594949245
0.008934693410992622,0.00989262294024229,-0.006366776768118143,-0.012879423797130585,0.001859527314081788,-0.007794124074280262
0.008059713989496231,0.00947220716625452,-0.0066748266108334064,-0.012856788001954556,0.001698766485787928,-0.007639343850314617
0.00836885254830122,0.009897757321596146,-0.006682283710688353,-0.012848084792494774,0.0018678259802982211,-0.008056719787418842
0.00836885254830122,0.009897757321596146,-0.006682283710688353,-0.012848084792494774,0.0018678259802982211,-0.008056719787418842
0.008892777375876904,0.009491922333836555,-0.006570469122380018,-0.013300303369760513,0.0019462388008832932,-0.008268152363598347
0.008552837185561657,0.00975863914936781,-0.0066558984108269215,-0.013260049745440483,0.0022202692925930023,-0.008254915475845337
0.008093542419373989,0.009304222650825977,-0.0064147780649363995,-0.013629510067403316,0.0021552997641265392,-0.008317920379340649
0.008809010498225689,0.00951221864670515,-0.006925246678292751,-0.013549691066145897,0.0022311804350465536,-0.00899878703057766
0.00774570694193244,0.009575759060680866,-0.006686392240226269,-0.014080141671001911,0.0020047680009156466,-0.00829667504876852
0.0086095305159688,0.009458867833018303,-0.006421905942261219,-0.013138120993971825,0.0018354131607338786,-0.008182177320122719
0.00971533078700304,0.009296701289713383,-0.006274508312344551,-0.013661636970937252,0.001762750674970448,-0.008225580677390099
0.00845145434141159,0.009923496283590794,-0.006829360965639353,-0.013949792832136154,0.0017807905096560717,-0.008524206466972828
0.008785915561020374,0.00976645015180111,-0.006506863981485367,-0.013953747227787971,0.0022563592065125704,-0.008763953112065792
0.009274604730308056,0.009105230681598186,-0.006081651896238327,-0.014565970748662949,0.002139352960512042,-0.008699742145836353
0.009042740799486637,0.009456043131649494,-0.006344813387840986,-0.014082709327340126,0.0022872318513691425,-0.00879683904349804
0.008725850842893124,0.009668398648500443,-0.006982354912906885,-0.014504543505609035,0.0021321605890989304,-0.009588917717337608
0.009481152519583702,0.009785372763872147,-0.006915224716067314,-0.014081285335123539,0.0020748560782521963,-0.00922886561602354
0.008927891962230206,0.00920754112303257,-0.006151198875159025,-0.014046874828636646,0.001945353695191443,-0.009426811710000038
0.009036639705300331,0.0101506058126688,-0.005774561315774918,-0.013598804362118244,0.0020919586531817913,-0.009513135068118572
0.00925277266651392,0.009919017553329468,-0.006539079360663891,-0.01399465836584568,0.0020976350642740726,-0.009244663640856743
0.009229513816535473,0.00960894487798214,-0.007174881175160408,-0.014026252552866936,0.0021186224184930325,-0.008839918300509453
0.008702185936272144,0.010012414306402206,-0.006378225050866604,-0.01432011742144823,0.0020915584173053503,-0.00896616280078888
0.008897173218429089,0.009570237249135971,-0.005824219901114702,-0.013961016200482845,0.0019620980601757765,-0.009213237091898918
0.009242172352969646,0.00997614860534668,-0.006197232287377119,-0.014315166510641575,0.0018738837679848075,-0.009080707095563412
0.008901781402528286,0.010227758437395096,-0.007307957857847214,-0.0157486442476511,0.001945661148056388,-0.00874545332044363
0.008815975859761238,0.00916831661015749,-0.0070838467217981815,-0.01392404641956091,0.0020768200047314167,-0.008808238431811333
0.009257531724870205,0.009288128465414047,-0.0062019480392336845,-0.013573070988059044,0.00211228895932436,-0.00885369535535574
0.009141439571976662,0.01004687137901783,-0.006244630552828312,-0.014529602602124214,0.0022896146401762962,-0.008726997300982475
0.00877334363758564,0.009678122587502003,-0.006891386117786169,-0.014957035891711712,0.0023467529099434614,-0.008879636414349079
0.009346959181129932,0.010788051411509514,-0.006920516025274992,-0.015241493470966816,0.002263022819533944,-0.008804237470030785
0.009671821258962154,0.010398074053227901,-0.0062877763994038105,-0.014978800900280476,0.002133937319740653,-0.00896649993956089
0.009054229594767094,0.009594330564141273,-0.006188820116221905,-0.015123742632567883,0.002141340635716915,-0.009207655675709248
0.009054229594767094,0.009594330564141273,-0.006188820116221905,-0.015123742632567883,0.002141340635716915,-0.009207655675709248
0.009089871309697628,0.010629778727889061,-0.007333526387810707,-0.01540101133286953,0.002080313628539443,-0.00888147670775652
0.009089871309697628,0.010629778727889061,-0.007333526387810707,-0.01540101133286953,0.002080313628539443,-0.00888147670775652
0.009162801317870617,0.009791653603315353,-0.006521144881844521,-0.014793917536735535,0.002259238623082638,-0.009104324504733086
0.009236957877874374,0.00977474357932806,-0.006223587319254875,-0.015469793230295181,0.0024102702736854553,-0.009306115098297596
0.009525470435619354,0.010165445506572723,-0.006010680925101042,-0.015581615269184113,0.0023608896881341934,-0.009117783978581429
0.009218095801770687,0.009801198728382587,-0.006391309667378664,-0.016153687611222267,0.002207799581810832,-0.009213871322572231
0.010194995440542698,0.010160445235669613,-0.006920171435922384,-0.015771333128213882,0.0021075101103633642,-0.010046888142824173
0.010018468834459782,0.010439158417284489,-0.006604756228625774,-0.015703411772847176,0.0021359731908887625,-0.00916678924113512
0.009097387082874775,0.0104765510186553,-0.006239123176783323,-0.015554462559521198,0.002437207382172346,-0.008972767740488052
0.009198011830449104,0.010848920792341232,-0.006585759576410055,-0.015984075143933296,0.002599501283839345,-0.009022421203553677
0.009675249457359314,0.0100212711840868,-0.006810493767261505,-0.01603829674422741,0.002662952523678541,-0.009196480736136436
0.009293660521507263,0.010235773399472237,-0.006599384360015392,-0.016312960535287857,0.0024865891318768263,-0.009440239518880844
0.010028449818491936,0.010092305950820446,-0.0058116065338253975,-0.015478196553885937,0.002334556309506297,-0.009443894028663635
0.009548833593726158,0.01003011129796505,-0.006423283834010363,-0.015772204846143723,0.002199928741902113,-0.009464090690016747
0.009310995228588581,0.011086237616837025,-0.007011440582573414,-0.015561618842184544,0.0020815536845475435,-0.00950094498693943
0.010546115227043629,0.01014495175331831,-0.006442392244935036,-0.016211362555623055,0.002022424479946494,-0.009182438254356384
0.00981389544904232,0.00976791512221098,-0.006194052752107382,-0.016198795288801193,0.002159843686968088,-0.009161528199911118
0.009398757480084896,0.010406024754047394,-0.006060714367777109,-0.01627044938504696,0.002394383307546377,-0.009474651888012886
0.009424771182239056,0.010267725214362144,-0.006019851192831993,-0.016580862924456596,0.002436515176668763,-0.009192039258778095
0.009316841140389442,0.010032135993242264,-0.006676297169178724,-0.01685386896133423,0.0024830198381096125,-0.008824537508189678
0.010100546292960644,0.010343511588871479,-0.006110050715506077,-0.017107512801885605,0.0023602722212672234,-0.008416591212153435
0.010100546292960644,0.010343511588871479,-0.006110050715506077,-0.017107512801885605,0.0023602722212672234,-0.008416591212153435
0.009912186302244663,0.009734095074236393,-0.005888630170375109,-0.016993286088109016,0.002465231344103813,-0.008496277034282684
0.00975208543241024,0.010919278487563133,-0.006397312041372061,-0.01740226335823536,0.002843970898538828,-0.008759391494095325
0.00975208543241024,0.010919278487563133,-0.006397312041372061,-0.01740226335823536,0.002843970898538828,-0.008759391494095325
0.009817445650696754,0.010162963531911373,-0.006704505067318678,-0.01702927052974701,0.002801093738526106,-0.00973105151206255
0.009878168813884258,0.010053081437945366,-0.006392110139131546,-0.017226416617631912,0.002766281133517623,-0.009166162461042404
0.010112125426530838,0.010088339447975159,-0.006752240005880594,-0.017087673768401146,0.002574485493823886,-0.009103434160351753
0.010070210322737694,0.010225498117506504,-0.006092781666666269,-0.017198175191879272,0.0023887245915830135,-0.009111307561397552
0.009694896638393402,0.0100205447524786,-0.006213546264916658,-0.01703079417347908,0.002339582424610853,-0.00972783099859953
0.009516922757029533,0.009662989526987076,-0.006699663586914539,-0.01710238866508007,0.002201770432293415,-0.009184988215565681
0.010056562721729279,0.010186495259404182,-0.006534948013722897,-0.018024971708655357,0.002309383125975728,-0.009646511636674404
0.009869574569165707,0.010079576633870602,-0.006283947732299566,-0.01752280443906784,0.0023481494281440973,-0.009752617217600346
0.009612009860575199,0.009979651309549809,-0.006149126682430506,-0.01740187779068947,0.0022834467235952616,-0.009736170992255211
0.009923133067786694,0.009803970344364643,-0.006735540460795164,-0.017466951161623,0.0025907624512910843,-0.010232361033558846
0.00957569945603609,0.011166307143867016,-0.007283927407115698,-0.017355412244796753,0.00292822509072721,-0.009796889498829842
0.009283696301281452,0.01024557650089264,-0.006992951035499573,-0.017729973420500755,0.003337642876431346,-0.009422477334737778
0.009669098071753979,0.009303667582571507,-0.006735417526215315,-0.019873904064297676,0.0027455033268779516,-0.009402226656675339
0.009662658907473087,0.010223433375358582,-0.0070723495446145535,-0.01799708791077137,0.0024568396620452404,-0.009752470999956131
0.009878171607851982,0.009757072664797306,-0.0067140175960958,-0.01689472235739231,0.0023583753500133753,-0.009540621191263199
0.010462961159646511,0.010393213480710983,-0.006268543656915426,-0.017782067880034447,0.002543231938034296,-0.009608606807887554
0.010339030995965004,0.010063029825687408,-0.006453035399317741,-0.017544027417898178,0.002552322344854474,-0.009999320842325687
0.012140690349042416,0.009767486713826656,-0.007091732230037451,-0.017429210245609283,0.0024639074690639973,-0.009859010577201843
0.011297031305730343,0.009896796196699142,-0.006971930619329214,-0.018182851374149323,0.002437325892969966,-0.009532414376735687
0.011346445418894291,0.010537288151681423,-0.006210442632436752,-0.018041810020804405,0.002457557013258338,-0.009889036417007446
0.01144837774336338,0.009300867095589638,-0.00603472301736474,-0.018914274871349335,0.0023771885316818953,-0.009921876713633537
0.011558432132005692,0.00990514550358057,-0.006504980847239494,-0.01929347775876522,0.0027173813432455063,-0.009903112426400185
0.011799111030995846,0.010397610254585743,-0.007288901135325432,-0.018557988107204437,0.002964586950838566,-0.009806640446186066
0.011821653693914413,0.009739174507558346,-0.006915694568306208,-0.019078686833381653,0.002724063815549016,-0.00984146911650896
0.01131862960755825,0.010134502314031124,-0.006339951418340206,-0.019445784389972687,0.002813268918544054,-0.010482191108167171
0.011170257814228535,0.010165778920054436,-0.006187058985233307,-0.01929752714931965,0.003019548486918211,-0.010447129607200623
0.011351840570569038,0.010306213982403278,-0.006922553293406963,-0.019671790301799774,0.003219251986593008,-0.010663720779120922
0.011562196537852287,0.010141263715922832,-0.007425396237522364,-0.019169747829437256,0.0033265086822211742,-0.010464297607541084
0.011758096516132355,0.009964303113520145,-0.007007697597146034,-0.018707767128944397,0.0031849495135247707,-0.01029634103178978
0.011758096516132355,0.009964303113520145,-0.007007697597146034,-0.018707767128944397,0.0031849495135247707,-0.01029634103178978
0.012115929275751114,0.009926071390509605,-0.006067907437682152,-0.01891784742474556,0.002936528529971838,-0.010749900713562965
0.011673751287162304,0.010585132986307144,-0.006678256671875715,-0.01929480768740177,0.002936446340754628,-0.010854633525013924
0.011805406771600246,0.010589785873889923,-0.007105072494596243,-0.019758377224206924,0.0029289531521499157,-0.010960088111460209
0.012153709307312965,0.00979046430438757,-0.006738155148923397,-0.020251832902431488,0.0030576963908970356,-0.0111906249076128
0.012274214997887611,0.010140969417989254,-0.006223283242434263,-0.020591862499713898,0.002908832859247923,-0.010792477056384087
0.01200920157134533,0.010225595906376839,-0.0063295247964560986,-0.020339665934443474,0.0028248752932995558,-0.010616596788167953
0.011640725657343864,0.010193505324423313,-0.006502363830804825,-0.019870031625032425,0.0026776136364787817,-0.010870854370296001
0.012086941860616207,0.010757512412965298,-0.006594582460820675,-0.020244041457772255,0.0027383831329643726,-0.01030877884477377
0.01232742890715599,0.01090505812317133,-0.006497017107903957,-0.02040380984544754,0.002933716168627143,-0.010025791823863983
0.012175633572041988,0.010639885440468788,-0.006040910258889198,-0.020121244713664055,0.0027009390760213137,-0.010400185361504555
0.011876136995851994,0.010403965599834919,-0.006524405442178249,-0.0197918564081192,0.0024806102737784386,-0.011118707247078419
0.012411982752382755,0.01023250911384821,-0.006596467457711697,-0.019819963723421097,0.0025642504915595055,-0.010556094348430634
0.012461613863706589,0.009902269579470158,-0.006689685862511396,-0.020221570506691933,0.002813112922012806,-0.010660842061042786
0.012701048515737057,0.010579788126051426,-0.005855430383235216,-0.020178912207484245,0.0032263509929180145,-0.009858697652816772
0.012232011184096336,0.01124991662800312,-0.005946806166321039,-0.01986679993569851,0.0033585382625460625,-0.011336633935570717
0.011989717371761799,0.010289306752383709,-0.006306143011897802,-0.020103950053453445,0.003506413195282221,-0.01183584425598383
0.012736352160573006,0.010022863745689392,-0.006392058916389942,-0.02081364020705223,0.0032271319068968296,-0.011369839310646057
0.012630047276616096,0.010712831281125546,-0.006111864931881428,-0.020793577656149864,0.003228304674848914,-0.010807977989315987
0.012918250635266304,0.010121800005435944,-0.005919544957578182,-0.019917313009500504,0.003240288468077779,-0.010764134116470814
0.012756602838635445,0.010202238336205482,-0.006009273696690798,-0.02035473845899105,0.0030690585263073444,-0.010705715045332909
0.012783880345523357,0.010686940513551235,-0.0062780072912573814,-0.02114427648484707,0.0029816569294780493,-0.011044356040656567
0.013094451278448105,0.009965958073735237,-0.006082708481699228,-0.020236926153302193,0.002776636742055416,-0.011576233431696892
0.012558366172015667,0.010659700259566307,-0.005932399537414312,-0.020320486277341843,0.0029386328533291817,-0.011877677403390408
0.01267395168542862,0.01017162948846817,-0.006018184591084719,-0.020933520048856735,0.0030312184244394302,-0.011968383565545082
0.012123452499508858,0.009761350229382515,-0.006408295594155788,-0.0208523478358984,0.0030098415445536375,-0.011359780095517635
0.012792830355465412,0.010609348304569721,-0.006149042397737503,-0.020713862031698227,0.00340760825201869,-0.011443082243204117
0.012659641914069653,0.010077930986881256,-0.006380064878612757,-0.02106037177145481,0.0036637233570218086,-0.0115276537835598
0.012659641914069653,0.010077930986881256,-0.006380064878612757,-0.02106037177145481,0.0036637233570218086,-0.0115276537835598
0.012985861860215664,0.010325722396373749,-0.00633505592122674,-0.021757369861006737,0.003641229122877121,-0.012056820094585419
0.012672004289925098,0.010997257195413113,-0.005966374650597572,-0.021164407953619957,0.0033048184122890234,-0.012026039883494377
0.012873138301074505,0.0103549063205719,-0.00645907036960125,-0.020915422588586807,0.0029738310258835554,-0.011596722528338432
0.012803337536752224,0.01013320591300726,-0.006377819925546646,-0.020357616245746613,0.002569398609921336,-0.011632850393652916
0.01294249389320612,0.010662812739610672,-0.006015383172780275,-0.020165910944342613,0.0024350364692509174,-0.011962886899709702
0.013213220052421093,0.010288486257195473,-0.006272939033806324,-0.02020827680826187,0.0026633122470229864,-0.012106187641620636
0.012931917794048786,0.010726675391197205,-0.006447370629757643,-0.021374527364969254,0.003189993556588888,-0.012140809558331966
0.013582023791968822,0.011203025467693806,-0.00626312056556344,-0.021502306684851646,0.0032151660416275263,-0.012122269719839096
0.013165443204343319,0.010186975821852684,-0.006188408005982637,-0.020714854821562767,0.0034986957907676697,-0.012480875477194786
0.013275026343762875,0.010175228118896484,-0.006269336212426424,-0.020762532949447632,0.0036612844560295343,-0.01240853313356638
0.013272920623421669,0.010554799810051918,-0.006074736826121807,-0.021540755406022072,0.0033207875676453114,-0.012294845655560493
0.013718480244278908,0.01003641914576292,-0.006369464565068483,-0.02174701727926731,0.00299809779971838,-0.012640750035643578
0.013319664634764194,0.010770800523459911,-0.006264581345021725,-0.020603593438863754,0.002912932774052024,-0.01278254296630621
0.01350816898047924,0.010211317799985409,-0.006454458925873041,-0.020317059010267258,0.002931708237156272,-0.013166720047593117
0.013704423792660236,0.01071685366332531,-0.006400671321898699,-0.020645644515752792,0.0030801903922110796,-0.012655062600970268
0.013476493768393993,0.010512787848711014,-0.006621930282562971,-0.02108815126121044,0.003097801236435771,-0.012944640591740608
0.013735421933233738,0.010024096816778183,-0.006183262914419174,-0.02182021178305149,0.0031209299340844154,-0.012631655670702457
0.013931997120380402,0.010791819542646408,-0.006271516904234886,-0.021882524713873863,0.003112551523372531,-0.012858644127845764
0.013673743233084679,0.010563916526734829,-0.006391463801264763,-0.02173781208693981,0.0031122697982937098,-0.012609963305294514
0.013802634552121162,0.0102135194465518,-0.0062631648033857346,-0.022087961435317993,0.0033650752156972885,-0.012793965637683868
0.013292704708874226,0.010538804344832897,-0.0063302950002253056,-0.02208438701927662,0.0032711182720959187,-0.01278293039649725
0.014021918177604675,0.010801117867231369,-0.006613754201680422,-0.022083787247538567,0.003208511509001255,-0.012670009396970272
0.013645419850945473,0.011471603997051716,-0.006810676772147417,-0.022032631561160088,0.0031920778565108776,-0.012636246159672737
0.013924687169492245,0.01038189698010683,-0.006316958460956812,-0.02203282341361046,0.0031073852442204952,-0.012632399797439575
0.013595100492238998,0.010095867328345776,-0.0063643185421824455,-0.02255392074584961,0.003420231631025672,-0.012655067257583141
0.013931827619671822,0.010686238296329975,-0.006532303057610989,-0.022776825353503227,0.0032474452164024115,-0.012673853896558285
0.013771810568869114,0.01063067838549614,-0.006337756756693125,-0.02272210270166397,0.003473221557214856,-0.012816186062991619
0.014006957411766052,0.01005943026393652,-0.006249267142266035,-0.02356991171836853,0.003212162060663104,-0.01278762985020876
0.013855977915227413,0.010601482354104519,-0.0065210857428610325,-0.02201894298195839,0.003327134530991316,-0.013135048560798168
0.0142578249797225,0.01085643470287323,-0.006733219139277935,-0.022057365626096725,0.0033048060722649097,-0.013201585970818996
0.0142578249797225,0.01085643470287323,-0.006733219139277935,-0.022057365626096725,0.0033048060722649097,-0.013201585970818996
0.012813597917556763,0.010504206642508507,-0.0071166204288601875,-0.022568443790078163,0.0033344291150569916,-0.013177302666008472
0.0145384157076478,0.01063780952244997,-0.00645684776827693,-0.022714491933584213,0.0033549575600773096,-0.012951158918440342
0.014487778767943382,0.010541881434619427,-0.006450693588703871,-0.022417984902858734,0.0032172556966543198,-0.01328194048255682
0.014107045717537403,0.010395406745374203,-0.006858303211629391,-0.022456519305706024,0.003384984564036131,-0.013229280710220337
0.013956869952380657,0.010500594042241573,-0.007470789365470409,-0.022818230092525482,0.003584830556064844,-0.012595849111676216
0.014459539204835892,0.01037173718214035,-0.006993113085627556,-0.02286689169704914,0.0032729441300034523,-0.013340194709599018
0.014338281005620956,0.010630118660628796,-0.006307784467935562,-0.022663680836558342,0.003339549759402871,-0.01395453792065382
0.01479418482631445,0.010526640340685844,-0.006574600003659725,-0.02253168262541294,0.0032895624171942472,-0.013833844102919102
0.014587173238396645,0.010893741622567177,-0.006789313163608313,-0.023046422749757767,0.0036535891704261303,-0.013638505712151527
0.014600361697375774,0.010890526697039604,-0.007271058391779661,-0.02287602424621582,0.0038232216611504555,-0.013169119134545326
0.014842789620161057,0.011244584806263447,-0.006430822890251875,-0.022920792922377586,0.0038966138381510973,-0.013408095575869083
0.01436170656234026,0.011242320761084557,-0.006643363274633884,-0.022713713347911835,0.0039370195008814335,-0.01356871984899044
0.014804227277636528,0.01119917444884777,-0.007041014265269041,-0.022710422053933144,0.003900129348039627,-0.013810834847390652
0.014606386423110962,0.010740942321717739,-0.006691778544336557,-0.023054927587509155,0.003862208453938365,-0.013881423510611057
0.015312375500798225,0.010723900981247425,-0.006402904633432627,-0.023400235921144485,0.003430853132158518,-0.013964257203042507
0.014920661225914955,0.010652749799191952,-0.006591234356164932,-0.023493345826864243,0.003413677215576172,-0.01389126293361187
0.01522224210202694,0.011279377155005932,-0.007037709932774305,-0.02346452698111534,0.0031887723598629236,-0.013917493633925915
0.01457555964589119,0.011685734614729881,-0.007631031796336174,-0.023659035563468933,0.0034653861075639725,-0.013987316749989986
0.015139504335820675,0.011420227587223053,-0.006555159576237202,-0.02385789155960083,0.004015306010842323,-0.013775995001196861
0.014814263209700584,0.01119362935423851,-0.006499660667032003,-0.02370620332658291,0.0042457375675439835,-0.013201135210692883
0.015340258367359638,0.010891309939324856,-0.007554504554718733,-0.023975469172000885,0.0036140400916337967,-0.013393282890319824
0.015445435419678688,0.011140969581902027,-0.007618119940161705,-0.02498910017311573,0.00350500107742846,-0.01360189076513052
0.015315591357648373,0.010723263956606388,-0.006422140635550022,-0.02500109001994133,0.003640679409727454,-0.013903846964240074
0.014889214187860489,0.010589571669697762,-0.006168995052576065,-0.024665096774697304,0.0040734573267400265,-0.014341721311211586
0.015406894497573376,0.010919377207756042,-0.006628697272390127,-0.023875389248132706,0.004220297560095787,-0.014231778681278229
0.015466862358152866,0.010732046328485012,-0.006982352584600449,-0.024009766057133675,0.003604029305279255,-0.013834286481142044
0.015245454385876656,0.011009043082594872,-0.006709163077175617,-0.025122543796896935,0.00321649550460279,-0.013941851444542408
0.014952965080738068,0.011205187067389488,-0.006578235421329737,-0.025576556101441383,0.0031751571223139763,-0.013822035863995552
0.014952965080738068,0.011205187067389488,-0.006578235421329737,-0.025576556101441383,0.0031751571223139763,-0.013822035863995552
0.0152786485850811,0.010748256929218769,-0.006749507039785385,-0.02500886470079422,0.003494083182886243,-0.01401803083717823
0.015766533091664314,0.011260791681706905,-0.0074685062281787395,-0.024954697117209435,0.0037315175868570805,-0.014385783113539219
0.015364101156592369,0.011236492544412613,-0.007075032219290733,-0.025470372289419174,0.004155018366873264,-0.014204708859324455
0.015531998127698898,0.010962535627186298,-0.0072106895968317986,-0.024901920929551125,0.00403754273429513,-0.014012760482728481
0.015516134910285473,0.011357621289789677,-0.006358041428029537,-0.025067945942282677,0.003869672305881977,-0.013976930640637875
0.016343362629413605,0.011145279742777348,-0.006724890321493149,-0.024424297735095024,0.003389385063201189,-0.014285687357187271
0.015858465805649757,0.011186393909156322,-0.007289343513548374,-0.02462848834693432,0.0034415931440889835,-0.013916956260800362
0.015833280980587006,0.01078756246715784,-0.0061806277371943,-0.025538327172398567,0.00418981583788991,-0.01418068166822195
0.016069632023572922,0.011186569929122925,-0.006539636291563511,-0.02495747059583664,0.004059227183461189,-0.014639271423220634
0.016038356348872185,0.01086494792252779,-0.007369255181401968,-0.024410855025053024,0.0036591270472854376,-0.014726179651916027
0.015808839350938797,0.010484290309250355,-0.006835104897618294,-0.024426480755209923,0.003997706342488527,-0.014550620689988136
0.016241097822785378,0.01153371948748827,-0.00662580830976367,-0.02467990107834339,0.0040758466348052025,-0.014274300076067448
0.016143690794706345,0.010982820764183998,-0.006827256642282009,-0.02480473928153515,0.003939284943044186,-0.01430907379835844
0.017053553834557533,0.01110710110515356,-0.006793959531933069,-0.024773413315415382,0.0037926402874290943,-0.01455395482480526
0.016870042309165,0.011820493265986443,-0.006903862580657005,-0.024907095357775688,0.0038920307997614145,-0.014667787589132786
0.016553284600377083,0.011263652704656124,-0.006381556391716003,-0.024506399407982826,0.0035134453792124987,-0.014460107311606407
0.016261473298072815,0.01153228897601366,-0.00629643676802516,-0.02446017414331436,0.0035380038898438215,-0.014314619824290276
0.015561073087155819,0.011302752420306206,-0.006313435733318329,-0.02457750402390957,0.0041753025725483894,-0.014577693305909634
0.017735611647367477,0.011159935034811497,-0.006900534965097904,-0.025003910064697266,0.004760249517858028,-0.014788544736802578
0.01690969429910183,0.011480012908577919,-0.006481369491666555,-0.025084475055336952,0.00430972408503294,-0.014669684693217278
0.01706981472671032,0.011409411206841469,-0.006729667074978352,-0.025003094226121902,0.003892298322170973,-0.014656220562756062
0.017088433727622032,0.012206977233290672,-0.006927096750587225,-0.02543252520263195,0.0037324032746255398,-0.014275765977799892
0.01637665182352066,0.011533182114362717,-0.007002400700002909,-0.02527172677218914,0.003969687502831221,-0.01421799510717392
0.016517948359251022,0.011634893715381622,-0.006806295830756426,-0.025133175775408745,0.0042708152905106544,-0.013934066519141197
0.016818750649690628,0.011381812393665314,-0.006413488648831844,-0.024946866557002068,0.00407800916582346,-0.01501485612243414
0.017515525221824646,0.011000150814652443,-0.0067753843031823635,-0.0254296213388443,0.0038815464358776808,-0.014942461624741554
0.017146576195955276,0.011465942487120628,-0.006912885699421167,-0.025628581643104553,0.003797847544774413,-0.014230114407837391
0.017347294837236404,0.0113401273265481,-0.0074803936295211315,-0.02529345452785492,0.004104035906493664,-0.013891101814806461
0.017413049936294556,0.010914599522948265,-0.006555176805704832,-0.02567167580127716,0.004031466785818338,-0.014088140800595284
0.017413049936294556,0.010914599522948265,-0.006555176805704832,-0.02567167580127716,0.004031466785818338,-0.014088140800595284
0.016597401350736618,0.01164802722632885,-0.006271085701882839,-0.02683544158935547,0.003854078706353903,-0.01423826813697815
0.016739418730139732,0.011289366520941257,-0.006164010148495436,-0.026355091482400894,0.004207193851470947,-0.014043455943465233
0.017060082405805588,0.012110654264688492,-0.007088068872690201,-0.025977840647101402,0.004501880146563053,-0.014304308220744133
0.017538344487547874,0.010414340533316135,-0.006095686927437782,-0.025781381875276566,0.004516364075243473,-0.014846591278910637
0.016781270503997803,0.011802615597844124,-0.005933177191764116,-0.027297573164105415,0.0041717407293617725,-0.014548460952937603
0.017247801646590233,0.011265193112194538,-0.007150593213737011,-0.02661784179508686,0.004045099951326847,-0.014511252753436565
0.017213355749845505,0.011171242222189903,-0.006791749037802219,-0.026221878826618195,0.003728903830051422,-0.014780275523662567
0.01724279671907425,0.011625179089605808,-0.006216003093868494,-0.027044877409934998,0.0035394334699958563,-0.01513990294188261
0.017214883118867874,0.01127955038100481,-0.005610518157482147,-0.027801740914583206,0.003918776288628578,-0.014740277081727982
0.017163416370749474,0.011280589736998081,-0.0059102377854287624,-0.02735966444015503,0.004567926283925772,-0.015172339044511318
0.017447035759687424,0.01079699769616127,-0.006533966399729252,-0.025935715064406395,0.004732591565698385,-0.015236654318869114
0.01738843135535717,0.010732230730354786,-0.006594563834369183,-0.026596195995807648,0.004410421941429377,-0.015457273460924625
0.01765955239534378,0.011482837609946728,-0.005945432465523481,-0.028004273772239685,0.00442529795691371,-0.015272502787411213
0.017612913623452187,0.011216869577765465,-0.006030919495970011,-0.028058892115950584,0.004145885352045298,-0.015334278345108032
0.017188331112265587,0.01100197620689869,-0.005771750118583441,-0.027615094557404518,0.003693238366395235,-0.015347426757216454
0.017619550228118896,0.011141415685415268,-0.006145092658698559,-0.027916893362998962,0.003960816189646721,-0.015596739947795868
0.017245030030608177,0.011747443117201328,-0.006159000564366579,-0.027686232700943947,0.004394767805933952,-0.01504121907055378
0.01780502125620842,0.01151718944311142,-0.005926341749727726,-0.027838753536343575,0.0048342361114919186,-0.01519942656159401
0.01758222095668316,0.011265113949775696,-0.00608998304232955,-0.027287092059850693,0.004774804692715406,-0.015057621523737907
0.017256522551178932,0.011439470574259758,-0.006344417110085487,-0.027049584314227104,0.004823409020900726,-0.015199623070657253
0.017559897154569626,0.01175953820347786,-0.006268743891268969,-0.02720559947192669,0.004354679491370916,-0.01479197759181261
0.017559897154569626,0.01175953820347786,-0.006268743891268969,-0.02720559947192669,0.004354679491370916,-0.01479197759181261
0.017359333112835884,0.011190357618033886,-0.006447765976190567,-0.027417555451393127,0.0041128830052912235,-0.015156641602516174
0.01755908504128456,0.011512086726725101,-0.006335190497338772,-0.027527449652552605,0.00397354643791914,-0.01562969759106636
0.01735348254442215,0.011686966754496098,-0.005952334497123957,-0.02764533832669258,0.004107633605599403,-0.015904471278190613
0.01709716208279133,0.011520225554704666,-0.006253270898014307,-0.027525633573532104,0.004480944015085697,-0.015888839960098267
0.017994215711951256,0.01190320122987032,-0.006839328445494175,-0.028292326256632805,0.00448875967413187,-0.015705548226833344
0.017579715698957443,0.011739094741642475,-0.0064432439394295216,-0.028123052790760994,0.004497491288930178,-0.015370880253612995
0.017548391595482826,0.012340620160102844,-0.006258903071284294,-0.028533289209008217,0.004381673876196146,-0.015289152972400188
0.017875468358397484,0.011510672979056835,-0.00632099062204361,-0.02840750850737095,0.0039933184161782265,-0.015265160240232944
0.01624368131160736,0.011666173115372658,-0.0064961714670062065,-0.028147509321570396,0.0038222812581807375,-0.014965314418077469
0.018359066918492317,0.012070361524820328,-0.006717924494296312,-0.028575817123055458,0.0038344310596585274,-0.015515832230448723
0.018415257334709167,0.011825120076537132,-0.006510432809591293,-0.02853560447692871,0.004293158184736967,-0.01578078791499138
0.018558353185653687,0.01159752905368805,-0.006081395782530308,-0.029216228052973747,0.004403513856232166,-0.0160348080098629
0.018195822834968567,0.011847049929201603,-0.006325571797788143,-0.029180696234107018,0.004320935346186161,-0.01589932292699814
0.01808994635939598,0.011849870905280113,-0.006706349551677704,-0.029183778911828995,0.004054052289575338,-0.01651838794350624
0.01802259311079979,0.011592583730816841,-0.006381276994943619,-0.029199255630373955,0.0043292297050356865,-0.016626104712486267
0.018099777400493622,0.012318015098571777,-0.0060727354139089584,-0.029307974502444267,0.004581852816045284,-0.016439640894532204
0.01839967630803585,0.012037605047225952,-0.006304312963038683,-0.028105076402425766,0.004811100196093321,-0.016148442402482033
0.01846737042069435,0.012019738554954529,-0.006853670347481966,-0.029528353363275528,0.005149235017597675,-0.016092760488390923
0.01880689710378647,0.012144508771598339,-0.006577318999916315,-0.029310375452041626,0.005458092782646418,-0.016290081664919853
0.018575631082057953,0.011758847162127495,-0.00636390782892704,-0.028566449880599976,0.0046184612438082695,-0.016305595636367798
0.018880784511566162,0.01234541554003954,-0.006114069372415543,-0.028062203899025917,0.004180721007287502,-0.015901820734143257
0.018331289291381836,0.011911224573850632,-0.006517724134027958,-0.028248805552721024,0.0037684941198676825,-0.01624511554837227
0.019204972311854362,0.012460144236683846,-0.006678978446871042,-0.029376795515418053,0.003524139989167452,-0.016629785299301147
0.01841253601014614,0.012177049182355404,-0.006408120505511761,-0.02923589199781418,0.004064350854605436,-0.01694021001458168
0.018513422459363937,0.012291043065488338,-0.0060956659726798534,-0.028785495087504387,0.004489661194384098,-0.016990967094898224
0.01941915974020958,0.011857527308166027,-0.006382463034242392,-0.0295712873339653,0.004611272364854813,-0.01682203635573387
0.01941915974020958,0.011857527308166027,-0.006382463034242392,-0.0295712873339653,0.004611272364854813,-0.01682203635573387
0.018375733867287636,0.011774460785090923,-0.006959064397960901,-0.029553323984146118,0.004639124032109976,-0.015963703393936157
0.0187445767223835,0.011942815966904163,-0.006276101805269718,-0.028112897649407387,0.004637193400412798,-0.01764064095914364
0.0187445767223835,0.011942815966904163,-0.006276101805269718,-0.028112897649407387,0.004637193400412798,-0.01764064095914364
0.018796565011143684,0.012280578725039959,-0.006022779271006584,-0.028597963973879814,0.004732553381472826,-0.017314298078417778
0.019064538180828094,0.012516745366156101,-0.005984158720821142,-0.02965359389781952,0.004705504979938269,-0.017033379524946213
0.01918060891330242,0.011815094389021397,-0.006679977290332317,-0.02925356850028038,0.00475845905020833,-0.017105422914028168
0.018607493489980698,0.0122301010414958,-0.0066532050259411335,-0.028751496225595474,0.004830806516110897,-0.0169643796980381
0.018725380301475525,0.012511085718870163,-0.005985968746244907,-0.029112009331583977,0.005034203175455332,-0.016786683350801468
0.019097210839390755,0.01253592874854803,-0.006124407518655062,-0.029065294191241264,0.004624400287866592,-0.017223509028553963
0.01902051270008087,0.012237357906997204,-0.006867408752441406,-0.029391907155513763,0.004469438921660185,-0.01721980608999729
0.018663929775357246,0.012538405135273933,-0.006618156097829342,-0.028914375230669975,0.004652969539165497,-0.017013579607009888
0.018740637227892876,0.012421099469065666,-0.0063070133328437805,-0.029016098007559776,0.005052389111369848,-0.017139384523034096
0.019133683294057846,0.012745375744998455,-0.005759076680988073,-0.029296644032001495,0.005423153750598431,-0.01798228546977043
0.01918869838118553,0.01224841084331274,-0.006649095099419355,-0.02949369326233864,0.005180322099477053,-0.01765814609825611
0.01938495971262455,0.012775818817317486,-0.006855810526758432,-0.029687676578760147,0.004526584874838591,-0.01729400083422661
0.019229184836149216,0.012274084612727165,-0.006063758861273527,-0.030419688671827316,0.004383619409054518,-0.017269812524318695
0.01962936297059059,0.012756961397826672,-0.006180950440466404,-0.0305471234023571,0.004665928892791271,-0.01755015179514885
0.019633926451206207,0.012572314590215683,-0.006048593204468489,-0.03053172677755356,0.0051013408228755,-0.01771390251815319
0.019635332748293877,0.012444326654076576,-0.006221471354365349,-0.030719855800271034,0.004966398701071739,-0.017689423635601997
0.01996983215212822,0.012962625361979008,-0.006712801288813353,-0.031229320913553238,0.004929681308567524,-0.017524177208542824
0.019745757803320885,0.012002331204712391,-0.006348185241222382,-0.0312119759619236,0.004733286798000336,-0.017593564465641975
0.01958046481013298,0.012726436369121075,-0.00593016529455781,-0.03154715150594711,0.0045869601890444756,-0.017462778836488724
0.019321585074067116,0.012355365790426731,-0.006262750364840031,-0.030883967876434326,0.004623704124242067,-0.017677994444966316
0.02055356837809086,0.013156205415725708,-0.0066377208568155766,-0.03121321275830269,0.0047271717339754105,-0.017803527414798737
0.019963959231972694,0.012854905799031258,-0.00640650000423193,-0.032794348895549774,0.005224423948675394,-0.01763870380818844
0.020176295191049576,0.01371322013437748,-0.006253213156014681,-0.031748879700899124,0.0049943942576646805,-0.018141303211450577
0.02008236013352871,0.013121544383466244,-0.006115744821727276,-0.030052457004785538,0.0049685831181705,-0.017966823652386665
0.02006855048239231,0.012630906887352467,-0.006310398690402508,-0.029958991333842278,0.004882402252405882,-0.017957046627998352
0.020207487046718597,0.012953413650393486,-0.006652882322669029,-0.03156093880534172,0.004702707286924124,-0.018127478659152985
0.020518897101283073,0.01269079465419054,-0.006406591273844242,-0.03219553828239441,0.004651813767850399,-0.01792958751320839
0.020202962681651115,0.013310025446116924,-0.0067940508015453815,-0.03205468878149986,0.005012014880776405,-0.01784384995698929
0.02044491656124592,0.01293215062469244,-0.006209405139088631,-0.03247442469000816,0.005421097856014967,-0.017802909016609192
0.020519081503152847,0.013187319040298462,-0.006504145450890064,-0.03241623565554619,0.005499991588294506,-0.018106680363416672
0.020519081503152847,0.013187319040298462,-0.006504145450890064,-0.03241623565554619,0.005499991588294506,-0.018106680363416672
0.020413855090737343,0.013138223439455032,-0.006598728708922863,-0.03102916292846203,0.005167806521058083,-0.018465450033545494
0.02029830403625965,0.013124942779541016,-0.006634706165641546,-0.03179935738444328,0.004772090818732977,-0.017849823459982872
0.020660605281591415,0.012936736457049847,-0.006255477201193571,-0.032578419893980026,0.005062016658484936,-0.01767854206264019
0.02031140960752964,0.012931298464536667,-0.006122660357505083,-0.03277331218123436,0.005125887226313353,-0.017798008397221565
0.02023468352854252,0.012594376690685749,-0.006767696235328913,-0.03304992988705635,0.004998806864023209,-0.018362415954470634
0.020355934277176857,0.01250122208148241,-0.007036630995571613,-0.03322025388479233,0.004861954599618912,-0.01861783303320408
0.02071423828601837,0.012914923019707203,-0.006370505318045616,-0.03300528600811958,0.005093932151794434,-0.018134452402591705
0.020420115441083908,0.013411522842943668,-0.0065915547311306,-0.03287503123283386,0.004852630198001862,-0.01863671839237213
0.021026205271482468,0.013187351636588573,-0.006929444149136543,-0.03303322568535805,0.005077703390270472,-0.018064551055431366
0.020877975970506668,0.01309808436781168,-0.006861318834125996,-0.03319709748029709,0.004896220751106739,-0.017663752660155296
0.020981742069125175,0.012345303781330585,-0.006688754074275494,-0.03358489274978638,0.004923191387206316,-0.01808246783912182
0.020850785076618195,0.013131709769368172,-0.006478282622992992,-0.033937968313694,0.005196673329919577,-0.018089503049850464
0.021491216495633125,0.013219824060797691,-0.007055133115500212,-0.0337345153093338,0.005120576824992895,-0.019144879654049873
0.021954718977212906,0.012832196429371834,-0.006676320917904377,-0.03429711237549782,0.004830745980143547,-0.019263258203864098
0.021584482863545418,0.013237599283456802,-0.006734977941960096,-0.034163717180490494,0.004759492818266153,-0.018711626529693604
0.02168935351073742,0.012660643085837364,-0.006487766280770302,-0.034228041768074036,0.005075432360172272,-0.0187081266194582
0.02118712104856968,0.013043297454714775,-0.007278154604136944,-0.03440689295530319,0.005512484349310398,-0.01947246678173542
0.02138916775584221,0.012875628657639027,-0.0076043568551540375,-0.03460611030459404,0.005441900342702866,-0.019493574276566505
0.022015439346432686,0.013552716001868248,-0.006684011779725552,-0.03441392630338669,0.005082257091999054,-0.019253896549344063
0.022183531895279884,0.013142922893166542,-0.006362664978951216,-0.034271545708179474,0.005209525115787983,-0.018970929086208344
0.021829351782798767,0.013321121223270893,-0.0067432052455842495,-0.03428882732987404,0.005098842084407806,-0.0186564102768898
0.021987784653902054,0.013011583127081394,-0.006796674337238073,-0.0340757891535759,0.005280092358589172,-0.018595349043607712
0.021987784653902054,0.013011583127081394,-0.006796674337238073,-0.0340757891535759,0.005280092358589172,-0.018595349043607712
0.022108981385827065,0.013256610371172428,-0.007284859195351601,-0.034976691007614136,0.005425587762147188,-0.019091008231043816
0.022234922274947166,0.013093197718262672,-0.006587677169591188,-0.03507370874285698,0.0052882106974720955,-0.01947501301765442
0.022074267268180847,0.013221695087850094,-0.006424272432923317,-0.03318590298295021,0.00529931066557765,-0.019768929108977318
0.02283550426363945,0.013502963818609715,-0.006895727477967739,-0.03284519165754318,0.004976656287908554,-0.019827205687761307
0.02225584164261818,0.01295533124357462,-0.00728980079293251,-0.034782372415065765,0.00487411767244339,-0.01953553594648838
0.022038444876670837,0.013333403505384922,-0.007322304416447878,-0.03473159670829773,0.004923401400446892,-0.01968866027891636
0.022446971386671066,0.012711666524410248,-0.0068213241174817085,-0.035447414964437485,0.005365088582038879,-0.019585376605391502
0.02301413007080555,0.012977061793208122,-0.0071130129508674145,-0.0342547632753849,0.005753947887569666,-0.020761895924806595
0.021342333406209946,0.013188266195356846,-0.006857718341052532,-0.03437010198831558,0.005514184013009071,-0.02061641402542591
0.023317595943808556,0.013159309513866901,-0.006632074248045683,-0.036180298775434494,0.005779150873422623,-0.020526567474007607
0.023433052003383636,0.013610664755105972,-0.007000976242125034,-0.03634481877088547,0.005512209143489599,-0.020374780520796776
0.023355728015303612,0.013532915152609348,-0.007103864569216967,-0.036854635924100876,0.005352775566279888,-0.020336661487817764
0.023307520896196365,0.013545647263526917,-0.0067378319799900055,-0.03723461180925369,0.00544145330786705,-0.020532269030809402
0.022800633683800697,0.013543058186769485,-0.007148447446525097,-0.037422168999910355,0.005503152962774038,-0.020189058035612106
0.02353757619857788,0.013505605980753899,-0.006572487764060497,-0.037321943789720535,0.005369702819734812,-0.02025117725133896
0.023842183873057365,0.013388832099735737,-0.006916380021721125,-0.037648603320121765,0.005793435033410788,-0.020404160022735596
0.023580001667141914,0.012823276221752167,-0.006687032524496317,-0.03701108694076538,0.005810280330479145,-0.020166298374533653
0.02352980338037014,0.013494888320565224,-0.0069335573352873325,-0.03691339120268822,0.006141359452158213,-0.020023304969072342
0.02403852716088295,0.012885909527540207,-0.006942622363567352,-0.0375564768910408,0.005570226348936558,-0.020357491448521614
0.02388663962483406,0.013289236463606358,-0.006559515371918678,-0.03777033090591431,0.005455063655972481,-0.020550526678562164
0.02412254549562931,0.012981018982827663,-0.007143892347812653,-0.037575144320726395,0.005613668356090784,-0.020400142297148705
0.02401742897927761,0.013475227169692516,-0.006812714505940676,-0.03730588033795357,0.006031643133610487,-0.02021596021950245
0.0243865754455328,0.012952183373272419,-0.0066526890732347965,-0.03788488358259201,0.005610975902527571,-0.02065153419971466
0.0242037121206522,0.013085894286632538,-0.007269896101206541,-0.0379524901509285,0.005375283770263195,-0.020467916503548622
0.024299701675772667,0.013050396926701069,-0.00779453432187438,-0.03882335498929024,0.0053997039794921875,-0.02079731412231922
0.025219758972525597,0.013354535214602947,-0.007004613988101482,-0.0380808524787426,0.005551882088184357,-0.02123887464404106
0.024888964369893074,0.013255111873149872,-0.006317303981631994,-0.0376410111784935,0.005505356937646866,-0.0208253413438797
0.02457505464553833,0.012527722865343094,-0.006503408309072256,-0.03918702155351639,0.005534154828637838,-0.020502179861068726
0.024195751175284386,0.01311892457306385,-0.00715873995795846,-0.039314694702625275,0.005315915681421757,-0.02057693339884281
0.024195751175284386,0.01311892457306385,-0.00715873995795846,-0.039314694702625275,0.005315915681421757,-0.02057693339884281
0.024922266602516174,0.01257067359983921,-0.007053475361317396,-0.037833575159311295,0.005400004331022501,-0.021311098709702492
0.025908011943101883,0.013343113474547863,-0.0061036571860313416,-0.03884262219071388,0.005672728642821312,-0.020636912435293198
0.02535265125334263,0.012807725928723812,-0.006153658498078585,-0.03954695165157318,0.00564423156902194,-0.02219335548579693
0.024795126169919968,0.01331563200801611,-0.006648024078458548,-0.039976272732019424,0.005700261332094669,-0.022101378068327904
0.025212660431861877,0.012821088545024395,-0.007131731137633324,-0.040591925382614136,0.005953450687229633,-0.02141031250357628
0.025787528604269028,0.012889519333839417,-0.006687170825898647,-0.03825126960873604,0.005632322747260332,-0.020513545721769333
0.025501368567347527,0.01273051742464304,-0.006447275169193745,-0.03982877358794212,0.0059717753902077675,-0.02223385125398636
0.02473875880241394,0.01315781008452177,-0.006940086372196674,-0.04040982574224472,0.0061103664338588715,-0.02202056348323822
0.025362255051732063,0.012651173397898674,-0.006655022036284208,-0.0400988794863224,0.006167557556182146,-0.02160966582596302
0.02620835043489933,0.013212542980909348,-0.006124940700829029,-0.04028479382395744,0.005601540673524141,-0.02182297222316265
0.025701528415083885,0.012806933373212814,-0.00639126542955637,-0.04011153057217598,0.00593549944460392,-0.02247166447341442
0.025169705972075462,0.01306522823870182,-0.007028418127447367,-0.0400637723505497,0.00595310190692544,-0.022505655884742737
0.024894999340176582,0.012881914153695107,-0.007104482501745224,-0.040256064385175705,0.0062988149002194405,-0.022050775587558746
0.02576223388314247,0.012874001637101173,-0.006206247955560684,-0.03958158567547798,0.0063744205981493,-0.02166142128407955
0.02510031871497631,0.012670543976128101,-0.006358089856803417,-0.039845626801252365,0.005769972689449787,-0.0220217052847147
0.025794800370931625,0.012535842135548592,-0.006624771282076836,-0.03979303687810898,0.005772823002189398,-0.022385086864233017
0.02579493075609207,0.012900649569928646,-0.006959195714443922,-0.040011536329984665,0.006436784751713276,-0.022849468514323235
0.025752965360879898,0.01235212292522192,-0.006651199888437986,-0.0402236133813858,0.006253934931010008,-0.022369984537363052
0.025738485157489777,0.012717511504888535,-0.00655770767480135,-0.03945755586028099,0.006339267361909151,-0.02213994972407818
0.025705480948090553,0.012091437354683876,-0.006545096170157194,-0.0389663428068161,0.006006530020385981,-0.022034209221601486
0.02566991001367569,0.012247120030224323,-0.006788153667002916,-0.039267588406801224,0.0058403899893164635,-0.021967237815260887
0.025827480480074883,0.012469548732042313,-0.007136791478842497,-0.03922200947999954,0.0055763921700417995,-0.021996725350618362
0.026158563792705536,0.01230771467089653,-0.006450949236750603,-0.039433564990758896,0.0058114551939070225,-0.02202615700662136
0.026194583624601364,0.012839406728744507,-0.006301654502749443,-0.03896426036953926,0.006058556493371725,-0.022025292739272118
0.02594004012644291,0.012563715688884258,-0.006744788959622383,-0.03960045427083969,0.006172594614326954,-0.022016089409589767
0.0262430589646101,0.012504343874752522,-0.007183508016169071,-0.040881864726543427,0.0061120386235415936,-0.02193652093410492
0.0262430589646101,0.012504343874752522,-0.007183508016169071,-0.040881864726543427,0.0061120386235415936,-0.02193652093410492
0.026623457670211792,0.013689673505723476,-0.006508366670459509,-0.03925618529319763,0.006168131250888109,-0.02223118208348751
0.026623457670211792,0.013689673505723476,-0.006508366670459509,-0.03925618529319763,0.006168131250888109,-0.02223118208348751
0.024472586810588837,0.013615891337394714,-0.006989161018282175,-0.04055590555071831,0.0063550532795488834,-0.022602617740631104
0.024472586810588837,0.013615891337394714,-0.006989161018282175,-0.04055590555071831,0.0063550532795488834,-0.022602617740631104
0.026934120804071426,0.013030307367444038,-0.006795673631131649,-0.042548924684524536,0.005571122281253338,-0.022721275687217712
0.02657361328601837,0.012588325887918472,-0.006465055514127016,-0.041218481957912445,0.005654434207826853,-0.022495979443192482
0.02607310563325882,0.013427703641355038,-0.00657731294631958,-0.040031131356954575,0.00608812365680933,-0.022104980424046516
0.026165936142206192,0.013155797496438026,-0.0069549474865198135,-0.04222266376018524,0.006650255993008614,-0.02245510183274746
0.025721577927470207,0.013071742840111256,-0.006638584658503532,-0.04244368150830269,0.006372808013111353,-0.022418398410081863
0.02621917426586151,0.013401142321527004,-0.00682848459109664,-0.042221952229738235,0.006112481001764536,-0.02285311557352543
0.025899915024638176,0.013235210441052914,-0.006916197016835213,-0.04177185893058777,0.006625077687203884,-0.02272236905992031
0.026084834709763527,0.013782067224383354,-0.006577899679541588,-0.04216792806982994,0.006752422079443932,-0.023004375398159027
0.02681768126785755,0.01319622527807951,-0.00665668211877346,-0.04206615686416626,0.006597382016479969,-0.02340605854988098
0.02609998546540737,0.013351119123399258,-0.006720931734889746,-0.042136162519454956,0.006126390304416418,-0.023361021652817726
0.026006784290075302,0.01311684399843216,-0.0070344433188438416,-0.0425410158932209,0.006095488555729389,-0.023402638733386993
0.026137283071875572,0.013530231080949306,-0.0070243412628769875,-0.04306546598672867,0.005921205040067434,-0.023586226627230644
0.025762585923075676,0.01352218259125948,-0.006624890491366386,-0.043792206794023514,0.0061080870218575,-0.023522254079580307
0.025875039398670197,0.01360196154564619,-0.006464221049100161,-0.043759580701589584,0.006039460189640522,-0.023428000509738922
0.026381831616163254,0.013997926376760006,-0.006629848852753639,-0.04347803071141243,0.006164850667119026,-0.023473914712667465
0.026460090652108192,0.013160048983991146,-0.006776032038033009,-0.04337663948535919,0.006133523304015398,-0.02393767423927784
0.02630631811916828,0.013564534485340118,-0.006552489474415779,-0.04541974142193794,0.006471606902778149,-0.023803209885954857
0.025695854797959328,0.013474649749696255,-0.007062201388180256,-0.04567746818065643,0.006317672319710255,-0.023637257516384125
0.025970717892050743,0.013825422152876854,-0.006572246551513672,-0.043741706758737564,0.0062394957058131695,-0.02327699400484562
0.025970717892050743,0.013825422152876854,-0.006572246551513672,-0.043741706758737564,0.0062394957058131695,-0.02327699400484562
0.026521479710936546,0.013554643839597702,-0.006278343498706818,-0.04491580277681351,0.0069808452390134335,-0.02474627085030079
0.026521479710936546,0.013554643839597702,-0.006278343498706818,-0.04491580277681351,0.0069808452390134335,-0.02474627085030079
0.026529284194111824,0.013032025657594204,-0.006920336280018091,-0.04682894051074982,0.0068235150538384914,-0.02447362244129181
0.026584913954138756,0.013774499297142029,-0.006628029514104128,-0.04480012506246567,0.0064068990759551525,-0.023397384211421013
0.027159901335835457,0.013559010811150074,-0.006595613434910774,-0.04342721402645111,0.006354838144034147,-0.02318917214870453
0.02645033225417137,0.014301877468824387,-0.006667393259704113,-0.04483596235513687,0.006509463768452406,-0.023267854005098343
0.026023078709840775,0.01394164003431797,-0.007668450474739075,-0.04486003890633583,0.006641887128353119,-0.023378290235996246
0.025917505845427513,0.013834728859364986,-0.006838322151452303,-0.04535616189241409,0.006385172717273235,-0.02385689876973629
0.026676736772060394,0.013417717069387436,-0.006328279618173838,-0.04479178786277771,0.006554755847901106,-0.023639239370822906
0.026817386969923973,0.013806888833642006,-0.006937929894775152,-0.04477660357952118,0.0068588340654969215,-0.024918900802731514
0.02678866684436798,0.01385181862860918,-0.00754925049841404,-0.044334009289741516,0.006574100814759731,-0.024786509573459625
0.02705448679625988,0.013741525821387768,-0.006870487704873085,-0.04413548856973648,0.0064436765387654305,-0.02355731837451458
0.02721809782087803,0.013624073006212711,-0.006354723125696182,-0.0442667193710804,0.006749390158802271,-0.02307843044400215
0.027215994894504547,0.013746379874646664,-0.006577101070433855,-0.04442556947469711,0.006561247631907463,-0.023223206400871277
0.027423027902841568,0.013826525770127773,-0.007236796896904707,-0.044945571571588516,0.00657605892047286,-0.024121472612023354
0.02776903286576271,0.01416426245123148,-0.0073888348415493965,-0.04588141292333603,0.006798264570534229,-0.02487267553806305
0.027765046805143356,0.01375899650156498,-0.0068658338859677315,-0.04628559947013855,0.00667048804461956,-0.024849282577633858
0.02761751599609852,0.014477799646556377,-0.006583460606634617,-0.04644669592380524,0.006790732499212027,-0.024666961282491684
0.027893641963601112,0.014139854349195957,-0.006877553183585405,-0.04659910872578621,0.006756956223398447,-0.024629266932606697
0.027661660686135292,0.014344404451549053,-0.006755838170647621,-0.04702110216021538,0.006286913994699717,-0.02491687797009945
0.027699317783117294,0.01363646425306797,-0.006717321462929249,-0.04727836698293686,0.00727943517267704,-0.025160426273941994
0.028171803802251816,0.013949093408882618,-0.006442923564463854,-0.04793880879878998,0.006674165837466717,-0.025407852604985237
0.028347156941890717,0.013484594412147999,-0.007049390580505133,-0.04923262447118759,0.006674494594335556,-0.025145983323454857
0.028373507782816887,0.0142282173037529,-0.006837318651378155,-0.04694877192378044,0.006489458493888378,-0.025432124733924866
0.028469236567616463,0.01377839408814907,-0.006326650269329548,-0.046703413128852844,0.0066007222048938274,-0.02527470700442791
0.027507588267326355,0.014495829120278358,-0.006577787920832634,-0.04749482125043869,0.00681964959949255,-0.02531741000711918
0.02803094871342182,0.013997613452374935,-0.006742547266185284,-0.04897794499993324,0.006644612643867731,-0.02548677660524845
0.02803094871342182,0.013997613452374935,-0.006742547266185284,-0.04897794499993324,0.006644612643867731,-0.02548677660524845
0.028765441849827766,0.014569230377674103,-0.006541063077747822,-0.04845177382230759,0.0069644697941839695,-0.024962807074189186
0.02815936878323555,0.013993605971336365,-0.006943663582205772,-0.04645773023366928,0.006840003654360771,-0.024949630722403526
0.029025131836533546,0.014638083986938,-0.006606278009712696,-0.04799429327249527,0.006745645776391029,-0.02541211061179638
0.030212968587875366,0.01426850724965334,-0.0067678759805858135,-0.04924476891756058,0.006714607123285532,-0.02585824392735958
0.028946461156010628,0.014712801203131676,-0.006959947757422924,-0.04922019690275192,0.0068414825946092606,-0.02594543620944023
0.028007466346025467,0.012484796345233917,-0.006921827793121338,-0.048775285482406616,0.006798155140131712,-0.02616521157324314
0.028370028361678123,0.013430762104690075,-0.006650812458246946,-0.04873389005661011,0.0064614941366016865,-0.026346145197749138
0.029878729954361916,0.014560516923666,-0.006592114455997944,-0.04924141988158226,0.00697679677978158,-0.026325348764657974
0.029855424538254738,0.014894754625856876,-0.006403384730219841,-0.04879274591803551,0.007289063651114702,-0.02611258253455162
0.02946159616112709,0.014584438875317574,-0.006915495730936527,-0.04820222035050392,0.006904473528265953,-0.02743382751941681
0.029563257470726967,0.0142618203535676,-0.006087284069508314,-0.04688723757863045,0.006885097827762365,-0.02679172344505787
0.02992630936205387,0.014604232273995876,-0.006131437607109547,-0.04834335669875145,0.006889528129249811,-0.025098474696278572
0.029940558597445488,0.01463878620415926,-0.006278323009610176,-0.05053671449422836,0.006866844370961189,-0.025318721309304237
0.030365848913788795,0.015022974461317062,-0.00699278200045228,-0.048718083649873734,0.006926202680915594,-0.02671491540968418
0.03052019327878952,0.014253564178943634,-0.006968342233449221,-0.0470694974064827,0.006786571815609932,-0.026679011061787605
0.030226824805140495,0.015013175085186958,-0.006649536546319723,-0.04758749529719353,0.006860371213406324,-0.026357144117355347
0.03039814718067646,0.014415627345442772,-0.006425251252949238,-0.048554930835962296,0.006502166856080294,-0.02751520834863186
0.030415650457143784,0.014867064543068409,-0.00722896121442318,-0.0491604283452034,0.006317110266536474,-0.028023775666952133
0.030615489929914474,0.014515573158860207,-0.00742579810321331,-0.04605981707572937,0.006336941383779049,-0.02655377797782421
0.030901024118065834,0.014762007631361485,-0.006577460095286369,-0.046957675367593765,0.006752991583198309,-0.025899292901158333
0.030953072011470795,0.014788093976676464,-0.006300357170403004,-0.04827886447310448,0.007016499061137438,-0.026516610756516457
0.030508119612932205,0.014843190088868141,-0.006684705149382353,-0.04801230877637863,0.007300244644284248,-0.02775467000901699
0.03098166733980179,0.015202227048575878,-0.007454123813658953,-0.04825154319405556,0.006980527192354202,-0.026802893728017807
0.030940253287553787,0.014745306223630905,-0.006962379440665245,-0.048660680651664734,0.006624583620578051,-0.026666589081287384
0.030940253287553787,0.014745306223630905,-0.006962379440665245,-0.048660680651664734,0.006624583620578051,-0.026666589081287384
0.030410248786211014,0.0145026920363307,-0.006670792121440172,-0.0490993857383728,0.006776062771677971,-0.02662673033773899
0.030657228082418442,0.014482744038105011,-0.006637020502239466,-0.049576085060834885,0.007317499257624149,-0.026793578639626503
0.0312221460044384,0.014624472707509995,-0.0069101788103580475,-0.04961411654949188,0.0075370133854448795,-0.027229955419898033
0.03102835826575756,0.015372178517282009,-0.00716015137732029,-0.04939841106534004,0.007252304814755917,-0.027144894003868103
0.03093351423740387,0.015269067138433456,-0.0070734163746237755,-0.049080740660429,0.007176010403782129,-0.027044130489230156
0.03130113333463669,0.014530079439282417,-0.0068039968609809875,-0.049405381083488464,0.007385950069874525,-0.027082839980721474
0.031190216541290283,0.015265910886228085,-0.007215140387415886,-0.0502951517701149,0.007484452333301306,-0.027480294927954674
0.031193282455205917,0.014685483649373055,-0.007444165647029877,-0.049296312034130096,0.006872717756778002,-0.0275197084993124
0.03098871372640133,0.014773661270737648,-0.007439345587044954,-0.04974357783794403,0.006920992862433195,-0.02751380205154419
0.03101012296974659,0.014418898150324821,-0.007422016933560371,-0.04993947967886925,0.007453936152160168,-0.027501456439495087
0.03128008544445038,0.014873563311994076,-0.007660583592951298,-0.05015062540769577,0.00748021062463522,-0.0273975171148777
0.0312882736325264,0.01471827644854784,-0.007056100759655237,-0.049695197492837906,0.007034874055534601,-0.027631761506199837
0.03097410872578621,0.014610623009502888,-0.007375999819487333,-0.052358295768499374,0.007153400685638189,-0.027726441621780396
0.03114011511206627,0.015254167839884758,-0.0082376254722476,-0.05102944001555443,0.007540358230471611,-0.027950819581747055
0.032435376197099686,0.014706674963235855,-0.00777280330657959,-0.05096161738038063,0.007477085571736097,-0.027710674330592155
0.03223167732357979,0.015360100194811821,-0.006925686728209257,-0.05159785971045494,0.007471674587577581,-0.027784058824181557
0.031090345233678818,0.01497497409582138,-0.0071386899799108505,-0.05379017814993858,0.007626621052622795,-0.027848320081830025
0.030549634248018265,0.015004104003310204,-0.007824555039405823,-0.05179611220955849,0.00787781085819006,-0.027951998636126518
0.03182106092572212,0.014762160368263721,-0.007788785733282566,-0.05135929584503174,0.007834812626242638,-0.02769741229712963
0.031442929059267044,0.01534600742161274,-0.007033738307654858,-0.05255216732621193,0.007106625009328127,-0.027738844975829124
0.03130776062607765,0.015096991322934628,-0.007058779243379831,-0.05241531878709793,0.007257748395204544,-0.02782309800386429
0.0317944772541523,0.01532868854701519,-0.008139917626976967,-0.05148148164153099,0.007991351187229156,-0.027418792247772217
0.03274545073509216,0.015209242701530457,-0.007716241292655468,-0.05099475383758545,0.007621117867529392,-0.027637401595711708
0.030917026102542877,0.015040460973978043,-0.007532227318733931,-0.05056699365377426,0.007386728189885616,-0.027661431580781937
0.0307924821972847,0.015217524021863937,-0.007774682715535164,-0.05127428472042084,0.007671114057302475,-0.027379382401704788
0.03222555294632912,0.015433652326464653,-0.008689621463418007,-0.05163317546248436,0.007892184890806675,-0.027358120307326317
0.03222555294632912,0.015433652326464653,-0.008689621463418007,-0.05163317546248436,0.007892184890806675,-0.027358120307326317
0.03203950077295303,0.01525896042585373,-0.007616449147462845,-0.05062415823340416,0.008081228472292423,-0.028493328019976616
0.03203950077295303,0.01525896042585373,-0.007616449147462845,-0.05062415823340416,0.008081228472292423,-0.028493328019976616
0.032340992242097855,0.01568910852074623,-0.007054565008729696,-0.05277879163622856,0.008130626752972603,-0.0286190677434206
0.03140242397785187,0.015358403325080872,-0.008048790507018566,-0.0504598431289196,0.00781385600566864,-0.02820499986410141
0.03226473554968834,0.015300986357033253,-0.007230900228023529,-0.051511529833078384,0.0077477116137743,-0.027768725529313087
0.03226473554968834,0.015300986357033253,-0.007230900228023529,-0.051511529833078384,0.0077477116137743,-0.027768725529313087
0.032097939401865005,0.015609396621584892,-0.0067800236865878105,-0.053320083767175674,0.007601211778819561,-0.028785690665245056
0.03210274875164032,0.014878446236252785,-0.007312864530831575,-0.051700543612241745,0.008088159374892712,-0.028904423117637634
0.032097503542900085,0.015400326810777187,-0.008043233305215836,-0.05197906494140625,0.007913445122539997,-0.029172038659453392
0.03223517909646034,0.015084698796272278,-0.007125002797693014,-0.053343020379543304,0.007720522582530975,-0.029567010700702667
0.03350754454731941,0.01580399088561535,-0.007407487835735083,-0.05327804386615753,0.007839284837245941,-0.029703734442591667
0.033319126814603806,0.01547177229076624,-0.00782344862818718,-0.052672866731882095,0.0078347846865654,-0.029003940522670746
0.03209438547492027,0.015538264997303486,-0.006810382474213839,-0.05280403047800064,0.007551183924078941,-0.028835253790020943
0.03334306925535202,0.015655070543289185,-0.00695135910063982,-0.05305754020810127,0.007495580241084099,-0.02977343276143074
