davideferrari95/blind_handover_controller/data/Test 225 - [2024-02-08 -- 12-17-10]/joint_states_data.csv
shoulder_pan_joint,shoulder_lift_joint,elbow_joint,wrist_1_joint,wrist_2_joint,wrist_3_joint
-0.0018276347545906901,0.007849574089050293,-0.010996627621352673,0.007057113107293844,-0.0,-0.0022505810484290123
-0.0018276347545906901,0.007849574089050293,-0.010996627621352673,0.007057113107293844,-0.0,-0.0022505810484290123
-0.0020319304894655943,0.007476508151739836,-0.012448576278984547,0.00711756432428956,-0.0,-0.0025021289475262165
-0.0023168963380157948,0.007613327354192734,-0.011494788341224194,0.007033147383481264,-0.0,-0.001999370288103819
-0.0025627820286899805,0.007520585786551237,-0.011689663864672184,0.007213762495666742,-0.0,-0.0016729157650843263
-0.0024769087322056293,0.007054890505969524,-0.011160685680806637,0.007367969956248999,-0.0,-0.001486028777435422
-0.002270882483571768,0.007262469734996557,-0.01107651274651289,0.0076807052828371525,-0.0,-0.0013366889907047153
-0.0022260250989347696,0.007658667396754026,-0.011383351869881153,0.007558066863566637,-0.0,-0.0011719627073034644
-0.0020299081224948168,0.007496559992432594,-0.010544698685407639,0.007573261857032776,-0.0,-0.0009493392426520586
-0.00216699973680079,0.0072122421115636826,-0.01110213901847601,0.007552570663392544,-0.0,-0.0010625715367496014
-0.00236096722073853,0.0072790030390024185,-0.011400341987609863,0.00711442343890667,-0.0,-0.0019779305439442396
-0.0022637569345533848,0.007558159995824099,-0.01113172061741352,0.006975672207772732,-0.0,-0.002568657975643873
-0.002242246875539422,0.007459565531462431,-0.011728440411388874,0.007515065837651491,-0.0,-0.002460317686200142
-0.002242246875539422,0.007459565531462431,-0.011728440411388874,0.007515065837651491,-0.0,-0.002460317686200142
-0.0021186769008636475,0.007593614049255848,-0.011128561571240425,0.007601492572575808,-0.0,-0.0021662702783942223
-0.0021961985621601343,0.007060276344418526,-0.011208944953978062,0.006770869251340628,-0.0,-0.0018074122490361333
-0.001998131861910224,0.007607181556522846,-0.011841906234622002,0.0063512916676700115,-0.0,-0.0015456258552148938
-0.0021191993728280067,0.007654957473278046,-0.011120491661131382,0.006214715540409088,-0.0,-0.0013693278888240457
-0.00210101087577641,0.006728576961904764,-0.011601824313402176,0.006957029923796654,-0.0,-0.0011030595051124692
-0.002074356423690915,0.006886634510010481,-0.011724269017577171,0.00693989172577858,-0.0,-0.001201133942231536
-0.002205828670412302,0.007020157761871815,-0.011025936342775822,0.006333569996058941,-0.0,-0.001818009652197361
-0.002135467017069459,0.007146263495087624,-0.011585086584091187,0.005967237986624241,-0.0,-0.0025546536780893803
-0.0021143238991498947,0.006953357253223658,-0.011177967302501202,0.006992323789745569,-0.0,-0.0028457953594624996
-0.0019442648626863956,0.0075950464233756065,-0.011316612362861633,0.006370085291564465,-0.0,-0.0021777923684567213
-0.0017506686272099614,0.007248765788972378,-0.01106159295886755,0.006338384002447128,-0.0,-0.0019156310008838773
-0.0019150763982906938,0.007274036295711994,-0.011469237506389618,0.006363424938172102,-0.0,-0.001669980469159782
-0.0019317221594974399,0.006560052745044231,-0.010993702337145805,0.00692383386194706,-0.0,-0.0014314515283331275
-0.0021942267194390297,0.0066550374031066895,-0.011264956556260586,0.007249095477163792,-0.0,-0.0010659375693649054
-0.002116842195391655,0.007088625803589821,-0.011374467983841896,0.006571976467967033,-0.0,-0.001090474077500403
-0.0020251094829291105,0.006887678988277912,-0.010576706379652023,0.006481567397713661,-0.0,-0.0013766894116997719
-0.001965762348845601,0.007170836441218853,-0.011362072080373764,0.006782258860766888,-0.0,-0.001893888576887548
-0.001782471896149218,0.006959192920476198,-0.010994885116815567,0.006573381833732128,-0.0,-0.0026071094907820225
-0.0018364859279245138,0.007646033074706793,-0.011045697145164013,0.006470344960689545,-0.0,-0.002690642373636365
-0.001996312988922,0.006735600531101227,-0.011050095781683922,0.006221120711416006,-0.0,-0.0022775919642299414
-0.001996312988922,0.006735600531101227,-0.011050095781683922,0.006221120711416006,-0.0,-0.0022775919642299414
-0.0019687823951244354,0.006827526725828648,-0.011217085644602776,0.0064024110324680805,-0.0,-0.0017916724318638444
-0.0019687823951244354,0.006827526725828648,-0.011217085644602776,0.0064024110324680805,-0.0,-0.0017916724318638444
-0.0019296336686238647,0.006790779531002045,-0.01125711016356945,0.006233729887753725,-0.0,-0.0016917571192607284
-0.0019474592991173267,0.007483777590095997,-0.010848668403923512,0.0059693241491913795,-0.0,-0.0018320772796869278
-0.0018580039031803608,0.006602663081139326,-0.011232512071728706,0.005968005396425724,-0.0,-0.0020018068607896566
-0.001870466978289187,0.006440294440835714,-0.010840033181011677,0.0057302964851260185,-0.0,-0.0022889231331646442
-0.00147389923222363,0.006868324242532253,-0.010821554809808731,0.0061400351114571095,-0.0,-0.002416020492091775
-0.0009742771508172154,0.006949807051569223,-0.011115964502096176,0.006522197742015123,-0.0,-0.0023002924863249063
-0.0005359486676752567,0.004868314601480961,-0.010977794416248798,0.005845800507813692,-0.0,-0.001836861134506762
-0.0004058329504914582,0.0035351242404431105,-0.011336123570799828,0.005393164698034525,-0.0,-0.0015637753531336784
-0.0004679461708292365,0.003537241369485855,-0.010778505355119705,0.005408903583884239,-0.0,-0.0015714616747573018
-0.0002610454394016415,0.004588620271533728,-0.009982413612306118,0.006285554263740778,-0.0,-0.0017122749704867601
-0.0003418592968955636,0.004899000283330679,-0.010717569850385189,0.00657306332141161,-0.0,-0.0020517732482403517
-0.0003149145341012627,0.005127121228724718,-0.01066047977656126,0.0057203215546905994,-0.0,-0.0024431515485048294
-0.00025545229436829686,0.004854999948292971,-0.010521444492042065,0.005565947387367487,-0.0,-0.002253448124974966
-0.00023336343292612582,0.004586972761899233,-0.01081093866378069,0.00627451715990901,-0.0,-0.002022763015702367
-0.00021479264250956476,0.0048743486404418945,-0.011492270044982433,0.00602657999843359,-0.0,-0.0019556020852178335
-0.000257304054684937,0.004918584134429693,-0.01059048343449831,0.00556875579059124,-0.0,-0.0020704891066998243
-0.0002469625324010849,0.004762123804539442,-0.010270415805280209,0.004993600305169821,-0.0,-0.0019589592702686787
-0.000231197162065655,0.004620224703103304,-0.01070314459502697,0.004932524170726538,-0.0,-0.0023187301121652126
-0.00038982529076747596,0.004736361093819141,-0.011393148452043533,0.0052667222917079926,-0.0,-0.0024460027925670147
-0.0003787612949963659,0.0042612371034920216,-0.010357058607041836,0.005262164399027824,-0.0,-0.0023745240177959204
-0.00034961753408424556,0.0044736056588590145,-0.010762687772512436,0.005327160935848951,-0.0,-0.0021258380729705095
-0.0003244103863835335,0.0046338876709342,-0.010626460425555706,0.004937687888741493,-0.0,-0.001958968583494425
-0.00036059660487808287,0.004486518446356058,-0.010896366089582443,0.0046557290479540825,-0.0,-0.0016109282150864601
-0.0003401941794436425,0.004356309771537781,-0.011402611620724201,0.004932548850774765,-0.0,-0.0015137260779738426
-0.00032005817047320306,0.0048803891986608505,-0.010308614932000637,0.00527298403903842,-0.0,-0.001496809534728527
-0.00032005817047320306,0.0048803891986608505,-0.010308614932000637,0.00527298403903842,-0.0,-0.001496809534728527
-0.000302148109767586,0.004435238428413868,-0.010720139369368553,0.0053034089505672455,-0.0,-0.001896214671432972
-0.0002861361135728657,0.0044920421205461025,-0.010840479284524918,0.005211140960454941,-0.0,-0.0023374888114631176
-0.0003116430598311126,0.004372730851173401,-0.010162284597754478,0.004945423919707537,-0.0,-0.0024104188196361065
-0.0003017620765604079,0.004859009757637978,-0.010713281109929085,0.005245247855782509,-0.0,-0.00251191109418869
-0.0002880325773730874,0.004839916713535786,-0.01041081640869379,0.005406850483268499,-0.0,-0.0022528558038175106
-0.00027543972828425467,0.0047374265268445015,-0.01086016371846199,0.00543398130685091,-0.0,-0.002312311204150319
-0.0003010733053088188,0.0047873929142951965,-0.011134575121104717,0.005876701790839434,-0.0,-0.002314176643267274
-0.0002894677163567394,0.005022583529353142,-0.011044555343687534,0.005586220417171717,-0.0,-0.00226140976883471
-0.0002782852097880095,0.004474447574466467,-0.010292822495102882,0.005671367980539799,-0.0,-0.0023286775685846806
-0.00026792928110808134,0.0045545329339802265,-0.010675407014787197,0.005263012368232012,-0.0,-0.002577865729108453
-0.0002566342882346362,0.004683296196162701,-0.01022933516651392,0.005586875602602959,-0.0,-0.002536567160859704
-0.0002428753796266392,0.005168343428522348,-0.010991612449288368,0.005385318771004677,-0.0,-0.002503706607967615
-0.00023043736291583627,0.005204376764595509,-0.010523642413318157,0.005437585990875959,-0.0,-0.0021619675680994987
-0.0002624348271638155,0.00494148675352335,-0.009979922324419022,0.005070884246379137,-0.0,-0.0019634447526186705
-0.0002780182985588908,0.005216566845774651,-0.010841980576515198,0.004603146109730005,-0.0,-0.0020891015883535147
-0.00026774004800245166,0.0055601405911147594,-0.011290210299193859,0.005053661298006773,-0.0,-0.002359531121328473
-0.00029204419115558267,0.005198674742132425,-0.011418440379202366,0.0050752670504152775,-0.0,-0.002537346677854657
-0.0002820173103827983,0.004974836949259043,-0.010305598378181458,0.005394122563302517,-0.0,-0.0026461516972631216
-0.00039712240686640143,0.005066699348390102,-0.010690318420529366,0.005219984799623489,-0.0,-0.0026702596805989742
-0.0004215021326672286,0.004964817315340042,-0.010950705967843533,0.004799998831003904,-0.0,-0.0024042846634984016
-0.0003861519508063793,0.005276083946228027,-0.010518996976315975,0.00448553916066885,-0.0,-0.002338616643100977
-0.0004020586784463376,0.005494276061654091,-0.011050481349229813,0.004811045713722706,-0.0,-0.0023727284278720617
-0.00039516648394055665,0.005224961321800947,-0.010401345789432526,0.005073320586234331,-0.0,-0.0023513163905590773
-0.0003684967232402414,0.005146705079823732,-0.010377666912972927,0.004913747310638428,-0.0,-0.0025252229534089565
-0.0003449572832323611,0.005017966963350773,-0.011334428563714027,0.0046882545575499535,-0.0,-0.002287703799083829
-0.0003242405946366489,0.005135868676006794,-0.010586175136268139,0.004721167031675577,-0.0,-0.002346430206671357
-0.0003058715956285596,0.00552909541875124,-0.010348597541451454,0.004582714755088091,-0.0,-0.00216134125366807
-0.00033573663677088916,0.0055883959867060184,-0.010620471090078354,0.0044200425036251545,-0.0,-0.0021525586489588022
-0.00033573663677088916,0.0055883959867060184,-0.010620471090078354,0.0044200425036251545,-0.0,-0.0021525586489588022
-0.00032050698064267635,0.005842170678079128,-0.01010619755834341,0.004559172783046961,-0.0,-0.0023162174038589
-0.0003335713117849082,0.005882382392883301,-0.010745683684945107,0.005027687642723322,-0.0,-0.002581722568720579
-0.00033228707616217434,0.005284412764012814,-0.011026248335838318,0.004654471762478352,-0.0,-0.002618584781885147
-0.0003178082697559148,0.005868182517588139,-0.010083460249006748,0.004567215219140053,-0.0,-0.00279628555290401
-0.0003117895685136318,0.00545306084677577,-0.010451714508235455,0.004314481746405363,-0.0,-0.0028324045706540346
-0.00029283558251336217,0.005987370386719704,-0.011528628878295422,0.00403455039486289,-0.0,-0.0026341520715504885
-0.00031093787401914597,0.005739372689276934,-0.010176407173275948,0.004126348532736301,-0.0,-0.0027489338535815477
-0.0003106923832092434,0.0055928584188222885,-0.01052254717797041,0.004703412763774395,-0.0,-0.002800454618409276
-0.0002940109116025269,0.005564333405345678,-0.009770842269062996,0.0043690199963748455,-0.0,-0.002721268916502595
-0.00027883145958185196,0.00567583879455924,-0.010787411592900753,0.004406411666423082,-9.929881343850866e-07,-0.0025383627507835627
-0.0002948422625195235,0.006071583367884159,-0.010018781758844852,0.004394029267132282,-4.233264405684167e-09,-0.002558264182880521
-0.0002948422625195235,0.006071583367884159,-0.010018781758844852,0.004394029267132282,-4.233264405684167e-09,-0.002558264182880521
-0.00030806465656496584,0.005507698282599449,-0.010388574562966824,0.004204725380986929,-1.8047069047510966e-11,-0.0028434330597519875
-0.0003259354270994663,0.005955824162811041,-0.010078482329845428,0.004502768628299236,-1.1783445313245933e-12,-0.0029609857592731714
-0.00031329618650488555,0.0059878090396523476,-0.011321112513542175,0.0044914172030985355,-7.693747982456811e-14,-0.0029726489447057247
-0.00038250978104770184,0.006299586966633797,-0.010536501184105873,0.004329042509198189,-5.023467807094978e-15,-0.0027510030195116997
-0.0003998380561824888,0.005877422168850899,-0.009779440239071846,0.004104434046894312,-3.279965152257235e-16,-0.0027148856315761805
-0.0003728415467776358,0.005777131766080856,-0.010316962376236916,0.00433020293712616,-2.141582682736732e-17,-0.0026360051706433296
-0.0003487640351522714,0.005653990898281336,-0.010926356539130211,0.0041955504566431046,-1.3983005388526355e-18,-0.0026299995370209217
-0.00037567634717561305,0.006044760812073946,-0.009583224542438984,0.00392651092261076,-9.129903905947181e-20,-0.002886345377191901
-0.00037567634717561305,0.006044760812073946,-0.009583224542438984,0.00392651092261076,-9.129903905947181e-20,-0.002886345377191901
-0.0003408398188184947,0.0065246024169027805,-0.01025494746863842,0.004024849273264408,-3.892220773698747e-22,-0.0028102032374590635
-0.00032334565185010433,0.005901932716369629,-0.010045938193798065,0.0038272649981081486,-2.541341911895905e-23,-0.002690371358767152
-0.00032334565185010433,0.005901932716369629,-0.010045938193798065,0.0038272649981081486,-2.541341911895905e-23,-0.002690371358767152
-0.0003075587737839669,0.005730748176574707,-0.010047849267721176,0.0036568453069776297,-1.6593146799451644e-24,-0.003139964770525694
-0.000293239630991593,0.005877942778170109,-0.010004441253840923,0.003700201166793704,-1.0834140484000347e-25,-0.0034042121842503548
-0.00028019785531796515,0.006279954221099615,-0.009798341430723667,0.003756446298211813,-7.07391911531894e-27,-0.0031657188665121794
-0.0002682663907762617,0.006279421504586935,-0.010629759170114994,0.0034931409172713757,-4.618763748182011e-28,-0.0029077003709971905
-0.0002573086821939796,0.005902221892029047,-0.009853611700236797,0.0035173140931874514,-3.015722519170168e-29,-0.00267973099835217
-0.00024721171939745545,0.0061243874952197075,-0.009519417770206928,0.0034761440474539995,-1.9690512149155123e-30,-0.0028516342863440514
-0.00023787684040144086,0.006160051561892033,-0.010149131529033184,0.003408935386687517,-1.285649691338974e-31,-0.0031682222615927458
-0.00022922124480828643,0.005963234696537256,-0.009746336378157139,0.0031817678827792406,-8.394373401850917e-33,-0.003322941716760397
-0.0002211737009929493,0.005878000985831022,-0.009522764943540096,0.003400089219212532,-5.480925622523751e-34,-0.003114842576906085
-0.00023009904543869197,0.005780573934316635,-0.009948426857590675,0.003200752194970846,-3.578652788932739e-35,-0.0028443029150366783
-0.00022109555720817298,0.006176674272865057,-0.010556376539170742,0.0034505059011280537,-2.3366046083264228e-36,-0.002919460879638791
-0.0002107702603098005,0.00609802920371294,-0.009484210051596165,0.003621157491579652,-1.5256359012721124e-37,-0.0029654710087925196
-0.0002013391349464655,0.006004600785672665,-0.0098984744399786,0.0035474796313792467,-9.961312302453324e-39,-0.0031545106321573257
-0.00019271631026640534,0.005945853888988495,-0.009564990177750587,0.0033309590071439743,-6.504028731271136e-40,-0.003288332838565111
-0.00017751111590769142,0.00608094735071063,-0.0099607203155756,0.002955688163638115,-2.773169660898813e-42,-0.003186960704624653
-0.00017077419033739716,0.0065443492494523525,-0.009641464799642563,0.0028780887369066477,-1.807675018979014e-43,-0.003233933122828603
-0.00016453028365503997,0.006234492175281048,-0.009277119301259518,0.0030177035368978977,-1.1210387714598537e-44,-0.0035067524295300245
-0.00015872657240834087,0.006219806149601936,-0.009955588728189468,0.003147187177091837,-1.401298464324817e-45,-0.003304719226434827
-0.00015331851318478584,0.006443076767027378,-0.009621519595384598,0.0030988259240984917,-0.0,-0.0034969914704561234
-0.00017750865663401783,0.006057846825569868,-0.008998291566967964,0.003078061155974865,-0.0,-0.00326844141818583
-0.0001722390588838607,0.006410660687834024,-0.009595575742423534,0.0033710887655615807,-0.0,-0.0030598794110119343
-0.00016692043573129922,0.006567950826138258,-0.009529842995107174,0.003046253463253379,-0.0,-0.003150651464238763
-0.00016191531904041767,0.006333660334348679,-0.00964635144919157,0.00248637143522501,-0.0,-0.0032394404988735914
-0.00017441828094888479,0.006096485070884228,-0.009788543917238712,0.0022338207345455885,-0.0,-0.0032022795639932156
-0.00017809317796491086,0.006203044205904007,-0.009147144854068756,0.0026125686708837748,-0.0,-0.0034132287837564945
-0.00017330933769699186,0.006423812825232744,-0.008889662101864815,0.0029663497116416693,-0.0,-0.003394919214770198
-0.00016867098747752607,0.006162616889923811,-0.009348164312541485,0.0031564778182655573,-0.0,-0.003329302417114377
-0.00016427287482656538,0.0058527239598333836,-0.009459491819143295,0.002746044658124447,-0.0,-0.0035996378865092993
-0.00016009814862627536,0.005201776511967182,-0.008824911899864674,0.00254212343133986,-0.0,-0.003552135545760393
-0.0001561305543873459,0.004843576345592737,-0.008557125926017761,0.0025382619351148605,0.000254652724834159,-0.003485106397420168
-0.00015235479804687202,0.005345597863197327,-0.009470395743846893,0.002554581267759204,0.0003938309382647276,-0.0034608833957463503
-0.00015235479804687202,0.005345597863197327,-0.009470395743846893,0.002554581267759204,0.0003938309382647276,-0.0034608833957463503
-0.00014875737542752177,0.006098517216742039,-0.008457815274596214,0.002387864049524069,0.0004410928231664002,-0.003534989897161722
-0.00014532585919369012,0.005803267937153578,-0.008399182930588722,0.0023448278661817312,0.0004631283809430897,-0.0034131670836359262
-0.00014204913168214262,0.005006118677556515,-0.00924685038626194,0.002145889215171337,0.0004463416407816112,-0.003529402893036604
-0.00013891702110413462,0.004915300756692886,-0.008639014326035976,0.0023083779960870743,0.000446781370555982,-0.0037963814102113247
-0.00013591989409178495,0.005504692438989878,-0.008260837756097317,0.0026257645804435015,0.0004458232724573463,-0.0035820314660668373
-0.00013304935419000685,0.005747117567807436,-0.009024746716022491,0.002566001145169139,0.0005184842739254236,-0.0034786690957844257
-0.00013029761612415314,0.0055102878250181675,-0.008867651224136353,0.0024368504527956247,0.0005466860602609813,-0.004247392062097788
-0.00012765743304044008,0.005361998453736305,-0.008327513001859188,0.002123289741575718,0.0005841748788952827,-0.004191260319203138
-0.00010749224020401016,0.005464640446007252,-0.008629122748970985,0.001987449824810028,0.0006093184929341078,-0.0036886553280055523
-0.00010516228940105066,0.0055305673740804195,-0.010328928008675575,0.0018575787544250488,0.0006044409819878638,-0.0033286409452557564
-0.00010315029066987336,0.006209517363458872,-0.009163537062704563,0.0018710116855800152,0.0005909156752750278,-0.003224779386073351
-9.935466368915513e-05,0.005462257191538811,-0.009321273304522038,0.0021462002769112587,0.0007377223228104413,-0.003887161845341325
-9.75596922216937e-05,0.005582527257502079,-0.009512216784060001,0.002233335981145501,0.0007584652048535645,-0.00404052110388875
-9.582841448718682e-05,0.0055999187752604485,-0.00937249418348074,0.002174647059291601,0.0007302268058992922,-0.004140451550483704
-9.415746899321675e-05,0.00565405935049057,-0.00959602277725935,0.00201227655634284,0.0007034678710624576,-0.004220608621835709
-4.7552464820910245e-05,0.0061332471668720245,-0.009038900025188923,0.0019483808428049088,0.0008003176772035658,-0.0036266592796891928
-1.5284767869161442e-05,0.005496634170413017,-0.009153930470347404,0.0018502406310290098,0.0008196606650017202,-0.0035837546456605196
-2.0506463727087976e-07,0.005409476812928915,-0.010520840995013714,0.0018413581419736147,0.0007767889183014631,-0.003684315597638488
-2.751203709294714e-09,0.005408848635852337,-0.009274564683437347,0.001944050076417625,0.0007371054380200803,-0.004075939767062664
-3.691090835755695e-11,0.005650405306369066,-0.009583319537341595,0.0018686410039663315,0.0007506271358579397,-0.004042509011924267
-4.952069570379747e-13,0.005773791112005711,-0.009451229125261307,0.0018430780619382858,0.0006876610568724573,-0.004213651176542044
-6.6438337883794555e-15,0.006026074290275574,-0.009360826574265957,0.001699283835478127,0.0007209418690763414,-0.00417809933423996
-8.913550711850147e-17,0.005564190912991762,-0.009186017327010632,0.0016073506558313966,0.0007442348869517446,-0.004288682714104652
-1.1958665920964879e-18,0.005812412593513727,-0.009372994303703308,0.0015446661273017526,0.0007876460440456867,-0.004092549905180931
-1.6044077556022353e-20,0.005797662306576967,-0.009765878319740295,0.001420496730133891,0.0010355596896260977,-0.0040207961574196815
-2.1525176728577513e-22,0.0059548644348979,-0.009483546018600464,0.0013340283185243607,0.0010877125896513462,-0.004099373705685139
-2.8878769901902792e-24,0.005833023227751255,-0.009798032231628895,0.001236537005752325,0.0010606128489598632,-0.004335116595029831
-3.874455515179605e-26,0.005551778245717287,-0.00951414741575718,0.001214313437230885,0.0009241900988854468,-0.004360796418040991
-5.198076734698886e-28,0.005647234618663788,-0.009036313742399216,0.0011843027314171195,0.0009134243591688573,-0.0044850236736238
-6.973883358908709e-30,0.005894580855965614,-0.009408893063664436,0.0011449820594862103,0.0008340149652212858,-0.004572514910250902
-6.973883358908709e-30,0.005894580855965614,-0.009408893063664436,0.0011449820594862103,0.0008340149652212858,-0.004572514910250902
-9.356354926083278e-32,0.005981520749628544,-0.009753788821399212,0.0011074407957494259,0.0008170531946234405,-0.004645650275051594
-1.2552743258931307e-33,0.005471750162541866,-0.009535160847008228,0.0010613308986648917,0.0007372217951342463,-0.004714947659522295
-1.6841107535040844e-35,0.005622697528451681,-0.009538776241242886,0.001019541174173355,0.0007507019327022135,-0.004698008764535189
-2.2594493839300035e-37,0.006124827079474926,-0.009873653762042522,0.000919295591302216,0.0007597944349981844,-0.004463823512196541
-3.03133928477216e-39,0.005741399247199297,-0.009474745951592922,0.0008148336783051491,0.000754945504013449,-0.004313119687139988
-4.0669885330099166e-41,0.006459633819758892,-0.009506367146968842,0.0008123677689582109,0.0007613077177666128,-0.004319051746279001
-5.4510510262235384e-43,0.006095354910939932,-0.00973416119813919,0.0007200764957815409,0.0007790368399582803,-0.004452586639672518
-7.006492321624085e-45,0.005805774591863155,-0.009698119945824146,0.0007343157776631415,0.0007934208842925727,-0.004548477940261364
-0.0,0.00559715460985899,-0.0094151571393013,0.0006633676821365952,0.0007615950307808816,-0.004414582159370184
0.0,0.0059251682832837105,-0.009628483094274998,0.0006800682167522609,0.0009681033552624285,-0.004335267003625631
0.00031495190341956913,0.00647389842197299,-0.009567109867930412,0.0006314716883935034,0.0009694453328847885,-0.004396521020680666
0.000292628858005628,0.005716200917959213,-0.009881415404379368,0.0005206437781453133,0.000881112297065556,-0.005316857248544693
0.00032892919261939824,0.005947830621153116,-0.009446708485484123,0.0005532507784664631,0.0009212219738401473,-0.004999394528567791
0.00031072809360921383,0.005802507977932692,-0.008957486599683762,0.0005069266771897674,0.0009088872466236353,-0.004758790601044893
0.0002938284014817327,0.006245803087949753,-0.009266690351068974,0.0005203667678870261,0.0007936695474199951,-0.0047368211671710014
0.00027866411255672574,0.005886580795049667,-0.009137511253356934,0.0004968595458194613,0.0007767385104671121,-0.0047272746451199055
0.0003073440748266876,0.005806758999824524,-0.00939867552369833,0.000461582065327093,0.0007141937967389822,-0.005164314992725849
0.00029466545674949884,0.005629800725728273,-0.009609369561076164,0.00043012312380596995,0.0007280701538547873,-0.004983782768249512
0.00032009679125621915,0.005666838027536869,-0.009640761651098728,0.0004523360403254628,0.0006531637627631426,-0.004784260876476765
0.0003079526941291988,0.00612672558054328,-0.008936724625527859,0.0004319785803090781,0.0007319127325899899,-0.004161083605140448
0.00029686628840863705,0.005965440534055233,-0.009525828063488007,0.0004079383797943592,0.0007794008124619722,-0.003878122428432107
0.00036066537722945213,0.006076453719288111,-0.009870949201285839,0.00038608410977758467,0.0010576971108093858,-0.003774776356294751
0.00033499079290777445,0.006512668449431658,-0.008805138058960438,0.0003664297400973737,0.0012632431462407112,-0.004042686428874731
0.0003715556231327355,0.005910229403525591,-0.009097663685679436,0.0003486794885247946,0.0012363800778985023,-0.0045462544076144695
0.00034986669197678566,0.006432873196899891,-0.00920853205025196,0.00033256993629038334,0.0015326462453231215,-0.004689037334173918
0.0003286040446255356,0.0058408575132489204,-0.008960804902017117,0.0003178823390044272,0.0015793379861861467,-0.004476637579500675
0.00030975264962762594,0.005998005159199238,-0.009133044630289078,0.00030443895957432687,0.001464696484617889,-0.00436984421685338
0.0003410781791899353,0.00629184627905488,-0.009430715814232826,0.000292086333502084,0.0014028705190867186,-0.004410587716847658
0.0003410781791899353,0.00629184627905488,-0.009430715814232826,0.000292086333502084,0.0014028705190867186,-0.004410587716847658
0.0003241731319576502,0.0062582301907241344,-0.008620296604931355,0.0002806967531796545,0.001337587833404541,-0.004463328048586845
0.0003517388831824064,0.006217420566827059,-0.008624023757874966,0.000270162447122857,0.0013372647808864713,-0.0046043964102864265
0.0005004836129955947,0.006057800725102425,-0.009411638602614403,0.00026039063232019544,0.001212316332384944,-0.00506389606744051
0.0005658692098222673,0.0059677311219275,-0.008743462152779102,0.00025130147696472704,0.00102664390578866,-0.005069094244390726
0.000599716033320874,0.005886283703148365,-0.008915715850889683,0.0002428250591037795,0.0009823603322729468,-0.004850967787206173
0.001313414890319109,0.006391970440745354,-0.008798984810709953,0.0002349022397538647,0.0009493945981375873,-0.004759632050991058
0.0011175816180184484,0.006389011163264513,-0.008625784888863564,0.00022747980256099254,0.0009573192219249904,-0.004869494587182999
0.0010613357881084085,0.006204810459166765,-0.009219467639923096,0.0002205121418228373,0.0009797427337616682,-0.004876329563558102
0.0009221720974892378,0.006233439780771732,-0.009385290555655956,0.00021395875955931842,0.0009994832798838615,-0.005082912743091583
0.000917670433409512,0.005669290665537119,-0.00942991767078638,0.0002077834215015173,0.0009857913246378303,-0.004829796962440014
0.0007587354630231857,0.006322526838630438,-0.008561043068766594,0.00020195516117382795,0.0009740290115587413,-0.0044741337187588215
0.0008555087842978537,0.0066797384060919285,-0.008678517304360867,0.00019644491840153933,0.0009761970723047853,-0.004574891179800034
0.0017732023261487484,0.005813285708427429,-0.008694588206708431,0.00016319980204571038,0.0010289615020155907,-0.005399071145802736
0.0016059940680861473,0.005839420482516289,-0.009184034541249275,0.00015889706264715642,0.0011670705862343311,-0.004901861306279898
0.0016211890615522861,0.006144199054688215,-0.00894281268119812,0.00015497599088121206,0.001320594921708107,-0.004558655433356762
0.001504775369539857,0.00656535429880023,-0.008582588285207748,0.0001512542221462354,0.0013095951871946454,-0.004650996532291174
0.00140238250605762,0.005688867997378111,-0.00872042402625084,0.00014770773123018444,0.0015309305163100362,-0.004701321478933096
0.0013975490583106875,0.005738213658332825,-0.009147388860583305,0.00014432390162255615,0.0014347451506182551,-0.004755737259984016
0.0014803215162828565,0.005867023952305317,-0.009233959950506687,0.00014109170297160745,0.0013535565230995417,-0.00504927197471261
0.0018197586759924889,0.00634553050622344,-0.008180884644389153,5.826622509630397e-05,0.0013139190850779414,-0.0051851049065589905
0.0018523341277614236,0.006336582824587822,-0.008764018304646015,4.585064380080439e-05,0.001258377218618989,-0.005289542954415083
0.002210402162745595,0.005850047804415226,-0.009232930839061737,4.4014803279424086e-05,0.001363694085739553,-0.00507832458242774
0.002150076674297452,0.005629448685795069,-0.008584840223193169,4.29186002293136e-05,0.0013844880741089582,-0.004928514361381531
0.002100552897900343,0.005719919688999653,-0.008328618481755257,2.637647048686631e-05,0.0012917376589030027,-0.00554822338744998
0.0022530213464051485,0.006416513118892908,-0.008961593732237816,2.0834799215663224e-05,0.0012239329516887665,-0.0056037637405097485
0.002204273361712694,0.006907183211296797,-0.008788235485553741,2.0048359147040173e-05,0.001081043854355812,-0.005783541593700647
0.0024370518513023853,0.006047350354492664,-0.009045707993209362,1.3090146921967971e-06,0.0010280380956828594,-0.005248114466667175
0.002345380140468478,0.005990916397422552,-0.008616414852440357,8.546930274633269e-08,0.0010961438529193401,-0.005414325278252363
0.002345380140468478,0.005990916397422552,-0.008616414852440357,8.546930274633269e-08,0.0010961438529193401,-0.005414325278252363
0.0025519903283566236,0.006269953213632107,-0.00870594847947359,5.58053514509993e-09,0.0012024117168039083,-0.0054340907372534275
0.0027471750508993864,0.006448473781347275,-0.008823162876069546,3.643690626997653e-10,0.0013975396286696196,-0.0053741359151899815
0.002709419699385762,0.006244437303394079,-0.008571615442633629,2.379069684310675e-11,0.001385313575156033,-0.00566486082971096
0.0025018707383424044,0.006476742215454578,-0.008878553286194801,1.5533624733721219e-12,0.0015380409313365817,-0.005931571125984192
0.002812374848872423,0.006182732526212931,-0.008399651385843754,-0.0007452995632775128,0.0014578858390450478,-0.005750616081058979
0.0030583194456994534,0.006137869320809841,-0.00827021338045597,-0.0013192499754950404,0.001376560889184475,-0.006070881616324186
0.0030397893860936165,0.006724947597831488,-0.009712041355669498,-0.0013377367286011577,0.0012996612349525094,-0.005809843074530363
0.0029227035120129585,0.0063429721631109715,-0.008768568746745586,-0.0019146782578900456,0.001272517372854054,-0.0058618769980967045
0.0029961341060698032,0.005957421846687794,-0.008114883676171303,-0.001948138582520187,0.0012336167274042964,-0.005810214672237635
0.002873617922887206,0.006242851726710796,-0.00875050574541092,-0.0021542664617300034,0.0014561137650161982,-0.005713696125894785
0.003397496649995446,0.006432377267628908,-0.008338574320077896,-0.0029062179382890463,0.001512952265329659,-0.005972636863589287
0.0034460637252777815,0.006038540508598089,-0.008252778090536594,-0.003461075248196721,0.0015322600957006216,-0.006207178346812725
0.003214354859665036,0.005991615820676088,-0.008764482103288174,-0.0032456403132528067,0.0014106478774920106,-0.006459574680775404
0.0032431804575026035,0.006067432463169098,-0.00842699408531189,-0.003315140726044774,0.0012697135098278522,-0.006179504096508026
0.003492864081636071,0.0064815329387784,-0.00816925335675478,-0.0032950532622635365,0.0011448533041402698,-0.0065722088329494
0.004300285596400499,0.006791949272155762,-0.008759759366512299,-0.0038702506572008133,0.0011381317162886262,-0.006466811057180166
0.004091796465218067,0.006411764770746231,-0.008603877387940884,-0.0046152896247804165,0.0011028650915250182,-0.006356986239552498
0.004309031646698713,0.006249994970858097,-0.00875440426170826,-0.005107389762997627,0.0010828077793121338,-0.006274885963648558
0.004290888551622629,0.0063102045096457005,-0.008481052704155445,-0.004963078536093235,0.0010648044990375638,-0.006024431437253952
0.004398928955197334,0.006735161412507296,-0.008626089431345463,-0.004885229282081127,0.001120267086662352,-0.006859814282506704
0.004314168356359005,0.006536408793181181,-0.008234556764364243,-0.004713505040854216,0.0011655420530587435,-0.0067008850164711475
0.004288943018764257,0.006161191035062075,-0.008080415427684784,-0.004899272229522467,0.0013227174058556557,-0.00688783498480916
0.004288943018764257,0.006161191035062075,-0.008080415427684784,-0.004899272229522467,0.0013227174058556557,-0.00688783498480916
0.0048248679377138615,0.006227197591215372,-0.008445239625871181,-0.005915284156799316,0.0014886838616803288,-0.006806305143982172
0.004863336682319641,0.006261428352445364,-0.00783043447881937,-0.005246164742857218,0.0014415804762393236,-0.007250191643834114
0.004658884834498167,0.006082385312765837,-0.008906116709113121,-0.004725735168904066,0.001386829186230898,-0.007512758485972881
0.004309241659939289,0.006127701606601477,-0.008477287366986275,-0.005594744347035885,0.0014252691762521863,-0.006976813543587923
0.004309241659939289,0.006127701606601477,-0.008477287366986275,-0.005594744347035885,0.0014252691762521863,-0.006976813543587923
0.004863220266997814,0.006066596135497093,-0.00798618234694004,-0.005977383814752102,0.0013476317981258035,-0.006478684954345226
0.005170352756977081,0.006590399891138077,-0.007902128621935844,-0.006108894944190979,0.0012742943363264203,-0.006624868605285883
0.005002193618565798,0.00644819438457489,-0.0090700164437294,-0.005569173488765955,0.0013377458089962602,-0.006634098943322897
0.004735026974231005,0.006081991828978062,-0.008606336079537868,-0.005111907608807087,0.0013696630485355854,-0.006378209218382835
0.0052863298915326595,0.006305473856627941,-0.008135476149618626,-0.004901184234768152,0.001387628260999918,-0.006934202741831541
0.005087710916996002,0.006736740004271269,-0.0077043622732162476,-0.0057608336210250854,0.001385254436172545,-0.006843741051852703
0.005269266199320555,0.006885144393891096,-0.009029455482959747,-0.005579571705311537,0.0012911773519590497,-0.006930662784725428
0.005251833237707615,0.006357051432132721,-0.008202026598155499,-0.006170476786792278,0.0012234169989824295,-0.006900387350469828
0.005738209001719952,0.006123268976807594,-0.007944690994918346,-0.005882177036255598,0.0011718205641955137,-0.006873843725770712
0.005175471305847168,0.006235525012016296,-0.008961344137787819,-0.0062689404003322124,0.001143238041549921,-0.007331815082579851
0.005399197805672884,0.006605284754186869,-0.008404213935136795,-0.006116674747318029,0.0011962107382714748,-0.007186137605458498
0.0056229690089821815,0.006256075110286474,-0.008149304427206516,-0.0065544075332582,0.0012479651486501098,-0.007199625950306654
0.005885351914912462,0.006347261369228363,-0.009239871054887772,-0.006440790370106697,0.0012336323270574212,-0.006766743026673794
0.006085143890231848,0.00650867260992527,-0.008122782222926617,-0.006125792395323515,0.0013259785482659936,-0.007091655395925045
0.005823385436087847,0.006527951452881098,-0.008058147504925728,-0.006299416534602642,0.0013296045362949371,-0.007310960441827774
0.006106839515268803,0.006360284984111786,-0.009038705378770828,-0.006306122522801161,0.0012794865760952234,-0.0067718843929469585
0.006165965925902128,0.006090288050472736,-0.008937099948525429,-0.006287332158535719,0.0014612670056521893,-0.006482603494077921
0.006450082175433636,0.006031553260982037,-0.0085911825299263,-0.006180460099130869,0.0013956887414678931,-0.006636011879891157
0.006412102375179529,0.006267054472118616,-0.009016168303787708,-0.006120922975242138,0.001340529415756464,-0.006748827174305916
0.005942871794104576,0.007332883309572935,-0.008539095520973206,-0.006052069365978241,0.0014187338529154658,-0.0068377163261175156
0.005920378491282463,0.0065620276145637035,-0.008467026054859161,-0.006316604092717171,0.0014238153817132115,-0.006622066721320152
0.006579922512173653,0.006208768114447594,-0.008315484039485455,-0.006699966732412577,0.0014315395383164287,-0.006049479357898235
0.007147985510528088,0.006537183653563261,-0.008688260801136494,-0.006701244972646236,0.0015231880825012922,-0.0071090636774897575
0.006929456721991301,0.007216070778667927,-0.008655816316604614,-0.007445602212101221,0.0014619756257161498,-0.007715015206485987
0.00657973438501358,0.006898350082337856,-0.008296816609799862,-0.007654743734747171,0.001586550148203969,-0.007225027773529291
0.0063943443819880486,0.006168857216835022,-0.008402272127568722,-0.00697363493964076,0.0014594356762245297,-0.006754936184734106
0.0063943443819880486,0.006168857216835022,-0.008402272127568722,-0.00697363493964076,0.0014594356762245297,-0.006754936184734106
0.006959480699151754,0.006036799866706133,-0.00857008807361126,-0.006515642162412405,0.0013807917712256312,-0.006574268452823162
0.007080245763063431,0.006002955138683319,-0.008771932683885098,-0.006853800732642412,0.001337987370789051,-0.006779275368899107
0.0070777153596282005,0.006535673979669809,-0.008457144722342491,-0.0073729706928133965,0.0013520634965971112,-0.007059482857584953
0.006982897873967886,0.006788593716919422,-0.008975863456726074,-0.007573100738227367,0.0013348206412047148,-0.006897540297359228
0.007603202946484089,0.006557806860655546,-0.00910358689725399,-0.007466576993465424,0.001448662020266056,-0.007149004843086004
0.007585140876471996,0.006177038419991732,-0.008396544493734837,-0.007609764114022255,0.0014389142161235213,-0.007356641348451376
0.007554023060947657,0.006504851393401623,-0.008516304194927216,-0.007692386396229267,0.0017786002717912197,-0.007335258182138205
0.007722065784037113,0.007063619792461395,-0.009000116027891636,-0.007914958521723747,0.0017334420699626207,-0.007285908330231905
0.00796052161604166,0.006269375793635845,-0.008573266677558422,-0.007792854215949774,0.0018181302584707737,-0.00739222252741456
0.00839292723685503,0.00639494089409709,-0.008321859873831272,-0.008754943497478962,0.0017269938252866268,-0.007606398314237595
0.008048529736697674,0.006554541178047657,-0.008783796802163124,-0.008345304988324642,0.0015026296023279428,-0.0074967676773667336
0.007183418609201908,0.006881017703562975,-0.008714968338608742,-0.007858560420572758,0.00147472252137959,-0.007406179327517748
0.007314946968108416,0.006906656548380852,-0.008602986112236977,-0.00747654540464282,0.0014110748888924718,-0.007549128495156765
0.007711729034781456,0.0065405829809606075,-0.008901284076273441,-0.008419361896812916,0.001601855386979878,-0.007623417768627405
0.007711729034781456,0.0065405829809606075,-0.008901284076273441,-0.008419361896812916,0.001601855386979878,-0.007623417768627405
0.00801836233586073,0.007189053110778332,-0.009364226832985878,-0.007722657639533281,0.0021750889718532562,-0.007515172939747572
0.008107107132673264,0.0068308692425489426,-0.00913461297750473,-0.007776407990604639,0.002179893432185054,-0.0076696602627635
0.007550432346761227,0.006473059765994549,-0.008391328155994415,-0.008550955913960934,0.0019533042795956135,-0.007581912446767092
0.00598136056214571,0.006317260209470987,-0.008948352187871933,-0.008389783091843128,0.00168144260533154,-0.0077500236220657825
0.005201332736760378,0.007225084584206343,-0.009576872922480106,-0.008492762222886086,0.0015204224037006497,-0.007869640365242958
0.005815492942929268,0.006943122949451208,-0.00876958854496479,-0.008190021850168705,0.0014110682532191277,-0.008091525174677372
0.006861536297947168,0.0057466295547783375,-0.008371355943381786,-0.008155559189617634,0.001318283611908555,-0.008274554274976254
0.006344686262309551,0.006413566414266825,-0.00890866108238697,-0.008063741028308868,0.0014029279118403792,-0.007841264829039574
0.0063170031644403934,0.006772325839847326,-0.009114495478570461,-0.008698150515556335,0.002009523333981633,-0.008117226883769035
0.006117822136729956,0.006917611230164766,-0.008145472966134548,-0.009296759031713009,0.002163358498364687,-0.008386622183024883
0.0059456671588122845,0.006846131756901741,-0.008452891372144222,-0.008973460644483566,0.002153452020138502,-0.008288299664855003
0.0059456671588122845,0.006846131756901741,-0.008452891372144222,-0.008973460644483566,0.002153452020138502,-0.008288299664855003
0.00661647692322731,0.006651070900261402,-0.009394978173077106,-0.008960016071796417,0.001898333546705544,-0.007969820871949196
0.005860983859747648,0.0067868600599467754,-0.008744397200644016,-0.009282557293772697,0.0015047797933220863,-0.00830057542771101
0.005892841145396233,0.007032323163002729,-0.008425322361290455,-0.008765940554440022,0.0014309167163446546,-0.008624772541224957
0.00658372649922967,0.0073936753906309605,-0.00890294648706913,-0.009043974801898003,0.0013871616683900356,-0.007972553372383118
0.0066605182364583015,0.00690152682363987,-0.008785506710410118,-0.009207543917000294,0.0014862040989100933,-0.008552322164177895
0.006692091468721628,0.0071510435082018375,-0.00907969567924738,-0.009772269055247307,0.0015689318533986807,-0.008271888829767704
0.006471112836152315,0.007722390815615654,-0.009134666994214058,-0.009798543527722359,0.0019343069288879633,-0.007943598553538322
0.006841781083494425,0.007665576413273811,-0.008973971009254456,-0.009984171949326992,0.0019486590754240751,-0.008007139898836613
0.007370837032794952,0.006601143628358841,-0.008540937677025795,-0.009853885509073734,0.0021382987033575773,-0.008234957233071327
0.007698654662817717,0.006766376085579395,-0.008572477847337723,-0.009944814257323742,0.002014645142480731,-0.008344062604010105
0.0070323036052286625,0.0070394412614405155,-0.008887222968041897,-0.010377208702266216,0.002104862593114376,-0.008163019083440304
0.0073599545285105705,0.0075167943723499775,-0.008638659492135048,-0.009667632170021534,0.0021189574617892504,-0.008220359683036804
0.00790280383080244,0.0068656750954687595,-0.00940060056746006,-0.010424680076539516,0.002539857756346464,-0.00893209595233202
0.007101526949554682,0.007234909571707249,-0.009088904596865177,-0.009733816608786583,0.002433162182569504,-0.008566535077989101
0.006651006173342466,0.00765049597248435,-0.008736839517951012,-0.00987796951085329,0.00252363714389503,-0.00854889489710331
0.008066682144999504,0.0076691401191055775,-0.008798904716968536,-0.010598151944577694,0.0026140124537050724,-0.00846329890191555
0.00777284475043416,0.007084966171532869,-0.00901495199650526,-0.010584171861410141,0.002377765253186226,-0.008408911526203156
0.007371100597083569,0.006812375504523516,-0.0086410753428936,-0.011314479634165764,0.0022831216920167208,-0.00873815268278122
0.007878457196056843,0.007133934646844864,-0.008926940150558949,-0.010711461305618286,0.0020779832266271114,-0.008866331540048122
0.007881914265453815,0.007311479654163122,-0.009293426759541035,-0.010537562891840935,0.0022007885854691267,-0.008807326667010784
0.007471801247447729,0.00706213666126132,-0.008233105763792992,-0.010861304588615894,0.002182331634685397,-0.008485572412610054
0.007302792277187109,0.007112980354577303,-0.008058225736021996,-0.009889086708426476,0.0022029499523341656,-0.008036188781261444
0.007847527042031288,0.007371548563241959,-0.008981756865978241,-0.009949471801519394,0.002122787293046713,-0.008139953948557377
0.007542422041296959,0.007443048991262913,-0.009036917239427567,-0.011073000729084015,0.0020445585250854492,-0.008214874193072319
0.007542422041296959,0.007443048991262913,-0.009036917239427567,-0.011073000729084015,0.0020445585250854492,-0.008214874193072319
0.007564374711364508,0.00707215117290616,-0.008713039569556713,-0.010459243319928646,0.0019032132113352418,-0.008877740241587162
0.008467286825180054,0.007252597715705633,-0.008761927485466003,-0.010905468836426735,0.0021403369028121233,-0.008688279427587986
0.008467286825180054,0.007252597715705633,-0.008761927485466003,-0.010905468836426735,0.0021403369028121233,-0.008688279427587986
0.00846482627093792,0.007199047598987818,-0.008667128160595894,-0.010324361734092236,0.0022167456336319447,-0.008792134001851082
0.008048574440181255,0.006791055668145418,-0.008296827785670757,-0.010464734397828579,0.0024449832271784544,-0.009064423851668835
0.008247263729572296,0.007202738430351019,-0.00925348699092865,-0.010819444432854652,0.0025730275083333254,-0.00903365295380354
0.008981243707239628,0.007578573189675808,-0.008505158126354218,-0.010364317335188389,0.0024555004201829433,-0.009196228347718716
0.008561882190406322,0.00742413429543376,-0.007702721748501062,-0.010989361442625523,0.0024529725778847933,-0.009304527193307877
0.008007878437638283,0.0073229651898145676,-0.008060568943619728,-0.01118467841297388,0.0022333012893795967,-0.009298458695411682
0.008711298927664757,0.007081364281475544,-0.008348927833139896,-0.010819287970662117,0.0021072812378406525,-0.00921627413481474
0.008762739598751068,0.007420458365231752,-0.0077406675554811954,-0.011144123040139675,0.0021354679483920336,-0.009418526664376259
0.008598719723522663,0.007821006700396538,-0.008079464547336102,-0.010664441622793674,0.002153282519429922,-0.00931164063513279
0.008402601815760136,0.007242243271321058,-0.008582504466176033,-0.010285542346537113,0.0025251710321754217,-0.00889417715370655
0.008570796810090542,0.006827384699136019,-0.007836387492716312,-0.010698145255446434,0.00253569008782506,-0.009322884492576122
0.008802268654108047,0.007930310443043709,-0.007890699431300163,-0.01030654739588499,0.0023971290793269873,-0.009582818485796452
0.009346501901745796,0.007252019830048084,-0.007690116297453642,-0.010790829546749592,0.0025188676081597805,-0.009598505683243275
0.009381776675581932,0.0072448900900781155,-0.007246399763971567,-0.010823891498148441,0.002353358780965209,-0.01019652746617794
0.008489496074616909,0.007393587380647659,-0.007612366694957018,-0.011102395132184029,0.002243801485747099,-0.009294656105339527
0.00869523175060749,0.00781598687171936,-0.008607978001236916,-0.010993396863341331,0.002127049956470728,-0.009432301856577396
0.009344467893242836,0.007316687144339085,-0.008129997178912163,-0.011694169603288174,0.002211283426731825,-0.010537690483033657
0.009305261075496674,0.007075185887515545,-0.006993587128818035,-0.011390584520995617,0.00222774944268167,-0.010231046006083488
0.00873393565416336,0.00751672126352787,-0.007037098985165358,-0.010867765173316002,0.0022461903281509876,-0.00981728732585907
0.009140525944530964,0.007704033516347408,-0.008321017026901245,-0.011364778503775597,0.002274124650284648,-0.010233098641037941
0.009168120101094246,0.007531523704528809,-0.008425007574260235,-0.011668526567518711,0.0022419968154281378,-0.010542279109358788
0.009209544397890568,0.00803731195628643,-0.0075554754585027695,-0.01205177791416645,0.0024633242283016443,-0.010228258557617664
0.009693079628050327,0.007815842516720295,-0.007687753532081842,-0.011979990638792515,0.003092247759923339,-0.010612289421260357
0.009683309122920036,0.008139981888234615,-0.007950876839458942,-0.011861545965075493,0.0028239211533218622,-0.01030964870005846
0.009683309122920036,0.008139981888234615,-0.007950876839458942,-0.011861545965075493,0.0028239211533218622,-0.01030964870005846
0.009338926523923874,0.007215770892798901,-0.00754481740295887,-0.012750126421451569,0.002742469310760498,-0.010576562024652958
0.009881919249892235,0.00718287006020546,-0.006871982477605343,-0.012850749306380749,0.002318308688700199,-0.010487157851457596
0.009950271807610989,0.008220716379582882,-0.007310902699828148,-0.013093664310872555,0.002224857220426202,-0.010255329310894012
0.010570704005658627,0.007713587023317814,-0.008220254443585873,-0.013352002017199993,0.0022125253453850746,-0.010755732655525208
0.010002908296883106,0.007488254923373461,-0.00790469441562891,-0.012619724497199059,0.002297300146892667,-0.01029872428625822
0.009881780482828617,0.007613293826580048,-0.008152616210281849,-0.011588997207581997,0.002523276722058654,-0.009587105363607407
0.009771048091351986,0.007696834392845631,-0.007892233319580555,-0.012517107650637627,0.002715672831982374,-0.010014436207711697
0.01097992155700922,0.00736113591119647,-0.007880213670432568,-0.013790723867714405,0.0024702230002731085,-0.010613462887704372
0.009800726547837257,0.007336827926337719,-0.007674574386328459,-0.012977470643818378,0.0024757119826972485,-0.0105879632756114
0.009395679458975792,0.007503124885261059,-0.007546157110482454,-0.012936589308083057,0.0026191631332039833,-0.010728116147220135
0.00985226221382618,0.007718298584222794,-0.008179380558431149,-0.012845674529671669,0.0028175858315080404,-0.011079780757427216
0.009722474031150341,0.007762831170111895,-0.00825223233550787,-0.01332855224609375,0.002877413062378764,-0.010994117707014084
0.009909650310873985,0.007428095676004887,-0.0076180920004844666,-0.013200429268181324,0.0029156911186873913,-0.010991242714226246
0.010443994775414467,0.007411024998873472,-0.007228130009025335,-0.013680312782526016,0.0028738928958773613,-0.01039739791303873
0.009889562614262104,0.008019976317882538,-0.007439575623720884,-0.013735443353652954,0.0027151117101311684,-0.010284559801220894
0.010266066528856754,0.007351933047175407,-0.007511955685913563,-0.014319202862679958,0.0024368197191506624,-0.011588669382035732
0.009938651695847511,0.007410980761051178,-0.007465180940926075,-0.014186774380505085,0.0023317818995565176,-0.01120088156312704
0.010294897481799126,0.008645597845315933,-0.00881961639970541,-0.014556100592017174,0.0024168011732399464,-0.010206588543951511
0.010596783831715584,0.008012576028704643,-0.00809359923005104,-0.01454229187220335,0.0026646596379578114,-0.010463329963386059
0.010488173924386501,0.007149166893213987,-0.007704370189458132,-0.014725671149790287,0.002516963751986623,-0.010751582682132721
0.010227840393781662,0.007904871366918087,-0.007699829526245594,-0.014650854282081127,0.0027026438619941473,-0.010589364916086197
0.01015483494848013,0.007878793403506279,-0.008317968808114529,-0.014728515408933163,0.003090422134846449,-0.01082253735512495
0.010481646284461021,0.0074675967916846275,-0.008060397580265999,-0.015111880376935005,0.003112737089395523,-0.010630615055561066
0.011318856850266457,0.007841475307941437,-0.007155389059334993,-0.014909368939697742,0.0029362684581428766,-0.0108008598908782
0.010520352981984615,0.008147774264216423,-0.007144259754568338,-0.015069017186760902,0.0027467207983136177,-0.010805868543684483
0.010141117498278618,0.007774185389280319,-0.008203413337469101,-0.015050561167299747,0.0028059070464223623,-0.010737369768321514
0.010817845351994038,0.008061148226261139,-0.008078412152826786,-0.015276762656867504,0.002845203271135688,-0.011036532931029797
0.01065380871295929,0.0077898274175822735,-0.007493461016565561,-0.015011235140264034,0.002627984154969454,-0.011614997871220112
0.0106357391923666,0.008265286684036255,-0.008000961504876614,-0.015358563512563705,0.0026429733261466026,-0.011321506462991238
0.010909177362918854,0.007741900160908699,-0.00791002158075571,-0.01509526465088129,0.0026149284094572067,-0.01112977135926485
0.010909177362918854,0.007741900160908699,-0.00791002158075571,-0.01509526465088129,0.0026149284094572067,-0.01112977135926485
0.010748280212283134,0.007510794792324305,-0.0075001525692641735,-0.015569210052490234,0.0024949866347014904,-0.011382556520402431
0.011292524635791779,0.008120965212583542,-0.007826345041394234,-0.016052844002842903,0.002722265664488077,-0.01126467902213335
0.011292524635791779,0.008120965212583542,-0.007826345041394234,-0.016052844002842903,0.002722265664488077,-0.01126467902213335
0.010392121970653534,0.00766604021191597,-0.008716044016182423,-0.015493636950850487,0.0029726738575845957,-0.011671626009047031
0.01077289879322052,0.008125072345137596,-0.007880453951656818,-0.015465262345969677,0.0031761121936142445,-0.011361266486346722
0.010608360171318054,0.008328636176884174,-0.007368672639131546,-0.01566840149462223,0.0031367256306111813,-0.011247104033827782
0.010499652475118637,0.007755884435027838,-0.00812107976526022,-0.01587417721748352,0.003079810878261924,-0.011160449124872684
0.010903481394052505,0.007822141982614994,-0.008216876536607742,-0.01548626646399498,0.0029864825773984194,-0.011286291293799877
0.010754273273050785,0.007675605360418558,-0.008088978007435799,-0.015565810725092888,0.0029330425895750523,-0.01151489932090044
0.010683142580091953,0.008123048581182957,-0.0076233018189668655,-0.016088159754872322,0.0027800952084362507,-0.011579069308936596
0.010906913317739964,0.008860264904797077,-0.008010495454072952,-0.01582164876163006,0.002828058088198304,-0.011750602163374424
0.01067282259464264,0.008029651828110218,-0.008106028661131859,-0.016200345009565353,0.002891445765271783,-0.012027492746710777
0.010529931634664536,0.007631579414010048,-0.007654669228941202,-0.015919042751193047,0.002870710799470544,-0.012179202400147915
0.011036667041480541,0.007975396700203419,-0.008494199253618717,-0.016916535794734955,0.002899866783991456,-0.012041720561683178
0.01138387806713581,0.00812755711376667,-0.008294490166008472,-0.016596365720033646,0.0030996156856417656,-0.011736362241208553
0.011332493275403976,0.008558658882975578,-0.0077211931347846985,-0.01686035841703415,0.0031865870114415884,-0.012150034308433533
0.011671698652207851,0.008248507045209408,-0.008335442282259464,-0.01638992317020893,0.0030141829047352076,-0.012105556204915047
0.010655887424945831,0.008315381594002247,-0.007914204150438309,-0.017284253612160683,0.002810023259371519,-0.01211763359606266
0.010433953255414963,0.007933476008474827,-0.007858270779252052,-0.01698639988899231,0.0028226240538060665,-0.012205163016915321
0.011086000129580498,0.008767089806497097,-0.007780715823173523,-0.01741350255906582,0.0028200538363307714,-0.012205859646201134
0.010766603983938694,0.008666744455695152,-0.008416786789894104,-0.01779039576649666,0.0028703666757792234,-0.01233154721558094
0.010355341248214245,0.008700435981154442,-0.007942869327962399,-0.01751774363219738,0.002715453738346696,-0.012270696461200714
0.010355341248214245,0.008700435981154442,-0.007942869327962399,-0.01751774363219738,0.002715453738346696,-0.012270696461200714
0.011012867093086243,0.008812528103590012,-0.007995283231139183,-0.018303703516721725,0.0024198766332119703,-0.012619302608072758
0.010544177144765854,0.008485406637191772,-0.008357565850019455,-0.018139716237783432,0.002436548238620162,-0.012546221725642681
0.01095456164330244,0.008451140485703945,-0.008122525177896023,-0.018535824492573738,0.002801391528919339,-0.012593344785273075
0.010810255073010921,0.008572941645979881,-0.00820617750287056,-0.018417885527014732,0.0032157336827367544,-0.012364562600851059
0.011056367307901382,0.008897334337234497,-0.008504065684974194,-0.01847994513809681,0.0031491941772401333,-0.012366537936031818
0.011056367307901382,0.008897334337234497,-0.008504065684974194,-0.01847994513809681,0.0031491941772401333,-0.012366537936031818
0.011393503285944462,0.008573138155043125,-0.008007320575416088,-0.018762899562716484,0.0030771372839808464,-0.012304022908210754
0.011124953627586365,0.00866437517106533,-0.008100572042167187,-0.018654093146324158,0.002876416314393282,-0.012277893722057343
0.012002312578260899,0.00909432116895914,-0.00818568840622902,-0.018582668155431747,0.0028714302461594343,-0.01261773519217968
0.011470437049865723,0.008600764907896519,-0.008614907041192055,-0.018567383289337158,0.0029856227338314056,-0.012623731046915054
0.011772979982197285,0.008567656390368938,-0.008422293700277805,-0.018734315410256386,0.003046811791136861,-0.012764635495841503
0.010690239258110523,0.008850989863276482,-0.00772124482318759,-0.018741022795438766,0.003160633146762848,-0.012657565996050835
0.010658917017281055,0.009747819975018501,-0.007661993615329266,-0.019522206857800484,0.0029962235130369663,-0.012887708842754364
0.011783820576965809,0.008355740457773209,-0.008739086799323559,-0.019351234659552574,0.003304512472823262,-0.012774741277098656
0.011453471146523952,0.009184829890727997,-0.009166188538074493,-0.01955454982817173,0.0035879546776413918,-0.012821194715797901
0.010954693891108036,0.009014802053570747,-0.008156603202223778,-0.01945684291422367,0.003618826624006033,-0.012917285785079002
0.011372207663953304,0.008941896259784698,-0.008405102416872978,-0.018598971888422966,0.003441294888034463,-0.01278915535658598
0.011310688219964504,0.008961522951722145,-0.008224518969655037,-0.019040841609239578,0.0031910331454128027,-0.01310871634632349
0.011167115531861782,0.008990014903247356,-0.00840271357446909,-0.019586121663451195,0.002912483410909772,-0.013851991854608059
0.011271689087152481,0.008505633100867271,-0.008818352594971657,-0.019259626045823097,0.003154105506837368,-0.01347426138818264
0.01194992009550333,0.00898044928908348,-0.008580628782510757,-0.0193292498588562,0.003338712267577648,-0.01330367662012577
0.011383064091205597,0.008818218484520912,-0.008427735418081284,-0.01968172937631607,0.0034760283306241035,-0.013309438712894917
0.011762751266360283,0.009253913536667824,-0.00868239626288414,-0.020407814532518387,0.0037075327709317207,-0.013980110175907612
0.011569797061383724,0.009172285906970501,-0.008303782902657986,-0.020592674612998962,0.0038553487975150347,-0.013456156477332115
0.0117227453738451,0.009603907354176044,-0.008292100392282009,-0.019848838448524475,0.00353433471173048,-0.012822791002690792
0.011397304013371468,0.008528647013008595,-0.008489534258842468,-0.020174426957964897,0.0032372111454606056,-0.012732046656310558
0.010331890545785427,0.008920797146856785,-0.008583243936300278,-0.019945627078413963,0.003237856086343527,-0.013159964233636856
0.0117507204413414,0.008962021209299564,-0.008255400694906712,-0.019917016848921776,0.003176353871822357,-0.013260244391858578
0.012860877439379692,0.008793376386165619,-0.008006090298295021,-0.02066943421959877,0.0033295978792011738,-0.013525793328881264
0.012169753201305866,0.009019993245601654,-0.00840828474611044,-0.021103570237755775,0.003391333157196641,-0.014298521913588047
0.011968865059316158,0.009402601048350334,-0.008004942908883095,-0.020915452390909195,0.0033659208565950394,-0.014303908683359623
0.011664977297186852,0.009084701538085938,-0.007821420207619667,-0.02073211409151554,0.0031068918760865927,-0.013757802546024323
0.011927944608032703,0.009038148447871208,-0.007588897831737995,-0.021001486107707024,0.0034104196820408106,-0.013514546677470207
0.011542108841240406,0.009404504671692848,-0.008124026469886303,-0.02125888504087925,0.003332993481308222,-0.013823769055306911
0.011542108841240406,0.009404504671692848,-0.008124026469886303,-0.02125888504087925,0.003332993481308222,-0.013823769055306911
0.012749412097036839,0.009581186808645725,-0.008313232101500034,-0.021084396168589592,0.0038486344274133444,-0.014136803336441517
0.012494987808167934,0.009325344115495682,-0.007108562625944614,-0.019811488687992096,0.004174499306827784,-0.014426877722144127
0.011744394898414612,0.009787201881408691,-0.007140875328332186,-0.02111242711544037,0.004098643083125353,-0.014116300269961357
0.012697114609181881,0.009519116953015327,-0.008242025040090084,-0.021756436675786972,0.003910964820533991,-0.014131241478025913
0.012336274608969688,0.009366024285554886,-0.007487122435122728,-0.021065624430775642,0.003798731369897723,-0.014069866389036179
0.012564470991492271,0.010173443704843521,-0.0072307041846215725,-0.020701680332422256,0.003828190267086029,-0.014286522753536701
0.012274054810404778,0.009672331623733044,-0.008065703324973583,-0.02138686366379261,0.004268610384315252,-0.013975707814097404
0.012039877474308014,0.009170212782919407,-0.007944430224597454,-0.022308528423309326,0.004113381262868643,-0.014080907218158245
0.012449140660464764,0.009867209009826183,-0.007477989420294762,-0.022663017734885216,0.0038829210679978132,-0.014357279054820538
0.011754517443478107,0.009542654268443584,-0.007388987112790346,-0.022132907062768936,0.003707148600369692,-0.014699172228574753
0.012351399287581444,0.009505356661975384,-0.007689241319894791,-0.021459970623254776,0.003745999885722995,-0.014594587497413158
0.01240707840770483,0.009761426597833633,-0.007333974353969097,-0.02125728316605091,0.0035361789632588625,-0.014395675621926785
0.012389610521495342,0.009214600548148155,-0.0066678328439593315,-0.02139192447066307,0.003697663778439164,-0.014395267702639103
0.012724635191261768,0.009962426498532295,-0.007067273370921612,-0.0222111027687788,0.004259479697793722,-0.014400975778698921
0.012785789556801319,0.010040140710771084,-0.008021091111004353,-0.022370437160134315,0.0036472720094025135,-0.01486014761030674
0.01241323072463274,0.009493615478277206,-0.007341514807194471,-0.022469641640782356,0.003593413159251213,-0.014645230956375599
0.012980673462152481,0.010573675855994225,-0.007136269006878138,-0.022618146613240242,0.0033218981698155403,-0.014765356667339802
0.012867030687630177,0.009448896162211895,-0.007455605082213879,-0.023026958107948303,0.003463437082245946,-0.015002467669546604
0.013112124986946583,0.009498643688857555,-0.007719745859503746,-0.02331671677529812,0.003632771549746394,-0.015522630885243416
0.01281727384775877,0.009976859204471111,-0.007073843851685524,-0.022441331297159195,0.003761413274332881,-0.014958047308027744
0.013329919427633286,0.009522140957415104,-0.006820567883551121,-0.022497616708278656,0.0038508300203830004,-0.014815201051533222
0.013047849759459496,0.009616062976419926,-0.007359214127063751,-0.023309797048568726,0.004225556738674641,-0.01490690652281046
0.013334685005247593,0.009766102768480778,-0.007549360394477844,-0.023960508406162262,0.004314822144806385,-0.014960911124944687
0.013942860066890717,0.009238870814442635,-0.007019628304988146,-0.024216335266828537,0.004071495961397886,-0.014694372192025185
0.014987553469836712,0.009371710941195488,-0.006897227372974157,-0.024531729519367218,0.003948574420064688,-0.015063552185893059
0.015284829773008823,0.009806237183511257,-0.00747996149584651,-0.024437790736556053,0.0039972951635718346,-0.015312331728637218
0.015085560269653797,0.00953932385891676,-0.007864292711019516,-0.02472245879471302,0.004014133010059595,-0.015123385936021805
0.014898744411766529,0.009416226297616959,-0.0075427270494401455,-0.024246729910373688,0.004039287567138672,-0.014993644319474697
0.014898744411766529,0.009416226297616959,-0.0075427270494401455,-0.024246729910373688,0.004039287567138672,-0.014993644319474697
0.015087861567735672,0.009900989942252636,-0.007515081204473972,-0.024141207337379456,0.0043883612379431725,-0.014980101026594639
0.015177726745605469,0.009864451363682747,-0.007060236297547817,-0.024299683049321175,0.004266442731022835,-0.015284819528460503
0.01544925943017006,0.00957643985748291,-0.00717742508277297,-0.024715876206755638,0.004029819741845131,-0.01504957303404808
0.015228712931275368,0.009821143932640553,-0.007271086797118187,-0.02528107538819313,0.0038815371226519346,-0.015030084177851677
0.015566370449960232,0.010050300508737564,-0.006851601880043745,-0.024959079921245575,0.003860951168462634,-0.015006697736680508
0.015154732391238213,0.009488306008279324,-0.006809349171817303,-0.024873293936252594,0.0039054008666425943,-0.015359052456915379
0.015519545413553715,0.009957277216017246,-0.007504332344979048,-0.024649370461702347,0.004125354811549187,-0.015418215654790401
0.015155528672039509,0.009922333061695099,-0.007168614771217108,-0.024857256561517715,0.004131580702960491,-0.015670528635382652
0.015811296179890633,0.009644807316362858,-0.006498084869235754,-0.024865511804819107,0.004384087398648262,-0.015478584915399551
0.015106961131095886,0.009693334810435772,-0.006668505724519491,-0.02472660131752491,0.004137067124247551,-0.015468240715563297
0.01569574512541294,0.009426116943359375,-0.007415285333991051,-0.025434385985136032,0.004433851223438978,-0.015670979395508766
0.015430394560098648,0.010378289967775345,-0.007270065136253834,-0.02554110810160637,0.004343976266682148,-0.01563449203968048
0.015356235206127167,0.009661683812737465,-0.006725975312292576,-0.025585534051060677,0.004060511011630297,-0.015736013650894165
0.015401164069771767,0.009183266200125217,-0.007419555447995663,-0.025898361578583717,0.004071938339620829,-0.016175314784049988
0.015697462484240532,0.009538549929857254,-0.007772703189402819,-0.0257788747549057,0.004018165171146393,-0.01615733839571476
0.015664750710129738,0.009441197849810123,-0.007036219816654921,-0.025581685826182365,0.003866064129397273,-0.01618265174329281
0.015958162024617195,0.009375769644975662,-0.006736112758517265,-0.025803981348872185,0.0035082590766251087,-0.015732401981949806
0.015413831919431686,0.009505972266197205,-0.006828319281339645,-0.02589084580540657,0.003491333220154047,-0.015802035108208656
0.015698570758104324,0.009716883301734924,-0.007220902014523745,-0.026064157485961914,0.00375800090841949,-0.01604253426194191
0.015424497425556183,0.00931551307439804,-0.007229920476675034,-0.02619720622897148,0.0038644890300929546,-0.016162298619747162
0.015975000336766243,0.009457509964704514,-0.007137371692806482,-0.026611115783452988,0.004123385064303875,-0.014859013259410858
0.01571662724018097,0.010353725403547287,-0.007276935037225485,-0.026695603504776955,0.0041506243869662285,-0.01681271381676197
0.01598585769534111,0.009187325835227966,-0.007213866338133812,-0.026767103001475334,0.004354824312031269,-0.017043180763721466
0.015921683982014656,0.009649040177464485,-0.0070362938567996025,-0.026601877063512802,0.004913350101560354,-0.016724292188882828
0.016051312908530235,0.009834910742938519,-0.0068690599873661995,-0.026845553889870644,0.004870534408837557,-0.016112616285681725
0.01611483469605446,0.009234972298145294,-0.007328580133616924,-0.02660902589559555,0.004555079620331526,-0.01567099802196026
0.015944089740514755,0.009014508686959743,-0.0076627605594694614,-0.026877541095018387,0.004084527026861906,-0.016214514151215553
0.01640845462679863,0.010011505335569382,-0.0075890859588980675,-0.027034619823098183,0.003945836331695318,-0.016275988891720772
0.016171395778656006,0.009657909162342548,-0.0067280312068760395,-0.027311239391565323,0.004778608679771423,-0.016696618869900703
0.016533570364117622,0.00920275878161192,-0.006362048909068108,-0.027178103104233742,0.005123208276927471,-0.016787810251116753
0.016480684280395508,0.009901042096316814,-0.006984651554375887,-0.0275384820997715,0.005041108932346106,-0.016627585515379906
0.01587323658168316,0.009642399847507477,-0.006609710864722729,-0.028008777648210526,0.004957822151482105,-0.016898849979043007
0.01587323658168316,0.009642399847507477,-0.006609710864722729,-0.028008777648210526,0.004957822151482105,-0.016898849979043007
0.016942773014307022,0.010571765713393688,-0.00713376235216856,-0.02794744074344635,0.004449776373803616,-0.016994379460811615
0.016708869487047195,0.010196506045758724,-0.006737623363733292,-0.02776685543358326,0.0044464957900345325,-0.017400627955794334
0.01707388088107109,0.00947598833590746,-0.006997078191488981,-0.028422662988305092,0.004526964854449034,-0.017330190166831017
0.016772562637925148,0.010317103937268257,-0.00669126957654953,-0.029348736628890038,0.004466584417968988,-0.016642101109027863
0.01682993769645691,0.010102632455527782,-0.006579859647899866,-0.028476422652602196,0.004817490000277758,-0.016731996089220047
0.017024772241711617,0.009584183804690838,-0.0068848044611513615,-0.02761305868625641,0.004921033978462219,-0.016301287338137627
0.016886668279767036,0.010450771078467369,-0.00674984697252512,-0.02748936414718628,0.004836930427700281,-0.016854027286171913
0.016588713973760605,0.01019708439707756,-0.007073584944009781,-0.028352269902825356,0.004973122850060463,-0.01735224574804306
0.016206469386816025,0.00975806638598442,-0.0069392831064760685,-0.02859020233154297,0.004942337516695261,-0.01759565994143486
0.017073551192879677,0.009833304211497307,-0.006524559110403061,-0.027977829799056053,0.00452110730111599,-0.017703427001833916
0.016860809177160263,0.010862043127417564,-0.0063249836675822735,-0.028216063976287842,0.004847473930567503,-0.017407963052392006
0.017131568863987923,0.009770468808710575,-0.006685938686132431,-0.02804044634103775,0.004835192579776049,-0.0176379531621933
0.0169045552611351,0.010214063338935375,-0.006454294081777334,-0.02739524096250534,0.004255135077983141,-0.01728695258498192
0.017531316727399826,0.009855580516159534,-0.0066832988522946835,-0.027911728248000145,0.004310224670916796,-0.01739782653748989
0.017407838255167007,0.009973705746233463,-0.00726623460650444,-0.028936751186847687,0.004280171822756529,-0.017208851873874664
0.018015120178461075,0.010276279412209988,-0.006942099425941706,-0.02878490276634693,0.004734773654490709,-0.01716320775449276
0.01749749295413494,0.00994561705738306,-0.00629182206466794,-0.02872975543141365,0.004986695013940334,-0.017496977001428604
0.017151767387986183,0.009933211840689182,-0.006088382564485073,-0.02926972135901451,0.004732842091470957,-0.017344092950224876
0.018261568620800972,0.01156051829457283,-0.00665086368098855,-0.029023433104157448,0.004385011270642281,-0.017626574262976646
0.017482765018939972,0.00919615849852562,-0.00751668494194746,-0.029088715091347694,0.00444040447473526,-0.017599469050765038
0.01752757467329502,0.009663405828177929,-0.007018629927188158,-0.02905072085559368,0.0044760568998754025,-0.017702912911772728
0.017976434901356697,0.010327598080039024,-0.006229852791875601,-0.029335470870137215,0.004839795641601086,-0.017804304137825966
0.017927473410964012,0.010095837526023388,-0.006353914272040129,-0.029748760163784027,0.0052580940537154675,-0.017971085384488106
0.018040819093585014,0.01018514297902584,-0.006890298333019018,-0.02947303093969822,0.005548905581235886,-0.018023084849119186
0.01822676695883274,0.010717506520450115,-0.007405564188957214,-0.029576212167739868,0.005250577349215746,-0.017885470762848854
0.017868760973215103,0.00994700938463211,-0.006844021379947662,-0.03107644058763981,0.004635258577764034,-0.01803325116634369
0.018268737941980362,0.01025516726076603,-0.006341759581118822,-0.03189755603671074,0.004448984749615192,-0.01825002394616604
0.018268737941980362,0.01025516726076603,-0.006341759581118822,-0.03189755603671074,0.004448984749615192,-0.01825002394616604
0.017940739169716835,0.010548168793320656,-0.0064248922280967236,-0.031220709905028343,0.00488293869420886,-0.01792578026652336
0.018147503957152367,0.010076996870338917,-0.007269803434610367,-0.030081477016210556,0.004972528666257858,-0.017810622230172157
0.01837729476392269,0.01048723328858614,-0.007260240614414215,-0.03011886589229107,0.005763942841440439,-0.018029101192951202
0.017890116199851036,0.010599466972053051,-0.0069230240769684315,-0.03197917714715004,0.004722592420876026,-0.01824563555419445
0.018205000087618828,0.00991809368133545,-0.006999238859862089,-0.03179006651043892,0.004523804876953363,-0.017444206401705742
0.01823624223470688,0.010074240155518055,-0.00768426526337862,-0.03253145143389702,0.0041946605779230595,-0.017604928463697433
0.01804639771580696,0.010196925140917301,-0.007063870318233967,-0.0332111157476902,0.00485675223171711,-0.01833885721862316
0.018511729314923286,0.010282572358846664,-0.0074589913710951805,-0.03233296424150467,0.005502667743712664,-0.01840895228087902
0.018299339339137077,0.010977820493280888,-0.006758449599146843,-0.030968355014920235,0.005300556309521198,-0.018175529316067696
0.01792762614786625,0.010314750485122204,-0.007172067649662495,-0.031153136864304543,0.0050275386311113834,-0.018339572474360466
0.018567176535725594,0.010685262270271778,-0.007410849444568157,-0.03206517919898033,0.0049622319638729095,-0.01833430863916874
0.01831643469631672,0.010661954991519451,-0.007071672007441521,-0.031692713499069214,0.004750516731292009,-0.01853744313120842
0.018610965460538864,0.010300171561539173,-0.007433840539306402,-0.03202914074063301,0.005059499759227037,-0.018864748999476433
0.018574615940451622,0.01055298000574112,-0.007600568700581789,-0.032726407051086426,0.00506969541311264,-0.018931422382593155
0.01885066367685795,0.010071034543216228,-0.007258595898747444,-0.03271681070327759,0.005406152922660112,-0.018925271928310394
0.017398657277226448,0.010947024449706078,-0.007050956599414349,-0.03306971490383148,0.005183932837098837,-0.019074663519859314
0.019694052636623383,0.010758051648736,-0.007286017294973135,-0.0328245684504509,0.0048524122685194016,-0.019340572878718376
0.019536703824996948,0.010688080452382565,-0.007750099990516901,-0.03305000066757202,0.0049000936560332775,-0.019292034208774567
0.019261902198195457,0.010873585939407349,-0.00744031323119998,-0.0336683988571167,0.00488368421792984,-0.019124580547213554
0.01919541321694851,0.010764017701148987,-0.006826970260590315,-0.03319266811013222,0.005126803647726774,-0.01896623522043228
0.019153138622641563,0.011238613165915012,-0.007267417386174202,-0.03317071869969368,0.0052841901779174805,-0.01903611794114113
0.01943078637123108,0.01242559403181076,-0.007607867009937763,-0.03370238468050957,0.0053730979561805725,-0.01846238411962986
0.019233936443924904,0.012042274698615074,-0.007604471407830715,-0.03373624384403229,0.00506419874727726,-0.018996208906173706
0.019472045823931694,0.012517731636762619,-0.007088105659931898,-0.033925145864486694,0.005226849112659693,-0.019852302968502045
0.020232129842042923,0.01146254688501358,-0.007292155176401138,-0.03401613235473633,0.005257038865238428,-0.020206362009048462
0.020232129842042923,0.01146254688501358,-0.007292155176401138,-0.03401613235473633,0.005257038865238428,-0.020206362009048462
0.02061416581273079,0.012237058021128178,-0.008673667907714844,-0.03454473242163658,0.005347974132746458,-0.019701311364769936
0.019690440967679024,0.012142321094870567,-0.0072227539494633675,-0.03447765111923218,0.005344423931092024,-0.01935543492436409
0.020695539191365242,0.011971975676715374,-0.006604543887078762,-0.03381967172026634,0.0055277408100664616,-0.019534099847078323
0.020257651805877686,0.01212017796933651,-0.0071691181510686874,-0.03395381197333336,0.005216943100094795,-0.01932693086564541
0.019135186448693275,0.011629395186901093,-0.008225283585488796,-0.03375846520066261,0.005244027357548475,-0.019256649538874626
0.02058013528585434,0.012429995462298393,-0.007796903140842915,-0.0338517501950264,0.005613610148429871,-0.01986214518547058
0.020750025287270546,0.011325228027999401,-0.007115374784916639,-0.03329366445541382,0.006028308067470789,-0.020284751430153847
0.020450333133339882,0.011519414372742176,-0.00745388912037015,-0.03383498266339302,0.005649019498378038,-0.020089106634259224
0.020125530660152435,0.01196739450097084,-0.0076508899219334126,-0.033855944871902466,0.00541644636541605,-0.020042303949594498
0.02080782875418663,0.011699399910867214,-0.007353303022682667,-0.034235697239637375,0.005634072236716747,-0.02044869214296341
0.02070310153067112,0.01241594273597002,-0.007287832908332348,-0.03416062518954277,0.0051848404109478,-0.020475950092077255
0.020911788567900658,0.012078466825187206,-0.008255882188677788,-0.03455101698637009,0.005188145209103823,-0.02028425596654415
0.021023735404014587,0.011638551950454712,-0.008430172689259052,-0.03370888531208038,0.005212622229009867,-0.019177908077836037
0.02150593139231205,0.012261046096682549,-0.007101524621248245,-0.03435713052749634,0.005707965698093176,-0.019384533166885376
0.02076892741024494,0.011415661312639713,-0.00748561741784215,-0.03512800484895706,0.00551223149523139,-0.019739797338843346
0.02072288654744625,0.01206245832145214,-0.007958541624248028,-0.03490471467375755,0.005690823309123516,-0.02001437172293663
0.021458115428686142,0.011952996253967285,-0.007463731337338686,-0.03458298370242119,0.005624095909297466,-0.02065863460302353
0.021434465423226357,0.0116001907736063,-0.00764402886852622,-0.03530198708176613,0.00560317188501358,-0.020776163786649704
0.02137645334005356,0.01143689826130867,-0.007769093848764896,-0.03507985547184944,0.005886042024940252,-0.02064703032374382
0.021904248744249344,0.012462451122701168,-0.007590218912810087,-0.03632426634430885,0.0057237655855715275,-0.02053704671561718
0.021926889196038246,0.011556851677596569,-0.007555084768682718,-0.03691040351986885,0.005449279677122831,-0.020823825150728226
0.02119104377925396,0.012011447921395302,-0.007007230073213577,-0.035002365708351135,0.004930200986564159,-0.021056098863482475
0.021635225042700768,0.012132314033806324,-0.008174652233719826,-0.03518306463956833,0.00483893696218729,-0.021070022135972977
0.021635225042700768,0.012132314033806324,-0.008174652233719826,-0.03518306463956833,0.00483893696218729,-0.021070022135972977
0.021635225042700768,0.012132314033806324,-0.008174652233719826,-0.03518306463956833,0.00483893696218729,-0.021070022135972977
0.021635225042700768,0.012132314033806324,-0.008174652233719826,-0.03518306463956833,0.00483893696218729,-0.021070022135972977
0.022655347362160683,0.01226586289703846,-0.007539594545960426,-0.03721374273300171,0.0051969727501273155,-0.021420657634735107
0.021947676315903664,0.011383338831365108,-0.007155101280659437,-0.036796893924474716,0.005452659446746111,-0.02111649699509144
0.021947676315903664,0.011383338831365108,-0.007155101280659437,-0.036796893924474716,0.005452659446746111,-0.02111649699509144
0.021947676315903664,0.011383338831365108,-0.007155101280659437,-0.036796893924474716,0.005452659446746111,-0.02111649699509144
0.022210871800780296,0.01157066598534584,-0.007172822952270508,-0.03663068637251854,0.005100951995700598,-0.021053703501820564
0.022210871800780296,0.01157066598534584,-0.007172822952270508,-0.03663068637251854,0.005100951995700598,-0.021053703501820564
0.022169433534145355,0.011609743349254131,-0.007617985364049673,-0.03622911125421524,0.005358389113098383,-0.020814578980207443
0.02293362282216549,0.011779101565480232,-0.007185821421444416,-0.036675188690423965,0.005504559725522995,-0.02099825069308281
0.022862689569592476,0.01158082578331232,-0.007471217308193445,-0.037350162863731384,0.005238005891442299,-0.02091110311448574
0.02230842225253582,0.011718777008354664,-0.007804797030985355,-0.036630965769290924,0.005313897971063852,-0.02107003703713417
0.02227773703634739,0.01153114065527916,-0.0074457814916968346,-0.03604768589138985,0.005116739310324192,-0.02138649672269821
0.022366346791386604,0.012010392732918262,-0.007289619650691748,-0.03556205704808235,0.005245082546025515,-0.02120855078101158
0.022377455607056618,0.011758429929614067,-0.007326875813305378,-0.03663470596075058,0.005520988721400499,-0.021172618493437767
0.02262777090072632,0.011843319050967693,-0.007539150770753622,-0.03692764416337013,0.00516100088134408,-0.021248525008559227
0.022271737456321716,0.0113862669095397,-0.0070285494439303875,-0.039073288440704346,0.005242228973656893,-0.021705180406570435
0.022870726883411407,0.011716609820723534,-0.006230771541595459,-0.03750847280025482,0.005492195021361113,-0.02227434702217579
0.02311781421303749,0.011633167043328285,-0.006648498587310314,-0.03701665624976158,0.005635972134768963,-0.022470422089099884
0.022551704198122025,0.012013904750347137,-0.007420208305120468,-0.03816881775856018,0.005535494070500135,-0.022269489243626595
0.022563006728887558,0.011974215507507324,-0.006979162804782391,-0.037912603467702866,0.00563039118424058,-0.021241283044219017
0.023125985637307167,0.011333625763654709,-0.006796582601964474,-0.03858308494091034,0.005379147361963987,-0.020490266382694244
0.023174868896603584,0.012009126134216785,-0.006826322991400957,-0.03858334571123123,0.005730198230594397,-0.021457204595208168
0.023487506434321404,0.01181595865637064,-0.0076507022604346275,-0.03833417221903801,0.005450458265841007,-0.022488301619887352
0.02322390489280224,0.012444172985851765,-0.006740645971149206,-0.03883059322834015,0.00569523312151432,-0.022578518837690353
0.023348771035671234,0.0120132090523839,-0.006251188926398754,-0.038507167249917984,0.005551462061703205,-0.02171560376882553
0.02351178228855133,0.011405673809349537,-0.006883210968226194,-0.03832760080695152,0.005847122520208359,-0.02169000916182995
0.02375413477420807,0.012387060560286045,-0.00707209762185812,-0.0390266515314579,0.006027132738381624,-0.022654594853520393
0.02385574020445347,0.011418807320296764,-0.0072532230988144875,-0.03832399100065231,0.0060927728191018105,-0.022889334708452225
0.024746499955654144,0.011898413300514221,-0.006500046234577894,-0.037714727222919464,0.0057225278578698635,-0.02163524739444256
0.024931976571679115,0.011591903865337372,-0.006282223854213953,-0.03756154328584671,0.0057528079487383366,-0.021205000579357147
0.024931976571679115,0.011591903865337372,-0.006282223854213953,-0.03756154328584671,0.0057528079487383366,-0.021205000579357147
0.024193357676267624,0.011604180559515953,-0.006701658945530653,-0.03817204758524895,0.006452414207160473,-0.021609358489513397
0.02162814699113369,0.011863204650580883,-0.007315832655876875,-0.03768911957740784,0.006261987145990133,-0.022207384929060936
0.02488342858850956,0.011627276428043842,-0.006792453117668629,-0.03761088848114014,0.005878624506294727,-0.02274591661989689
0.02518657222390175,0.012279325164854527,-0.0062814392149448395,-0.037935517728328705,0.005522749852389097,-0.02177148312330246
0.024754628539085388,0.012090981937944889,-0.0064040436409413815,-0.039274536073207855,0.005803607404232025,-0.02168956585228443
0.024360472336411476,0.012080893851816654,-0.007166069466620684,-0.03787429258227348,0.006456885486841202,-0.022423896938562393
0.024828406050801277,0.012358746491372585,-0.006497484631836414,-0.03792079910635948,0.0065374854020774364,-0.022365622222423553
0.02457757107913494,0.011789847165346146,-0.006364594679325819,-0.038236718624830246,0.006111710332334042,-0.022392891347408295
0.02421734109520912,0.012131412513554096,-0.0066036744974553585,-0.038443516939878464,0.005563800223171711,-0.02256719209253788
0.02399343065917492,0.01126930769532919,-0.007115993183106184,-0.03896867111325264,0.005986291449517012,-0.022788675501942635
0.024523025378584862,0.011693679727613926,-0.00691591203212738,-0.03845182806253433,0.0066299415193498135,-0.022676344960927963
0.02472704090178013,0.011756998486816883,-0.00685458118095994,-0.038675207644701004,0.006416684482246637,-0.022297345101833344
0.024461889639496803,0.012623671442270279,-0.006695611868053675,-0.040660612285137177,0.006152875255793333,-0.02291872538626194
0.024612147361040115,0.01198321208357811,-0.007425583433359861,-0.04035741090774536,0.006329816300421953,-0.023147743195295334
0.024883365258574486,0.012359383516013622,-0.006879591848701239,-0.038376618176698685,0.006255364045500755,-0.023006217554211617
0.024638809263706207,0.012054088525474072,-0.006602179259061813,-0.0401296429336071,0.006373165640980005,-0.02293560281395912
0.02480805478990078,0.011928077787160873,-0.006626471411436796,-0.04093235358595848,0.006377411540597677,-0.022656278684735298
0.025044063106179237,0.012103208340704441,-0.00709925452247262,-0.04174662008881569,0.005799609702080488,-0.02309282496571541
0.025013526901602745,0.011898922733962536,-0.007394410669803619,-0.041381705552339554,0.005888448096811771,-0.02339664101600647
0.0248179379850626,0.012193392030894756,-0.006829963065683842,-0.03990074247121811,0.005971734877675772,-0.02302754484117031
0.02483978681266308,0.011964231729507446,-0.006463359575718641,-0.04032027721405029,0.006388084497302771,-0.023135831579566002
0.025349687784910202,0.012409934774041176,-0.0068651484325528145,-0.040826838463544846,0.006412689108401537,-0.023036612197756767
0.025318782776594162,0.01218035165220499,-0.007001915015280247,-0.040548570454120636,0.005723981652408838,-0.022663310170173645
0.025347672402858734,0.011718067340552807,-0.006734491791576147,-0.04033033922314644,0.005705252755433321,-0.023050425574183464
0.025192322209477425,0.012852739542722702,-0.006895940285176039,-0.04138307645916939,0.00636646943166852,-0.023216478526592255
0.025236044079065323,0.011934789828956127,-0.006893458776175976,-0.04082953557372093,0.006702486891299486,-0.022905224934220314
0.025401629507541656,0.012594199739396572,-0.00719328923150897,-0.04026029631495476,0.006449181120842695,-0.02295452356338501
0.025401629507541656,0.012594199739396572,-0.00719328923150897,-0.04026029631495476,0.006449181120842695,-0.02295452356338501
0.02533418871462345,0.011977088637650013,-0.007435999810695648,-0.040672726929187775,0.006268111057579517,-0.022752614691853523
0.0250094011425972,0.012143071740865707,-0.00661610160022974,-0.04152863472700119,0.006040345411747694,-0.02292882278561592
0.02463371679186821,0.012158112600445747,-0.00645271735265851,-0.04141801968216896,0.006102423649281263,-0.023250164464116096
0.025901880115270615,0.012059815227985382,-0.006928832735866308,-0.04159954935312271,0.006449960172176361,-0.023230986669659615
0.026289422065019608,0.01240416057407856,-0.007330101449042559,-0.04215976595878601,0.0064601111225783825,-0.022987157106399536
0.027100207284092903,0.012529319152235985,-0.0068746223114430904,-0.043627068400382996,0.006435951218008995,-0.023289699107408524
0.026942500844597816,0.012019931338727474,-0.006280003115534782,-0.042120929807424545,0.00633531529456377,-0.023442933335900307
0.025701293721795082,0.01173760648816824,-0.006724022328853607,-0.04079550504684448,0.006201646756380796,-0.023632002994418144
0.026060054078698158,0.011575881391763687,-0.0071406555362045765,-0.04197411611676216,0.006616064812988043,-0.023099247366189957
0.026576107367873192,0.012767399661242962,-0.006849620025604963,-0.042253635823726654,0.006625589914619923,-0.02288086526095867
0.026993796229362488,0.012913643382489681,-0.0068152109161019325,-0.043816883116960526,0.007004660554230213,-0.02420676499605179
0.026761267334222794,0.012778202071785927,-0.0074240765534341335,-0.04091987386345863,0.006681423168629408,-0.024048352614045143
0.026924138888716698,0.012911001220345497,-0.0068487683311104774,-0.042381975799798965,0.006915430072695017,-0.02401198260486126
0.026610134169459343,0.012565086595714092,-0.006644395180046558,-0.04302669316530228,0.0063745430670678616,-0.023908091709017754
0.02647535316646099,0.012930848635733128,-0.006733499933034182,-0.04301392659544945,0.006438535172492266,-0.023350857198238373
0.026501238346099854,0.013193201273679733,-0.007440490182489157,-0.043115053325891495,0.006299236789345741,-0.023791765794157982
0.026644591242074966,0.012467661872506142,-0.007102733012288809,-0.041783224791288376,0.006561177782714367,-0.025000225752592087
0.027334842830896378,0.013560009188950062,-0.006772885099053383,-0.0424640029668808,0.006817733868956566,-0.02475292794406414
0.027430081740021706,0.0127137815579772,-0.007153063081204891,-0.042038727551698685,0.006595494691282511,-0.02433732897043228
0.027330122888088226,0.0130226518958807,-0.007124293129891157,-0.042749401181936264,0.006360579282045364,-0.024943845346570015
0.02738875150680542,0.012941118329763412,-0.007244267035275698,-0.042557038366794586,0.006502885837107897,-0.025455817580223083
0.027138445526361465,0.013424210250377655,-0.00728151248767972,-0.04280499368906021,0.006930093746632338,-0.02507690340280533
0.02707737311720848,0.013294925913214684,-0.006536103319376707,-0.04302247613668442,0.006507011130452156,-0.02423485741019249
0.027227312326431274,0.013246998190879822,-0.006604823749512434,-0.04288021847605705,0.006948583293706179,-0.023692095652222633
0.02738405205309391,0.013187226839363575,-0.006895705591887236,-0.04264151677489281,0.006546409800648689,-0.02475375309586525
0.027274873107671738,0.013220442458987236,-0.006790621671825647,-0.042935967445373535,0.006646483205258846,-0.025542089715600014
0.027319693937897682,0.01334091741591692,-0.007153059355914593,-0.04345876723527908,0.0067864833399653435,-0.025434646755456924
0.027561716735363007,0.013187294825911522,-0.007020596880465746,-0.044091273099184036,0.006481433752924204,-0.025238292291760445
0.02774602733552456,0.013687916100025177,-0.0068627349101006985,-0.044129543006420135,0.00638616131618619,-0.025269683450460434
0.028033068403601646,0.013186098076403141,-0.006766891572624445,-0.04485759139060974,0.006538552697747946,-0.025469789281487465
0.028033068403601646,0.013186098076403141,-0.006766891572624445,-0.04485759139060974,0.006538552697747946,-0.025469789281487465
0.027743656188249588,0.0137620335444808,-0.0066434647887945175,-0.04513047635555267,0.006890033837407827,-0.02550857700407505
0.027785319834947586,0.013408656232059002,-0.006762946955859661,-0.04458947852253914,0.0068623581901192665,-0.02567184716463089
0.028220929205417633,0.013993853703141212,-0.007287942338734865,-0.0463690347969532,0.006788898259401321,-0.025937823578715324
0.027608906850218773,0.013419384136795998,-0.007492064964026213,-0.04588131979107857,0.006587510462850332,-0.02607486955821514
0.02787034586071968,0.01416781172156334,-0.007022758014500141,-0.04405338317155838,0.006619140040129423,-0.026315471157431602
0.02794700115919113,0.013548408634960651,-0.007522699888795614,-0.044763270765542984,0.0068360199220478535,-0.026258477941155434
0.02807144820690155,0.013840985484421253,-0.007022455800324678,-0.046050772070884705,0.0071258763782680035,-0.02668772265315056
0.028044164180755615,0.014025608077645302,-0.0068644629791378975,-0.04721016436815262,0.006753866095095873,-0.025719255208969116
0.028410296887159348,0.013925586827099323,-0.006603193935006857,-0.04493072256445885,0.0071014524437487125,-0.026144415140151978
0.028374329209327698,0.014132986776530743,-0.006975132506340742,-0.04566359147429466,0.007269996218383312,-0.026449300348758698
0.028065161779522896,0.013889869675040245,-0.007456101011484861,-0.047574449330568314,0.00729620736092329,-0.02646438591182232
0.028460146859288216,0.014074334874749184,-0.007460262626409531,-0.04700784385204315,0.007231557741761208,-0.026351017877459526
0.028734207153320312,0.014293989166617393,-0.007004598621279001,-0.04690717160701752,0.007243726402521133,-0.026921618729829788
0.02847125753760338,0.014110095798969269,-0.006711240392178297,-0.047497574239969254,0.006808062549680471,-0.02746465802192688
0.028704684227705002,0.013979758135974407,-0.007059337105602026,-0.04714461416006088,0.006839129142463207,-0.0273384191095829
0.028632983565330505,0.014357158914208412,-0.0070199803449213505,-0.04741634801030159,0.006787882186472416,-0.02620561234652996
0.028229383751749992,0.014389144256711006,-0.0065049841068685055,-0.047600481659173965,0.007153259590268135,-0.025710001587867737
0.028710253536701202,0.014144324697554111,-0.006908610463142395,-0.048215582966804504,0.007771286182105541,-0.026114651933312416
0.029339319095015526,0.014305409044027328,-0.00772820133715868,-0.04679802805185318,0.006942871958017349,-0.0270367618650198
0.029608773067593575,0.01442041341215372,-0.007047432009130716,-0.04644662141799927,0.006439835764467716,-0.026861799880862236
0.028183037415146828,0.014566820114850998,-0.006672410760074854,-0.04848041012883186,0.006873234640806913,-0.026934679597616196
0.0286661759018898,0.014440306462347507,-0.006739792414009571,-0.048158835619688034,0.006966373883187771,-0.027704916894435883
0.0286661759018898,0.014440306462347507,-0.006739792414009571,-0.048158835619688034,0.006966373883187771,-0.027704916894435883
0.02922840416431427,0.014451135881245136,-0.007423411589115858,-0.04661300405859947,0.007317439187318087,-0.02656090073287487
0.029910432174801826,0.01456342451274395,-0.0067229862324893475,-0.04738514870405197,0.007169997785240412,-0.026154277846217155
0.029910432174801826,0.01456342451274395,-0.0067229862324893475,-0.04738514870405197,0.007169997785240412,-0.026154277846217155
0.030442800372838974,0.014571393840014935,-0.0068263160064816475,-0.04866604879498482,0.007184566464275122,-0.02646135538816452
0.028863172978162766,0.014453800395131111,-0.0073617747984826565,-0.0457298718392849,0.007097295019775629,-0.027384668588638306
0.028863172978162766,0.014453800395131111,-0.0073617747984826565,-0.0457298718392849,0.007097295019775629,-0.027384668588638306
0.02898550033569336,0.014749742113053799,-0.006448328495025635,-0.04688926786184311,0.007366063538938761,-0.027270959690213203
0.029607003554701805,0.014845186844468117,-0.007078687660396099,-0.04781978949904442,0.007066285703331232,-0.026207158342003822
0.030429307371377945,0.014659300446510315,-0.006812164094299078,-0.047728560864925385,0.006923162844032049,-0.026553118601441383
0.029050184413790703,0.01499792281538248,-0.007223630789667368,-0.04728524386882782,0.007229693233966827,-0.027130406349897385
0.03020705282688141,0.014719601720571518,-0.007195697166025639,-0.04766443371772766,0.007442052476108074,-0.027479808777570724
0.030635781586170197,0.014809483662247658,-0.006781465839594603,-0.04718735069036484,0.006808613892644644,-0.027525929734110832
0.0299221258610487,0.015104888938367367,-0.007544626481831074,-0.04702410474419594,0.006966819055378437,-0.027817009016871452
0.030999617651104927,0.014895647764205933,-0.007558588869869709,-0.04754846543073654,0.007303454913198948,-0.02779049426317215
0.031043680384755135,0.015273488126695156,-0.006884881295263767,-0.047975607216358185,0.007078943308442831,-0.02760174311697483
0.03051045909523964,0.014843062497675419,-0.007130861282348633,-0.04820188134908676,0.007286961190402508,-0.027871854603290558
0.03098827786743641,0.015268687158823013,-0.007805895060300827,-0.04790876433253288,0.007490918971598148,-0.027643080800771713
0.031093692407011986,0.014746082946658134,-0.007830583490431309,-0.04799632355570793,0.0075079295784235,-0.027781885117292404
0.031131168827414513,0.015378317795693874,-0.007333437912166119,-0.04816027730703354,0.007475674152374268,-0.027801141142845154
0.03118394874036312,0.015284287743270397,-0.00735647976398468,-0.04858505725860596,0.007397177163511515,-0.027864914387464523
0.03091791644692421,0.015784768387675285,-0.007780754938721657,-0.04867948219180107,0.0075606550090014935,-0.027761761099100113
0.03199511393904686,0.01523834839463234,-0.008093106560409069,-0.048843368887901306,0.007138910703361034,-0.028052570298314095
0.03243159130215645,0.01552128791809082,-0.00797264277935028,-0.051010873168706894,0.007041392847895622,-0.028094539418816566
0.03140173852443695,0.015070543624460697,-0.007966131903231144,-0.04999632015824318,0.007271779701113701,-0.028361905366182327
0.030659779906272888,0.015102068893611431,-0.007768938317894936,-0.04874323680996895,0.007278743200004101,-0.02996397577226162
0.032377053052186966,0.015419170260429382,-0.007354396395385265,-0.050248485058546066,0.007366305682808161,-0.0279134102165699
0.03246995806694031,0.015448527410626411,-0.0066773477010428905,-0.053031306713819504,0.007563456892967224,-0.0277339406311512
0.03183446079492569,0.015680795535445213,-0.006673737894743681,-0.05132128298282623,0.008094536140561104,-0.028125077486038208
0.03183446079492569,0.015680795535445213,-0.006673737894743681,-0.05132128298282623,0.008094536140561104,-0.028125077486038208
0.032949045300483704,0.015629176050424576,-0.00758846802636981,-0.04919452965259552,0.007705281488597393,-0.028737079352140427
0.03258403390645981,0.015496314503252506,-0.007472209632396698,-0.051376182585954666,0.007609283551573753,-0.028752828016877174
0.031809139996767044,0.014590853825211525,-0.007026418577879667,-0.051565829664468765,0.0076570226810872555,-0.02853178232908249
0.031040554866194725,0.015440547838807106,-0.0065936557948589325,-0.05044132471084595,0.008066829293966293,-0.0291436854749918
0.03269944712519646,0.015306009911000729,-0.007213021628558636,-0.05054495483636856,0.007951291278004646,-0.029239531606435776
0.03328045830130577,0.015992838889360428,-0.0071670436300337315,-0.050835251808166504,0.007715641986578703,-0.028762085363268852
0.03275008127093315,0.015613636001944542,-0.007034643553197384,-0.05079617723822594,0.008072488009929657,-0.028636280447244644
0.03240494802594185,0.01583457738161087,-0.007361079566180706,-0.04986948147416115,0.008152949623763561,-0.02952098287642002
0.03258633241057396,0.01539207249879837,-0.0075653609819710255,-0.04985370114445686,0.007928021252155304,-0.030334649607539177
0.0323854498565197,0.015361578203737736,-0.007416033651679754,-0.04920053854584694,0.007916269823908806,-0.028767868876457214
0.03260517120361328,0.01558834407478571,-0.006305926479399204,-0.048755042254924774,0.007608760613948107,-0.028413454070687294
0.03246799483895302,0.016118135303258896,-0.006686358246952295,-0.05057677626609802,0.00803019292652607,-0.02967246249318123
0.03286713361740112,0.015745965763926506,-0.007379368878901005,-0.05033138021826744,0.007841281592845917,-0.030165810137987137
0.03296057879924774,0.016407081857323647,-0.0066885859705507755,-0.04807360842823982,0.007955605164170265,-0.030429523438215256
0.03304647281765938,0.017156673595309258,-0.006719392724335194,-0.04965026304125786,0.007684304378926754,-0.030128275975584984
0.032735783606767654,0.015823304653167725,-0.0068233623169362545,-0.05033005028963089,0.007802011910825968,-0.029781276360154152
0.032869670540094376,0.014951258897781372,-0.007265920750796795,-0.05202074348926544,0.007855630479753017,-0.028855303302407265
0.03304680436849594,0.016058186069130898,-0.007165126968175173,-0.04934215545654297,0.007592719979584217,-0.028958944603800774
0.03304680436849594,0.016058186069130898,-0.007165126968175173,-0.04934215545654297,0.007592719979584217,-0.028958944603800774
0.03278548642992973,0.016023432835936546,-0.006518511567264795,-0.05080036073923111,0.007999308407306671,-0.029850978404283524
0.031171036884188652,0.01616847887635231,-0.007007806561887264,-0.051559410989284515,0.00780585128813982,-0.03005967289209366
0.03353438526391983,0.01597614772617817,-0.0076481373980641365,-0.0515015684068203,0.00807427428662777,-0.029702819883823395
0.033280182629823685,0.016012070700526237,-0.007268260233104229,-0.05144163593649864,0.007628113962709904,-0.02915014699101448
0.032332949340343475,0.016442332416772842,-0.00656072236597538,-0.0515437088906765,0.007422337308526039,-0.029703399166464806
0.03237143158912659,0.015815027058124542,-0.006786712445318699,-0.0515950545668602,0.0077952854335308075,-0.029171552509069443
0.03223218023777008,0.016096970066428185,-0.0074980068020522594,-0.051826223731040955,0.007870212197303772,-0.02937442436814308
0.032788168638944626,0.01570258103311062,-0.007407663855701685,-0.05209783837199211,0.007721918169409037,-0.02987385354936123
0.032550372183322906,0.016190635040402412,-0.0066773598082363605,-0.05224014073610306,0.007604678627103567,-0.029857296496629715
0.03293739631772041,0.01599772274494171,-0.00643582409247756,-0.0523860938847065,0.007619533222168684,-0.029521767050027847
0.03249867632985115,0.015833627432584763,-0.00688728503882885,-0.052392710000276566,0.008225662633776665,-0.029575439170002937
0.032541174441576004,0.015762347728013992,-0.008147446438670158,-0.05297841131687164,0.008454319089651108,-0.030940745025873184
0.03229161351919174,0.015951720997691154,-0.00793452188372612,-0.05316716432571411,0.008114946074783802,-0.02997750975191593
0.03186294436454773,0.01614014059305191,-0.006733594462275505,-0.05302884429693222,0.008056272752583027,-0.028841068968176842
0.033042505383491516,0.015615232288837433,-0.007218570914119482,-0.05331278219819069,0.007966074161231518,-0.029465705156326294
0.03207150474190712,0.015492098405957222,-0.007284731138497591,-0.052104298025369644,0.007348946295678616,-0.030583513900637627
0.031819891184568405,0.01585972122848034,-0.00712685426697135,-0.05122338607907295,0.007599247619509697,-0.029261847957968712
0.03237533941864967,0.015329496935009956,-0.007032136432826519,-0.05217013508081436,0.007970173843204975,-0.02900066040456295
0.032127268612384796,0.015861831605434418,-0.007675760891288519,-0.054206229746341705,0.007909785956144333,-0.029565909877419472
0.03254752606153488,0.015903906896710396,-0.007282402366399765,-0.05263948068022728,0.007745599374175072,-0.030030906200408936
0.03353804349899292,0.015921516343951225,-0.006703957449644804,-0.05052085965871811,0.008134233765304089,-0.029874181374907494
0.033038146793842316,0.016452724114060402,-0.0069201430305838585,-0.05246753618121147,0.008142136968672276,-0.03096451610326767
0.031633708626031876,0.015747467055916786,-0.0076619964092969894,-0.05246691033244133,0.008144091814756393,-0.030991997569799423
0.0316450372338295,0.01602431759238243,-0.006904568988829851,-0.05185192450881004,0.007690251339226961,-0.029018620029091835
