davideferrari95/blind_handover_controller/data/Test 134 - [2024-02-07 -- 17-07-04]/joint_states_data.csv
shoulder_pan_joint,shoulder_lift_joint,elbow_joint,wrist_1_joint,wrist_2_joint,wrist_3_joint
-0.0019113002344965935,-0.015588880516588688,0.0038127668667584658,0.010250261053442955,0.0,-0.0023160732816904783
-0.0019113002344965935,-0.015588880516588688,0.0038127668667584658,0.010250261053442955,0.0,-0.0023160732816904783
-0.0020135827362537384,-0.015402357093989849,0.0038132071495056152,0.01037026010453701,0.0,-0.002156793139874935
-0.0017925358843058348,-0.015446561388671398,0.004241003654897213,0.010445396415889263,0.0,-0.0020063749980181456
-0.0017553787911310792,-0.015478620305657387,0.004015209153294563,0.010547583922743797,0.0,-0.0018096487037837505
-0.0017474446212872863,-0.015091806650161743,0.003874506102874875,0.010463560931384563,0.0,-0.001698529114946723
-0.0016465862281620502,-0.015471517108380795,0.0042259180918335915,0.010254748165607452,0.0,-0.0016493313014507294
-0.0018777069635689259,-0.015359904617071152,0.004245859105139971,0.009990920312702656,0.0,-0.0018052381929010153
-0.0017056234646588564,-0.015878334641456604,0.003999429289251566,0.01088147796690464,0.0,-0.0019209609599784017
-0.001786806620657444,-0.015382944606244564,0.00430136825889349,0.011091305874288082,0.0,-0.002102090511471033
-0.0017429875442758203,-0.01578742265701294,0.004222468007355928,0.011220438405871391,0.0,-0.002053200965747237
-0.0017757648602128029,-0.015559972263872623,0.004021603148430586,0.011428714729845524,0.0,-0.001887081889435649
-0.00162564218044281,-0.016330692917108536,0.0040308344177901745,0.010600844398140907,0.0,-0.0017004371620714664
-0.001695425482466817,-0.01528999675065279,0.0040751006454229355,0.010815232992172241,0.0,-0.0015549409436061978
-0.0017956498777493834,-0.015639720484614372,0.004043382592499256,0.011856316588819027,0.0,-0.0013975461479276419
-0.0017956498777493834,-0.015639720484614372,0.004043382592499256,0.011856316588819027,0.0,-0.0013975461479276419
-0.0019477070309221745,-0.015531953424215317,0.0046435510739684105,0.010739448480308056,0.0,-0.0017239245353266597
-0.0018546486971899867,-0.016259783878922462,0.004191550426185131,0.01048995554447174,0.0,-0.0016679284162819386
-0.00187002494931221,-0.015480470843613148,0.004358796868473291,0.00999273918569088,0.0,-0.0018845911836251616
-0.0017107921885326505,-0.01599479839205742,0.004123960621654987,0.01069672778248787,0.0,-0.0018591521074995399
-0.0016118051717057824,-0.015834631398320198,0.004435397684574127,0.010526732541620731,0.0,-0.0017931092297658324
-0.0016354848630726337,-0.015315072610974312,0.004317163955420256,0.010585102252662182,0.0,-0.0017657808493822813
-0.001738175400532782,-0.014882286079227924,0.0042450097389519215,0.011130597442388535,0.0,-0.00164429796859622
-0.0017602129373699427,-0.01585432142019272,0.00414124084636569,0.010428963229060173,0.0,-0.0015650450950488448
-0.0018416516249999404,-0.015132809989154339,0.004427141044288874,0.010375091806054115,0.0,-0.001606909092515707
-0.001850666361860931,-0.015596577897667885,0.004060441628098488,0.010367067530751228,0.0,-0.0017839008942246437
-0.0019105169922113419,-0.015153058804571629,0.003889904823154211,0.010278300382196903,0.0,-0.0019407218787819147
-0.0017187530174851418,-0.014964080415666103,0.004420335870236158,0.010293742641806602,0.0,-0.002430790802463889
-0.0016093684826046228,-0.014798742718994617,0.004622727166861296,0.010510935448110104,0.0,-0.0025240681134164333
-0.0016987723065540195,-0.015122595243155956,0.004382135346531868,0.010501442477107048,0.0,-0.0023447279818356037
-0.0015773918712511659,-0.01517900638282299,0.00406425166875124,0.011194083839654922,0.0,-0.001910184626467526
-0.0017093303613364697,-0.014963437803089619,0.004167660139501095,0.010636083781719208,0.0,-0.0018236335599794984
-0.0017380136996507645,-0.014979519881308079,0.00402324041351676,0.010518836788833141,0.0,-0.0016738170525059104
-0.0018638953333720565,-0.014798782765865326,0.00382057623937726,0.011062094941735268,0.0,-0.0017176984110847116
-0.001855520298704505,-0.015167907811701298,0.004265457857400179,0.01022074930369854,0.0,-0.0016762746963649988
-0.001844010315835476,-0.014901338145136833,0.004508396610617638,0.010053377598524094,0.0,-0.001946623669937253
-0.0018325663404539227,-0.014384535141289234,0.004340216517448425,0.010778476484119892,0.0,-0.001971895107999444
-0.0016413320554420352,-0.014499721117317677,0.004494468681514263,0.010637694038450718,0.0,-0.0019530548015609384
-0.0017040497623383999,-0.014946751296520233,0.004180001560598612,0.010767052881419659,0.0,-0.001793254748918116
-0.0016069584526121616,-0.014738094992935658,0.004202517680823803,0.010899165645241737,0.0,-0.001619091141037643
-0.0017657105345278978,-0.015267517417669296,0.004020507913082838,0.010820070281624794,0.0,-0.001506303553469479
-0.0016434220597147942,-0.014658864587545395,0.004333232529461384,0.011038658209145069,0.0,-0.0014171020593494177
-0.0016967764822766185,-0.015173619613051414,0.0046293544583022594,0.010890273377299309,0.0,-0.0014005845878273249
-0.0016690774355083704,-0.014776411466300488,0.004668214358389378,0.010981779545545578,0.0,-0.001478869467973709
-0.0016690774355083704,-0.014776411466300488,0.004668214358389378,0.010981779545545578,0.0,-0.001478869467973709
-0.001641583046875894,-0.01451027486473322,0.004689593333750963,0.010388726368546486,0.0,-0.0017439457587897778
-0.001563135301694274,-0.015209722332656384,0.0042543006129562855,0.009978087618947029,0.0,-0.0018390924669802189
-0.0017852634191513062,-0.015002034604549408,0.004307338502258062,0.010363307781517506,0.0,-0.0019488825928419828
-0.0016580945812165737,-0.01556340791285038,0.0042633675038814545,0.010069960728287697,0.0,-0.0019293942023068666
-0.001620581722818315,-0.015183779411017895,0.004553235601633787,0.010631462559103966,0.0,-0.0017756512388586998
-0.0015213070437312126,-0.015300375409424305,0.004167993552982807,0.010404214262962341,0.0,-0.0016388872172683477
-0.0015254386235028505,-0.01494625024497509,0.0041882917284965515,0.00989364180713892,0.0,-0.00145363574847579
-0.0014212500536814332,-0.014852792955935001,0.004556472413241863,0.010394779965281487,0.0,-0.0013582827523350716
-0.001312261214479804,-0.01489441841840744,0.00426671514287591,0.010102828033268452,0.0,-0.0013108630664646626
-0.0012278469512239099,-0.015308060683310032,0.003980805166065693,0.010486756451427937,0.0,-0.0014275526627898216
-0.001071845879778266,-0.015006511472165585,0.003805634332820773,0.01037063729017973,0.0,-0.001394082442857325
-0.000981056597083807,-0.014771992340683937,0.004324065987020731,0.010231060907244682,0.0,-0.0015981176402419806
-0.0010006522061303258,-0.015079679898917675,0.004600617568939924,0.009809201583266258,0.0,-0.0015565166249871254
-0.0010023008799180388,-0.014978423714637756,0.004270817153155804,0.010398701764643192,0.0,-0.0014671020908281207
-0.0013319323770701885,-0.014648293145000935,0.004063274245709181,0.010043296031653881,0.0,-0.0014370683347806334
-0.0012645794777199626,-0.014365363866090775,0.003982696682214737,0.009638379327952862,0.0,-0.0013532375451177359
-0.0011910474859178066,-0.014847648330032825,0.003867550054565072,0.010182539001107216,0.0,-0.0012845478486269712
-0.001042024465277791,-0.01476181112229824,0.004003953654319048,0.01036692876368761,0.0,-0.0011375686153769493
-0.0009140243055298924,-0.014774941839277744,0.003896955167874694,0.00987234152853489,0.0,-0.0011757523752748966
-0.0010080465581268072,-0.014282146468758583,0.0037757842801511288,0.010361886583268642,0.0,-0.0011728348908945918
-0.0009938922012224793,-0.014752484858036041,0.003771483199670911,0.010111359879374504,0.0,-0.0012823146535083652
-0.00105146667920053,-0.01453249529004097,0.0038917551282793283,0.009945720434188843,0.0,-0.0014125241432338953
-0.0010715721873566508,-0.014655758626759052,0.004278950393199921,0.010809943079948425,0.0,-0.0017727630911394954
-0.0010433573042973876,-0.014261379837989807,0.004495430737733841,0.010340974666178226,0.0,-0.0017578734550625086
-0.0009090313105843961,-0.014896711334586143,0.004208468832075596,0.010682684369385242,0.0,-0.0016282224096357822
-0.0009062545141205192,-0.014443198218941689,0.004001119639724493,0.011017114855349064,0.0,-0.0016137576894834638
-0.0008596452535130084,-0.014376900158822536,0.00396175729110837,0.010318584740161896,0.0,-0.0015713486354798079
-0.0008596452535130084,-0.014376900158822536,0.00396175729110837,0.010318584740161896,0.0,-0.0015713486354798079
-0.0009609830449335277,-0.013823327608406544,0.004258795641362667,0.010827275924384594,0.0,-0.0014336954336613417
-0.0010696902172639966,-0.013950567692518234,0.004082571715116501,0.011256248690187931,0.0,-0.0013487321557477117
-0.0011056086514145136,-0.013666735962033272,0.004002224653959274,0.011278947815299034,0.0,-0.0012130815302953124
-0.0010352866956964135,-0.013575095683336258,0.003951445687562227,0.010950171388685703,0.0,-0.001160640036687255
-0.000929115863982588,-0.014074109494686127,0.003921356052160263,0.010783483274281025,0.0,-0.0011549540795385838
-0.0008851581369526684,-0.01404631044715643,0.00392763689160347,0.010947402566671371,0.0,-0.001135832048021257
-0.0008197769057005644,-0.014141715131700039,0.004270230885595083,0.010193794965744019,0.0,-0.0012576589360833168
-0.0007195508806034923,-0.013536576181650162,0.004437773488461971,0.009997707791626453,0.0,-0.001280836877413094
-0.0007426984957419336,-0.013229547999799252,0.004342345520853996,0.010520674288272858,0.0,-0.001251334324479103
-0.0007586197461932898,-0.013687699101865292,0.004063220228999853,0.009876756928861141,0.0,-0.0014365254901349545
-0.0007765523041598499,-0.01419073436409235,0.0043563381768763065,0.01031437050551176,0.0,-0.001443514134734869
-0.0010415459983050823,-0.013834144920110703,0.0041964114643633366,0.010615159757435322,0.0,-0.0013709372142329812
-0.0010275169042870402,-0.013538235798478127,0.004241097718477249,0.010075627826154232,0.0,-0.0013061760691925883
-0.0009237087215296924,-0.013504786416888237,0.004002055153250694,0.01047462783753872,0.0,-0.0012268568389117718
-0.0009194214944727719,-0.01291025523096323,0.004371502436697483,0.010587567463517189,0.0,-0.0011916268849745393
-0.0008956624078564346,-0.013782606460154057,0.00472514471039176,0.010003683157265186,0.0,-0.001087525044567883
-0.000783132272772491,-0.013131150975823402,0.004482157528400421,0.010608226992189884,0.0,-0.0010540209477767348
-0.0007988005527295172,-0.013119312934577465,0.004494903143495321,0.009978878311812878,0.0,-0.0010283890878781676
-0.0008084970759227872,-0.012470015324652195,0.004179080948233604,0.010107297450304031,0.0,-0.001019731629639864
-0.0008106836467050016,-0.013115255162119865,0.004164759069681168,0.010836847126483917,0.0,-0.0011877801734954119
-0.0007428965764120221,-0.012986792251467705,0.004098293837159872,0.01065759640187025,0.0,-0.0011463951086625457
-0.0007268799236044288,-0.01275500189512968,0.003948862664401531,0.011103869415819645,0.0,-0.0011270166141912341
-0.0007503560045734048,-0.01284403819590807,0.004375430755317211,0.011385408230125904,0.0,-0.0012872741790488362
-0.0006602309877052903,-0.012846259400248528,0.004595297388732433,0.010330832563340664,0.0,-0.001220587408170104
-0.0006848482880741358,-0.0129762664437294,0.004384519532322884,0.010803980752825737,0.0,-0.001165607594884932
-0.0006188479019328952,-0.0122859301045537,0.004099250305444002,0.010752604342997074,0.0,-0.0010627987794578075
-0.0006428023334592581,-0.012677224352955818,0.003970249556005001,0.010219418443739414,0.0,-0.0009405577438883483
-0.0006387445610016584,-0.012398789636790752,0.0038903290405869484,0.011026986874639988,0.0,-0.0009194534504786134
-0.0006387445610016584,-0.012398789636790752,0.0038903290405869484,0.011026986874639988,0.0,-0.0009194534504786134
-0.0006652160082012415,-0.01218221802264452,0.0032847390975803137,0.010580714792013168,0.0,-0.0009247519192285836
-0.0006329789175651968,-0.01185801811516285,0.002135845134034753,0.011963779106736183,0.0,-0.0011210739612579346
-0.0006540044560097158,-0.012463429942727089,0.002078865421935916,0.011155517771840096,0.0,-0.0010943764355033636
-0.0006024050526320934,-0.012048558332026005,0.0025374346878379583,0.01044028252363205,0.0,-0.0010309378849342465
-0.0005559221026487648,-0.012333305552601814,0.003062018658965826,0.010959606617689133,0.0,-0.0009541253093630075
-0.0005883474950678647,-0.011888892389833927,0.0028636546339839697,0.010709925554692745,0.0,-0.0008926047594286501
-0.0005982055445201695,-0.011970448307693005,0.0025042607448995113,0.010952066630125046,0.0,-0.0007638024399057031
-0.000568066374398768,-0.012060779146850109,0.002110659144818783,0.010739065706729889,0.0,-0.0007486778777092695
-0.0005701998015865684,-0.011947883293032646,0.00201211404055357,0.01050521619617939,0.0,-0.0006826527533121407
-0.0005474977078847587,-0.012120903469622135,0.0020104602444916964,0.011087262071669102,0.0,-0.000701419950928539
-0.0005040414398536086,-0.012037893757224083,0.0020360948983579874,0.011087396182119846,0.0,-0.0006367001915350556
-0.0004666976456064731,-0.012027512304484844,0.002105324063450098,0.010440938174724579,0.0,-0.000655279029160738
-0.0004891247372142971,-0.012185966596007347,0.0019674175418913364,0.010686216875910759,0.0,-0.0006051851669326425
-0.0004644287982955575,-0.012172963470220566,0.0018272310262545943,0.010036848485469818,0.0,-0.0005612669629044831
-0.00043636944610625505,-0.012566715478897095,0.001667991979047656,0.010551303625106812,0.0,-0.0004798727168235928
-0.0004114321491215378,-0.012128348462283611,0.0019141258671879768,0.010871103033423424,0.0,-0.0004739463038276881
-0.0003891880623996258,-0.012321623042225838,0.001955572282895446,0.010841095820069313,0.0,-0.0004701968573499471
-0.00035886935074813664,-0.011811540462076664,0.0020985279697924852,0.010529293678700924,0.0,-0.00048796614282764494
-0.0003322443808428943,-0.011918283067643642,0.0020407866686582565,0.010422203689813614,0.0,-0.00046833022497594357
-0.0003093941486440599,-0.012284359894692898,0.0017195254331454635,0.009774438105523586,0.0,-0.00046723263221792877
-0.00034045372740365565,-0.012095107696950436,0.0015234628226608038,0.01013418473303318,0.0,-0.00046491759712807834
-0.0003262910176999867,-0.012451759539544582,0.0015644603408873081,0.01055179163813591,0.0,-0.000531818950548768
-0.00030777716892771423,-0.011957445181906223,0.0016526732360944152,0.00989888422191143,0.0,-0.0005052141495980322
-0.0002911802439484745,-0.01274335291236639,0.0016926727257668972,0.00983904954046011,0.0,-0.0005228072986938059
-0.0003204389358870685,-0.012889075092971325,0.0018860803684219718,0.009765425696969032,0.0,-0.0004954650066792965
-0.00030661255004815757,-0.012883009389042854,0.0018729700241237879,0.009642981924116611,0.0,-0.0005106478347443044
-0.00029240353615023196,-0.012843087315559387,0.0018511119997128844,0.01057109422981739,0.0,-0.0004883543006144464
-0.00029240353615023196,-0.012843087315559387,0.0018511119997128844,0.01057109422981739,0.0,-0.0004883543006144464
-0.00026756562874652445,-0.012946698814630508,0.0018590609543025494,0.010199947282671928,0.0,-0.0004800517635885626
-0.00025666350848041475,-0.012426636181771755,0.001848276355303824,0.010823891498148441,0.0,-0.0004534816835075617
-0.0002466157602611929,-0.012784971855580807,0.0017844835529103875,0.010856909677386284,0.0,-0.00045435057836584747
-0.00023732562840450555,-0.012413480319082737,0.0016251654596999288,0.010745438747107983,0.0,-0.00043752454803325236
-0.00022870958491694182,-0.012775465846061707,0.0019171512685716152,0.010758571326732635,0.0,-0.0004390391113702208
-0.0002509486803319305,-0.01254364289343357,0.0019133682362735271,0.010588853619992733,0.0,-0.00043857074342668056
-0.00024367094738408923,-0.012766540981829166,0.0024424525909125805,0.010845070704817772,0.0,-0.00040774300578050315
-0.000235710249398835,-0.012940076179802418,0.002221330301836133,0.010978814214468002,0.0,-0.0004099196521565318
-0.00022823824838269502,-0.012768356129527092,0.002185312332585454,0.010209588333964348,0.0,-0.00041128185694105923
-0.00022122541849967092,-0.012995153665542603,0.0019392961403355002,0.010230273008346558,0.0,-0.0003877966373693198
-0.0002146305050700903,-0.01290187519043684,0.0017107878811657429,0.01041694451123476,0.0,-0.0003654143074527383
-0.00020841739024035633,-0.013012001290917397,0.001772463321685791,0.010412017814815044,0.0,-0.00034538155887275934
-0.00020255433628335595,-0.012700782157480717,0.0020451913587749004,0.01073867455124855,0.0,-0.00032742531038820744
-0.00019701143901329488,-0.01260086614638567,0.0021036944817751646,0.01038180012255907,0.0,-0.0003112445119768381
-0.00019176422210875899,-0.01228294987231493,0.0023099665995687246,0.010590574704110622,0.0,-0.0002965875610243529
-0.00018678931519389153,-0.01250283420085907,0.0023143563885241747,0.010082113556563854,0.0,-0.0002832501195371151
-0.00018206596723757684,-0.012860347516834736,0.002181061077862978,0.009734554216265678,0.0,-0.0002710597182158381
-0.0001775755954440683,-0.012465162202715874,0.0020440449006855488,0.009924115613102913,0.0,-0.00025987610570155084
-0.00017330145055893809,-0.012785222381353378,0.001979811117053032,0.010291105136275291,0.0,-0.000282809603959322
-0.00016922813665587455,-0.012313502840697765,0.0021773939952254295,0.009801390580832958,0.0,-0.0002742042706813663
-0.0001653419603826478,-0.012166697531938553,0.0020218417048454285,0.009943989105522633,0.0,-0.00026427966076880693
-0.0001616302179172635,-0.012064114212989807,0.0024443722795695066,0.010111289098858833,0.0,-0.0002549306082073599
-0.0001580817042849958,-0.012250552885234356,0.0023893534671515226,0.010637041181325912,0.0,-0.00024621206102892756
-0.0001546853018226102,-0.012192541733384132,0.002226821379736066,0.010595038533210754,0.0,-0.00023807065736036748
-0.00015143200289458036,-0.012203279882669449,0.0020591923967003822,0.010830274783074856,0.0,-0.00023044997942633927
-0.00014831271255388856,-0.013041985221207142,0.0020571299828588963,0.0105816088616848,0.0,-0.00022330171486828476
-0.0001453192817280069,-0.012071328237652779,0.0022991953883320093,0.010577494278550148,1.1099887160526123e-06,-0.0002165842888643965
-0.0001396808511344716,-0.012038781307637691,0.002413345966488123,0.009923147968947887,4.732056080314351e-09,-0.00020429244614206254
-0.00013702276919502765,-0.01211574487388134,0.002643090672791004,0.010625645518302917,3.089694611269067e-10,-0.00019865545618813485
-0.00011962076678173617,-0.012410284020006657,0.0023479850497096777,0.010215272195637226,2.0173498288533764e-11,-0.0001933214662130922
-0.00011962076678173617,-0.012410284020006657,0.0023479850497096777,0.010215272195637226,2.0173498288533764e-11,-0.0001933214662130922
-0.00011552514479262754,-0.011905037797987461,0.002286959905177355,0.010821042582392693,1.3171854015489592e-12,-0.00018826621817424893
-0.00011341985373292118,-0.011807763017714024,0.00204976717941463,0.010617317631840706,8.600279912058043e-14,-0.0001834684662753716
-6.46768748993054e-05,-0.011390401981770992,0.001997484127059579,0.010262439958751202,5.6153680778891785e-15,-0.00017890942399390042
-3.972262857132591e-05,-0.011440731585025787,0.0019201334798708558,0.010360827669501305,3.6664342576560544e-16,-0.0001745719346217811
-3.8555859646294266e-05,-0.012047359719872475,0.0021292841993272305,0.010586924850940704,2.393919587988076e-17,-0.00017043901607394218
-3.774318247451447e-05,-0.01157518569380045,0.002269138116389513,0.010648656636476517,1.5630584766585241e-18,-0.00016649735334794968
-3.6967954656574875e-05,-0.012137514539062977,0.0021588534582406282,0.010958646424114704,1.0205654231276954e-19,-0.0001627342717256397
-3.6224031646270305e-05,-0.01184639148414135,0.0020202496089041233,0.010430910624563694,6.6635626429547535e-21,-0.00015913715469650924
-3.550941255525686e-05,-0.012281566858291626,0.00196097488515079,0.010285771451890469,4.350830172767648e-22,-0.00015569601964671165
-3.482246756902896e-05,-0.011982626281678677,0.0020555928349494934,0.010395213030278683,2.8407812052876796e-23,-0.00015240020002238452
-1.7314388969680294e-05,-0.011271820403635502,0.0019316611578688025,0.010232389904558659,1.8548271499864978e-24,-0.00013540276268031448
-1.6765796317486092e-05,-0.012001427821815014,0.0021670558489859104,0.010163196362555027,1.2110697387541948e-25,-0.00012824870645999908
-1.645622069190722e-05,-0.011791505850851536,0.0020396828185766935,0.010045480914413929,7.907419995162937e-27,-0.00012540850730147213
-1.616068220755551e-05,-0.011611961759626865,0.002009388292208314,0.009982231073081493,5.162980031839831e-28,-0.00012294253974687308
-1.587561382621061e-05,-0.011516365222632885,0.0018949523800984025,0.010121067985892296,3.371056894836167e-29,-0.00012058782886015251
-1.560043529025279e-05,-0.011289119720458984,0.002087522065266967,0.010416800156235695,2.2010591932141436e-30,-0.0001183230197057128
-1.5334626368712634e-05,-0.011721651069819927,0.002128776628524065,0.010471723973751068,1.4371343552856562e-31,-0.00011614186951192096
-1.76118487615895e-06,-0.011942817829549313,0.0021172030828893185,0.010742980986833572,9.383460062571713e-33,-0.0001140394015237689
-1.76118487615895e-06,-0.011942817829549313,0.0021172030828893185,0.010742980986833572,9.383460062571713e-33,-0.0001140394015237689
-3.170070594915586e-10,-0.012105412781238556,0.0020064720883965492,0.010719207115471363,4.000316330499932e-35,-3.8604619476245716e-05
-4.2530545057983815e-12,-0.011316237039864063,0.001962504116818309,0.010527962818741798,2.61192060989235e-36,-3.6682624340755865e-05
-5.706015087508787e-14,-0.011969107203185558,0.0019480087794363499,0.010630997829139233,1.7053974950803829e-37,-3.5877368645742536e-05
-7.655347722617214e-16,-0.011401943862438202,0.0021709043066948652,0.010825058445334435,1.1135025883187148e-38,-3.5171422496205196e-05
-1.3779354297197624e-19,-0.011476617306470871,0.0021027291659265757,0.010697886347770691,4.74703867774675e-41,-1.914145286718849e-05
-1.3779354297197624e-19,-0.011476617306470871,0.0021027291659265757,0.010697886347770691,4.74703867774675e-41,-1.914145286718849e-05
-1.8486761695833834e-21,-0.011194758117198944,0.002222859999164939,0.009866815060377121,3.0996722030864954e-42,-1.6756548575358465e-05
-2.480235168455675e-23,-0.011852172203361988,0.0021170363761484623,0.010359846986830235,2.0178697886277366e-43,-1.6320193026331253e-05
-3.327551869766444e-25,-0.012375881895422935,0.002184875076636672,0.010405085049569607,1.2611686178923354e-44,-1.6021012925193645e-05
-4.464335270410756e-27,-0.011613897979259491,0.002096855314448476,0.00993630662560463,1.401298464324817e-45,-1.0460576049808878e-06
-5.9894760155866e-29,-0.011422978714108467,0.002305063884705305,0.009953614324331284,0.0,-6.830008203451143e-08
-8.035647408774815e-31,-0.011120007373392582,0.002069704933091998,0.010029105469584465,0.0,-4.459506985909911e-09
-1.078084660452697e-32,-0.01153369341045618,0.0020865255501121283,0.010401676408946514,0.0,-2.911739460653706e-10
-1.4463881719129856e-34,-0.011248014867305756,0.002061964478343725,0.010244982317090034,0.0,-1.9011577034877547e-11
-1.9405143467067346e-36,-0.010688118636608124,0.0020442348904907703,0.010312375612556934,0.0,-1.2413201976729793e-12
-2.6034474737564127e-38,-0.011698766611516476,0.0019418310839682817,0.010419933125376701,0.0,-8.104933011624654e-14
0.00014241675671655685,-0.011839262209832668,0.0019377366406843066,0.010474402457475662,0.0,-5.291941252474333e-15
0.0003906030033249408,-0.011476688086986542,0.001859041745774448,0.010859882459044456,0.0,-3.4552594147849007e-16
0.0003626347752287984,-0.011391131207346916,0.001884395140223205,0.010741887614130974,0.0,0.00018407592142466456
0.0003356284578330815,-0.011723440140485764,0.0018704504473134875,0.010141058824956417,0.0,0.0008346832473762333
0.00037219555815681815,-0.01174229010939598,0.0019208284793421626,0.009794088080525398,0.0,0.0008797636837698519
0.00035042903618887067,-0.011898651719093323,0.0019296753453090787,0.010736706666648388,0.0,0.0008846661075949669
0.0003816847747657448,-0.01153841707855463,0.0019667502492666245,0.010509924963116646,0.0,0.001026964862830937
0.0003957034205086529,-0.011246261186897755,0.0018932492239400744,0.01028374768793583,0.0,0.0010697542456910014
0.0003908815560862422,-0.011374164372682571,0.0018432022770866752,0.010956314392387867,0.0,0.0011168854543939233
0.00045365330879576504,-0.011811702512204647,0.0017437785863876343,0.010996196419000626,0.0,0.0012021136935800314
0.0004499665228649974,-0.011496125720441341,0.001861739088781178,0.0103164566680789,0.0,0.0013396304566413164
0.0004880057240370661,-0.01190129853785038,0.0017233953112736344,0.010396985337138176,0.0,0.0013093942543491721
0.0005164146423339844,-0.011570502072572708,0.0017341718776151538,0.010065914131700993,0.0,0.001710538868792355
0.00048494560178369284,-0.011712692677974701,0.0017498943489044905,0.010044815950095654,0.0,0.0016539344796910882
0.0005137907573953271,-0.012456748634576797,0.0020283982157707214,0.010711068287491798,0.0,0.001763998530805111
0.00063680688617751,-0.011853137984871864,0.0018321765819564462,0.010082039050757885,0.0,0.0017195305554196239
0.0007342576864175498,-0.012333773076534271,0.0017730948748067021,0.01040678657591343,0.0,0.001712685450911522
0.0006590571138076484,-0.012228671461343765,0.0016087344847619534,0.010251229628920555,0.0,0.0017509580357000232
0.0006839382112957537,-0.011857748962938786,0.001526223961263895,0.00979022216051817,0.0,0.001923885429278016
0.0006956550059840083,-0.011753209866583347,0.00157016736920923,0.010681964457035065,0.0,0.001956704305484891
0.0008502292912453413,-0.012370643205940723,0.0017027867725118995,0.0107524823397398,0.0,0.0026485014241188765
0.0008572673541493714,-0.01189359836280346,0.0016779493307694793,0.01060870848596096,0.0,0.002617854392156005
0.0008572673541493714,-0.01189359836280346,0.0016779493307694793,0.01060870848596096,0.0,0.002617854392156005
0.0009294236078858376,-0.011961531825363636,0.0016480303602293134,0.010784227401018143,0.0,0.0023489624727517366
0.0009294236078858376,-0.011961531825363636,0.0016480303602293134,0.010784227401018143,0.0,0.0023489624727517366
0.0009962596232071519,-0.011764963157474995,0.0014933712081983685,0.010512912645936012,0.0,0.002387701068073511
0.001109584583900869,-0.012051263824105263,0.0012997293379157782,0.010189225897192955,0.0,0.0024195907171815634
0.0015752227045595646,-0.011579053476452827,0.0013480306370183825,0.010221506468951702,0.0,0.0025820103473961353
0.0016970625147223473,-0.012075573205947876,0.001319145318120718,0.010607908479869366,0.0,0.0028045254293829203
0.0019140380900353193,-0.01159256137907505,0.0015030635986477137,0.010256774723529816,0.0,0.003064761171117425
0.0018895952962338924,-0.011655873619019985,0.0013950918801128864,0.010495261289179325,0.0,0.0026659653522074223
0.001649171463213861,-0.011744010262191296,0.0013397756265476346,0.010686919093132019,0.0,0.0024640813935548067
0.0016990164294838905,-0.011201349087059498,0.001385052572004497,0.009850231930613518,0.0,0.0023554929066449404
0.0017580579733476043,-0.011588561348617077,0.0013017335440963507,0.010164676234126091,0.0,0.0025979094207286835
0.0018574224086478353,-0.011251118034124374,0.0012370683252811432,0.01018137764185667,0.0,0.0026097146328538656
0.0022933545988053083,-0.011176788248121738,0.001104965922422707,0.010271051898598671,0.0,0.0027189329266548157
0.002387185348197818,-0.011067141778767109,0.0011799688218161464,0.010310432873666286,0.0,0.002594422083348036
0.0027233834844082594,-0.010471900925040245,0.0011695076245814562,0.010241207666695118,0.0,0.0024432349018752575
0.002413847716525197,-0.011123007163405418,0.0011667631333693862,0.010273545980453491,0.0,0.0025701546110212803
0.0023023115936666727,-0.011321453377604485,0.0011258998420089483,0.010894064791500568,0.0,0.0030995530541986227
0.0024568289518356323,-0.010986685752868652,0.0010867021046578884,0.010248069651424885,0.0,0.004148244392126799
0.0027653274592012167,-0.011867615394294262,0.0010482363868504763,0.010004265233874321,0.0,0.004095594398677349
0.0031611297745257616,-0.010587872005999088,0.0009778017411008477,0.010317854583263397,0.0,0.0035503783728927374
0.0029263717588037252,-0.01079257670789957,0.0009819814004004002,0.010245677083730698,0.0,0.003475877922028303
0.0030813943594694138,-0.011781737208366394,0.0009694491745904088,0.010035935789346695,0.0,0.003730524331331253
0.0031382995657622814,-0.011555681936442852,0.0009600837365724146,0.010524932295084,0.0,0.0038804688956588507
0.0032970011234283447,-0.011798817664384842,0.0009670870495028794,0.010238670744001865,0.0,0.003757067723199725
0.003169039497151971,-0.010747955180704594,0.0009937002323567867,0.010612315498292446,0.0,0.003920878283679485
0.003169039497151971,-0.010747955180704594,0.0009937002323567867,0.010612315498292446,0.0,0.003920878283679485
0.0030518691055476665,-0.010715351440012455,0.0009468314237892628,0.011066675186157227,0.0,0.0041467719711363316
0.0034660750534385443,-0.011586550623178482,0.000864066940266639,0.01108718290925026,0.0,0.003989287652075291
0.0035270832013338804,-0.010626416653394699,0.0008593808161094785,0.010840769857168198,0.0,0.0035499180667102337
0.0036227640230208635,-0.01097646914422512,0.0008645902271382511,0.010608040727674961,0.0,0.003994714468717575
0.003784716362133622,-0.01055120024830103,0.0008694532443769276,0.010810554958879948,0.0,0.0041508846916258335
0.0039047757163643837,-0.010853616520762444,0.0008731439593248069,0.010446541011333466,0.0,0.00397449778392911
0.0042678359895944595,-0.011009490117430687,0.0007824345375411212,0.010666273534297943,0.0,0.003782948711887002
0.004099379293620586,-0.010991150513291359,0.0007830571266822517,0.010741956532001495,0.0,0.003729129210114479
0.003986609634011984,-0.011323665268719196,0.0006709315930493176,0.010548442602157593,0.0,0.004033803008496761
0.004499559290707111,-0.010718817822635174,0.0006955169956199825,0.010750421322882175,0.0,0.004526587203145027
0.0047129918821156025,-0.01110209058970213,0.0006200349307619035,0.010855662636458874,0.0,0.0047296215780079365
0.004791770596057177,-0.011072940193116665,0.0005561915459111333,0.011006910353899002,0.0,0.004704062361270189
0.004976177122443914,-0.010214628651738167,0.0005042323027737439,0.011278855614364147,0.0,0.004504199605435133
0.004901088774204254,-0.010498247109353542,0.00046115359873510897,0.010580768808722496,0.0,0.004125349223613739
0.0047262292355299,-0.010943619534373283,0.00042485917219892144,0.010590218007564545,0.0,0.003957190550863743
0.0050477273762226105,-0.010363584384322166,0.00039386103162541986,0.010788138955831528,0.0,0.003873964538797736
0.005118226166814566,-0.010130194947123528,0.00036708140396513045,0.010278238914906979,0.0,0.003869062289595604
0.005110021680593491,-0.009943594224750996,0.0003437125124037266,0.010558312758803368,0.0,0.004150112625211477
0.005627764388918877,-0.01051326934248209,0.0003231409064028412,0.010592102073132992,0.0,0.004581727087497711
0.005461219698190689,-0.010895286686718464,0.0003048932703677565,0.01015633624047041,0.0,0.004604612477123737
0.005280663259327412,-0.010059960186481476,0.00028859570738859475,0.010700173676013947,0.0,0.004393879324197769
0.005106024909764528,-0.009802551940083504,0.00027395374490879476,0.01036789733916521,-0.00013243337161839008,0.004114771727472544
0.005803421139717102,-0.010579356923699379,0.00026072480250149965,0.009889652952551842,-0.00014211714733392,0.004286967217922211
0.006078817881643772,-0.010938776656985283,0.0002487151068635285,0.010210060514509678,-0.00013864431821275502,0.004466525744646788
0.006028417497873306,-0.01017760019749403,0.0002377634373260662,0.01049485057592392,-0.00013455755834002048,0.004861549474298954
0.006028417497873306,-0.01017760019749403,0.0002377634373260662,0.01049485057592392,-0.00013455755834002048,0.004861549474298954
0.005588063504546881,-0.00993642583489418,0.00022773569799028337,0.010540797375142574,-0.00013065409439150244,0.004795128013938665
0.005698283668607473,-0.00982587318867445,0.00025442976038903,0.010872473008930683,-0.0001269677304662764,0.004721665754914284
0.006208203267306089,-0.00993909128010273,0.0002450164465699345,0.010837827809154987,-0.0001465219829697162,0.004714885260909796
0.006178253795951605,-0.009437485598027706,0.00010581086098682135,0.01101493276655674,-0.00014046317664906383,0.0049836719408631325
0.006204926874488592,-0.009231056086719036,0.00011402426025597379,0.010755423456430435,-0.0001369081874145195,0.005212767515331507
0.005956308450549841,-0.009635102935135365,0.00010956751793855801,0.01090154517441988,-0.0001335231208940968,0.005529236048460007
0.0063643185421824455,-0.00970577634871006,-0.0003089043602813035,0.01102882344275713,-0.0001303011376876384,0.005088117904961109
0.006773263681679964,-0.009663165546953678,-0.00042534410022199154,0.010224146768450737,-0.0001376525906380266,0.004814876709133387
0.006710927002131939,-0.009904976934194565,-0.00040954025462269783,0.01068534329533577,-0.00014431501040235162,0.004786444362252951
0.007398486137390137,-0.009467928670346737,-0.0004523293173406273,0.010342921130359173,-0.00014170995564199984,0.005094731226563454
0.006869814358651638,-0.00956803373992443,-0.00037203397369012237,0.01050148531794548,-0.0001386332733090967,0.005526467226445675
0.007249927613884211,-0.009288867004215717,-0.0003083541232626885,0.010393688455224037,-0.00013565097469836473,0.005306419916450977
0.007119324989616871,-0.008677695877850056,-0.000392734567867592,0.010049978271126747,-0.0001327916979789734,0.005055049434304237
0.0069932229816913605,-0.009202959947288036,-0.00034436656278558075,0.009834137745201588,-0.00013005048094782978,0.005160929169505835
0.0068258922547101974,-0.008986997418105602,-0.00030540628358721733,0.010928111150860786,-0.0001274200330954045,0.004948091227561235
0.00744738569483161,-0.00957104004919529,-0.00027435546508058906,0.010984732769429684,-0.000124894009786658,0.0051960754208266735
0.007913353852927685,-0.009127171710133553,-0.00024903748999349773,0.010827871970832348,-0.0001224661828018725,0.005593160632997751
0.007661777548491955,-0.008987772278487682,-0.00022799914586357772,0.010509053245186806,-0.0001328647049376741,0.00522521510720253
0.0073860869742929935,-0.008759001269936562,-0.00027930003125220537,0.010588199831545353,-0.00013443425996229053,0.005137489642947912
0.008193021640181541,-0.008833633735775948,-0.0002600502339191735,0.01098595280200243,-0.0001322298194281757,0.00548212556168437
0.007863628678023815,-0.009334148839116096,-0.00024253893934655935,0.011162474751472473,-0.0001298621646128595,0.006064183544367552
0.008074512705206871,-0.009115778841078281,-0.00022722670109942555,0.010877159424126148,-0.000127562481793575,0.005757056642323732
0.007855181582272053,-0.00854740384966135,-0.00021373393246904016,0.011350497603416443,-0.0001253419031854719,0.00567643204703927
0.00807269848883152,-0.00895976647734642,-0.000202409180928953,0.010833515785634518,-0.00012319716915953904,0.005505155771970749
0.008054821752011776,-0.009045392274856567,-0.00011631626693997532,0.010677660815417767,-0.0001359405869152397,0.005690522491931915
0.008135203272104263,-0.008115993812680244,-0.00010833053238457069,0.01070438977330923,-0.00014569790801033378,0.005383133888244629
0.008409136906266212,-0.008231407031416893,-0.00010216719238087535,0.01038011908531189,-0.00014202442253008485,0.0056973909959197044
0.008409136906266212,-0.008231407031416893,-0.00010216719238087535,0.01038011908531189,-0.00014202442253008485,0.0056973909959197044
0.008525846526026726,-0.00913770217448473,-0.00014303253556136042,0.010219953022897243,-0.0001377372827846557,0.005812719464302063
0.00866881012916565,-0.008680370636284351,-0.00013759892317466438,0.010629434138536453,-0.000146765960380435,0.005993847735226154
0.008732123300433159,-0.00860899779945612,-0.0001659376866882667,0.010568111203610897,-0.00015132931002881378,0.00613794568926096
0.00892452709376812,-0.00875154323875904,-0.00015915244875941426,0.010425820015370846,-0.00014725491928402334,0.005839758552610874
0.00806556735187769,-0.00871015340089798,-0.00015242103836499155,0.010121897794306278,-0.00014334890875034034,0.0058724237605929375
0.008718614466488361,-0.008737273514270782,-0.00018227602413389832,0.010724336840212345,-0.0001510734873590991,0.006191916763782501
0.009389649145305157,-0.009087694808840752,-0.0001763517502695322,0.010301880538463593,-0.0001580355892656371,0.006575291510671377
0.008363447152078152,-0.008386683650314808,-0.00037329545011743903,0.010776493698358536,-0.0001548531581647694,0.006695243529975414
0.008660966530442238,-0.00830929446965456,-0.0004084334650542587,0.011485558934509754,-0.0001511831651441753,0.0060651786625385284
0.009200552478432655,-0.00895293615758419,-0.0003868558560498059,0.011269043199717999,-0.00016328110359609127,0.006308371666818857
0.00921409297734499,-0.009204253554344177,-0.0003610856074374169,0.011531940661370754,-0.0001645147567614913,0.006576266605407
0.009260735474526882,-0.00822999607771635,-0.0003384507435839623,0.010730632580816746,-0.00016115690232254565,0.006357732228934765
0.008887717500329018,-0.008644072338938713,-0.0003708104195538908,0.010356038808822632,-0.00015794172941241413,0.007281431462615728
0.008954551070928574,-0.009080380201339722,-0.0003508594527374953,0.010975069366395473,-0.00025385175831615925,0.006540276110172272
0.008627953007817268,-0.008207247592508793,-0.00037418637657538056,0.010533781722187996,-0.00024678351473994553,0.00613272562623024
0.0073827882297337055,-0.00899606291204691,-0.00036072509828954935,0.010403434745967388,-0.00023437455820385367,0.00645256694406271
0.0059181093238294125,-0.009173738770186901,-0.0003435802645981312,0.01105852797627449,-0.0002227966469945386,0.006818239577114582
0.006306290160864592,-0.008817965164780617,-0.00040448582149110734,0.01053344365209341,-0.00021228477999102324,0.0071020363830029964
0.006757413037121296,-0.008754613809287548,-0.00042308351839892566,0.010560542345046997,-0.00020271963148843497,0.00738813541829586
0.007230174262076616,-0.008817384950816631,-0.0004143123223911971,0.010569036938250065,-0.00019397826690692455,0.007034736219793558
0.0070056491531431675,-0.009592869319021702,-0.0004415495495777577,0.010586310178041458,-0.00018596084555611014,0.007075821980834007
0.006777339614927769,-0.008515087887644768,-0.0004192490305285901,0.010976321995258331,-0.00017857975035440177,0.0068782721646130085
0.007271303329616785,-0.008620088919997215,-0.00044853927101939917,0.011067413724958897,-0.00017176210531033576,0.007001468446105719
0.00683145597577095,-0.008908637799322605,-0.0005714950384572148,0.011016257107257843,-0.00016544667596463114,0.006703943945467472
0.006961279548704624,-0.00900063756853342,-0.0005720633780583739,0.011141323484480381,-0.00018725859990809113,0.006632729433476925
0.006805989891290665,-0.00850643776357174,-0.0006074936827644706,0.010238978080451488,-0.00017879268852993846,0.007222321815788746
0.006805989891290665,-0.00850643776357174,-0.0006074936827644706,0.010238978080451488,-0.00017879268852993846,0.007222321815788746
0.007166380528360605,-0.008401400409638882,-0.0006341109983623028,0.010744625702500343,-0.0001730775838950649,0.007485308684408665
0.0074935005977749825,-0.008338826708495617,-0.0006071640527807176,0.010798166505992413,-0.00019376965065021068,0.006929057650268078
0.0071706161834299564,-0.008489057421684265,-0.0008142276201397181,0.011192559264600277,-0.00018963664479088038,0.006961155217140913
0.007345700170844793,-0.008934305049479008,-0.0007477073813788593,0.011019359342753887,-0.00018420300330035388,0.00724382558837533
0.007634456735104322,-0.008368773385882378,-0.0007651207270100713,0.010890836827456951,-0.000201170114451088,0.007365749683231115
0.008541570045053959,-0.008345293812453747,-0.0007769805379211903,0.011580471880733967,-0.00019867396622430533,0.007035351824015379
0.00832684151828289,-0.008670678362250328,-0.0008932794444262981,0.011058841831982136,-0.00019353325478732586,0.007160112261772156
0.008294127881526947,-0.008397684432566166,-0.0010168506996706128,0.011146948672831059,-0.00018847969477064908,0.007841067388653755
0.008207103237509727,-0.008563241921365261,-0.0010315986583009362,0.010927150957286358,-0.00019439973402768373,0.008340399712324142
0.008725875988602638,-0.008258264511823654,-0.001194025739096105,0.010540515184402466,-0.0001880792115116492,0.008468053303658962
0.008987161330878735,-0.00847077276557684,-0.001162052620202303,0.010933587327599525,-0.0001806465588742867,0.008142496459186077
0.008115317672491074,-0.008338065817952156,-0.00122348393779248,0.010982027277350426,-0.00017368044063914567,0.008224018849432468
0.008185239508748055,-0.008405459113419056,-0.001113754347898066,0.010691758245229721,-0.00019196241919416934,0.0076645598746836185
0.008469751104712486,-0.008316983468830585,-0.0012163553619757295,0.011080239899456501,-0.0001929109130287543,0.007460474967956543
0.008795542642474174,-0.007963552139699459,-0.0013099649222567677,0.010828710161149502,-0.00018674950115382671,0.007472141180187464
0.00825975090265274,-0.0076358686201274395,-0.0015832543140277267,0.010807299055159092,-0.0001952878519659862,0.00786446314305067
0.008516926318407059,-0.00829256884753704,-0.0015265815891325474,0.01144042331725359,-0.00020281410252209753,0.008087125606834888
0.008937212638556957,-0.0084469523280859,-0.0016170397866517305,0.010719372890889645,-0.000197362489416264,0.007862741127610207
0.008436830714344978,-0.00795283168554306,-0.0016820230521261692,0.010701585561037064,-0.00021692946029361337,0.008175159804522991
0.008523562923073769,-0.008147116750478745,-0.001615714281797409,0.010814008302986622,-0.00029660790460184216,0.008340521715581417
0.00894214864820242,-0.007942048832774162,-0.0018383529968559742,0.010704286396503448,-0.0003528549277689308,0.008299012668430805
0.008172131143510342,-0.008014095947146416,-0.001983743393793702,0.011630716733634472,-0.00033202185295522213,0.008582272566854954
0.00874649453908205,-0.008119715377688408,-0.0022167775314301252,0.011519097723066807,-0.0003629879211075604,0.008298566564917564
0.009275037795305252,-0.007904852740466595,-0.0022526320535689592,0.011197354644536972,-0.0003469739167485386,0.008607923984527588
0.008810145780444145,-0.008050206117331982,-0.0022129258140921593,0.010943086817860603,-0.00032646709587424994,0.008490568026900291
0.00900330301374197,-0.007625742349773645,-0.0023410720750689507,0.010716662742197514,-0.0003522646438796073,0.008497714065015316
0.00900330301374197,-0.007625742349773645,-0.0023410720750689507,0.010716662742197514,-0.0003522646438796073,0.008497714065015316
0.00915406085550785,-0.007843101397156715,-0.0024064690805971622,0.012397624552249908,-0.0003223842941224575,0.00911953765898943
0.008986239321529865,-0.007671423256397247,-0.0026940684765577316,0.011249247007071972,-0.0003281005483586341,0.008457602001726627
0.009582506492733955,-0.008163032121956348,-0.002832053229212761,0.011225284077227116,-0.0003327862941659987,0.008659831248223782
0.009695963002741337,-0.007840058766305447,-0.002672262955456972,0.010781457647681236,-0.0003193223965354264,0.00891132839024067
0.009190794080495834,-0.008251176215708256,-0.0026184897869825363,0.010587300173938274,-0.00030584080377593637,0.008528333157300949
0.009383993223309517,-0.007841484621167183,-0.002976728603243828,0.010581521317362785,-0.00029477852513082325,0.009246624074876308
0.009201474487781525,-0.007562852930277586,-0.0030826013535261154,0.010647837072610855,-0.0003172061697114259,0.008656063117086887
0.009371611289680004,-0.007600344251841307,-0.0029023720417171717,0.011203458532691002,-0.00032802700297906995,0.00837251078337431
0.009991968981921673,-0.00785512663424015,-0.0030535603873431683,0.010765951126813889,-0.00033459009137004614,0.008760031312704086
0.00968500692397356,-0.0076035745441913605,-0.0029586676973849535,0.010848529636859894,-0.00034243176924064755,0.008839706890285015
0.00918196327984333,-0.007209091912955046,-0.0029530306346714497,0.01090843603014946,-0.0003473868709988892,0.008945133537054062
0.010266466997563839,-0.007494404911994934,-0.003249757457524538,0.010804259218275547,-0.0003307057486381382,0.008922281675040722
0.009794216603040695,-0.007720031775534153,-0.003061417257413268,0.010664400644600391,-0.00034743777359835804,0.008612662553787231
0.009592150337994099,-0.007826240733265877,-0.003201710991561413,0.011050054803490639,-0.00034136977046728134,0.008637535385787487
0.010273302905261517,-0.007931515574455261,-0.003272655187174678,0.011204993352293968,-0.00032656447729095817,0.00871470756828785
0.009895017370581627,-0.006885278504341841,-0.0034872638061642647,0.01169920526444912,-0.00037766926106996834,0.00895497016608715
0.010082995519042015,-0.006740742363035679,-0.0037764799781143665,0.011293869465589523,-0.00040543137583881617,0.009036815725266933
0.010756244882941246,-0.0072546228766441345,-0.003968176431953907,0.01168191060423851,-0.0003756255318876356,0.009113647975027561
0.01025268156081438,-0.007333695422858,-0.0039629219099879265,0.011359957046806812,-0.0004113847971893847,0.009093202650547028
0.01013928558677435,-0.007313110399991274,-0.003483003005385399,0.01123158261179924,-0.00038617232348769903,0.008715772069990635
0.010448437184095383,-0.007490634918212891,-0.0035316874273121357,0.011505046859383583,-0.00040486210491508245,0.00845345389097929
0.01087429840117693,-0.007542912382632494,-0.0037004612386226654,0.011365016922354698,-0.0003933786356355995,0.008781191892921925
0.011622937396168709,-0.007319682277739048,-0.0041550323367118835,0.011102518998086452,-0.00041016205796040595,0.009434564039111137
0.010635985992848873,-0.007015667390078306,-0.004241373389959335,0.011366225779056549,-0.0003996648592874408,0.009347726590931416
0.01058790273964405,-0.007387405727058649,-0.004042135085910559,0.011264561675488949,-0.00037940085167065263,0.009554358199238777
0.012551669031381607,-0.007420859765261412,-0.004148880485445261,0.011535506695508957,-0.0004183022247161716,0.009580695070326328
0.012551669031381607,-0.007420859765261412,-0.004148880485445261,0.011535506695508957,-0.0004183022247161716,0.009580695070326328
0.010643497109413147,-0.007161883637309074,-0.004168038256466389,0.011655173264443874,-0.0004010526172351092,0.009634141810238361
0.011170245707035065,-0.007185556925833225,-0.004395827651023865,0.011128796264529228,-0.0003805120650213212,0.009104741737246513
0.010895715095102787,-0.006670922506600618,-0.0045853243209421635,0.011296957731246948,-0.00038451384170912206,0.009125863201916218
0.010895715095102787,-0.006670922506600618,-0.0045853243209421635,0.011296957731246948,-0.00038451384170912206,0.009125863201916218
0.011632181704044342,-0.006820171605795622,-0.004858554806560278,0.011712100356817245,-0.0003873587120324373,0.009631357155740261
0.010963574051856995,-0.007456783205270767,-0.0056026098318398,0.011189941316843033,-0.0003665474068839103,0.009701610542833805
0.011166872456669807,-0.00776149844750762,-0.005309305619448423,0.011434821411967278,-0.00039257112075574696,0.009884066879749298
0.01124313659965992,-0.007108238525688648,-0.005282379221171141,0.011507805436849594,-0.0003760377876460552,0.009821288287639618
0.011173553764820099,-0.006294824182987213,-0.004944248590618372,0.011193986050784588,-0.0004252250073477626,0.009622601792216301
0.01164026279002428,-0.006762725301086903,-0.004913270007818937,0.011105121113359928,-0.00039357441710308194,0.00955361407250166
0.01120587345212698,-0.007078129332512617,-0.006238855421543121,0.010664855130016804,-0.0004153877089265734,0.00949685275554657
0.011391189880669117,-0.0070520308800041676,-0.0059320987202227116,0.010625210590660572,-0.00040103576611727476,0.009419930167496204
0.011758052743971348,-0.0064424206502735615,-0.0055343774147331715,0.010672652162611485,-0.00037430200609378517,0.008764702826738358
0.011290868744254112,-0.006245893891900778,-0.005369347520172596,0.010766510851681232,-0.0003930284292437136,0.00860617682337761
0.011347509920597076,-0.006442073732614517,-0.005863498896360397,0.011764160357415676,-0.0003825583844445646,0.009151129983365536
0.010938108898699284,-0.006822554860264063,-0.006278203334659338,0.011951196007430553,-0.0003995356964878738,0.009488943964242935
0.011208132840692997,-0.006495689041912556,-0.006429113447666168,0.01180405542254448,-0.0003898667637258768,0.009599600918591022
0.011274040676653385,-0.006185500882565975,-0.005911088082939386,0.011720885522663593,-0.0004113116592634469,0.009532331489026546
0.010932276956737041,-0.006222925614565611,-0.0060469405725598335,0.011311469599604607,-0.0004126154526602477,0.009262529201805592
0.011376452632248402,-0.006642830092459917,-0.005465769674628973,0.011487722396850586,-0.0004458790353965014,0.009156014770269394
0.011206713505089283,-0.0067976368591189384,-0.0060416413471102715,0.011355280876159668,-0.00042025154107250273,0.009506896138191223
0.011280014179646969,-0.0063417572528123856,-0.005899891257286072,0.011007344350218773,-0.000438265735283494,0.00969122163951397
0.011876041069626808,-0.006105420645326376,-0.005632498301565647,0.011258099228143692,-0.0004236969689372927,0.009781145490705967
0.011197262443602085,-0.006332690361887217,-0.005685189738869667,0.0113871144130826,-0.00044704327592626214,0.009768268093466759
0.01122978888452053,-0.006400421727448702,-0.005984052084386349,0.011483683250844479,-0.0004272814258001745,0.009416344575583935
0.01122978888452053,-0.006400421727448702,-0.005984052084386349,0.011483683250844479,-0.0004272814258001745,0.009416344575583935
0.011465545743703842,-0.006274296902120113,-0.00654434273019433,0.011526191607117653,-0.000504803319927305,0.009800111874938011
0.011545133776962757,-0.0059194848872721195,-0.006162235513329506,0.011621244251728058,-0.000515831052325666,0.009816089645028114
0.011545133776962757,-0.0059194848872721195,-0.006162235513329506,0.011621244251728058,-0.000515831052325666,0.009816089645028114
0.011485200375318527,-0.006203165277838707,-0.006228198297321796,0.011473648250102997,-0.00047389158862642944,0.009732603095471859
0.011638747528195381,-0.006016550585627556,-0.006279927212744951,0.01185879111289978,-0.000442700955318287,0.009586753323674202
0.012143144384026527,-0.0056868307292461395,-0.00621355464681983,0.011492067947983742,-0.0004137491050641984,0.010101450607180595
0.011834502220153809,-0.005953335668891668,-0.0066650728695094585,0.01101496908813715,-0.000388245185604319,0.01055686455219984
0.011834502220153809,-0.005953335668891668,-0.0066650728695094585,0.01101496908813715,-0.000388245185604319,0.01055686455219984
0.011700868606567383,-0.006499187555164099,-0.007341134827584028,0.011846412904560566,-0.0003911396488547325,0.01027175784111023
0.011513779871165752,-0.00655228178948164,-0.0071327704936265945,0.011962443590164185,-0.00039325308171100914,0.010735214687883854
0.011836497113108635,-0.005631453823298216,-0.007169294636696577,0.012050528079271317,-0.00037433832767419517,0.010771836154162884
0.012264410965144634,-0.005854342132806778,-0.007319401018321514,0.012108431197702885,-0.0003559278848115355,0.01089317724108696
0.011502671055495739,-0.006337258964776993,-0.008118029683828354,0.011760425753891468,-0.00033916489337570965,0.010651673190295696
0.01175642292946577,-0.006470351479947567,-0.007829643785953522,0.01224463526159525,-0.00032390683190897107,0.0106089161708951
0.01197804044932127,-0.005840589292347431,-0.007408455479890108,0.013093351386487484,-0.0003099546884186566,0.01119362935423851
0.012020763009786606,-0.005474044010043144,-0.007718761917203665,0.011965177953243256,-0.0002787601843010634,0.011321169324219227
0.011918698437511921,-0.006092502269893885,-0.007731856312602758,0.01227541919797659,-0.0002606996276881546,0.011056060902774334
0.011749282479286194,-0.00645521841943264,-0.008042128756642342,0.011491194367408752,-0.00024629515246488154,0.011216678656637669
0.01248883455991745,-0.006189477164298296,-0.008163034915924072,0.011480337008833885,-0.00023350589617621154,0.01104350108653307
0.011902589350938797,-0.006181004457175732,-0.008294416591525078,0.011342558078467846,-0.00022198392252903432,0.011078980751335621
0.012247986160218716,-0.005519293248653412,-0.008548630401492119,0.011235572397708893,-0.00021154226851649582,0.011118642054498196
0.012230231426656246,-0.005790856201201677,-0.0081942742690444,0.011547058820724487,-0.0002217893925262615,0.010932538658380508
0.011948431842029095,-0.0063994708471000195,-0.008477923460304737,0.011443677358329296,-0.0002306799724465236,0.011203555390238762
0.012377673760056496,-0.0062025683000683784,-0.008645733818411827,0.011848152615129948,-0.00022238263045437634,0.011370455846190453
0.011913290247321129,-0.006190864834934473,-0.008740866556763649,0.011597031727433205,-0.000213661725865677,0.011821138672530651
0.012170194648206234,-0.005510972812771797,-0.00822454784065485,0.011650267988443375,-0.00020553306967485696,0.011341621167957783
0.012092864140868187,-0.005947594530880451,-0.008025377057492733,0.012228873558342457,-0.00022661141701973975,0.010912509635090828
0.012375889346003532,-0.006461441051214933,-0.008659849874675274,0.012023824267089367,-0.00022253519273363054,0.011799274012446404
0.012694037519395351,-0.006372056435793638,-0.008766924031078815,0.012496322393417358,-0.000215191874303855,0.011050833389163017
0.01237007137387991,-0.006029930431395769,-0.008180071599781513,0.012242656201124191,-0.00023389109992422163,0.010803867131471634
0.012253821827471256,-0.0056013306602835655,-0.007426747586578131,0.01205107569694519,-0.00022996797633823007,0.01105547696352005
0.011834968812763691,-0.005823843646794558,-0.0057982830330729485,0.01208564918488264,-0.00024659596965648234,0.010840698145329952
0.011834968812763691,-0.005823843646794558,-0.0057982830330729485,0.01208564918488264,-0.00024659596965648234,0.010840698145329952
0.012590261176228523,-0.006805145647376776,-0.005463659297674894,0.011577407829463482,-0.0002664923667907715,0.011219333857297897
0.012590261176228523,-0.006805145647376776,-0.005463659297674894,0.011577407829463482,-0.0002664923667907715,0.011219333857297897
0.013225140050053596,-0.005724836606532335,-0.0067887213081121445,0.010722528211772442,-0.0002629839873407036,0.011354592628777027
0.013001515530049801,-0.005719611421227455,-0.006621952168643475,0.010777751915156841,-0.0002817297645378858,0.011775977909564972
0.01297384686768055,-0.00635230727493763,-0.006020064000040293,0.010936548002064228,-0.0002789646096061915,0.011839077807962894
0.012415350414812565,-0.0068182917311787605,-0.006036678329110146,0.011545034125447273,-0.00029600877314805984,0.0118870809674263
0.013411691412329674,-0.00590487802401185,-0.005508492700755596,0.011835150420665741,-0.00029290810925886035,0.011739157140254974
0.01306491531431675,-0.00575624406337738,-0.0059546614065766335,0.012724027037620544,-0.0002828042197506875,0.01186156552284956
0.013097759336233139,-0.005974484607577324,-0.0062745967879891396,0.012765071354806423,-0.000426918501034379,0.011559725739061832
0.012640719301998615,-0.007041978184133768,-0.005971795413643122,0.012347588315606117,-0.00040016285493038595,0.01198285911232233
0.013006982393562794,-0.006384438835084438,-0.00558573380112648,0.012691427953541279,-0.00042214657878503203,0.012482204474508762
0.012954190373420715,-0.005682378076016903,-0.005818438250571489,0.012316747568547726,-0.0004070979484822601,0.012223463505506516
0.013460593298077583,-0.005232804920524359,-0.006554556544870138,0.012346149422228336,-0.00037956598680466413,0.012604661285877228
0.013670586049556732,-0.005821358412504196,-0.006714407820254564,0.012093491852283478,-0.00039818810182623565,0.012207016348838806
0.01335448119789362,-0.005841401405632496,-0.006465797312557697,0.012376625090837479,-0.0003872727102134377,0.012656077742576599
0.013283847831189632,-0.006237190682440996,-0.00654486333951354,0.012346668168902397,-0.00036567458300851285,0.01272506732493639
0.013085167855024338,-0.005602381192147732,-0.006640683393925428,0.012106586247682571,-0.000388386775739491,0.012164141051471233
0.013908285647630692,-0.005338487681001425,-0.007330469787120819,0.012428753077983856,-0.0003740566608030349,0.012592961080372334
0.013384583406150341,-0.0054299053736031055,-0.007131238933652639,0.011999676004052162,-0.000382173340767622,0.012171423062682152
0.013638379983603954,-0.006040547974407673,-0.006866666488349438,0.012212298810482025,-0.00037681791582144797,0.012818998657166958
0.013226487673819065,-0.005784718319773674,-0.0066416156478226185,0.011885378509759903,-0.00034929782850667834,0.012548577971756458
0.013930171728134155,-0.005818330217152834,-0.007001820951700211,0.011364896781742573,-0.0003718832740560174,0.013050291687250137
0.014373651705682278,-0.005829863250255585,-0.007386620622128248,0.011940202675759792,-0.00036179431481286883,0.013080675154924393
0.01483265869319439,-0.005830041132867336,-0.007039912045001984,0.011433457024395466,-0.0003399750858079642,0.013810171745717525
0.014022372663021088,-0.005662105977535248,-0.006639579311013222,0.01146631222218275,-0.0003659964131657034,0.013611430302262306
0.014271005988121033,-0.0058191195130348206,-0.007202242501080036,0.011667131446301937,-0.0003763760323636234,0.013440780341625214
0.014271005988121033,-0.0058191195130348206,-0.007202242501080036,0.011667131446301937,-0.0003763760323636234,0.013440780341625214
0.014721785672008991,-0.005458377301692963,-0.007511246483772993,0.01173183973878622,-0.0005328377010300756,0.013535480946302414
0.014721785672008991,-0.005458377301692963,-0.007511246483772993,0.01173183973878622,-0.0005328377010300756,0.013535480946302414
0.014346255920827389,-0.005702020134776831,-0.006940617226064205,0.011414903216063976,-0.0005326317041181028,0.013475257903337479
0.014601221308112144,-0.0060493783093988895,-0.008814171887934208,0.012079967185854912,-0.0005218683509156108,0.013539286330342293
0.0152342040091753,-0.005825163796544075,-0.007948368787765503,0.0112996194511652,-0.0005462527624331415,0.013593095354735851
0.014886523596942425,-0.00558109674602747,-0.007355128414928913,0.011675659567117691,-0.0005116115789860487,0.013516639359295368
0.015337996184825897,-0.005334311630576849,-0.008169705048203468,0.011811522766947746,-0.0004791668034158647,0.013350081630051136
0.014827772974967957,-0.005871157627552748,-0.00809837318956852,0.012563898228108883,-0.0005606848280876875,0.014477523975074291
0.01500824186950922,-0.00580474641174078,-0.008248548954725266,0.012298737652599812,-0.0005067886668257415,0.013648075982928276
0.014906871132552624,-0.005656286142766476,-0.008755890652537346,0.011846538633108139,-0.0004559652879834175,0.01301189698278904
0.015362818725407124,-0.005382986273616552,-0.008471556007862091,0.01263622846454382,-0.0004853075370192528,0.01306681614369154
0.015516484156250954,-0.005437700543552637,-0.008323165588080883,0.01209692656993866,-0.0004541543312370777,0.013832002878189087
0.01561592798680067,-0.00525805726647377,-0.007841288112103939,0.012796040624380112,-0.000453337503131479,0.014077452011406422
0.01564544439315796,-0.00536954402923584,-0.008897362276911736,0.012287390418350697,-0.0004517828347161412,0.01426205225288868
0.01584719493985176,-0.0052803331054747105,-0.008596280589699745,0.012172361835837364,-0.00042343148379586637,0.014204851351678371
0.015680227428674698,-0.005522176623344421,-0.008185314945876598,0.011774525046348572,-0.00042444904102012515,0.01451595313847065
0.015429218299686909,-0.004686040338128805,-0.007668976206332445,0.01223917305469513,-0.0004247882170602679,0.014483164064586163
0.01556592807173729,-0.004704748280346394,-0.008697766810655594,0.01222660019993782,-0.00040268301381729543,0.014217267744243145
0.015467219986021519,-0.005064154509454966,-0.008594953455030918,0.011291914619505405,-0.0003814515075646341,0.014371919445693493
0.015942435711622238,-0.004832090809941292,-0.008305581286549568,0.012173702009022236,-0.00035176699748262763,0.013631551526486874
0.015336026437580585,-0.0047267405316233635,-0.008696300908923149,0.011947816237807274,-0.00032576086232438684,0.014014742337167263
0.016053803265094757,-0.00459542078897357,-0.008616607636213303,0.012114154174923897,-0.0003602149081416428,0.014507435262203217
0.01586630940437317,-0.004539430607110262,-0.008822426199913025,0.01306859776377678,-0.00034113216679543257,0.014751102775335312
0.016131320968270302,-0.004579238593578339,-0.0085831293836236,0.012202722951769829,-0.00032108122832141817,0.014824545942246914
0.016161466017365456,-0.0048917848616838455,-0.008953592739999294,0.012235898524522781,-0.00030306860571727157,0.014696765691041946
0.01595969870686531,-0.004863017238676548,-0.009220834821462631,0.01206127367913723,-0.0003314864297863096,0.014501449652016163
0.016377471387386322,-0.004743607249110937,-0.008551404811441898,0.012007084675133228,-0.00031767040491104126,0.014642813242971897
0.016376223415136337,-0.004661778919398785,-0.009246597066521645,0.012404602020978928,-0.0003025985206477344,0.014402300119400024
0.016788756474852562,-0.004696252290159464,-0.008950653485953808,0.012345677241683006,-0.0003244688850827515,0.01423549558967352
0.016788756474852562,-0.004696252290159464,-0.008950653485953808,0.012345677241683006,-0.0003244688850827515,0.01423549558967352
0.016667937859892845,-0.004288624040782452,-0.009250887669622898,0.012475290335714817,-0.00031516244052909315,0.014427927322685719
0.01643795147538185,-0.004417849238961935,-0.009269066154956818,0.012341945432126522,-0.00030249671544879675,0.014858116395771503
0.016670556738972664,-0.004487485159188509,-0.008995577692985535,0.012610337696969509,-0.0003300950338598341,0.014985544607043266
0.016921600326895714,-0.004543110728263855,-0.010064722038805485,0.012785783968865871,-0.0003609958221204579,0.014906924217939377
0.017020463943481445,-0.004524274729192257,-0.009779105894267559,0.01258174516260624,-0.0003451875818427652,0.014553405344486237
0.018056539818644524,-0.004538139794021845,-0.009219666011631489,0.01269682589918375,-0.00032488766009919345,0.015223715454339981
0.017902344465255737,-0.004619722254574299,-0.0103074349462986,0.013001339510083199,-0.00035065904376097023,0.015240801498293877
0.016880730167031288,-0.004879944026470184,-0.009692057967185974,0.0125733008608222,-0.00033789215376600623,0.01553842332214117
0.017186354845762253,-0.004382007755339146,-0.00929663423448801,0.012805846519768238,-0.00032106178696267307,0.015703003853559494
0.016717148944735527,-0.0042107244953513145,-0.010015575215220451,0.012179874815046787,-0.0003377283865120262,0.015477803535759449
0.017602577805519104,-0.004137720447033644,-0.010450650006532669,0.012266166508197784,-0.00033226204686798155,0.015064128674566746
0.01773526705801487,-0.004405675455927849,-0.009955035522580147,0.012422737665474415,-0.0003182342916261405,0.01566694676876068
0.017865372821688652,-0.004180597141385078,-0.010101641528308392,0.012592867948114872,-0.00030480261193588376,0.014183936640620232
0.017878510057926178,-0.003996039275079966,-0.010285574942827225,0.012604478746652603,-0.00032042351085692644,0.014522189274430275
0.017497722059488297,-0.0039034548681229353,-0.00963615346699953,0.012693043798208237,-0.0003246485139243305,0.014960815198719501
0.018060976639389992,-0.0038444544188678265,-0.010912543162703514,0.01323736272752285,-0.0003044653858523816,0.014706545509397984
0.018247632309794426,-0.004304751753807068,-0.010375441052019596,0.012371600605547428,-0.0002852711477316916,0.014559379778802395
0.018444281071424484,-0.004143794998526573,-0.010620880872011185,0.012838711030781269,-0.0002682632766664028,0.01508646085858345
0.018630851060152054,-0.003996694460511208,-0.011530355550348759,0.01270715706050396,-0.0002531650825403631,0.014982837252318859
0.01922488957643509,-0.004023556597530842,-0.009945575147867203,0.013136573135852814,-0.00026304906350560486,0.015069224871695042
0.017502576112747192,-0.003995646256953478,-0.01014496199786663,0.013011880218982697,-0.0002714588481467217,0.015028882771730423
0.018207423388957977,-0.004009445197880268,-0.010877760127186775,0.012651562690734863,-0.0002598103601485491,0.015051549300551414
0.018776502460241318,-0.004403206519782543,-0.010463262908160686,0.01257586944848299,-0.00024796929210424423,0.015159361064434052
0.01872490532696247,-0.004160638432949781,-0.011221625842154026,0.012491384521126747,-0.00023708622029516846,0.015436800196766853
0.019196299836039543,-0.004127790220081806,-0.01046729926019907,0.013025619089603424,-0.00022711291967425495,0.015554988756775856
0.01870834454894066,-0.003991587553173304,-0.009788818657398224,0.012342059053480625,-0.00025179696967825294,0.015246688388288021
0.018898414447903633,-0.003737586084753275,-0.010645427741110325,0.012663442641496658,-0.00024424114963039756,0.015589234419167042
0.01901768147945404,-0.0034631730522960424,-0.010615327395498753,0.012636958621442318,-0.00023526318545918912,0.015484889969229698
0.01901768147945404,-0.0034631730522960424,-0.010615327395498753,0.012636958621442318,-0.00023526318545918912,0.015484889969229698
0.018721604719758034,-0.0035235818941146135,-0.009946015663444996,0.012873688712716103,-0.0002268018724862486,0.015694761648774147
0.01896335557103157,-0.003764163935557008,-0.011005688458681107,0.013016056269407272,-0.00024604651844128966,0.015590998344123363
0.018986500799655914,-0.004026462789624929,-0.010559323243796825,0.013233210891485214,-0.00023428142594639212,0.015860848128795624
0.018971873447299004,-0.0037534814327955246,-0.011275445111095905,0.013069245032966137,-0.0002342977822991088,0.01617685705423355
0.019243696704506874,-0.0034659651573747396,-0.010412064380943775,0.013215407729148865,-0.00022345935576595366,0.01618146151304245
0.019466562196612358,-0.0034653537441045046,-0.01076938584446907,0.012695444747805595,-0.00025260294205509126,0.01627928577363491
0.01949322782456875,-0.0037244646809995174,-0.010952169075608253,0.01327546313405037,-0.00024378771195188165,0.01599404774606228
0.019511131569743156,-0.003423377638682723,-0.010338562540709972,0.013062672689557076,-0.0002671269467100501,0.015961866825819016
0.019367385655641556,-0.0036325908731669188,-0.011052646674215794,0.013326681219041348,-0.00026070684543810785,0.01613044925034046
0.019481953233480453,-0.0033877440728247166,-0.011331235989928246,0.01282152347266674,-0.00025063619250431657,0.0161422211676836
0.01979323849081993,-0.0035136868245899677,-0.010960862040519714,0.012915953993797302,-0.0002731637505348772,0.016301942989230156
0.019557863473892212,-0.0036762552335858345,-0.0111369788646698,0.012745481915771961,-0.0002653860719874501,0.016025250777602196
0.019311603158712387,-0.0037887105718255043,-0.01055426150560379,0.012398109771311283,-0.00044196652015671134,0.016540097072720528
0.020127365365624428,-0.0034373365342617035,-0.010721225291490555,0.012851704843342304,-0.00048611726379022,0.017184220254421234
0.020177215337753296,-0.0033225396182388067,-0.011719395406544209,0.012564526870846748,-0.0004924532258883119,0.01599026657640934
0.020108547061681747,-0.0032286590430885553,-0.010659572668373585,0.013108734041452408,-0.0004884070949628949,0.0162242129445076
0.020409030839800835,-0.00297193368896842,-0.011265960521996021,0.014400866813957691,-0.00045532392687164247,0.016274405643343925
0.02027479000389576,-0.003335827263072133,-0.012258131057024002,0.013781464658677578,-0.00046938619925640523,0.016804324463009834
0.01960335113108158,-0.003248845227062702,-0.009424091316759586,0.012684542685747147,-0.00045371620217338204,0.016726382076740265
0.020389117300510406,-0.0035860503558069468,-0.010483581572771072,0.013326874002814293,-0.0004281541332602501,0.016755299642682076
0.020345017313957214,-0.003738835919648409,-0.010893694125115871,0.013077023439109325,-0.0005034228670410812,0.016736211255192757
0.020015964284539223,-0.0033861545380204916,-0.011190608143806458,0.012821100652217865,-0.0004600194515660405,0.0168519988656044
0.020299406722187996,-0.003229337278753519,-0.011146040633320808,0.012941119261085987,-0.0004953406169079244,0.01695145294070244
0.020576156675815582,-0.003208970185369253,-0.010537407360970974,0.012960169464349747,-0.0004583574191201478,0.01690707355737686
0.020359784364700317,-0.0027518924325704575,-0.010989978909492493,0.01368977501988411,-0.0004835698928218335,0.017175013199448586
0.02032165229320526,-0.0019238272216171026,-0.010808354243636131,0.013486857526004314,-0.00045678994501940906,0.01680293120443821
0.020378751680254936,-0.001417752355337143,-0.01042191032320261,0.01370763499289751,-0.0004830506513826549,0.01687261089682579
0.020685814321041107,-0.0012419179547578096,-0.010968522168695927,0.012874783016741276,-0.00045616409624926746,0.01701117493212223
0.020685814321041107,-0.0012419179547578096,-0.010968522168695927,0.012874783016741276,-0.00045616409624926746,0.01701117493212223
0.021146295592188835,-0.001182281761430204,-0.010824277065694332,0.013504610396921635,-0.0004990213201381266,0.017034979537129402
0.02081589214503765,-0.0008991636568680406,-0.010675986297428608,0.013136672787368298,-0.0004597420629579574,0.01738164573907852
0.02102094516158104,-0.0009445313480682671,-0.011060254648327827,0.013443373143672943,-0.0004953295574523509,0.01730170287191868
0.020249007269740105,-0.0015917442506179214,-0.010579660534858704,0.013492390513420105,-0.0005144154420122504,0.01713584177196026
0.020819716155529022,-0.001879332703538239,-0.011000790633261204,0.013326982036232948,-0.0005053564673289657,0.017474273219704628
0.02076505497097969,-0.001660754787735641,-0.010722574777901173,0.013714687898755074,-0.0004862287896685302,0.017739828675985336
0.020795542746782303,-0.0014807848492637277,-0.011161258444190025,0.01386306993663311,-0.00045637713628821075,0.01753866672515869
0.020243819802999496,-0.0013155643828213215,-0.010397474281489849,0.013566788285970688,-0.0005072107305750251,0.017757944762706757
0.020898720249533653,-0.0011549822520464659,-0.010319412685930729,0.01368640922009945,-0.0005125532625243068,0.017919233068823814
0.021458543837070465,-0.0008664795313961804,-0.011041782796382904,0.013344998471438885,-0.000546816096175462,0.01765282452106476
0.02135196514427662,-0.0008616336854174733,-0.010406763292849064,0.013707898557186127,-0.0005396879860199988,0.01766057312488556
0.021065209060907364,-0.0009509561350569129,-0.010537218302488327,0.013719783164560795,-0.0005657924339175224,0.01781138777732849
0.021286416798830032,-0.0010901924688369036,-0.010896493680775166,0.014130154624581337,-0.0007242681458592415,0.01837826333940029
0.020513078197836876,-0.0011348614934831858,-0.010023489594459534,0.013447301462292671,-0.0007991703459993005,0.017397290095686913
0.020562633872032166,-0.001107503892853856,-0.010772059671580791,0.013735591433942318,-0.0007705086609348655,0.017319632694125175
0.02109546959400177,-0.0010654488578438759,-0.010713860392570496,0.013368302024900913,-0.0007829566020518541,0.018022896721959114
0.021433930844068527,-0.0009406614117324352,-0.010644873604178429,0.014078057371079922,-0.0007498110644519329,0.01881667599081993
0.02115035243332386,-0.0008756573079153895,-0.011289081536233425,0.013635935261845589,-0.0008189583895727992,0.018826676532626152
0.02175881154835224,-0.0008760857162997127,-0.010827748104929924,0.014034398831427097,-0.0008170482469722629,0.019205231219530106
0.02155592106282711,-0.0008691661641933024,-0.010745903477072716,0.013852282427251339,-0.0007379752933047712,0.019335763528943062
0.02123868651688099,-0.0008817248744890094,-0.011199981905519962,0.014019187539815903,-0.0006509774248115718,0.018991567194461823
0.021292274817824364,-0.001038823858834803,-0.01101213414222002,0.013350489549338818,-0.0006706860731355846,0.01824612356722355
0.02161448635160923,-0.0010219234973192215,-0.011194302700459957,0.013876405544579029,-0.000611394876614213,0.018255896866321564
0.021740039810538292,-0.0010343504836782813,-0.011119763366878033,0.013732045888900757,-0.0006159576587378979,0.01852402277290821
0.021781256422400475,-0.0009171935962513089,-0.01071239449083805,0.013198561035096645,-0.0005840249941684306,0.01936832070350647
0.02182036265730858,-0.0009501292952336371,-0.010987788438796997,0.01370599027723074,-0.0005412725731730461,0.019619984552264214
0.02172543667256832,-0.0009414537926204503,-0.010609537363052368,0.013841022737324238,-0.00047054808237589896,0.018647437915205956
0.022048570215702057,-0.00092432921519503,-0.011080358177423477,0.013608827255666256,-0.00042329926509410143,0.01904945634305477
0.022263409569859505,-0.0008943653083406389,-0.011198426596820354,0.013384527526795864,-0.0004433720314409584,0.0190444253385067
0.022042671218514442,-0.0008275023428723216,-0.010903553105890751,0.013891329057514668,-0.0004259117995388806,0.019392285495996475
0.021889088675379753,-0.0007729993085376918,-0.011161832138895988,0.013925609178841114,-0.00042781743104569614,0.01954841800034046
0.021889088675379753,-0.0007729993085376918,-0.011161832138895988,0.013925609178841114,-0.00042781743104569614,0.01954841800034046
0.022245006635785103,-0.0007776314159855247,-0.01115405559539795,0.014514388516545296,-0.0004280961293261498,0.019418224692344666
0.022297928109765053,-0.0008053423371165991,-0.011619489639997482,0.01474415510892868,-0.0004307166673243046,0.018405761569738388
0.02244522050023079,-0.0007344104233197868,-0.010984429158270359,0.014412793330848217,-0.00046072376426309347,0.018887709826231003
0.02272379770874977,-0.0007675238302908838,-0.011199457570910454,0.014420576393604279,-0.00046427096822299063,0.019326698035001755
0.022767990827560425,-0.0006689442088827491,-0.011572174727916718,0.013967303559184074,-0.0004647552268579602,0.020073790103197098
0.022667136043310165,-0.0005824764375574887,-0.011479800567030907,0.014317524619400501,-0.00046217552153393626,0.021588914096355438
0.022664552554488182,-0.0006143636419437826,-0.01152973622083664,0.014054324477910995,-0.00048033133498393,0.019509579986333847
0.0223456509411335,-0.0005550937494263053,-0.01147445011883974,0.014764802530407906,-0.00046153453877195716,0.018636424094438553
0.023062583059072495,-0.0005837135831825435,-0.011649996973574162,0.014389553107321262,-0.0004310155054554343,0.019402291625738144
0.02361709251999855,-0.000537131039891392,-0.011828240938484669,0.01460745744407177,-0.0004570841556414962,0.02017790637910366
0.023767907172441483,-0.0005411112797446549,-0.011677252128720284,0.013899233192205429,-0.00043308085878379643,0.02080305479466915
0.02380778081715107,-0.0005241273902356625,-0.011651067063212395,0.015396865084767342,-0.00044675913522951305,0.020448245108127594
0.023568421602249146,-0.0004888347466476262,-0.011578651145100594,0.014032192528247833,-0.0004403646744322032,0.02009836956858635
0.023602908477187157,-0.0004406174411997199,-0.01170123927295208,0.013818889856338501,-0.0004782281175721437,0.0202088113874197
0.023885490372776985,-0.0003954661951866001,-0.012349948287010193,0.013564258813858032,-0.0005077891401015222,0.020216232165694237
0.024298658594489098,-0.00041085740667767823,-0.011840945109724998,0.014241231605410576,-0.0005113989464007318,0.020287781953811646
0.024562975391745567,-0.00040317579987458885,-0.012823519296944141,0.013871218077838421,-0.0005063092685304582,0.02040250040590763
0.024750620126724243,-0.0004371219256427139,-0.011834674514830112,0.01424848660826683,-0.0006551983533427119,0.020177729427814484
0.024270975962281227,-0.0004656157689169049,-0.012116146273911,0.013849789276719093,-0.0007161007961258292,0.020282447338104248
0.023089317604899406,-0.0006267743883654475,-0.012322884052991867,0.01436040922999382,-0.0006601790082640946,0.020465482026338577
0.023904774338006973,-0.0007123717223294079,-0.011987213045358658,0.013667345978319645,-0.0006372506613843143,0.020467456430196762
0.025036517530679703,-0.0006643448141403496,-0.012449870817363262,0.014046254567801952,-0.0006172535358928144,0.02057621069252491
0.024574005976319313,-0.0006561207701452076,-0.012321672402322292,0.013672436587512493,-0.0005646701320074499,0.020374316722154617
0.024574005976319313,-0.0006561207701452076,-0.012321672402322292,0.013672436587512493,-0.0005646701320074499,0.020374316722154617
0.024684427306056023,-0.0006375111406669021,-0.012549204751849174,0.013848566450178623,-0.0005448359297588468,0.02052212320268154
0.025209464132785797,-0.0005937859532423317,-0.012199128046631813,0.014026544988155365,-0.0005093216896057129,0.021270086988806725
0.025209464132785797,-0.0005937859532423317,-0.012199128046631813,0.014026544988155365,-0.0005093216896057129,0.021270086988806725
0.02491641230881214,-0.0006450953078456223,-0.01268733385950327,0.014397013001143932,-0.0005041819531470537,0.02124527469277382
0.02431754767894745,-0.0005868599400855601,-0.012912451289594173,0.014056578278541565,-0.0005380375660024583,0.020458584651350975
0.024362916126847267,-0.0006139377364888787,-0.012401580810546875,0.014746293425559998,-0.0005670628743246198,0.020358799025416374
0.025845419615507126,-0.0005624678451567888,-0.014568041078746319,0.014464649371802807,-0.0007169837481342256,0.021109657362103462
0.025441849604249,-0.00058124924544245,-0.014382296241819859,0.01489927712827921,-0.0007655546651221812,0.021046653389930725
0.025478335097432137,-0.0005453206249512732,-0.014910217374563217,0.014626918360590935,-0.0007864542421884835,0.021600373089313507
0.025211527943611145,-0.0005070189363323152,-0.013662558048963547,0.014547073282301426,-0.0006939500453881919,0.021436747163534164
0.025508536025881767,-0.0004736590781249106,-0.014294800348579884,0.014573807828128338,-0.0007102798554114997,0.02182740904390812
0.025621099397540092,-0.0004600466345436871,-0.014378420077264309,0.014878044836223125,-0.0006438425625674427,0.022804047912359238
0.02585221268236637,-0.0004183380806352943,-0.01550166867673397,0.014344683848321438,-0.0006563433562405407,0.022494051605463028
0.0256501417607069,-0.0003827557375188917,-0.013966522179543972,0.014175884425640106,-0.0006104419007897377,0.021931102499365807
0.02605937048792839,-0.0003527435474097729,-0.01481118518859148,0.014290920458734035,-0.0005632848478853703,0.02132990024983883
0.0263969786465168,-0.00039156898856163025,-0.014510851353406906,0.014832761138677597,-0.0005076066008768976,0.021271781995892525
0.026246750727295876,-0.0003659005160443485,-0.014834484085440636,0.014681830070912838,-0.00044523703400045633,0.021591752767562866
0.02586241066455841,-0.00034268604940734804,-0.014256928116083145,0.014791474677622318,-0.0004043770022690296,0.02249392867088318
0.025781558826565742,-0.0003737233055289835,-0.015007260255515575,0.014627990312874317,-0.0004349302325863391,0.022798970341682434
0.02583564631640911,-0.0003547365195117891,-0.014630859717726707,0.015122096985578537,-0.0004105471889488399,0.022578556090593338
0.02645435370504856,-0.0003358513058628887,-0.01516716182231903,0.014782761223614216,-0.00044125717249698937,0.022457389160990715
0.026256414130330086,-0.00017316026787739247,-0.014801863580942154,0.015085040591657162,-0.00047131915926001966,0.022511335089802742
0.02611854113638401,-0.0001530413283035159,-0.014917529188096523,0.014454677700996399,-0.0005972805083729327,0.022336430847644806
0.026414774358272552,-0.00020851327280979604,-0.014499249868094921,0.014795194379985332,-0.0007031055865809321,0.02251533418893814
0.02652011439204216,-0.00019606253772508353,-0.01485526654869318,0.014096137136220932,-0.0007292258087545633,0.022474467754364014
0.02652011439204216,-0.00019606253772508353,-0.01485526654869318,0.014096137136220932,-0.0007292258087545633,0.022474467754364014
0.02667030692100525,-0.0001712241501081735,-0.01493137702345848,0.014116431586444378,-0.0011541103012859821,0.022933343425393105
0.027033206075429916,-0.00016101221262943,-0.014980951324105263,0.014977601356804371,-0.0011046217987313867,0.023004017770290375
0.027033206075429916,-0.00016101221262943,-0.014980951324105263,0.014977601356804371,-0.0011046217987313867,0.023004017770290375
0.027126949280500412,-0.0001365751668345183,-0.01488351821899414,0.015492512844502926,-0.0008104289299808443,0.021979298442602158
0.027126949280500412,-0.0001365751668345183,-0.01488351821899414,0.015492512844502926,-0.0008104289299808443,0.021979298442602158
0.027398057281970978,-0.00012999864702578634,-0.015112744644284248,0.015311158262193203,-0.0007493459270335734,0.022201165556907654
0.027134424075484276,-0.00012402657011989504,-0.015091774053871632,0.014474277384579182,-0.0006800155388191342,0.022372182458639145
0.024968666955828667,-0.00011857932986458763,-0.015460871160030365,0.015021867118775845,-0.0006213632295839489,0.022831643000245094
0.02732972986996174,-0.0001135902784881182,-0.015216304920613766,0.015058443881571293,-0.0005719594773836434,0.023056969046592712
0.027885517105460167,-0.0001090039950213395,-0.015101472847163677,0.014945206232368946,-0.0005305641097947955,0.023161279037594795
0.026886500418186188,-0.00010477404430275783,-0.014428094029426575,0.015341326594352722,-0.0004049793351441622,0.02286657877266407
0.027729839086532593,-0.00010085983376484364,-0.015043780207633972,0.015522461384534836,-0.00036680017365142703,0.02310268022119999
0.028281332924962044,-9.72277921391651e-05,-0.014319692738354206,0.015386083163321018,-0.00033882042043842375,0.023100631311535835
0.028056172654032707,-9.384805161971599e-05,-0.014394468627870083,0.014962544664740562,-0.00037364440504461527,0.023397421464323997
0.027726702392101288,-9.069548104889691e-05,-0.014083142392337322,0.015045029111206532,-0.0003963562776334584,0.02322312630712986
0.027011992409825325,-8.774798334343359e-05,-0.01487768068909645,0.01454012468457222,-0.000385840714443475,0.0228336863219738
0.027261152863502502,-8.498591341776773e-05,-0.014371059834957123,0.015003331936895847,-0.0003644151147454977,0.022883325815200806
0.028745228424668312,-8.239244925789535e-05,-0.015007523819804192,0.015011624433100224,-0.000390357687138021,0.02317819930613041
0.028562335297465324,-7.995259511517361e-05,-0.014323954470455647,0.015252286568284035,-0.00037311334745027125,0.02325189858675003
0.02848377823829651,-7.765305053908378e-05,-0.014869834296405315,0.016675051301717758,-0.00035491224844008684,0.02354276366531849
0.028262581676244736,-7.54821885493584e-05,-0.014361006207764149,0.015319719910621643,-0.00040537421591579914,0.023679880425333977
0.028571104630827904,-7.342933531617746e-05,-0.014894318766891956,0.014405635185539722,-0.00043756476952694356,0.023729095235466957
0.028724247589707375,-7.148521399358287e-05,-0.014839835464954376,0.015422568656504154,-0.0004555725317914039,0.02362862601876259
0.028096826747059822,-6.964134081499651e-05,-0.015165474265813828,0.015185907483100891,-0.0004866885137744248,0.023555826395750046
0.028477521613240242,-6.789026519982144e-05,-0.014468377456068993,0.015562186948955059,-0.00048503399011678994,0.024084294214844704
0.028477521613240242,-6.789026519982144e-05,-0.014468377456068993,0.015562186948955059,-0.00048503399011678994,0.024084294214844704
0.028674811124801636,-6.622506771236658e-05,-0.015189409255981445,0.015265271067619324,-0.0007340518641285598,0.02423957735300064
0.028787733986973763,-6.463957106461748e-05,-0.014572537504136562,0.01564655266702175,-0.0007313453243114054,0.025049693882465363
0.029208695515990257,-6.312824552878737e-05,-0.015098491683602333,0.015728440135717392,-0.0006958108278922737,0.023473527282476425
0.028652608394622803,-6.030813528923318e-05,-0.015422387048602104,0.015131412073969841,-0.0005560310673899949,0.023570919409394264
0.02888886258006096,-5.899054303881712e-05,-0.014954484067857265,0.0151210967451334,-0.0005764082889072597,0.024339180439710617
0.02908070757985115,-5.7729219406610355e-05,-0.015253637917339802,0.015030818060040474,-0.0005370575236156583,0.025287017226219177
0.029452640563249588,-5.652078107232228e-05,-0.015321529470384121,0.01504649966955185,-0.0004954321775585413,0.02508723922073841
0.029928911477327347,-5.5361826525768265e-05,-0.015198811888694763,0.015579131431877613,-0.0005203185719437897,0.024530231952667236
0.02966730110347271,-5.424945629783906e-05,-0.015581983141601086,0.015327220782637596,-0.0004889457486569881,0.023730602115392685
0.03003108687698841,-5.3180981922196224e-05,-0.015423539094626904,0.015611069276928902,-0.00042696762830018997,0.02428063005208969
0.03031783550977707,-5.2153740398352966e-05,-0.015483194962143898,0.015575378201901913,-0.0004537221684586257,0.02493291161954403
0.029815027490258217,-5.116546162753366e-05,-0.015162864699959755,0.015941699966788292,-0.00046119396574795246,0.025158151984214783
0.030151844024658203,-5.0213831855216995e-05,-0.015711015090346336,0.015506125055253506,-0.00045958117698319256,0.02489285171031952
0.030360925942659378,-4.929707938572392e-05,-0.015448114834725857,0.0156994815915823,-0.00048745673848316073,0.02500506117939949
0.030145257711410522,-4.841316331294365e-05,-0.01585758849978447,0.015324697829782963,-0.0006103157065808773,0.0260559543967247
0.028622381389141083,-4.756038106279448e-05,-0.015381893143057823,0.01541354414075613,-0.0007239216938614845,0.02562899701297283
0.030581388622522354,-4.6737113734707236e-05,-0.015927471220493317,0.015698377043008804,-0.0006958662415854633,0.02472194842994213
0.03103247471153736,-4.594185156747699e-05,-0.015759577974677086,0.01588510163128376,-0.0007089097052812576,0.02451210655272007
0.030657010152935982,-4.524399992078543e-05,-0.016290683299303055,0.015861662104725838,-0.0006927834474481642,0.024702737107872963
0.0310195405036211,1.692391379037872e-05,-0.016301030293107033,0.015607739798724651,-0.0006692958995699883,0.025386730208992958
0.029399625957012177,1.7418567949789576e-05,-0.015528452582657337,0.015955502167344093,-0.0006889295182190835,0.02591812051832676
0.029796220362186432,1.7098676835303195e-05,-0.016092730686068535,0.015803638845682144,-0.0006815495435148478,0.025694185867905617
0.030912937596440315,1.678002990956884e-05,-0.01597132720053196,0.016469093039631844,-0.0006534116109833121,0.025516269728541374
0.030426649376749992,1.647290810069535e-05,-0.016641579568386078,0.015980437397956848,-0.0006699414807371795,0.025321748107671738
0.03132907301187515,1.6176827557501383e-05,-0.016308341175317764,0.016505612060427666,-0.0006804185686632991,0.02573089860379696
0.03179728984832764,1.5891202565399e-05,-0.01615203730762005,0.016600465402007103,-0.0006409193156287074,0.025076432153582573
0.03179728984832764,1.5891202565399e-05,-0.01615203730762005,0.016600465402007103,-0.0006409193156287074,0.025076432153582573
0.031189050525426865,1.5615478332620114e-05,-0.016263846307992935,0.016391931101679802,-0.0006918849539943039,0.025039833039045334
0.030782494693994522,2.5451814508414827e-05,-0.016532938927412033,0.01644306629896164,-0.0007206910522654653,0.025372887030243874
0.031102459877729416,0.0004192013875581324,-0.015945665538311005,0.01667838729918003,-0.0006695732590742409,0.025992922484874725
0.03150608018040657,0.000569442636333406,-0.016620300710201263,0.01618148386478424,-0.0006692585302516818,0.02612987905740738
0.031355589628219604,0.0013485783711075783,-0.016364138573408127,0.016383908689022064,-0.0006302075344137847,0.02596856839954853
0.031056838110089302,0.0013087642146274447,-0.01692095585167408,0.01630706898868084,-0.0005806245026178658,0.025881413370370865
0.03148087486624718,0.0008231793763116002,-0.016491059213876724,0.016231000423431396,-0.0005717689055018127,0.025899536907672882
0.031049629673361778,0.0006634375313296914,-0.016655681654810905,0.01605391316115856,-0.0005634038243442774,0.02584749087691307
0.031196683645248413,0.0005599604919552803,-0.016654985025525093,0.016142291948199272,-0.000550581724382937,0.02597815915942192
0.031563226133584976,0.00028343877056613564,-0.01620289497077465,0.016836553812026978,-0.0005743674701079726,0.026113180443644524
0.031368665397167206,0.0002740301424637437,-0.017298419028520584,0.016703596338629723,-0.0005916526424698532,0.026472806930541992
0.031682513654232025,0.00035974656930193305,-0.01673991046845913,0.01728990487754345,-0.0005633762921206653,0.02750600129365921
0.03176693245768547,0.00042578039574436843,-0.01688607595860958,0.01710420474410057,-0.0006618484039790928,0.02733076736330986
0.03151234984397888,0.0003915070847142488,-0.0167047418653965,0.01652151718735695,-0.0006540387985296547,0.026197291910648346
0.031195085495710373,0.0008408630965277553,-0.016712704673409462,0.01632138341665268,-0.0006298025255091488,0.025796035304665565
0.032489318400621414,0.0007254863157868385,-0.017463643103837967,0.015924129635095596,-0.0006124587380327284,0.02592848800122738
0.032331932336091995,0.0006248978897929192,-0.016360141336917877,0.0162302628159523,-0.000595603312831372,0.027245227247476578
0.031163576990365982,0.0005486403242684901,-0.01686355471611023,0.016069645062088966,-0.0005465802969411016,0.026927370578050613
0.031421832740306854,0.0005747972172684968,-0.01716933213174343,0.017018724232912064,-0.0005698386230506003,0.02689177356660366
0.03180324286222458,0.0005290782428346574,-0.017213184386491776,0.016637396067380905,-0.0005595188122242689,0.027541622519493103
0.03337038680911064,0.0006134785362519324,-0.017533423379063606,0.016365520656108856,-0.0005227454821579158,0.027374710887670517
0.03347747027873993,0.0005862677353434265,-0.017134567722678185,0.01660105213522911,-0.0005507714813575149,0.026491625234484673
0.03152823820710182,0.0006114247371442616,-0.01766270212829113,0.016585461795330048,-0.0005098051042295992,0.026797469705343246
0.031245071440935135,0.0006486197235062718,-0.01761692389845848,0.017195777967572212,-0.0005234339623712003,0.025936979800462723
0.03249407187104225,0.00067231833236292,-0.018084444105625153,0.01668623834848404,-0.0004995766212232411,0.02638736180961132
0.032356906682252884,0.000907373963855207,-0.018657753244042397,0.01702282950282097,-0.00051262101624161,0.0275211613625288
0.032356906682252884,0.000907373963855207,-0.018657753244042397,0.01702282950282097,-0.00051262101624161,0.0275211613625288
0.03379601985216141,0.0008712419657967985,-0.018138477578759193,0.016086403280496597,-0.00046263125841505826,0.027901452034711838
0.033370859920978546,0.0008362838416360319,-0.018502209335565567,0.017283622175455093,-0.00048460578545928,0.027473095804452896
0.032106347382068634,0.0007720578578300774,-0.018195001408457756,0.015955910086631775,-0.0005063695716671646,0.027459021657705307
0.03249720484018326,0.0007850185502320528,-0.01863066665828228,0.016352105885744095,-0.00048142069135792553,0.027489466592669487
0.03339262679219246,0.0008224136545322835,-0.01865443028509617,0.01681477390229702,-0.0005069108447059989,0.02750270627439022
0.0332019217312336,0.0008733394206501544,-0.0180010087788105,0.017221910879015923,-0.00047724752221256495,0.02761675976216793
0.033393826335668564,0.0013110412983223796,-0.018584929406642914,0.016695667058229446,-0.0005031484761275351,0.02763522043824196
0.03369755670428276,0.0015484329778701067,-0.01842324249446392,0.016184579581022263,-0.0005608365754596889,0.028051847591996193
0.034018464386463165,0.0014676516875624657,-0.018416643142700195,0.01647079363465309,-0.0005729239201173186,0.02795998938381672
0.03269871696829796,0.001345865661278367,-0.018790852278470993,0.016166264191269875,-0.0006081396131776273,0.02842377871274948
0.03398890048265457,0.0012846147874370217,-0.01857329159975052,0.01679104194045067,-0.0006197604816406965,0.02815162017941475
0.03430359438061714,0.0013274025404825807,-0.01889987289905548,0.017047181725502014,-0.0006237698835320771,0.02778651937842369
0.03447250649333,0.0015004173619672656,-0.018817255273461342,0.017278160899877548,-0.0006125876680016518,0.028357278555631638
0.0345696397125721,0.0015874095261096954,-0.018414178863167763,0.0172746479511261,-0.0007871408597566187,0.028565458953380585
0.03460659831762314,0.0019513970473781228,-0.018925175070762634,0.01695488952100277,-0.0008431982714682817,0.02893412858247757
0.0345938578248024,0.001953779486939311,-0.01921532116830349,0.017535477876663208,-0.0008529365877620876,0.02909039705991745
0.03503060340881348,0.0017341573256999254,-0.017977483570575714,0.017799925059080124,-0.0007881363853812218,0.028995608910918236
0.034983620047569275,0.0017164376331493258,-0.018886776641011238,0.01731560006737709,-0.0009011336951516569,0.028514806181192398
0.035525232553482056,0.0015891492366790771,-0.01945965550839901,0.01715850830078125,-0.0008378427010029554,0.02895418182015419
0.03531992807984352,0.001607450656592846,-0.01908222585916519,0.01716998592019081,-0.0007805789355188608,0.029270987957715988
0.03535645827651024,0.0017300683539360762,-0.019794542342424393,0.017733175307512283,-0.0007834630087018013,0.029497820883989334
0.035558588802814484,0.0024783622939139605,-0.019876733422279358,0.01765192113816738,-0.0007957841153256595,0.029320338740944862
0.035785265266895294,0.0025107471738010645,-0.019135747104883194,0.01702962815761566,-0.0007592444308102131,0.029409240931272507
0.035455282777547836,0.002367545384913683,-0.01910349726676941,0.01749642938375473,-0.0007775855483487248,0.029271749779582024
0.036172088235616684,0.002249469282105565,-0.019870702177286148,0.01699952594935894,-0.0007781190215609968,0.029718343168497086
0.03610185533761978,0.002436815993860364,-0.019662829115986824,0.016990549862384796,-0.0007162687252275646,0.03077763319015503
0.03644169121980667,0.002587733091786504,-0.019942736253142357,0.017787544056773186,-0.0006706176209263504,0.02910030446946621
0.037985194474458694,0.0028661692049354315,-0.019383415579795837,0.01882348023355007,-0.0006960543105378747,0.030461490154266357
0.036661017686128616,0.0028288806788623333,-0.019660919904708862,0.018229354172945023,-0.0007146272109821439,0.03011864796280861
0.035710658878088,0.0028791625518351793,-0.020486442372202873,0.017751147970557213,-0.0006954134441912174,0.02847631461918354
0.037526022642850876,0.0031028478406369686,-0.02052626572549343,0.016929548233747482,-0.00066844915272668,0.029228385537862778
0.037526022642850876,0.0031028478406369686,-0.02052626572549343,0.016929548233747482,-0.00066844915272668,0.029228385537862778
0.0368339978158474,0.003124643350020051,-0.01934622786939144,0.016114499419927597,-0.0006817191024310887,0.03055860660970211
0.03763537481427193,0.0035429520066827536,-0.019909238442778587,0.016806794330477715,-0.0006340976106002927,0.03012184053659439
0.03840629756450653,0.0037634707987308502,-0.020303750410676003,0.01731426641345024,-0.0007102591334842145,0.030984191223978996
0.03711365908384323,0.0039043223951011896,-0.0193315539509058,0.017867330461740494,-0.0007370570092462003,0.03178539499640465
0.03673427551984787,0.0035855199676007032,-0.019754957407712936,0.017840104177594185,-0.0007810808019712567,0.030314596369862556
0.038257893174886703,0.003623632714152336,-0.020661642774939537,0.017006294801831245,-0.0007303572492673993,0.028838416561484337
0.03796549141407013,0.003893304616212845,-0.02033125050365925,0.017840450629591942,-0.0009982662741094828,0.029420338571071625
0.037740737199783325,0.003495115553960204,-0.02013017237186432,0.01785302348434925,-0.0009240766521543264,0.03071167878806591
0.038031332194805145,0.0041808029636740685,-0.02057030238211155,0.01851455681025982,-0.0008570851641707122,0.03122280351817608
0.03773464635014534,0.004132235888391733,-0.019715407863259315,0.01830892451107502,-0.0008033376652747393,0.03105844184756279
0.038099560886621475,0.004457791335880756,-0.020119810476899147,0.017091425135731697,-0.0008034171187318861,0.030595913529396057
0.03814342990517616,0.004321904852986336,-0.020588098093867302,0.017768243327736855,-0.0007335810223594308,0.03067978471517563
0.03810061141848564,0.0041380287148058414,-0.02088603936135769,0.0175884198397398,-0.00065986457047984,0.03109242022037506
0.03865308314561844,0.004025451838970184,-0.020630154758691788,0.017122045159339905,-0.0006328755989670753,0.03124585561454296
0.038557492196559906,0.00479465676471591,-0.020699892193078995,0.017623404040932655,-0.0006595480954274535,0.03095758520066738
0.038637675344944,0.0049163568764925,-0.020688878372311592,0.017649095505475998,-0.000706890132278204,0.031167620792984962
0.038246750831604004,0.004770330153405666,-0.020393436774611473,0.018557215109467506,-0.0008811047882772982,0.030909670516848564
0.03784366324543953,0.005514785647392273,-0.02059965394437313,0.018048742786049843,-0.0009389041806571186,0.031233636662364006
0.03979955241084099,0.005302224308252335,-0.02116605080664158,0.01755513995885849,-0.0009366026497446001,0.031493838876485825
0.040440306067466736,0.004437167663127184,-0.021431658416986465,0.017581477761268616,-0.000830206845421344,0.03128839656710625
0.03781712427735329,0.004431117791682482,-0.020576339215040207,0.01744840107858181,-0.000831521232612431,0.03144747018814087
0.03986814618110657,0.005505135282874107,-0.02113352157175541,0.01793765462934971,-0.0008105536107905209,0.03137173876166344
0.03986814618110657,0.005505135282874107,-0.02113352157175541,0.01793765462934971,-0.0008105536107905209,0.03137173876166344
0.03966796398162842,0.006193447858095169,-0.021452125161886215,0.017375506460666656,-0.0008232560940086842,0.0309506356716156
0.040119849145412445,0.005845329724252224,-0.02084195241332054,0.01802133396267891,-0.0008056247024796903,0.03181539848446846
0.04060614854097366,0.005722621455788612,-0.02129749208688736,0.018020832911133766,-0.0007677070680074394,0.032673273235559464
0.03898254781961441,0.005498203448951244,-0.021266678348183632,0.01724132150411606,-0.0008347535622306168,0.03191307932138443
0.039490122348070145,0.00564113212749362,-0.021117256954312325,0.018016235902905464,-0.0008188810897991061,0.03063560649752617
0.03987706080079079,0.0062196627259254456,-0.020934319123625755,0.017947856336832047,-0.0007676005479879677,0.030894171446561813
0.039760928601026535,0.005598926451057196,-0.0215265192091465,0.017919497564435005,-0.0007799125160090625,0.031869132071733475
0.04017120227217674,0.005770939402282238,-0.02124890685081482,0.017496362328529358,-0.0007861836347728968,0.03241332620382309
0.03955214098095894,0.005773602519184351,-0.021156316623091698,0.017639711499214172,-0.0007196278893388808,0.032912712544202805
0.04000471904873848,0.006224726792424917,-0.020879972726106644,0.018183637410402298,-0.0007025692611932755,0.03289168328046799
0.04042309150099754,0.005885316524654627,-0.021392865106463432,0.01772676780819893,-0.0007067489204928279,0.03217771649360657
0.03983267396688461,0.005982269532978535,-0.021482301875948906,0.017696775496006012,-0.0007015550509095192,0.03097827173769474
0.04029305279254913,0.006147415842860937,-0.021338580176234245,0.01856096275150776,-0.0006745794089511037,0.03177868202328682
0.040844038128852844,0.0060052149929106236,-0.020706696435809135,0.018107734620571136,-0.0006932759424671531,0.033148132264614105
0.04038305580615997,0.006383122876286507,-0.021276181563735008,0.01828017272055149,-0.0007802428444847465,0.0329853780567646
0.04120391607284546,0.00712125189602375,-0.022236313670873642,0.01847795397043228,-0.0008041357505135238,0.03226945549249649
0.04100163280963898,0.006935514509677887,-0.022060763090848923,0.018170982599258423,-0.0008016935316845775,0.032298941165208817
0.04124003276228905,0.006340483669191599,-0.022034043446183205,0.01845628023147583,-0.0008122631697915494,0.03275712579488754
0.041318297386169434,0.006431442219763994,-0.021776676177978516,0.018775198608636856,-0.0008541552233509719,0.03273128718137741
0.041318297386169434,0.006431442219763994,-0.021776676177978516,0.018775198608636856,-0.0008541552233509719,0.03273128718137741
0.041792869567871094,0.0072341253980994225,-0.021024737507104874,0.018992023542523384,-0.0010144313564524055,0.03273905813694
0.041792869567871094,0.0072341253980994225,-0.021024737507104874,0.018992023542523384,-0.0010144313564524055,0.03273905813694
0.04140494018793106,0.006807407364249229,-0.02164635807275772,0.018347306177020073,-0.0009590011322870851,0.03300074487924576
0.041818879544734955,0.007203762885183096,-0.02444198541343212,0.01814565248787403,-0.00105742656160146,0.03371737152338028
0.04179992154240608,0.006597159896045923,-0.021696222946047783,0.01886484958231449,-0.001021669595502317,0.032821234315633774
0.04327860847115517,0.006796820554882288,-0.02366640605032444,0.018814310431480408,-0.0008247588993981481,0.03304506093263626
0.04327860847115517,0.006796820554882288,-0.02366640605032444,0.018814310431480408,-0.0008247588993981481,0.03304506093263626
0.043222300708293915,0.007162952329963446,-0.0223546139895916,0.019385185092687607,-0.0007825344800949097,0.033395323902368546
