davideferrari95/blind_handover_controller/data/Test 52 - [2024-02-07 -- 15-38-04]/joint_states_data.csv
shoulder_pan_joint,shoulder_lift_joint,elbow_joint,wrist_1_joint,wrist_2_joint,wrist_3_joint
0.003207174362614751,0.011739698238670826,-0.011135502718389034,0.002102997386828065,0.00040977835305966437,0.0033768373541533947
0.0032058358192443848,0.01125398837029934,-0.011585837230086327,0.0020496537908911705,0.0004727836640086025,0.0034788132179528475
0.0032058358192443848,0.01125398837029934,-0.011585837230086327,0.0020496537908911705,0.0004727836640086025,0.0034788132179528475
0.003131479723379016,0.01232015248388052,-0.011317715980112553,0.001983858644962311,0.0004541312518995255,0.003665880998596549
0.0029724689666181803,0.011318556033074856,-0.010920753702521324,0.001812792499549687,0.0004141927929595113,0.0035625582095235586
0.0033033655490726233,0.011973866261541843,-0.011662134900689125,0.001674068160355091,0.0003793644718825817,0.003397481981664896
0.0030740569345653057,0.011622896417975426,-0.011490424163639545,0.0016256142407655716,0.0003498518490232527,0.003574640490114689
0.0032027969136834145,0.011490895412862301,-0.010984019376337528,0.0015583953354507685,0.0003849453933071345,0.0032913973554968834
0.003265862353146076,0.012038697488605976,-0.011325252242386341,0.0017581494757905602,0.0003629931015893817,0.0033296174369752407
0.0030918652191758156,0.011507581919431686,-0.011164853349328041,0.002002953551709652,0.0003403614682611078,0.003328164340928197
0.0030918652191758156,0.011507581919431686,-0.011164853349328041,0.002002953551709652,0.0003403614682611078,0.003328164340928197
0.003403374692425132,0.011853843927383423,-0.01133586186915636,0.002112187910825014,0.00032018552883528173,0.0035094600170850754
0.0032615538220852613,0.01215026993304491,-0.009813549928367138,0.00178422755561769,0.0003022564051207155,0.0033091686200350523
0.0034351926296949387,0.011535565368831158,-0.011894633993506432,0.0016838869778439403,0.0003306448052171618,0.0030693234875798225
0.0030197501182556152,0.011445960029959679,-0.011924193240702152,0.0015934016555547714,0.00031690578907728195,0.0029103413689881563
0.003090097801759839,0.01089062076061964,-0.0106655890122056,0.0015124150086194277,0.000301904248772189,0.002910094801336527
0.0034655905328691006,0.01171028707176447,-0.011057239957153797,0.0015702155651524663,0.0003082150360569358,0.003192232921719551
0.0033189882524311543,0.011493263766169548,-0.01109510101377964,0.0017409692518413067,0.0003134884173050523,0.003639164613559842
0.0035615621600300074,0.011030537076294422,-0.010622763074934483,0.0016596384812146425,0.0003015772963408381,0.0036104004830121994
0.003438423853367567,0.011231405660510063,-0.011051423847675323,0.0013983165845274925,0.00026310334214940667,0.003180653788149357
0.003181805368512869,0.01136600598692894,-0.011423065327107906,0.0013426392106339335,0.0002445730206090957,0.003342064330354333
0.00314363487996161,0.010755625553429127,-0.011221855878829956,0.0012868917547166348,0.00023169926134869456,0.003124005626887083
0.0032261586748063564,0.010444482788443565,-0.010656206868588924,0.001296263188123703,0.0002203328040195629,0.003356842789798975
0.0031654410995543003,0.011359363794326782,-0.011171919293701649,0.0012751513859257102,0.00023056415375322104,0.0035466551780700684
0.003521831938996911,0.01081044226884842,-0.011067170649766922,0.0012342227855697274,0.00023940674145705998,0.003454171819612384
0.0032969594467431307,0.010477866046130657,-0.010723878629505634,0.0013752860249951482,0.00023043561668600887,0.003586855251342058
0.003562148893252015,0.010667998343706131,-0.01169678382575512,0.0014164050808176398,0.00022108139819465578,0.003341811476275325
0.0037512732669711113,0.010842698626220226,-0.011191349476575851,0.0015237185871228576,0.00023856050393078476,0.003583083162084222
0.0037991912104189396,0.011517060920596123,-0.011918120086193085,0.0016221565892919898,0.00023780630726832896,0.003346758894622326
0.0038123189006000757,0.011356620118021965,-0.011136469431221485,0.00153416080866009,0.0002296759485034272,0.0035467154812067747
0.003349726088345051,0.01144460029900074,-0.010447227396070957,0.0016091752331703901,0.00022162977256812155,0.0034135282039642334
0.0032732225954532623,0.011448386125266552,-0.011457035318017006,0.00162509735673666,0.0002140992583008483,0.003335660556331277
0.0032681955490261316,0.011100010946393013,-0.010872161015868187,0.001447180169634521,0.0002070615882985294,0.003358404152095318
0.0035493606701493263,0.010356456972658634,-0.010976545512676239,0.0014604689786210656,0.00022717964020557702,0.0033355574123561382
0.0037509941030293703,0.011761032976210117,-0.011180873028934002,0.0014149408088997006,0.00022191913740243763,0.003332544583827257
0.0037509941030293703,0.011761032976210117,-0.011180873028934002,0.0014149408088997006,0.00022191913740243763,0.003332544583827257
0.003740644780918956,0.0107785165309906,-0.01141433883458376,0.0014294738648459315,0.00020914339984301478,0.003183681285008788
0.0038161545526236296,0.010896436870098114,-0.010930748656392097,0.0013940142234787345,0.0002329675917280838,0.003095353487879038
0.0038161545526236296,0.010896436870098114,-0.010930748656392097,0.0013940142234787345,0.0002329675917280838,0.003095353487879038
0.00354166142642498,0.01088734995573759,-0.011293736286461353,0.0015678990166634321,0.00022042830823920667,0.003458469407632947
0.003556300885975361,0.01052791252732277,-0.011704959906637669,0.0015943916514515877,0.0002101726713590324,0.0036106400657445192
0.003556300885975361,0.01052791252732277,-0.011704959906637669,0.0015943916514515877,0.0002101726713590324,0.0036106400657445192
0.003790448186919093,0.010827823542058468,-0.011561018414795399,0.0014317522291094065,0.0001922166411532089,0.00359310838393867
0.0038600782863795757,0.010546423494815826,-0.011522633023560047,0.0014658875297755003,0.00021629554976243526,0.0034149575512856245
0.0037760213017463684,0.010710137896239758,-0.011564443819224834,0.0013841618783771992,0.00021218192705418915,0.0035186633467674255
0.0037830050569027662,0.010959302075207233,-0.01146639697253704,0.0013223027344793081,0.00020443450193852186,0.0037061902694404125
0.003790325718000531,0.010847339406609535,-0.011404708959162235,0.0013061572099104524,0.00019699444237630814,0.003407224314287305
0.003830336732789874,0.011128788813948631,-0.011395690031349659,0.0012263540411368012,0.00019006080401595682,0.0035140637774020433
0.0037968300748616457,0.011141984723508358,-0.010803001001477242,0.001169560826383531,0.00019859518215525895,0.004187242593616247
0.0038434213493019342,0.01021238137036562,-0.011280633509159088,0.0010806373320519924,0.00020613525703083724,0.004156815819442272
0.003886633552610874,0.010837937705218792,-0.011560643091797829,0.0010125238914042711,0.00020049222803208977,0.004009726457297802
0.0039014287758618593,0.010418790392577648,-0.011217470280826092,0.0010296141263097525,0.00019436584261711687,0.0034995325841009617
0.0038171126507222652,0.010261598974466324,-0.0119511429220438,0.0010131348390132189,0.00018855211965274066,0.003173611592501402
0.004301915876567364,0.010992943309247494,-0.01086559146642685,0.0010652830824255943,0.00020244484767317772,0.00308226072229445
0.00422998983412981,0.010397319681942463,-0.011173637583851814,0.001210397225804627,0.00020287440565880388,0.00322160217911005
0.003934983629733324,0.010240154340863228,-0.011521842330694199,0.001189977047033608,0.00019770397921092808,0.0034318920224905014
0.0037680002860724926,0.01079192291945219,-0.010901913978159428,0.0012399812694638968,0.00019244579016231,0.003796279663220048
0.0038722618483006954,0.010964516550302505,-0.011304501444101334,0.001320111914537847,0.00018743719556368887,0.003991486970335245
0.0040245638228952885,0.011400391347706318,-0.011061159893870354,0.001316219219006598,0.00018268104759044945,0.0038114755880087614
0.0040245638228952885,0.011400391347706318,-0.011061159893870354,0.001316219219006598,0.00018268104759044945,0.0038114755880087614
0.00393421808257699,0.0103538129478693,-0.011699171736836433,0.0013723825104534626,0.00019816721032839268,0.003494368400424719
0.003770253388211131,0.010530626401305199,-0.011947520077228546,0.0012916397536173463,0.00019277894170954823,0.0036029773764312267
0.004323879722505808,0.01056489534676075,-0.011497626081109047,0.0012215637834742665,0.000185053184395656,0.0034159296192228794
0.004111455753445625,0.010360131040215492,-0.01188146136701107,0.001169642899185419,0.0001777554425643757,0.003538947319611907
0.004342405591160059,0.010107134468853474,-0.01168549619615078,0.0011368354316800833,0.00017100063269026577,0.0037076089065521955
0.004143070429563522,0.010498683899641037,-0.011449518613517284,0.0011170723009854555,0.00016473900177516043,0.003804607782512903
0.004010923206806183,0.009673578664660454,-0.012105986475944519,0.0010946253314614296,0.00018243923841509968,0.0038298850413411856
0.004032227210700512,0.009772383607923985,-0.011370367370545864,0.0011834338074550033,0.00018365881987847388,0.003847153391689062
0.003960364032536745,0.01048881746828556,-0.01188171748071909,0.0011477660154923797,0.00017808923439588398,0.0038687579799443483
0.004412821494042873,0.010005677118897438,-0.011410374194383621,0.0010376038262620568,0.00017243172624148428,0.0042588734067976475
0.004028559196740389,0.011303112842142582,-0.011757941916584969,0.0009538150625303388,0.00016208294255193323,0.003616353264078498
0.0038328985683619976,0.01014160830527544,-0.011212623678147793,0.0009372803615406156,0.0001818207383621484,0.0037768783513456583
0.0037988461554050446,0.00993274338543415,-0.012050947174429893,0.0009311115718446672,0.00017827213741838932,0.0043630716390907764
0.003907333128154278,0.009980171918869019,-0.011691748164594173,0.0009269595029763877,0.00017346770619042218,0.004500666633248329
0.004386414308100939,0.010828936472535133,-0.011011628434062004,0.000906082394067198,0.0001688257179921493,0.004143836442381144
0.004531656391918659,0.010343161411583424,-0.011216040700674057,0.0009330183384008706,0.00016441976185888052,0.003762593260034919
0.004331182222813368,0.009857653640210629,-0.011007575318217278,0.0008953409851528704,0.00016023768694140017,0.0036064903251826763
0.003999616950750351,0.0097205163910985,-0.011527727358043194,0.0008938797982409596,0.00016722912550903857,0.003464356530457735
0.0042936597019433975,0.011014080606400967,-0.011458346620202065,0.0008510850020684302,0.00017352197028230876,0.0035308399237692356
0.004314734134823084,0.009917113929986954,-0.011210781522095203,0.0008552343933843076,0.0001700971188256517,0.003909312654286623
0.004354026168584824,0.009253174997866154,-0.011700471863150597,0.0008618005667813122,0.00016621430404484272,0.003978430293500423
0.004381126258522272,0.010937998071312904,-0.011010333895683289,0.0008673560223542154,0.00016246625455096364,0.003830505767837167
0.004530711565166712,0.010164988227188587,-0.011293779127299786,0.0008711962145753205,0.00015888137568254024,0.003615614492446184
0.004697538446635008,0.009566672146320343,-0.011449221521615982,0.0008752233698032796,0.0001554508344270289,0.0035162006970494986
0.004344286397099495,0.010286125354468822,-0.010933523066341877,0.0008940197876654565,0.00015216560859698802,0.0036957801785320044
0.004399454221129417,0.010628114454448223,-0.011352909728884697,0.0009049182990565896,0.00016654422506690025,0.004118526354432106
0.004399454221129417,0.010628114454448223,-0.011352909728884697,0.0009049182990565896,0.00016654422506690025,0.004118526354432106
0.004507390782237053,0.009753038175404072,-0.011608553119003773,0.0008970015915110707,0.00016317254630848765,0.004420375917106867
0.004664654843509197,0.010042388923466206,-0.011963862925767899,0.000976606854237616,0.00015763040573801845,0.004272951278835535
0.004698652308434248,0.009924253448843956,-0.011633391492068768,0.0010596808278933167,0.00015230603457894176,0.003980886656790972
0.004591452889144421,0.009525291621685028,-0.010897151194512844,0.001076817512512207,0.00014731984992977232,0.00381921767257154
0.0048619103617966175,0.00996894296258688,-0.011227012611925602,0.0010961189400404692,0.00014264980563893914,0.003917733673006296
0.00476105185225606,0.01000986434519291,-0.010762080550193787,0.0011574309319257736,0.0001382663322146982,0.004018410108983517
0.004873091820627451,0.009962718933820724,-0.011048167012631893,0.001128916977904737,0.00014730663679074496,0.004434578586369753
0.004611657932400703,0.01093544065952301,-0.011714829131960869,0.001094627776183188,0.0001554204209242016,0.004206712823361158
0.004451740998774767,0.010478845797479153,-0.011557442136108875,0.0011735297739505768,0.00015185690426733345,0.003984559327363968
0.004956039600074291,0.010385463014245033,-0.01096999179571867,0.001100372988730669,0.00014382213703356683,0.004215740133076906
0.004699356388300657,0.009995907545089722,-0.010910497047007084,0.0010924643138423562,0.0001400907785864547,0.004329826682806015
0.004715258721262217,0.00969975907355547,-0.011425169184803963,0.0010943877277895808,0.00013654821668751538,0.004568166099488735
0.005151761695742607,0.01030012872070074,-0.011068304069340229,0.0010630255565047264,0.0001331805979134515,0.004591604694724083
0.005076955072581768,0.009714299812912941,-0.011352282017469406,0.001005208701826632,0.0001299748691963032,0.004338969476521015
0.00483106542378664,0.00970865786075592,-0.011534074321389198,0.0009333438356406987,0.00014260350144468248,0.004254132974892855
0.004697848577052355,0.010253945365548134,-0.010799570940434933,0.0008808462880551815,0.000144315417855978,0.004292146768420935
0.004696838557720184,0.00957396812736988,-0.011302454397082329,0.0008859986555762589,0.00014140138227958232,0.004045445937663317
0.0043159229680895805,0.009635824710130692,-0.01103887427598238,0.0008879830129444599,0.00013831818068865687,0.0038946415297687054
0.0045363446697592735,0.010331901721656322,-0.011118336580693722,0.0008893788908608258,0.00013534774188883603,0.00401676120236516
0.0051100184209644794,0.009728005155920982,-0.01189809013158083,0.0010348815703764558,0.00013250128540676087,0.004194334149360657
0.004819581285119057,0.01005737017840147,-0.011301777325570583,0.001072379294782877,0.00012977184087503701,0.00433646235615015
0.004400824196636677,0.009963085874915123,-0.011229430325329304,0.001050409278832376,0.00012715248158201575,0.004248952027410269
0.004256298765540123,0.009513523429632187,-0.011083881370723248,0.0012633012374863029,0.0001246369502041489,0.0045370906591415405
0.0044970521703362465,0.009454458951950073,-0.01099037379026413,0.0012225431855767965,0.00012221906217746437,0.0046166363172233105
0.004617689643055201,0.009437445551156998,-0.011047291569411755,0.001207665540277958,0.00012832088395953178,0.004372031427919865
0.004646270535886288,0.009655882604420185,-0.010537354275584221,0.0012057978892698884,0.00013389368541538715,0.0048865145072340965
0.0046037039719522,0.009656629525125027,-0.010935519821941853,0.0011716349981725216,0.00013195951760280877,0.004918559920042753
0.005021300166845322,0.009567750617861748,-0.010725587606430054,0.0011239554733037949,0.00012961776519659907,0.004857279825955629
0.005021300166845322,0.009567750617861748,-0.010725587606430054,0.0011239554733037949,0.00012961776519659907,0.004857279825955629
0.004987588617950678,0.009505142457783222,-0.010628699325025082,0.0010989021975547075,0.0001273277885047719,0.004607539623975754
0.0045492080971598625,0.009010027162730694,-0.011279478669166565,0.0010366052156314254,0.00012511553359217942,0.0042425161227583885
0.004438833333551884,0.010095070116221905,-0.010958402417600155,0.0010972408344969153,0.00012297833745833486,0.004352716729044914
0.005262034945189953,0.009615261107683182,-0.010620187036693096,0.0011074331123381853,0.00012091296230209991,0.0041268495842814445
0.005289715714752674,0.009214927442371845,-0.010713419876992702,0.0011007305001839995,0.00011891611939063296,0.004481978248804808
0.004797759465873241,0.009464091621339321,-0.010930731892585754,0.001138640334829688,0.00011698388698277995,0.004656348377466202
0.0047323270700871944,0.00913584977388382,-0.011554677970707417,0.0011882833205163479,0.00011511368211358786,0.004753151908516884
0.004814464133232832,0.009066084399819374,-0.011237211525440216,0.0012139086611568928,0.00011330211418680847,0.005039133597165346
0.00507301976904273,0.009266545064747334,-0.01116456463932991,0.0012795582879334688,0.00011324170918669552,0.004281377885490656
0.005574541632086039,0.009247801266610622,-0.010835302993655205,0.0012707074638456106,0.00011102480493718758,0.004285495262593031
0.00520112831145525,0.009800951927900314,-0.011251909658312798,0.001278989831916988,0.00010838818707270548,0.004634718410670757
0.005132325924932957,0.009383526630699635,-0.011721314862370491,0.0012230572756379843,0.0001058412526617758,0.004825526382774115
0.004945904016494751,0.009335695765912533,-0.010768430307507515,0.0011771965073421597,0.00010340895096305758,0.004483363591134548
0.004814623389393091,0.00909869372844696,-0.011241143569350243,0.0012555524008348584,0.00010108607239089906,0.004499269183725119
0.005166382994502783,0.009498953819274902,-0.011360454373061657,0.001218475867062807,9.886507177725434e-05,0.00428785989060998
0.005057330708950758,0.009324772283434868,-0.011095039546489716,0.0011677398579195142,9.673970635049045e-05,0.004404842387884855
0.0052789244800806046,0.009313751943409443,-0.011475867591798306,0.0011463792761787772,9.470371878705919e-05,0.004929011221975088
0.00509265111759305,0.009488929994404316,-0.010941822081804276,0.0011977266985923052,9.275170305045322e-05,0.004852664191275835
0.00483292480930686,0.009169617667794228,-0.011362282559275627,0.0011919327080249786,9.087849321076646e-05,0.005129411816596985
0.004760115407407284,0.009047199040651321,-0.011214685626327991,0.0011931972112506628,8.907949813874438e-05,0.004648360423743725
0.005165735259652138,0.009792814962565899,-0.010978777892887592,0.001175911515019834,8.735035225981846e-05,0.004560363944619894
0.00545071717351675,0.009473352693021297,-0.011634805239737034,0.001128479139879346,8.568702469347045e-05,0.004724550060927868
0.0055611636489629745,0.0088474340736866,-0.011343038640916348,0.0010978344362229109,8.408583380514756e-05,0.004793803207576275
0.005143876187503338,0.009715440683066845,-0.01129031553864479,0.001194355427287519,8.254350541392341e-05,0.004588731564581394
0.005256385076791048,0.009526981972157955,-0.011741104535758495,0.0011705690994858742,8.105656161205843e-05,0.004410263150930405
0.005487172398716211,0.009268167428672314,-0.011421672999858856,0.0013238246319815516,7.96224849182181e-05,0.004801042377948761
0.005428242031484842,0.009539204649627209,-0.011775104328989983,0.0013772243401035666,7.823806663509458e-05,0.004985153675079346
0.005428242031484842,0.009539204649627209,-0.011775104328989983,0.0013772243401035666,7.823806663509458e-05,0.004985153675079346
0.005644389893859625,0.009060709737241268,-0.011396452784538269,0.0013011576374992728,7.690105121582747e-05,0.005169880110770464
0.005774348042905331,0.009305919520556927,-0.011557608842849731,0.001208233879879117,7.435947918565944e-05,0.004931846633553505
0.005774348042905331,0.009305919520556927,-0.011557608842849731,0.001208233879879117,7.435947918565944e-05,0.004931846633553505
0.005152357276529074,0.008963873609900475,-0.01111026480793953,0.0011506311129778624,7.315081165870652e-05,0.00509978411719203
0.005194160155951977,0.00862081442028284,-0.011522915214300156,0.0011463864939287305,7.198069215519354e-05,0.005036574322730303
0.0057146791368722916,0.008987469598650932,-0.011314833536744118,0.0011291373521089554,7.084743265295401e-05,0.005199680104851723
0.00592120410874486,0.00900400523096323,-0.01135755144059658,0.001206028158776462,6.974928692216054e-05,0.005073255859315395
0.0052523985505104065,0.009227928705513477,-0.011429357342422009,0.001180620165541768,6.765207945136353e-05,0.0050958567298948765
0.00497934827581048,0.009137162938714027,-0.011839160695672035,0.0012179305776953697,6.665012188022956e-05,0.005223947111517191
0.00577788008376956,0.009143481962382793,-0.011769247241318226,0.0012562263291329145,6.567736272700131e-05,0.005261882673949003
0.005896332673728466,0.00895185861736536,-0.011913379654288292,0.0012727748835459352,6.473255052696913e-05,0.005172409117221832
0.005677525885403156,0.009336402639746666,-0.012113664299249649,0.0012918435968458652,6.381460116244853e-05,0.005204781889915466
0.005389214958995581,0.009083796292543411,-0.011715591885149479,0.0013172522885724902,6.292237958405167e-05,0.005082674324512482
0.005550810601562262,0.00925019383430481,-0.011962608434259892,0.001205197535455227,6.205463432706892e-05,0.005277404095977545
0.0059493486769497395,0.009691891260445118,-0.01153222844004631,0.0012672351440414786,6.121055776020512e-05,0.005533140618354082
0.006092646159231663,0.009219987317919731,-0.011158359237015247,0.001342831994406879,6.0389123973436654e-05,0.005273090675473213
0.006039023399353027,0.009298082441091537,-0.011247511021792889,0.0013965595280751586,5.9589419834082946e-05,0.005152108613401651
0.005774158518761396,0.009194165468215942,-0.011226329021155834,0.0015080284792929888,5.881074321223423e-05,0.004904163535684347
0.006101577542722225,0.009452215395867825,-0.01256138738244772,0.0014353282749652863,5.805199543829076e-05,0.004910801537334919
0.0061051202937960625,0.008932960219681263,-0.011236296966671944,0.0015027221525087953,5.7312670833198354e-05,0.005536046344786882
0.005933178588747978,0.00972699373960495,-0.01171647198498249,0.0015684826066717505,5.659190719597973e-05,0.005241628736257553
0.006123503670096397,0.009512967430055141,-0.011859036050736904,0.0017631319351494312,5.588907879428007e-05,0.005435024853795767
0.005930222570896149,0.009046537801623344,-0.011236518621444702,0.0018009584164246917,6.06457979301922e-05,0.0051177386194467545
0.00612257607281208,0.009451326914131641,-0.011395820416510105,0.0017892405157908797,6.507580837933347e-05,0.004872580990195274
0.006626876071095467,0.009595443494617939,-0.01113309245556593,0.0017025828128680587,6.463392492150888e-05,0.005013547372072935
0.00610146950930357,0.00979215744882822,-0.011010770685970783,0.0016524216625839472,6.389122427208349e-05,0.005318365525454283
0.006171416491270065,0.009406267665326595,-0.012137789279222488,0.0015382840065285563,6.314554048003629e-05,0.005629448220133781
0.005899208132177591,0.009363297373056412,-0.01142800785601139,0.0015084129991009831,6.241581286303699e-05,0.005311775486916304
0.005858408287167549,0.00924571231007576,-0.011069852858781815,0.0013844403438270092,6.170257984194905e-05,0.005202705506235361
0.005858408287167549,0.00924571231007576,-0.011069852858781815,0.0013844403438270092,6.170257984194905e-05,0.005202705506235361
0.006673513446003199,0.009362291544675827,-0.011002134531736374,0.001413788995705545,6.100553218857385e-05,0.005501620937138796
0.006283710710704327,0.009530924260616302,-0.011054604314267635,0.0013787663774564862,6.032409510225989e-05,0.005481240805238485
0.005981700029224157,0.008905445225536823,-0.01216133777052164,0.001519875368103385,5.965761010884307e-05,0.005596626084297895
0.0060482267290353775,0.009052111767232418,-0.011494561098515987,0.0015925451880320907,3.895215741067659e-06,0.005907554645091295
0.0063628689385950565,0.009717118926346302,-0.011279560625553131,0.0017727388767525554,2.54329734161729e-07,0.00558248208835721
0.006457979325205088,0.0095102833583951,-0.011130073107779026,0.0018379909452050924,1.6605913089051683e-08,0.005354258697479963
0.00588730163872242,0.009538620710372925,-0.011203611269593239,0.002182717900723219,7.079361402650974e-11,0.0054976013489067554
0.005828659050166607,0.008937081322073936,-0.011002672836184502,0.0021970150992274284,4.6223172858739225e-12,0.005690447054803371
0.006578059401363134,0.008982663974165916,-0.011072168126702309,0.0019451734842732549,3.018042630045792e-13,0.00608796626329422
0.006907831411808729,0.009822984226047993,-0.011338535696268082,0.0017800715286284685,1.970566247612611e-14,0.005523912608623505
0.006499378941953182,0.009216970764100552,-0.01051956694573164,0.0017793473089113832,1.2866389175936644e-15,0.005852452479302883
0.006334640551358461,0.009082616306841373,-0.01087109837681055,0.0019042972708120942,8.400832404454258e-17,0.005661393515765667
0.006256425753235817,0.01012126449495554,-0.01133968960493803,0.0018397558014839888,5.485143002499371e-18,0.005825617350637913
0.007283319719135761,0.009429388679564,-0.010867157019674778,0.0016278508119285107,3.581406675043279e-19,0.005845875479280949
0.006640350446105003,0.00889514945447445,-0.011390830390155315,0.0016428116941824555,2.3384027563007565e-20,0.005625460296869278
0.006430014502257109,0.009577319957315922,-0.011374099180102348,0.001545836916193366,1.526809914065861e-21,0.005286570638418198
0.006742528174072504,0.00933790486305952,-0.011188396252691746,0.0017295569414272904,9.96897788532959e-23,0.005742316134274006
0.006968365050852299,0.00902385264635086,-0.011491595767438412,0.0016606553690508008,6.50903056292834e-24,0.005931819323450327
0.006849984638392925,0.009963195770978928,-0.011063684709370136,0.0019355174154043198,4.249931920538704e-25,0.006306412164121866
0.0067448862828314304,0.009590444155037403,-0.011109286919236183,0.0018470485229045153,2.774902050586089e-26,0.006235153879970312
0.006552820559591055,0.008313586004078388,-0.01087208092212677,0.0021132458932697773,1.81181243220647e-27,0.005595968570560217
0.0068205660209059715,0.010303568094968796,-0.01088198833167553,0.0020609882194548845,1.182984172005388e-28,0.005773396231234074
0.007463987451046705,0.008411362767219543,-0.011098948307335377,0.0022366680204868317,7.724041347727767e-30,0.0058517130091786385
0.006966433487832546,0.00992615520954132,-0.010490844957530499,0.0022680512629449368,5.043247393417617e-31,0.006231848616153002
0.006686729844659567,0.010968624614179134,-0.01096850261092186,0.0021771301981061697,3.2928799988638264e-32,0.006294657476246357
0.0065172333270311356,0.010171644389629364,-0.01109585165977478,0.002091596834361553,2.1500151671684578e-33,0.005975615233182907
0.00674294400960207,0.009750161319971085,-0.01115446723997593,0.0019802653696388006,1.4038064630262993e-34,0.005917011294513941
0.00674294400960207,0.009750161319971085,-0.01115446723997593,0.0019802653696388006,1.4038064630262993e-34,0.005917011294513941
0.006996498443186283,0.009896731935441494,-0.011527767404913902,0.0018644724041223526,9.165851911238737e-36,0.005601503420621157
0.007222277112305164,0.010541479103267193,-0.011249096132814884,0.001847638632170856,5.984646647987068e-37,0.005925704725086689
0.006892260164022446,0.009728041477501392,-0.01028084009885788,0.0018737639766186476,3.907546831921189e-38,0.0056467787362635136
0.0065789599902927876,0.009800225496292114,-0.010897512547671795,0.0018677404150366783,2.5513483178915874e-39,0.005634982604533434
0.007048976141959429,0.009461386129260063,-0.010663289576768875,0.0018609175458550453,1.6658496014046993e-40,0.00582258403301239
0.006719968281686306,0.010414217598736286,-0.01100138109177351,0.0018743111286312342,7.1045832141268225e-43,0.006147932261228561
0.0072709014639258385,0.009763261303305626,-0.010703502222895622,0.0024321423843503,2.802596928649634e-45,0.0061203897930681705
0.0072709014639258385,0.009763261303305626,-0.010703502222895622,0.0024321423843503,2.802596928649634e-45,0.0061203897930681705
0.007319086696952581,0.010660742409527302,-0.010944463312625885,0.0025200853124260902,0.0,0.005898135714232922
0.007227723952382803,0.010349142365157604,-0.010051346383988857,0.0024675733875483274,0.0,0.005941108800470829
0.007360802963376045,0.009682302363216877,-0.010891411453485489,0.0025819209404289722,0.0,0.006473510526120663
0.0070962742902338505,0.010198759846389294,-0.010654999874532223,0.0024247118271887302,0.0,0.006557444576174021
0.0072854068130254745,0.009807180613279343,-0.010673393495380878,0.0023571867495775223,0.0,0.006350688636302948
0.007341481279581785,0.009777759201824665,-0.010951580479741096,0.0023912470787763596,0.0,0.006114584859460592
0.007419269997626543,0.010636606253683567,-0.011017643846571445,0.0026005664840340614,0.0,0.0061857146210968494
0.007801542989909649,0.009836138226091862,-0.011679035611450672,0.0024921665899455547,0.0,0.006266500800848007
0.006927459500730038,0.010891103185713291,-0.011175421997904778,0.0022544499952346087,0.0,0.006353259086608887
0.0070601594634354115,0.010393412783741951,-0.010996704921126366,0.0021406961604952812,0.0,0.006191158667206764
0.007271296810358763,0.009854468517005444,-0.01126257237046957,0.0022640342358499765,0.0,0.00624292204156518
0.0074601611122488976,0.010120227932929993,-0.010780717246234417,0.0023937004152685404,0.0,0.006318813655525446
0.007358076050877571,0.010348591022193432,-0.010826478712260723,0.0024244871456176043,0.0,0.006837202701717615
0.007325673010200262,0.009542891755700111,-0.011263307183980942,0.0025563309900462627,0.0,0.006543904077261686
0.007109731901437044,0.009752887301146984,-0.010687485337257385,0.00238069542683661,0.0,0.006365087814629078
0.007290514186024666,0.010322713293135166,-0.011233856901526451,0.0024266517721116543,0.0,0.006456147413700819
0.007296271622180939,0.009222070686519146,-0.011356290429830551,0.0025360307190567255,0.0,0.006771157495677471
0.007317742332816124,0.009734315797686577,-0.010897194035351276,0.002468372927978635,0.0,0.006754726637154818
0.007317742332816124,0.009734315797686577,-0.010897194035351276,0.002468372927978635,0.0,0.006754726637154818
0.007176754530519247,0.010820618830621243,-0.011486702598631382,0.00267794169485569,0.0,0.006736543029546738
0.008107515051960945,0.009515677578747272,-0.011214190162718296,0.0027313597965985537,0.0,0.006392505951225758
0.007093274965882301,0.00952247716486454,-0.010635368525981903,0.0024245050735771656,0.0,0.0066609312780201435
0.0070457723923027515,0.009671268984675407,-0.011411141604185104,0.0022635359782725573,0.0,0.007145140320062637
0.007123088929802179,0.009478731080889702,-0.01102740690112114,0.002285731490701437,0.0,0.00724005326628685
0.007398583926260471,0.009866543114185333,-0.011519909836351871,0.0022480408661067486,0.0,0.00705933989956975
0.007336046546697617,0.009853115305304527,-0.011878320947289467,0.0024216659367084503,0.0,0.006633921526372433
0.007368990685790777,0.009514993987977505,-0.011655911803245544,0.0027069856878370047,0.0,0.006799978204071522
0.007585965096950531,0.00974180456250906,-0.011058088392019272,0.0027520409785211086,0.0,0.007013908587396145
0.007531982846558094,0.009474623017013073,-0.011453123763203621,0.002570102224126458,0.0,0.006848885212093592
0.008055423386394978,0.009419003501534462,-0.011369237676262856,0.002485534641891718,0.0,0.00729675218462944
0.0076930830255150795,0.009494787082076073,-0.011510566808283329,0.0027136304415762424,0.0,0.008227887563407421
0.008332641795277596,0.008895459584891796,-0.012044583447277546,0.002908536698669195,0.0,0.006998550612479448
0.007918307557702065,0.009146186523139477,-0.01100998092442751,0.0027477142866700888,0.0,0.006363903172314167
0.0075391908176243305,0.009726384654641151,-0.01140506286174059,0.002561126369982958,0.0,0.006771143060177565
0.0074392748065292835,0.009303231723606586,-0.011534703895449638,0.0024293255992233753,0.0,0.007301474455744028
0.007966412231326103,0.008831378072500229,-0.01097290962934494,0.0026263550389558077,0.0,0.007211647927761078
0.00777283264324069,0.009175485000014305,-0.011470113880932331,0.0028528980910778046,0.0,0.006863781716674566
0.007643081247806549,0.009424724616110325,-0.011373342014849186,0.0030238558538258076,0.0,0.0070006344467401505
0.007446505129337311,0.007885962724685669,-0.012128899805247784,0.0031335758976638317,0.0,0.007335292175412178
0.007647067774087191,0.008328677155077457,-0.010912145487964153,0.0031836298294365406,0.0,0.007318560499697924
0.008202004246413708,0.008291754871606827,-0.01143654529005289,0.0032634057570248842,0.0,0.007086098659783602
0.007902160286903381,0.008454821072518826,-0.011736049316823483,0.003129755612462759,0.0,0.007161329500377178
0.007850134745240211,0.007881340570747852,-0.01148183736950159,0.0031487238593399525,0.0,0.007140691392123699
0.00837717391550541,0.008748487569391727,-0.011307368986308575,0.003141373163089156,0.0,0.007178792729973793
0.008031634613871574,0.00859782937914133,-0.012111768126487732,0.0031342548318207264,0.0,0.0069511085748672485
0.007707952056080103,0.008858609944581985,-0.011429226957261562,0.003036950482055545,0.0,0.006784972734749317
0.00766789959743619,0.008657917380332947,-0.011392055079340935,0.0029767309315502644,0.0,0.007053234148770571
0.007863285951316357,0.008641835302114487,-0.011306717991828918,0.0028070290572941303,0.0,0.007229293696582317
0.007926742546260357,0.008450491353869438,-0.01100318506360054,0.002875830978155136,0.0,0.0073212007991969585
0.007926742546260357,0.008450491353869438,-0.01100318506360054,0.002875830978155136,0.0,0.0073212007991969585
0.008209294639527798,0.00883620698004961,-0.011231441050767899,0.002943103900179267,0.0,0.007285100407898426
0.008362524211406708,0.008867267519235611,-0.011018271557986736,0.003120389534160495,0.0,0.007929575629532337
0.008088313974440098,0.008451536297798157,-0.011396881192922592,0.0032439453061670065,0.0,0.007620261516422033
0.007957185618579388,0.008196098729968071,-0.011536232195794582,0.003065569559112191,0.0,0.007524719461798668
0.007708496414124966,0.00845312513411045,-0.01098457258194685,0.003183539491146803,0.0,0.007077090907841921
0.008493402041494846,0.009111960418522358,-0.011458721943199635,0.0031602075323462486,0.0,0.007968137040734291
0.008269330486655235,0.008169160224497318,-0.011573839001357555,0.003426358802244067,0.0,0.007760951295495033
0.008909625932574272,0.008615766651928425,-0.01128764171153307,0.003279248019680381,0.0,0.007996348664164543
0.008222516626119614,0.008299533277750015,-0.011055377312004566,0.0034015828277915716,0.0,0.007946889847517014
0.008469585329294205,0.007941902615129948,-0.011846320703625679,0.0031337272375822067,0.0,0.007657832466065884
0.008262443356215954,0.008189399726688862,-0.011756783351302147,0.003353813895955682,0.0,0.007932652719318867
0.009406084194779396,0.008418313227593899,-0.01136197429150343,0.0035794624127447605,0.0,0.008145920000970364
0.008805512450635433,0.008117417804896832,-0.011760917492210865,0.0036442987620830536,0.0,0.00797338504344225
0.008271291851997375,0.008648575283586979,-0.011209121905267239,0.00354555225931108,0.0,0.008081536740064621
0.008808697573840618,0.008908991701900959,-0.011716743931174278,0.003537780838087201,0.0,0.008199921809136868
0.009253980591893196,0.008884146809577942,-0.011830806732177734,0.003684867639094591,0.0,0.008293385617434978
0.008197993040084839,0.008553817868232727,-0.012259242124855518,0.003766086185351014,0.0,0.008241984061896801
0.008974148891866207,0.0089401975274086,-0.011475041508674622,0.00380309228785336,0.0,0.008181069046258926
0.009071419946849346,0.00906469114124775,-0.011093572713434696,0.0037817801348865032,1.767178673617309e-06,0.008334497921168804
0.008543118834495544,0.008075588382780552,-0.011788152158260345,0.0038768360391259193,1.1538413247080825e-07,0.008314970880746841
0.009497926570475101,0.008154567331075668,-0.012053338810801506,0.00349101098254323,7.533759394107165e-09,0.008249231614172459
0.00951299536973238,0.008853965438902378,-0.012229632586240768,0.0035624350421130657,4.919006313386376e-10,0.008329142816364765
0.009103663265705109,0.008568746037781239,-0.01163962110877037,0.0037422855384647846,3.211759677657078e-11,0.008509981445968151
0.00869677308946848,0.008511504158377647,-0.011058100499212742,0.00386216607876122,2.0970497473932204e-12,0.00809510424733162
0.009597007185220718,0.009333924390375614,-0.012235252186655998,0.003926978446543217,1.3692237448015288e-13,0.007936590351164341
0.009314379654824734,0.008315487764775753,-0.012072473764419556,0.00351338111795485,8.940051593442876e-15,0.007836447097361088
0.009434773586690426,0.008173051290214062,-0.011978155001997948,0.0034958389587700367,5.837215853533092e-16,0.008471773937344551
0.009164475835859776,0.008842564187943935,-0.012107420712709427,0.0036203903146088123,3.811284634047073e-17,0.00862728338688612
0.009164475835859776,0.008842564187943935,-0.012107420712709427,0.0036203903146088123,3.811284634047073e-17,0.00862728338688612
0.00967194139957428,0.008677839301526546,-0.011625180020928383,0.0037889040540903807,2.4884965654542757e-18,0.008595998398959637
0.00906631164252758,0.00827170442789793,-0.0120817506685853,0.003847235580906272,1.6248104562165399e-19,0.008640057407319546
0.009582475759088993,0.008043752051889896,-0.011824716813862324,0.004145587794482708,1.0608851465521137e-20,0.008565137162804604
0.00925230048596859,0.009058556519448757,-0.012432978488504887,0.0042432392947375774,6.926821253758012e-22,0.008007730357348919
0.009434718638658524,0.008465047925710678,-0.012005750089883804,0.003665890544652939,4.522719745462813e-23,0.007904415018856525
0.009492040611803532,0.008462026715278625,-0.012152532115578651,0.003673589089885354,1.9281063376690308e-25,0.00848715752363205
0.009492040611803532,0.008462026715278625,-0.012152532115578651,0.003673589089885354,1.9281063376690308e-25,0.00848715752363205
0.009173070080578327,0.008447079919278622,-0.012157250195741653,0.0037649173755198717,8.21981989143114e-28,0.008136226795613766
0.009483858942985535,0.00842925813049078,-0.012376848608255386,0.004008513409644365,5.366955272249883e-29,0.00864360574632883
0.009403828531503677,0.008742352947592735,-0.012272116728127003,0.004212978295981884,3.504238185450998e-30,0.009231691248714924
0.009372980333864689,0.008644862100481987,-0.012208082713186741,0.0041115242056548595,2.2880169990732847e-31,0.008858760818839073
0.009538838639855385,0.008589797653257847,-0.011648589745163918,0.003959094639867544,-0.00015128844825085253,0.008860021829605103
0.009380246512591839,0.008687260560691357,-0.011964749544858932,0.003906669095158577,-0.00018868569168262184,0.008962509222328663
0.009336587972939014,0.009051257744431496,-0.01169556938111782,0.0037924018688499928,-0.00018383533461019397,0.008542532101273537
0.010136771015822887,0.008294006809592247,-0.012301735579967499,0.004167030565440655,-0.00019410699314903468,0.00868604052811861
0.010071780532598495,0.008211127482354641,-0.012133732438087463,0.004119698889553547,-0.0002029723982559517,0.009236220270395279
0.01013296190649271,0.008961069397628307,-0.012032055296003819,0.004052223637700081,-0.00019663668354041874,0.008848300203680992
0.009816404432058334,0.009124304167926311,-0.012462383136153221,0.004018944688141346,-0.00018979387823492289,0.008665412664413452
0.00957718025892973,0.008115613833069801,-0.011884481646120548,0.004273814149200916,-0.00020596791000571102,0.008463745005428791
0.009444148279726505,0.008754261769354343,-0.012661459855735302,0.00439998647198081,-0.0002063679276034236,0.008447774685919285
0.009714611805975437,0.008548046462237835,-0.012134484946727753,0.004242170602083206,-0.00020027458958793432,0.00882914662361145
0.009770906530320644,0.008481292054057121,-0.012190310284495354,0.004317277576774359,-0.00021999765885993838,0.009202690795063972
0.009770906530320644,0.008481292054057121,-0.012190310284495354,0.004317277576774359,-0.00021999765885993838,0.009202690795063972
0.0101796118542552,0.00919260736554861,-0.012359675019979477,0.004062925931066275,-0.00020900160598102957,0.009111029095947742
0.010041043162345886,0.008654716424643993,-0.012732284143567085,0.003871947294101119,-0.00032434664899483323,0.009478742256760597
0.00994532648473978,0.008334936574101448,-0.012647133320569992,0.0043407934717834,-0.00031050058896653354,0.009579860605299473
0.010404923930764198,0.008864577859640121,-0.012671886943280697,0.004151316359639168,-0.00029097203514538705,0.009415017440915108
0.009718789719045162,0.008752340450882912,-0.012354978360235691,0.004110007081180811,-0.0002999281568918377,0.008900133892893791
0.009718789719045162,0.008752340450882912,-0.012354978360235691,0.004110007081180811,-0.0002999281568918377,0.008900133892893791
0.009815638884902,0.008592546917498112,-0.012457212433218956,0.00410325126722455,-0.00030737248016521335,0.008791502565145493
0.010226795449852943,0.008658641949295998,-0.012578006833791733,0.004377688746899366,-0.00031609382131136954,0.00907148327678442
0.010252334177494049,0.008800682611763477,-0.012387646362185478,0.004243605304509401,-0.00032202029251493514,0.009289507754147053
0.009948259219527245,0.008509702049195766,-0.012889686040580273,0.0040250299498438835,-0.00030773290200158954,0.00918599683791399
0.010532494634389877,0.008705115877091885,-0.012264225631952286,0.004393133334815502,-0.00029348733369261026,0.00897320918738842
0.010183414444327354,0.00879071094095707,-0.012875196523964405,0.004558398388326168,-0.0003066477947868407,0.00899561122059822
0.01055319793522358,0.008542786352336407,-0.013061244040727615,0.004363341722637415,-0.00029427147819660604,0.0103143360465765
0.009947155602276325,0.008114312775433064,-0.0125763900578022,0.004023388028144836,-0.0003156369784846902,0.009156974963843822
0.010687282308936119,0.00856876652687788,-0.012614668346941471,0.0042428988963365555,-0.00032505078706890345,0.009549259208142757
0.010276256129145622,0.008268714882433414,-0.013000745326280594,0.00451305229216814,-0.000305113208014518,0.009136991575360298
0.010183805599808693,0.008261631242930889,-0.013304035179316998,0.004460891243070364,-0.0003136589948553592,0.00952796172350645
0.010381198488175869,0.00864401739090681,-0.013321798294782639,0.004561933688819408,-0.00032062444370239973,0.009850879199802876
0.010515924543142319,0.008324101567268372,-0.012752852402627468,0.004550236277282238,-0.00030422970303334296,0.009723437950015068
0.011191130615770817,0.008247574791312218,-0.013075974769890308,0.004630625247955322,-0.00031151468283496797,0.009765010327100754
0.010552397929131985,0.008467533625662327,-0.012447666376829147,0.004322724882513285,-0.00031749115441925824,0.010434421710669994
0.009918023832142353,0.009040098637342453,-0.013205109164118767,0.00436492171138525,-0.0003036052221432328,0.009501268155872822
0.01004522293806076,0.008553795516490936,-0.012590405531227589,0.004160427488386631,-0.0003282892575953156,0.009460837580263615
0.010618985630571842,0.008470823988318443,-0.012856443412601948,0.004351124167442322,-0.0003163810761179775,0.010416073724627495
0.010362067259848118,0.008330222219228745,-0.01294464897364378,0.004402463790029287,-0.0003518437151797116,0.010011007077991962
0.011088692583143711,0.00837671384215355,-0.012469959445297718,0.004347574897110462,-0.00036945578176528215,0.009414514526724815
0.011551392264664173,0.008534356951713562,-0.013293543830513954,0.00481114536523819,-0.0003442273591645062,0.010413195937871933
0.010296212509274483,0.008703358471393585,-0.012752759270370007,0.0049070678651332855,-0.0003199362545274198,0.010023258626461029
0.01111659873276949,0.008164960891008377,-0.013448239304125309,0.0049062371253967285,-0.0003503162588458508,0.009715714491903782
0.012280306778848171,0.008056225255131721,-0.01291048526763916,0.00545836566016078,-0.00033558535506017506,0.010033229365944862
0.012280306778848171,0.008056225255131721,-0.01291048526763916,0.00545836566016078,-0.00033558535506017506,0.010033229365944862
0.012383075430989265,0.008043382316827774,-0.012716561555862427,0.005328123923391104,-0.00031637804931961,0.01052491832524538
0.012386966496706009,0.008384034968912601,-0.011875289492309093,0.005286748055368662,-0.00033561151940375566,0.010053195990622044
0.012559464201331139,0.007944160141050816,-0.013745194301009178,0.004825036507099867,-0.00033577258000150323,0.010095951147377491
0.01214270293712616,0.00765306456014514,-0.013273142278194427,0.005172605160623789,-0.00034025171771645546,0.009977564215660095
0.012514817528426647,0.008086000569164753,-0.013192913495004177,0.005794470198452473,-0.00032616531825624406,0.009955142624676228
0.012514817528426647,0.008086000569164753,-0.013192913495004177,0.005794470198452473,-0.00032616531825624406,0.009955142624676228
0.0127134770154953,0.007721747271716595,-0.012454686686396599,0.005613957531750202,-0.00035343231866136193,0.010272087529301643
0.01299936231225729,0.008072578348219395,-0.012595267966389656,0.005353726912289858,-0.00031775227398611605,0.0098399817943573
0.01299936231225729,0.008072578348219395,-0.012595267966389656,0.005353726912289858,-0.00031775227398611605,0.0098399817943573
0.013112875632941723,0.007520807906985283,-0.012817122973501682,0.0049614147283136845,-0.0003266114799771458,0.010366581380367279
0.012623353861272335,0.007384207099676132,-0.01311352476477623,0.004961423575878143,-0.00031418405706062913,0.010076990351080894
0.013148704543709755,0.007572140544652939,-0.013106249272823334,0.005554044619202614,-0.0002973098598886281,0.010048848576843739
0.012924549169838428,0.008022082038223743,-0.013081909157335758,0.005451332312077284,-0.0002818156499415636,0.01074601523578167
0.013056105934083462,0.0075468746945261955,-0.012958650477230549,0.00536812050268054,-0.00026783530483953655,0.01073884405195713
0.012937918305397034,0.00713616656139493,-0.012692123651504517,0.005528080742806196,-0.0002551752550061792,0.01032661646604538
0.013316243886947632,0.007794804871082306,-0.013146290555596352,0.006185556296259165,-0.0002436582144582644,0.010643275454640388
0.013229692354798317,0.007617100607603788,-0.012494245544075966,0.005732858553528786,-0.0002521343994885683,0.01065277960151434
0.013003481552004814,0.0072095924988389015,-0.013493180274963379,0.005277168471366167,-0.00025943684158846736,0.010299171321094036
0.013241379521787167,0.007074272260069847,-0.013005183078348637,0.005333725828677416,-0.00025028488016687334,0.010770251974463463
0.012740842066705227,0.007160109933465719,-0.01372629962861538,0.0055386982858181,-0.00024079291324596852,0.010728576220571995
0.01223074086010456,0.006890295073390007,-0.013344238512217999,0.0057540773414075375,-0.0002319311461178586,0.010837080888450146
0.012915559113025665,0.006754906382411718,-0.013487288728356361,0.005705051589757204,-0.00022369506768882275,0.011065933853387833
0.013295751996338367,0.0071870204992592335,-0.013179014436900616,0.005579338409006596,-0.00021602405468001962,0.010733947157859802
0.013047022745013237,0.007009427063167095,-0.013690399937331676,0.005540196318179369,-0.0002088612091029063,0.011179763823747635
0.013277013786137104,0.007940313778817654,-0.013572669588029385,0.005271550267934799,-0.0002290900592925027,0.011036849580705166
0.013124929741024971,0.007183109410107136,-0.01291972678154707,0.005694120191037655,-0.00022372702369466424,0.01079973578453064
0.013507046736776829,0.0073677548207342625,-0.013642963953316212,0.005505311768501997,-0.0002170950610889122,0.011312770657241344
0.013444511219859123,0.006734341848641634,-0.013316575437784195,0.005871497560292482,-0.00020268443040549755,0.011471075937151909
0.013088587671518326,0.0071710548363626,-0.013948050327599049,0.005469383206218481,-0.00019189874001313,0.011253353208303452
0.013506877236068249,0.007164596114307642,-0.013212238438427448,0.005775547120720148,-0.00021110095258336514,0.011146151460707188
0.013506877236068249,0.007164596114307642,-0.013212238438427448,0.005775547120720148,-0.00021110095258336514,0.011146151460707188
0.013203500770032406,0.006809563841670752,-0.013630824163556099,0.00559629313647747,-0.0002113927766913548,0.010882536880671978
0.013216064311563969,0.007155895233154297,-0.013139710761606693,0.006345855072140694,-0.00020396635227371007,0.01123864483088255
0.0126020647585392,0.00743538374081254,-0.013037757948040962,0.006138221826404333,-0.00019657722441479564,0.01101100817322731
0.013128774240612984,0.0070034172385931015,-0.013677947223186493,0.0052933539263904095,-0.00021363665291573852,0.011699490249156952
0.013215616345405579,0.0073671345598995686,-0.013757271692156792,0.005244805011898279,-0.00020675065752584487,0.011492032557725906
0.013212543912231922,0.007147764787077904,-0.013677695766091347,0.005735449958592653,-0.00021421330166049302,0.011604714207351208
0.013193161226809025,0.007230214774608612,-0.013642121106386185,0.006113117095082998,-0.0002207892102887854,0.011652865447103977
0.013015473261475563,0.007396681699901819,-0.013577479869127274,0.006282546557486057,-0.0003011812805198133,0.011592074297368526
0.013308919034898281,0.00746134715154767,-0.013448435813188553,0.006002842914313078,-0.00035806247615255415,0.011716771870851517
0.013830608688294888,0.007052007131278515,-0.012845740653574467,0.005716271698474884,-0.0003692415775731206,0.011717830784618855
0.013358757831156254,0.006897978484630585,-0.013377021998167038,0.005724458023905754,-0.00037388812052085996,0.012199760414659977
0.014032161794602871,0.0066507901065051556,-0.013016405515372753,0.0054962411522865295,-0.00035151891643181443,0.01211077906191349
0.01318064983934164,0.006915561854839325,-0.013884244486689568,0.006610707379877567,-0.00033014672226272523,0.011655382812023163
0.013624915853142738,0.006986915599554777,-0.013133118860423565,0.006254874169826508,-0.0003593849251046777,0.011760059744119644
0.013603979721665382,0.007187289651483297,-0.013793552294373512,0.0061465040780603886,-0.00034296291414648294,0.0116581991314888
0.014485341496765614,0.007237021811306477,-0.013524545356631279,0.006777437403798103,-0.0003254454059060663,0.012128405272960663
0.013654730282723904,0.006806204095482826,-0.014038367196917534,0.006928083952516317,-0.0003094674029853195,0.012228044681251049
0.01397816650569439,0.0072922115214169025,-0.013217109255492687,0.006834319327026606,-0.00033422766136936843,0.012435497716069221
0.013787235133349895,0.007678351830691099,-0.014057481661438942,0.006232085637748241,-0.0003218436904717237,0.0123662780970335
0.014149405062198639,0.006735919043421745,-0.013432174921035767,0.006367707159370184,-0.0003082300827372819,0.012063498608767986
0.013680633157491684,0.00672806054353714,-0.013655656948685646,0.006359206512570381,-0.00032930908491835,0.012268047779798508
0.013872145675122738,0.007057918235659599,-0.013625028543174267,0.006167336367070675,-0.0003180236089974642,0.012172795832157135
0.01368329394608736,0.007426748983561993,-0.013921794481575489,0.006125664804130793,-0.00034157600020989776,0.012470105662941933
0.013961553573608398,0.00693066231906414,-0.013865692541003227,0.006054920610040426,-0.00033415041980333626,0.012135550379753113
0.013881679624319077,0.006891564000397921,-0.01364232785999775,0.006523238029330969,-0.0003155168960802257,0.012099302373826504
0.014232104644179344,0.006921452935785055,-0.014072567224502563,0.006862519774585962,-0.0003444057365413755,0.012526984326541424
0.014086378738284111,0.007291642017662525,-0.01361782941967249,0.006897598970681429,-0.0003523800696711987,0.012407973408699036
0.014086378738284111,0.007291642017662525,-0.01361782941967249,0.006897598970681429,-0.0003523800696711987,0.012407973408699036
0.01445026695728302,0.006652049720287323,-0.013827790506184101,0.006406247150152922,-0.000434107962064445,0.012872865423560143
0.01445026695728302,0.006652049720287323,-0.013827790506184101,0.006406247150152922,-0.000434107962064445,0.012872865423560143
0.014438782818615437,0.007543486077338457,-0.01379215344786644,0.006396058946847916,-0.00043638699571602046,0.012209344655275345
0.014376269653439522,0.007392073981463909,-0.01488177478313446,0.00657206354662776,-0.0004667304747272283,0.012526382692158222
0.014777306467294693,0.006981580518186092,-0.013764625415205956,0.006225277669727802,-0.0004381828766781837,0.012794988229870796
0.014984792098402977,0.006895957514643669,-0.013981476426124573,0.006277853157371283,-0.0004058406630065292,0.012847629375755787
0.014558426104485989,0.007333578076213598,-0.013552174903452396,0.006742145866155624,-0.0004237433022353798,0.012982837855815887
0.015388661064207554,0.0072557926177978516,-0.014929738827049732,0.006868305150419474,-0.00041052699089050293,0.013034563511610031
0.014549407176673412,0.006800230126827955,-0.014071889221668243,0.0066810785792768,-0.0003862866433337331,0.013036826625466347
0.014870145358145237,0.006624260917305946,-0.014706903137266636,0.006328253541141748,-0.00041241804137825966,0.012506071478128433
0.014575852081179619,0.007169438526034355,-0.014090812765061855,0.006685193162411451,-0.00039395445492118597,0.01261911727488041
0.015078077092766762,0.007415084168314934,-0.014765972271561623,0.00722093740478158,-0.0004048332048114389,0.012629072181880474
0.014862054958939552,0.007263675332069397,-0.014328211545944214,0.007691599428653717,-0.0004387527296785265,0.012759154662489891
0.01521188672631979,0.006788528058677912,-0.014626901596784592,0.0075240349397063255,-0.000473727093776688,0.013152997940778732
0.014845897443592548,0.006740213837474585,-0.013718008063733578,0.007563075050711632,-0.0004958714125677943,0.013428702019155025
0.015411575324833393,0.007341292686760426,-0.014319349080324173,0.007489527575671673,-0.0004811900726053864,0.013685018755495548
0.015087300911545753,0.007096266373991966,-0.014085200615227222,0.00750911608338356,-0.0008186882478184998,0.013249526731669903
0.015441245399415493,0.006672841962426901,-0.014660889282822609,0.007284936960786581,-0.0007859068573452532,0.013210062868893147
0.015492956154048443,0.00641599390655756,-0.014363420195877552,0.007111865561455488,-0.0006908591603860259,0.012916057370603085
0.01576319709420204,0.007230281364172697,-0.014664312824606895,0.007215503603219986,-0.00070038135163486,0.013542791828513145
0.01611451990902424,0.007381138391792774,-0.0139955198392272,0.007279334589838982,-0.0006409284542314708,0.01342710666358471
0.015742136165499687,0.007448303978890181,-0.014902413822710514,0.007256962358951569,-0.0005823831888847053,0.014075890183448792
0.015571294352412224,0.006494779605418444,-0.014498600736260414,0.007361268159002066,-0.0005699152825400233,0.014073693193495274
0.015510452911257744,0.006672070827335119,-0.014420674182474613,0.007331961300224066,-0.000559116480872035,0.013869754038751125
0.01563335582613945,0.007201173342764378,-0.014078333973884583,0.007249373011291027,-0.0005208402290008962,0.013435094617307186
0.01542971283197403,0.007114991545677185,-0.014612197875976562,0.0070304605178534985,-0.0004858176107518375,0.013521088287234306
0.01542971283197403,0.007114991545677185,-0.014612197875976562,0.0070304605178534985,-0.0004858176107518375,0.013521088287234306
0.016046907752752304,0.006914486177265644,-0.014273708686232567,0.007433529477566481,-0.0004551013116724789,0.013718366622924805
0.015872545540332794,0.007099159061908722,-0.014286333695054054,0.00797728355973959,-0.00035161423147656024,0.013765058480203152
0.015944497659802437,0.00705212214961648,-0.014628616161644459,0.008012885227799416,-0.00032332344562746584,0.01379037369042635
0.016414165496826172,0.006631191819906235,-0.01397802121937275,0.008063710294663906,-0.00030145308119244874,0.01391839049756527
0.01683136261999607,0.0065100304782390594,-0.014457001350820065,0.008530370891094208,-0.0003240959777031094,0.013966555707156658
0.0158246960490942,0.00721156457439065,-0.013905237428843975,0.008049257099628448,-0.00031799497082829475,0.014122542925179005
0.016629310324788094,0.006934733130037785,-0.014477429911494255,0.007665195036679506,-0.0003011090448126197,0.013702980242669582
0.0163139495998621,0.007171626668423414,-0.013955390080809593,0.007824836298823357,-0.0002852516481652856,0.013936979696154594
0.01616712100803852,0.006641463376581669,-0.014794649556279182,0.008169942535459995,-0.0002709386171773076,0.013908201828598976
0.01580493524670601,0.00696559576317668,-0.014423561282455921,0.007819053716957569,-0.00025799081777222455,0.013989641331136227
0.016746776178479195,0.006968148052692413,-0.01469666138291359,0.007907561957836151,-0.0002462239353917539,0.013685967773199081
0.016546057537198067,0.006837622728198767,-0.014278638176620007,0.008179765194654465,-0.0002354839671170339,0.013798810541629791
0.016532612964510918,0.006960571277886629,-0.014449961483478546,0.008310973644256592,-0.00026068626902997494,0.013730619102716446
0.016480272635817528,0.006922993343323469,-0.0139987263828516,0.007799459621310234,-0.0002525206364225596,0.014083254151046276
0.016124028712511063,0.007182877976447344,-0.014363819733262062,0.00803829450160265,-0.00024293117166962475,0.014098958112299442
0.016665954142808914,0.00746122794225812,-0.014241280034184456,0.007946238853037357,-0.00023391967988573015,0.0143279442563653
0.01657881960272789,0.006747889798134565,-0.0148249426856637,0.007579564582556486,-0.0002255445288028568,0.014092679135501385
0.017222363501787186,0.006688946392387152,-0.01428460143506527,0.007459504064172506,-0.0002329917042516172,0.014645710587501526
0.017299482598900795,0.00720007810741663,-0.0142400823533535,0.008705266751348972,-0.00023950400645844638,0.01434629037976265
0.01679973118007183,0.00722546549513936,-0.013378201983869076,0.008397252298891544,-0.00023269544180948287,0.014380856417119503
0.017505360767245293,0.0071984874084591866,-0.013939213939011097,0.00831582397222519,-0.00022546843683812767,0.014309612102806568
0.01688830927014351,0.006990245543420315,-0.01344264391809702,0.008088014088571072,-0.0002147757913917303,0.014830858446657658
0.01716337539255619,0.007168435957282782,-0.014211463741958141,0.00855373777449131,-0.00020477239741012454,0.01511583011597395
0.017386065796017647,0.006911317817866802,-0.013286737725138664,0.008041806519031525,-0.00019584308029152453,0.014790067449212074
0.01707707904279232,0.006688384339213371,-0.014015700668096542,0.007890591397881508,-0.00022020192409399897,0.01445808820426464
0.017645005136728287,0.007242143619805574,-0.013819907791912556,0.008336794562637806,-0.0002158624556614086,0.01446137111634016
0.017581671476364136,0.006843127775937319,-0.014373740181326866,0.00849230494350195,-0.00020784468506462872,0.014539673924446106
0.017581671476364136,0.006843127775937319,-0.014373740181326866,0.00849230494350195,-0.00020784468506462872,0.014539673924446106
0.0176764577627182,0.006943457759916782,-0.014175457879900932,0.008489048108458519,-0.00020015855261590332,0.014666694216430187
0.01734551042318344,0.006771722808480263,-0.01466073002666235,0.008152015507221222,-0.00020876283815596253,0.014362205751240253
0.01779942214488983,0.0070375725626945496,-0.014236705377697945,0.009007017128169537,-0.00021007801115047187,0.014618982560932636
0.017344264313578606,0.007491005584597588,-0.013914277777075768,0.008760269731283188,-0.00020335931912995875,0.01451781950891018
0.01774333417415619,0.006972241681069136,-0.01460331492125988,0.008997759781777859,-0.00019700327538885176,0.014703115448355675
0.018107634037733078,0.0072391037829220295,-0.014301231130957603,0.0082511892542243,-0.00020441818924155086,0.014944251626729965
0.017891690135002136,0.006638652179390192,-0.014691189862787724,0.008007753640413284,-0.0002109864290105179,0.015227681025862694
0.01813649572432041,0.00696941651403904,-0.014237642288208008,0.008274592459201813,-0.00020577647956088185,0.01513882540166378
0.0171509999781847,0.006689839065074921,-0.015208911150693893,0.008943116292357445,-0.00020011024025734514,0.015075868926942348
0.018870927393436432,0.006833816412836313,-0.01455563586205244,0.008801829069852829,-0.0002586331102065742,0.01510080136358738
0.018664274364709854,0.00721081905066967,-0.014688381925225258,0.00845356285572052,-0.0002533935767132789,0.014894502237439156
0.018124539405107498,0.007575287017971277,-0.014527234248816967,0.008554245345294476,-0.00024045840837061405,0.014847083017230034
0.018429279327392578,0.006968367844820023,-0.015208456665277481,0.008587734773755074,-0.00027081475127488375,0.015289708971977234
0.018787099048495293,0.006666654255241156,-0.014676587656140327,0.00794073287397623,-0.00029815107700414956,0.015483997762203217
0.01825701631605625,0.006818629801273346,-0.015120444819331169,0.00870313961058855,-0.0002897744707297534,0.01573289930820465
0.018632201477885246,0.007097258232533932,-0.014515095390379429,0.009284986183047295,-0.000314282689942047,0.015394087880849838
0.01910361461341381,0.00688162911683321,-0.015184937976300716,0.009295305237174034,-0.00030346453422680497,0.015640001744031906
0.01889634318649769,0.006625703070312738,-0.013829974457621574,0.009458276443183422,-0.000291341362753883,0.015395662747323513
0.019265051931142807,0.006628985516726971,-0.015957145020365715,0.009520251303911209,-0.00028083098004572093,0.015562810935080051
0.0194015521556139,0.0072026122361421585,-0.015478658489882946,0.009086309000849724,-0.0004078002239111811,0.01540420949459076
0.019201084971427917,0.006857865024358034,-0.01525926310569048,0.008898676373064518,-0.00042018096428364515,0.015319444239139557
0.019403772428631783,0.006312782410532236,-0.015909753739833832,0.009300440549850464,-0.00042174546979367733,0.015647193416953087
0.019507795572280884,0.0064707184210419655,-0.015712764114141464,0.009282885119318962,-0.0004498783382587135,0.016065962612628937
0.01954706944525242,0.006572870537638664,-0.015737444162368774,0.008941694162786007,-0.0004272235091775656,0.01622040756046772
0.019681140780448914,0.006642399355769157,-0.015243075788021088,0.009531784802675247,-0.00045002694241702557,0.016064336523413658
0.019790563732385635,0.006566083524376154,-0.015618725679814816,0.00966004841029644,-0.0004309200739953667,0.01630842126905918
0.01926475018262863,0.006480818148702383,-0.015252250246703625,0.009370219893753529,-0.0005566502222791314,0.016365276649594307
0.019675156101584435,0.006450723856687546,-0.015752799808979034,0.009835531003773212,-0.0005997179541736841,0.01656199060380459
0.019675156101584435,0.006450723856687546,-0.015752799808979034,0.009835531003773212,-0.0005997179541736841,0.01656199060380459
0.01991206407546997,0.0061017717234790325,-0.015382364392280579,0.009841863065958023,-0.0005459322710521519,0.016166232526302338
0.019812220707535744,0.006810735911130905,-0.015109477564692497,0.00963296927511692,-0.0005293780122883618,0.01589435711503029
0.02021520957350731,0.006687387358397245,-0.015174170956015587,0.009815841913223267,-0.0005401730304583907,0.015865635126829147
0.019944092258810997,0.0063010393641889095,-0.01541068498045206,0.009440376423299313,-0.0005173029494471848,0.015807727351784706
0.02002018317580223,0.006502689328044653,-0.015605834312736988,0.009837957099080086,-0.0005602703895419836,0.015916477888822556
0.020687872543931007,0.006790054962038994,-0.015535240061581135,0.009400309063494205,-0.0005099378759041429,0.016460245475172997
0.020399780943989754,0.00658539729192853,-0.016084766015410423,0.009121043607592583,-0.0005376652698032558,0.016457775607705116
0.020498108118772507,0.006270455662161112,-0.015796946361660957,0.009885521605610847,-0.0005596704431809485,0.016872232779860497
0.020783990621566772,0.006318445783108473,-0.015612677671015263,0.010442518629133701,-0.0005319135962054133,0.016651824116706848
0.020871734246611595,0.006946151610463858,-0.01608872599899769,0.00915435142815113,-0.0005432170582935214,0.01682038977742195
0.020956004038453102,0.006302126683294773,-0.015065249986946583,0.009647471830248833,-0.0005200502928346395,0.016837386414408684
0.0207564327865839,0.005992591381072998,-0.015624193474650383,0.009330092929303646,-0.0005314864101819694,0.016500920057296753
0.021617701277136803,0.005983056500554085,-0.015226224437355995,0.009314860217273235,-0.0005170763470232487,0.016819633543491364
0.021662181243300438,0.006039476487785578,-0.01600845903158188,0.009803520515561104,-0.0005467418814077973,0.01639336161315441
0.020835569128394127,0.0066976398229599,-0.01589471846818924,0.009847216308116913,-0.0005472766351886094,0.01671181619167328
0.020092874765396118,0.006465536076575518,-0.01603037118911743,0.009566710330545902,-0.0005381209193728864,0.016833381727337837
0.022043587639927864,0.006240280345082283,-0.015843909233808517,0.010016591288149357,-0.0005502524436451495,0.016901547089219093
0.021617067977786064,0.005960286129266024,-0.015489292331039906,0.009776653721928596,-0.0005263747880235314,0.016984593123197556
0.021487852558493614,0.006475362461060286,-0.015835264697670937,0.00946811493486166,-0.0005575128016062081,0.01688764989376068
0.020720534026622772,0.006778153590857983,-0.015412500128149986,0.010406418703496456,-0.0005550465430133045,0.016727665439248085
0.021602381020784378,0.006000243593007326,-0.016079232096672058,0.010092383250594139,-0.0005835274932906032,0.017161961644887924
0.021594706922769547,0.006003831513226032,-0.01556386798620224,0.009577522054314613,-0.0005372865707613528,0.017285412177443504
0.02167704701423645,0.00662601925432682,-0.01586255431175232,0.010340148583054543,-0.00048932118806988,0.017430393025279045
0.02156989835202694,0.006147515494376421,-0.015140669420361519,0.010087193921208382,-0.0005131477955728769,0.017257433384656906
0.02156989835202694,0.006147515494376421,-0.015140669420361519,0.010087193921208382,-0.0005131477955728769,0.017257433384656906
0.021669499576091766,0.006283620838075876,-0.0158331748098135,0.009496619924902916,-0.00048259287723340094,0.017118994146585464
0.02085755206644535,0.005818625912070274,-0.015402833931148052,0.01013899315148592,-0.0004958927747793496,0.01696609891951084
0.02090456150472164,0.005762515589594841,-0.015607425943017006,0.0098600834608078,-0.00047768373042345047,0.01770808733999729
0.021863561123609543,0.006261110305786133,-0.015462896786630154,0.010394234210252762,-0.00044118627556599677,0.01684596762061119
0.021520934998989105,0.006058244034647942,-0.015828875824809074,0.01030506007373333,-0.00040866079507395625,0.01691036857664585
0.021695787087082863,0.00595582602545619,-0.015871088951826096,0.010321218520402908,-0.0004447371466085315,0.017536867409944534
0.021714884787797928,0.005892992485314608,-0.016262724995613098,0.010518340393900871,-0.00041510548908263445,0.018033018335700035
0.021747209131717682,0.005986268166452646,-0.015709662809967995,0.010548017919063568,-0.00044550400343723595,0.018071327358484268
0.02170112356543541,0.006624506786465645,-0.016406701877713203,0.010913098230957985,-0.0004197283706162125,0.017803644761443138
0.02133423462510109,0.006536005064845085,-0.016009880229830742,0.011330158449709415,-0.0004460724594537169,0.017987076193094254
0.021782081574201584,0.006071070674806833,-0.016236739233136177,0.0111833605915308,-0.0005727749085053802,0.018160361796617508
0.022053075954318047,0.006364517845213413,-0.01617405004799366,0.01100868545472622,-0.0006202386575751007,0.018089693039655685
0.0220516175031662,0.006627778988331556,-0.016362827271223068,0.01021649781614542,-0.0006503838812932372,0.018282774835824966
0.02211136557161808,0.006516699679195881,-0.016512339934706688,0.009883444756269455,-0.0006003297748975456,0.018063601106405258
0.022160038352012634,0.0063177235424518585,-0.015936994925141335,0.01065310649573803,-0.0006215635221451521,0.017914574593305588
0.022474216297268867,0.00602151732891798,-0.016946539282798767,0.010263887234032154,-0.0005765524692833424,0.01830512285232544
0.022474216297268867,0.005895822308957577,-0.01593511737883091,0.009848898276686668,-0.0006645296816714108,0.018046176061034203
0.022313376888632774,0.006316572893410921,-0.016409916803240776,0.010637450031936169,-0.000597725622355938,0.018043152987957
0.022047562524676323,0.006761244032531977,-0.016416629776358604,0.010291974991559982,-0.0006058149156160653,0.018031414598226547
0.02266705222427845,0.006007684860378504,-0.01692546159029007,0.01044728234410286,-0.0005659161251969635,0.018023457378149033
0.023252801969647408,0.005858292803168297,-0.017379021272063255,0.01087415311485529,-0.0005135741084814072,0.01822911947965622
0.02264787256717682,0.006518406327813864,-0.01627689227461815,0.010233781300485134,-0.0005067870952188969,0.01815936155617237
0.02264787256717682,0.006518406327813864,-0.01627689227461815,0.010233781300485134,-0.0005067870952188969,0.01815936155617237
0.022303838282823563,0.006923847831785679,-0.016928698867559433,0.010230747051537037,-0.0005007906001992524,0.018047094345092773
0.02158179134130478,0.006556976120918989,-0.016635868698358536,0.010914590209722519,-0.00046597508480772376,0.018396951258182526
0.023156438022851944,0.006042282097041607,-0.016985459253191948,0.010567995719611645,-0.00048755534226074815,0.01808016188442707
0.023450499400496483,0.006295178085565567,-0.01685422472655773,0.01080651767551899,-0.0004634737560991198,0.018458308652043343
0.02359704300761223,0.006165951024740934,-0.016609329730272293,0.010470753535628319,-0.00042156808194704354,0.018777212128043175
0.02338428795337677,0.006610562093555927,-0.017441829666495323,0.010634412989020348,-0.00038488791324198246,0.0187475997954607
0.02290468104183674,0.006727697793394327,-0.01719609834253788,0.011284374631941319,-0.0003936747962143272,0.019293783232569695
0.02319691702723503,0.006221937481313944,-0.01705346256494522,0.011110358871519566,-0.0004243695002514869,0.01874125748872757
0.023721881210803986,0.006373151671141386,-0.01713448204100132,0.011623045429587364,-0.00040108984103426337,0.0184726994484663
0.023975631222128868,0.006477534305304289,-0.017788130789995193,0.01118585653603077,-0.0004239166446495801,0.01855478063225746
0.02346782386302948,0.006048392970114946,-0.017107877880334854,0.011587919667363167,-0.0004063691303599626,0.019010458141565323
0.023870695382356644,0.006003752816468477,-0.017836516723036766,0.011219960637390614,-0.0003873413079418242,0.01941234990954399
0.024561570957303047,0.006366811692714691,-0.018177498131990433,0.010579507797956467,-0.00045991482329554856,0.019473763182759285
0.024118565022945404,0.0058583468198776245,-0.01706760749220848,0.0109846331179142,-0.000502711278386414,0.018893903121352196
0.024423085153102875,0.005858052056282759,-0.017538268119096756,0.010854557156562805,-0.0004650173941627145,0.01897410862147808
0.02334408089518547,0.0056679463014006615,-0.017108110710978508,0.010853877291083336,-0.0004900579806417227,0.019497493281960487
0.023414246737957,0.0060512954369187355,-0.01764116808772087,0.011040907353162766,-0.0004624772700481117,0.01972503401339054
0.02406122162938118,0.005926633719354868,-0.01803675666451454,0.010838015004992485,-0.0004313422250561416,0.019291898235678673
0.024461055174469948,0.0061131916008889675,-0.01769748330116272,0.011342526413500309,-0.0004461691714823246,0.019212063401937485
0.024353213608264923,0.006596103310585022,-0.018048731610178947,0.011187647469341755,-0.0004326034977566451,0.0169607475399971
0.024703990668058395,0.00658881850540638,-0.017135662958025932,0.011187834665179253,-0.00048686173977330327,0.01924128271639347
0.02453090436756611,0.005829218775033951,-0.017718130722641945,0.011148261837661266,-0.0005169675569050014,0.020225534215569496
0.024527614936232567,0.005882848985493183,-0.017804360017180443,0.010890363715589046,-0.0004910982097499073,0.019882207736372948
0.024527614936232567,0.005882848985493183,-0.017804360017180443,0.010890363715589046,-0.0004910982097499073,0.019882207736372948
0.024094248190522194,0.006403726059943438,-0.0178960170596838,0.011374478228390217,-0.00048539636190980673,0.019619222730398178
0.024659043177962303,0.005774456076323986,-0.01797652058303356,0.011027694679796696,-0.0004985687555745244,0.019007839262485504
0.024659043177962303,0.005774456076323986,-0.01797652058303356,0.011027694679796696,-0.0004985687555745244,0.019007839262485504
0.024578696116805077,0.0055140298791229725,-0.017682330682873726,0.011599192395806313,-0.00048067967873066664,0.01910119503736496
0.02505725435912609,0.005960630252957344,-0.0182082150131464,0.011198017746210098,-0.0005817409255541861,0.019596097990870476
0.024633854627609253,0.006806642282754183,-0.017655037343502045,0.0115620456635952,-0.0006148166721686721,0.019231928512454033
0.024864561855793,0.006234403699636459,-0.017831843346357346,0.011676320806145668,-0.0006322228582575917,0.019202398136258125
0.025343410670757294,0.00575643964111805,-0.017910610884428024,0.011193041689693928,-0.0006216336623765528,0.019352462142705917
0.025527965277433395,0.006178617477416992,-0.018314732238650322,0.01095789484679699,-0.0007606777362525463,0.01989075541496277
0.024005809798836708,0.006347070448100567,-0.018230536952614784,0.011748701333999634,-0.0007873077411204576,0.020037410780787468
0.026027439162135124,0.006344115361571312,-0.017595337703824043,0.012072483077645302,-0.0007502600201405585,0.019852429628372192
0.025776036083698273,0.006045440211892128,-0.017565034329891205,0.011847867630422115,-0.0007147840806283057,0.02003321796655655
0.02524000033736229,0.005967895034700632,-0.017797745764255524,0.01227258425205946,-0.0006447957712225616,0.020003309473395348
0.02549017034471035,0.005883403122425079,-0.018256383016705513,0.011762009933590889,-0.0006462286110036075,0.02022017538547516
0.025333182886242867,0.0063862609677016735,-0.018208127468824387,0.011654391884803772,-0.0006103076739236712,0.020300492644309998
0.025726115331053734,0.006097724661231041,-0.017593149095773697,0.01180956605821848,-0.0005672320839948952,0.02026308700442314
0.02603505551815033,0.005895944312214851,-0.017866244539618492,0.01190431322902441,-0.0005099980044178665,0.020633187144994736
0.026002099737524986,0.005949985235929489,-0.017540330067276955,0.012222414836287498,-0.0005025453865528107,0.020646288990974426
0.02643275447189808,0.006505934987217188,-0.017846887931227684,0.011835390701889992,-0.0004961183294653893,0.020214958116412163
0.026749741286039352,0.006504714488983154,-0.018200412392616272,0.012273319065570831,-0.0005223802872933447,0.020698999986052513
0.02653423696756363,0.006177229341119528,-0.017641862854361534,0.012555529363453388,-0.0004907655529677868,0.02073628269135952
0.02673438936471939,0.0049150544218719006,-0.01758790761232376,0.012060224078595638,-0.00045582675375044346,0.02075663022696972
0.02666068822145462,0.004276917781680822,-0.01799468882381916,0.01198276225477457,-0.0004775505803991109,0.02120789885520935
0.0264531672000885,0.004440817050635815,-0.01780707575380802,0.01181231439113617,-0.00045462779235094786,0.021203437820076942
0.026554487645626068,0.005270162597298622,-0.018040437251329422,0.012653341516852379,-0.0004985103150829673,0.021140962839126587
0.02641921490430832,0.005555185489356518,-0.017718898132443428,0.011713613756000996,-0.00045432947808876634,0.02094079926609993
0.02640327624976635,0.004998084157705307,-0.01810109056532383,0.011699657887220383,-0.00041299211443401873,0.020759517326951027
0.02665586955845356,0.004629199393093586,-0.01804937608540058,0.01198345236480236,-0.0004434835573192686,0.020985249429941177
0.026963306590914726,0.004631812684237957,-0.016988998278975487,0.012092484161257744,-0.00041800670442171395,0.02137371152639389
0.026963306590914726,0.004631812684237957,-0.016988998278975487,0.012092484161257744,-0.00041800670442171395,0.02137371152639389
0.027559218928217888,0.0050113205797970295,-0.017902471125125885,0.012868113815784454,-0.00044441159116104245,0.02185993827879429
0.0275319442152977,0.004992525093257427,-0.018136553466320038,0.012844184413552284,-0.0004222713178023696,0.021599655970931053
0.026497885584831238,0.005239339079707861,-0.017727544531226158,0.012286807410418987,-0.0004237331449985504,0.021156759932637215
0.02689439244568348,0.004875465761870146,-0.018443508073687553,0.012550580315291882,-0.0004241365531925112,0.0206424780189991
0.027273956686258316,0.004770875442773104,-0.01800636015832424,0.013267738744616508,-0.00041542158578522503,0.021366747096180916
0.027268171310424805,0.004726570565253496,-0.018418770283460617,0.012765849940478802,-0.000449284038040787,0.021607952192425728
0.028322584927082062,0.004752200562506914,-0.017839884385466576,0.012769937515258789,-0.0004751085361931473,0.020830033347010612
0.028315002098679543,0.004792114719748497,-0.01832887902855873,0.012522093020379543,-0.0005054444191046059,0.02141210436820984
0.0274545606225729,0.004659135360270739,-0.018351534381508827,0.012900604866445065,-0.0006767238955944777,0.021967457607388496
0.027167901396751404,0.004976343363523483,-0.0176792424172163,0.012551666237413883,-0.000850044540129602,0.022727901116013527
0.026822110638022423,0.004963496699929237,-0.01808198355138302,0.013305437751114368,-0.0007727167685516179,0.021547265350818634
0.027770375832915306,0.00458380626514554,-0.0187662523239851,0.012800839729607105,-0.000775316555518657,0.0215389933437109
0.027931680902838707,0.004571735858917236,-0.018644800409674644,0.013270034454762936,-0.0007020695484243333,0.02156740054488182
0.026375768706202507,0.005075679626315832,-0.01892734318971634,0.013453889638185501,-0.0006758521194569767,0.02120867185294628
0.027749160304665565,0.004881719592958689,-0.018430881202220917,0.013502594083547592,-0.0006536995060741901,0.021634431555867195
0.028493816033005714,0.0046638441272079945,-0.018370281904935837,0.013649692758917809,-0.0006016054539941251,0.022551758214831352
0.027988428249955177,0.005074475891888142,-0.018707044422626495,0.013344460166990757,-0.0005500351544469595,0.022577455267310143
0.027302952483296394,0.005094639025628567,-0.018394438549876213,0.013440411537885666,-0.0004913834854960442,0.022001642733812332
0.027766583487391472,0.004993452224880457,-0.019209573045372963,0.012886054813861847,-0.0005192793323658407,0.021565886214375496
0.028149278834462166,0.005210850387811661,-0.018935343250632286,0.013457732275128365,-0.0004831337137147784,0.021734988316893578
0.027819359675049782,0.004911988042294979,-0.01794867031276226,0.013230487704277039,-0.0005127933109179139,0.02201070263981819
0.027819359675049782,0.004911988042294979,-0.01794867031276226,0.013230487704277039,-0.0005127933109179139,0.02201070263981819
0.027815621346235275,0.005133057478815317,-0.01879536360502243,0.014055061154067516,-0.00047836260637268424,0.02189013361930847
0.027929386124014854,0.005473829340189695,-0.01914520561695099,0.013294080272316933,-0.0004997415817342699,0.021723633632063866
0.02794184722006321,0.005380994640290737,-0.018772181123495102,0.013834848999977112,-0.00047810145770199597,0.02214827947318554
0.02819240838289261,0.005453111138194799,-0.01890280656516552,0.013518517836928368,-0.0005626124329864979,0.022443456575274467
0.02827480062842369,0.0052862875163555145,-0.01915529929101467,0.013783962465822697,-0.000600024766754359,0.022797763347625732
0.028290342539548874,0.005523427855223417,-0.01864880695939064,0.013284300453960896,-0.0005876877112314105,0.02244085818529129
0.028543515130877495,0.005301128141582012,-0.01894562877714634,0.013495145365595818,-0.0006117983139120042,0.022101152688264847
0.02948087267577648,0.005407256074249744,-0.018738241866230965,0.013456478714942932,-0.0008009332232177258,0.02228291518986225
0.027622820809483528,0.005307649727910757,-0.019468016922473907,0.0139909777790308,-0.0007689730264246464,0.022822242230176926
0.028383353725075722,0.005188140086829662,-0.01929343491792679,0.014213021844625473,-0.0007735872641205788,0.023039722815155983
0.02926500327885151,0.004917950369417667,-0.01893734186887741,0.014070253819227219,-0.0007738961139693856,0.022868815809488297
0.02831231988966465,0.005304316524416208,-0.01917773112654686,0.013891673646867275,-0.0007209563627839088,0.02268204279243946
0.029211141169071198,0.005583114922046661,-0.019322078675031662,0.01416062843054533,-0.0006989354733377695,0.023058518767356873
0.030125919729471207,0.005187363363802433,-0.018883269280195236,0.013952125795185566,-0.0007809801027178764,0.023474404588341713
0.029452035203576088,0.005501911975443363,-0.01940964162349701,0.013917235657572746,-0.0007474880549125373,0.023627998307347298
0.028698831796646118,0.005087501369416714,-0.019435178488492966,0.013457699678838253,-0.0007605579448863864,0.02307313121855259
0.028068292886018753,0.004825846292078495,-0.019133049994707108,0.014193203300237656,-0.0008991950890049338,0.023569321259856224
0.029172485694289207,0.005255192052572966,-0.01936836913228035,0.014052797108888626,-0.000923178275115788,0.023677850142121315
0.029656367376446724,0.005221706349402666,-0.019230470061302185,0.014349005185067654,-0.0007981947273947299,0.023859379813075066
0.029704688116908073,0.005855068098753691,-0.018899405375123024,0.014194403775036335,-0.0007801154861226678,0.024005210027098656
0.029496746137738228,0.005526670720428228,-0.01957070454955101,0.014343658462166786,-0.0007169165764935315,0.02347222901880741
0.029728932306170464,0.0056936247274279594,-0.01984401047229767,0.01413519587367773,-0.0006894299876876175,0.023864513263106346
0.02925393544137478,0.00530072208493948,-0.01911746710538864,0.013934112153947353,-0.000665673753246665,0.024496760219335556
0.029981721192598343,0.005566601175814867,-0.019363131374120712,0.013401390053331852,-0.0006116952281445265,0.024121472612023354
0.029823848977684975,0.0058462671004235744,-0.01947936974465847,0.013871459290385246,-0.0005331729189492762,0.024188807234168053
0.030181653797626495,0.006267267744988203,-0.01920185424387455,0.01331840455532074,-0.0004698590491898358,0.025128807872533798
0.029964234679937363,0.005594461224973202,-0.019459890201687813,0.014022400602698326,-0.0005037731607444584,0.024786081165075302
0.029964234679937363,0.005594461224973202,-0.019459890201687813,0.014022400602698326,-0.0005037731607444584,0.024786081165075302
0.030023153871297836,0.005744366440922022,-0.01953771337866783,0.014206895604729652,-0.0005323443911038339,0.02401360496878624
0.0302863921970129,0.005347745958715677,-0.019153300672769547,0.015254655852913857,-0.0005611895467154682,0.023438815027475357
0.0306953564286232,0.005424047354608774,-0.01954042725265026,0.014891094528138638,-0.0008513217326253653,0.023709092289209366
0.030953822657465935,0.005740053486078978,-0.020051755011081696,0.014777558855712414,-0.0008932738564908504,0.024201922118663788
0.03105195239186287,0.005541753023862839,-0.019593892619013786,0.01436749566346407,-0.0008425324340350926,0.024405214935541153
0.031282078474760056,0.005465046968311071,-0.019512688741087914,0.0140124736353755,-0.0007649563485756516,0.02444562502205372
0.030620159581303596,0.0057097612880170345,-0.019185112789273262,0.014934072270989418,-0.0007868599495850503,0.025229930877685547
0.030515240505337715,0.0053134337067604065,-0.020035389810800552,0.014738127589225769,-0.0007943149539642036,0.024819374084472656
0.031533244997262955,0.005699289962649345,-0.020716674625873566,0.014815280213952065,-0.0007064823294058442,0.024600252509117126
0.0317489355802536,0.005733039695769548,-0.01984793320298195,0.014375587925314903,-0.0007150471792556345,0.02430913969874382
0.031321752816438675,0.005703981500118971,-0.020025987178087234,0.014919972978532314,-0.0006530123064294457,0.024408802390098572
0.03138023242354393,0.005292000714689493,-0.019861087203025818,0.014136240817606449,-0.0006651989533565938,0.024984396994113922
0.03172338753938675,0.0057610576041042805,-0.019375182688236237,0.01437406800687313,-0.0006180021446198225,0.02571302279829979
0.03200490027666092,0.005687621422111988,-0.019746392965316772,0.013780203647911549,-0.0005693974089808762,0.02565249800682068
0.03180550038814545,0.005961499642580748,-0.020462090149521828,0.014571931213140488,-0.0005080781993456185,0.025372222065925598
0.0318131148815155,0.00560182286426425,-0.02037237025797367,0.015189201571047306,-0.000541330489795655,0.025201259180903435
0.031934741884469986,0.005706457886844873,-0.01938438042998314,0.01592671498656273,-0.000496998312883079,0.02536754310131073
0.03178011253476143,0.005576029885560274,-0.020860692486166954,0.015911487862467766,-0.0005258987075649202,0.02501562237739563
0.03155475854873657,0.0057851579040288925,-0.021806688979268074,0.01603645831346512,-0.0005546581232920289,0.025083135813474655
0.03163323923945427,0.006028881296515465,-0.020826244726777077,0.016255924478173256,-0.0006462859455496073,0.025452999398112297
0.0326908715069294,0.005319272167980671,-0.020133396610617638,0.015825090929865837,-0.0006921711028553545,0.025413652881979942
0.0326908715069294,0.005319272167980671,-0.020133396610617638,0.015825090929865837,-0.0006921711028553545,0.025413652881979942
0.03321032598614693,0.0049934349954128265,-0.021334173157811165,0.015761638060212135,-0.0006910686497576535,0.025372283533215523
0.03207245096564293,0.005663796328008175,-0.020385533571243286,0.01502471137791872,-0.0006656931363977492,0.025004208087921143
0.03176523372530937,0.005892949644476175,-0.019434334710240364,0.0154721075668931,-0.000668077205773443,0.025269126519560814
0.03224672004580498,0.0058401115238666534,-0.020337166264653206,0.015116341412067413,-0.0006293291226029396,0.025608748197555542
0.03253113850951195,0.00520297372713685,-0.021393638104200363,0.01543915830552578,-0.0006332562188617885,0.02619653195142746
0.0327112078666687,0.005049608182162046,-0.020733177661895752,0.015188146382570267,-0.0006031846860423684,0.026550445705652237
0.03336477652192116,0.0056243957951664925,-0.020700961351394653,0.015950210392475128,-0.000641831080429256,0.026894615963101387
0.03222666308283806,0.005845304578542709,-0.020862959325313568,0.015975618734955788,-0.0006665820255875587,0.02650970220565796
0.03219211846590042,0.006156286224722862,-0.020272184163331985,0.015740329399704933,-0.0007440300541929901,0.026031335815787315
0.033599890768527985,0.005563309881836176,-0.020752977579832077,0.015691176056861877,-0.0008400374790653586,0.02641269937157631
0.03351891413331032,0.005823405459523201,-0.021107295528054237,0.015824636444449425,-0.0008216155110858381,0.026392504572868347
0.033048730343580246,0.005278632044792175,-0.021004313603043556,0.01521872729063034,-0.0007763063767924905,0.026599854230880737
0.03332715108990669,0.005510502960532904,-0.0206251572817564,0.015777846798300743,-0.000741933414246887,0.026396876201033592
0.033491216599941254,0.005627464968711138,-0.02081996202468872,0.015560383908450603,-0.0007114955806173384,0.02600538171827793
0.03349011018872261,0.005591763183474541,-0.020920971408486366,0.01641325280070305,-0.0006546314689330757,0.02696477249264717
0.033611688762903214,0.005233192350715399,-0.020459089428186417,0.01618540845811367,-0.0006209078710526228,0.028007477521896362
0.033407967537641525,0.005798619706183672,-0.020478900521993637,0.0162968710064888,-0.0006287095020525157,0.027575477957725525
0.03302978351712227,0.005362809170037508,-0.02110869064927101,0.01634000614285469,-0.0005851511377841234,0.026578526943922043
0.03322229161858559,0.0059973206371068954,-0.02089702896773815,0.01631336845457554,-0.0006052703247405589,0.025846881791949272
0.033180490136146545,0.005556731950491667,-0.020319953560829163,0.0164511539041996,-0.000561668595764786,0.026839716359972954
0.033849552273750305,0.005726708564907312,-0.020836669951677322,0.016231102868914604,-0.0005847993888892233,0.027686992660164833
0.034558553248643875,0.005334838759154081,-0.021053582429885864,0.01654103398323059,-0.000619155413005501,0.027439631521701813
0.034214384853839874,0.005254389718174934,-0.02061750553548336,0.016326000913977623,-0.0006659672944806516,0.027735594660043716
0.03259943798184395,0.005567701533436775,-0.02071548067033291,0.016786249354481697,-0.0006799406255595386,0.02824154868721962
0.03259943798184395,0.005567701533436775,-0.02071548067033291,0.016786249354481697,-0.0006799406255595386,0.02824154868721962
0.033044952899217606,0.005052661057561636,-0.020948821678757668,0.01671440713107586,-0.0007014339789748192,0.027464186772704124
0.033866945654153824,0.0042432998307049274,-0.020879896357655525,0.01662764884531498,-0.0006657140329480171,0.027165327221155167
0.033550672233104706,0.004306171089410782,-0.020387332886457443,0.01704893447458744,-0.0008037732332013547,0.026680918410420418
0.03448590263724327,0.004630411509424448,-0.020602542906999588,0.016560934484004974,-0.0006962388870306313,0.027326758950948715
0.034601841121912,0.004442989826202393,-0.02101009525358677,0.017000051215291023,-0.0007153235492296517,0.02814638800919056
0.032969266176223755,0.004547275602817535,-0.020997939631342888,0.016829267144203186,-0.0007155397324822843,0.027972424402832985
0.0328122116625309,0.0046066646464169025,-0.020578987896442413,0.017028048634529114,-0.0007099395734257996,0.028056250885128975
0.03455116227269173,0.004592780955135822,-0.020660217851400375,0.017304887995123863,-0.0006869494100101292,0.029155617579817772
0.034679874777793884,0.004654859658330679,-0.02117547206580639,0.01751529984176159,-0.0006705715786665678,0.028288694098591805
0.034075599163770676,0.004374260548502207,-0.021032225340604782,0.017028916627168655,-0.0006890622316859663,0.02838028036057949
0.034182704985141754,0.004443876910954714,-0.021399706602096558,0.016925308853387833,-0.0007098033674992621,0.028419112786650658
0.03430813550949097,0.0049643139354884624,-0.021206075325608253,0.017032699659466743,-0.0008502646232955158,0.0282830111682415
0.03492479771375656,0.004960369318723679,-0.020801639184355736,0.01693388633430004,-0.00091620406601578,0.028435008600354195
0.035081230103969574,0.004502377938479185,-0.021421734243631363,0.01755140721797943,-0.0009174906299449503,0.02849411778151989
0.03436509892344475,0.004070085473358631,-0.021026097238063812,0.017017822712659836,-0.0009075116249732673,0.02862781658768654
0.03479163348674774,0.004103528335690498,-0.021075187250971794,0.016942808404564857,-0.0009049635264091194,0.02895105443894863
0.035193368792533875,0.004068848676979542,-0.02165212295949459,0.017271820455789566,-0.0009451510268263519,0.029108727350831032
0.03558545559644699,0.004317435901612043,-0.022397900000214577,0.017627624794840813,-0.000839436543174088,0.02899870090186596
0.0354175791144371,0.004091464448720217,-0.02215833030641079,0.018397364765405655,-0.0008408908033743501,0.0292318407446146
0.03526395931839943,0.004457551520317793,-0.02152140811085701,0.017682531848549843,-0.0008262473857030272,0.02934853918850422
0.035612307488918304,0.004176092334091663,-0.021153267472982407,0.017683761194348335,-0.0007629008614458144,0.029157720506191254
0.036250628530979156,0.003946133889257908,-0.021879974752664566,0.01745179109275341,-0.0006913424585945904,0.029174095019698143
0.035831551998853683,0.003875165246427059,-0.022281058132648468,0.016806336119771004,-0.0006243299576453865,0.02918184921145439
0.03561827540397644,0.00439317524433136,-0.02152872085571289,0.017517127096652985,-0.0006024159374646842,0.02939179353415966
0.03591221943497658,0.004261530935764313,-0.020845286548137665,0.01792249269783497,-0.0005841842503286898,0.029695596545934677
0.03688787296414375,0.003942069597542286,-0.021887877956032753,0.01874474808573723,-0.0006118369637988508,0.028519753366708755
0.036565713584423065,0.004085000604391098,-0.022329822182655334,0.019109396263957024,-0.0006373696378432214,0.029525894671678543
0.03640179708600044,0.004091065376996994,-0.02251499518752098,0.0182834193110466,-0.0007239720434881747,0.030896252021193504
0.036491625010967255,0.004336012061685324,-0.021572351455688477,0.01834869757294655,-0.0007284317398443818,0.03121834248304367
0.036491625010967255,0.004336012061685324,-0.021572351455688477,0.01834869757294655,-0.0007284317398443818,0.03121834248304367
0.03697499260306358,0.004044169094413519,-0.021316440775990486,0.019025523215532303,-0.0007493302691727877,0.030370915308594704
0.036923278123140335,0.003890018444508314,-0.023100655525922775,0.018657691776752472,-0.0007665941375307739,0.028589541092514992
0.03718893975019455,0.0038359726313501596,-0.021062109619379044,0.01846305839717388,-0.0007430050754919648,0.02952292375266552
0.03725167363882065,0.003814178518950939,-0.020686697214841843,0.01816483959555626,-0.0009013827657327056,0.030401097610592842
0.03663616254925728,0.004343608859926462,-0.02220267988741398,0.017486494034528732,-0.0009100771276280284,0.030385926365852356
0.03806105628609657,0.004072125535458326,-0.022191954776644707,0.01788734458386898,-0.0009094143169932067,0.03129959851503372
0.038709912449121475,0.0037934265565127134,-0.022357800975441933,0.017795516178011894,-0.0008621967281214893,0.031211797147989273
0.03638705238699913,0.004155789967626333,-0.022043436765670776,0.019295597448945045,-0.0008999743149615824,0.02980808913707733
0.0382159948348999,0.004146136809140444,-0.02212039940059185,0.019307993352413177,-0.0008740038610994816,0.029377734288573265
0.03846163675189018,0.003987094387412071,-0.022273514419794083,0.019227812066674232,-0.0007929964340291917,0.031186269596219063
0.038238611072301865,0.0038383558858186007,-0.021821076050400734,0.019134484231472015,-0.000754281529225409,0.03111911006271839
0.03956248238682747,0.0038549546152353287,-0.022177254781126976,0.018629109486937523,-0.0007220335537567735,0.03097134828567505
0.03751632943749428,0.004066924098879099,-0.0226905420422554,0.01851058565080166,-0.0006587576353922486,0.030728982761502266
0.037410929799079895,0.003921356983482838,-0.022694842889904976,0.018724625930190086,-0.0005760272615589201,0.030659161508083344
0.03851732239127159,0.0037504960782825947,-0.022207602858543396,0.018488973379135132,-0.0005967970937490463,0.030731331557035446
0.03886718302965164,0.0038062534295022488,-0.02179061993956566,0.018768172711133957,-0.0006265952833928168,0.032238151878118515
0.03875114768743515,0.004457092843949795,-0.022266291081905365,0.019024068489670753,-0.0006410572677850723,0.03220343217253685
0.038191888481378555,0.0042677451856434345,-0.02238127589225769,0.018595833331346512,-0.0007686004391871393,0.03191195800900459
0.038634102791547775,0.00456489622592926,-0.022274527698755264,0.018785642459988594,-0.0009023405727930367,0.031497612595558167
0.03878417983651161,0.004185420926660299,-0.022153347730636597,0.018523072823882103,-0.0009095432469621301,0.03137381747364998
0.03898191824555397,0.004349375143647194,-0.022330522537231445,0.018035100772976875,-0.0008794469176791608,0.03160183131694794
0.03873758390545845,0.004235486499965191,-0.022530531510710716,0.018891509622335434,-0.0008300136541947722,0.031498201191425323
0.039250511676073074,0.004065328277647495,-0.022384177893400192,0.018995335325598717,-0.000847556337248534,0.03150298446416855
0.04036363214254379,0.004227475728839636,-0.02204187773168087,0.018725750967860222,-0.000854246667586267,0.03133654221892357
0.038140229880809784,0.004495192319154739,-0.02160021848976612,0.018877185881137848,-0.0008441093959845603,0.03136611357331276
0.037926387041807175,0.004593952093273401,-0.022372301667928696,0.018676569685339928,-0.0008499232935719192,0.03157486766576767
0.03943297639489174,0.004718744661659002,-0.023086991161108017,0.01899288408458233,-0.0008944063447415829,0.032179053872823715
0.03943297639489174,0.004718744661659002,-0.023086991161108017,0.01899288408458233,-0.0008944063447415829,0.032179053872823715
0.039597947150468826,0.004422283265739679,-0.022284992039203644,0.01930476911365986,-0.0009185094968415797,0.03200598806142807
0.04025548696517944,0.004282870329916477,-0.02213929034769535,0.019021445885300636,-0.0009172617574222386,0.031872931867837906
0.040297068655490875,0.004159783478826284,-0.022673921659588814,0.018978867679834366,-0.0009230444557033479,0.03264873847365379
0.03810758516192436,0.004489692859351635,-0.023078802973031998,0.01938142254948616,-0.001100960304029286,0.03145477920770645
0.03878922015428543,0.004589877091348171,-0.022819168865680695,0.01887120120227337,-0.0011331960558891296,0.031800903379917145
0.04012354463338852,0.004818340763449669,-0.022583013400435448,0.01866193301975727,-0.0011008554138243198,0.032105185091495514
0.03948505222797394,0.004675289615988731,-0.021890806034207344,0.018793925642967224,-0.0010907123796641827,0.03285621106624603
0.0395028330385685,0.0043361303396523,-0.023018624633550644,0.018778905272483826,-0.0009433956001885235,0.033561911433935165
0.039520688354969025,0.004504271782934666,-0.023178430274128914,0.018966345116496086,-0.0009355851798318326,0.03359918296337128
0.04007380083203316,0.00431419350206852,-0.02217642404139042,0.019110357388854027,-0.0009153239661827683,0.0324971042573452
0.03969299793243408,0.004543231334537268,-0.022235091775655746,0.01961854100227356,-0.0008573951199650764,0.03192494809627533
0.03921685740351677,0.004584374371916056,-0.023724708706140518,0.02041441760957241,-0.0007485673413611948,0.032118845731019974
0.03960246592760086,0.004685903899371624,-0.023340748623013496,0.01986328512430191,-0.0007623382261954248,0.032906949520111084
0.04014117270708084,0.004781355150043964,-0.02376241236925125,0.019421907141804695,-0.0007713226368650794,0.03343405947089195
0.04016612842679024,0.004604471381753683,-0.02279241941869259,0.019015125930309296,-0.0007471588905900717,0.03325304016470909
0.04015134647488594,0.0043456293642520905,-0.022438835352659225,0.01864667236804962,-0.0007166379364207387,0.033396802842617035
0.040019650012254715,0.004059870261698961,-0.02279633656144142,0.019427329301834106,-0.0007299708668142557,0.03322800248861313
0.04045428708195686,0.004170495085418224,-0.023405112326145172,0.020377054810523987,-0.0007597594521939754,0.03268163651227951
0.03980351984500885,0.004734683316200972,-0.023427587002515793,0.020173445343971252,-0.0008312991703860462,0.032711997628211975
0.04045259952545166,0.004809053149074316,-0.023203672841191292,0.019438326358795166,-0.0009916727431118488,0.033754512667655945
0.040182601660490036,0.004575069528073072,-0.023127276450395584,0.020296651870012283,-0.0011367661645635962,0.033756330609321594
0.04043598473072052,0.0043344623409211636,-0.023515351116657257,0.02057957835495472,-0.0011052251793444157,0.0334555022418499
0.04088052734732628,0.004524942021816969,-0.023142555728554726,0.02064177580177784,-0.0010745498584583402,0.032911933958530426
0.040653906762599945,0.005025602411478758,-0.023163992911577225,0.02030913718044758,-0.0010101828956976533,0.03343592584133148
0.0409708209335804,0.004922716412693262,-0.023173820227384567,0.020536154508590698,-0.0009659155621193349,0.03380686044692993
0.041849713772535324,0.004531331826001406,-0.022601116448640823,0.019732054322957993,-0.000883560162037611,0.03362191841006279
0.041849713772535324,0.004531331826001406,-0.022601116448640823,0.019732054322957993,-0.000883560162037611,0.03362191841006279
0.04051506891846657,0.004395034164190292,-0.023374317213892937,0.01933257095515728,-0.0008555990061722696,0.03419332578778267
0.04079698398709297,0.004630631767213345,-0.024064168334007263,0.01974572241306305,-0.0007780446321703494,0.03387361764907837
0.040917858481407166,0.004648234695196152,-0.02353055588901043,0.01986343041062355,-0.0007859279867261648,0.034460119903087616
0.04114864766597748,0.004277140833437443,-0.02344992756843567,0.019941624253988266,-0.0007254473748616874,0.03414374962449074
0.041597649455070496,0.004327809438109398,-0.02304612100124359,0.020163357257843018,-0.0007489256677217782,0.03445693850517273
0.040358345955610275,0.004277281928807497,-0.023448314517736435,0.019452322274446487,-0.0007823214400559664,0.03335851803421974
0.04156028479337692,0.004467165097594261,-0.02386261709034443,0.01950613595545292,-0.0012136786244809628,0.03475648909807205
0.04141940549015999,0.0045577483251690865,-0.023954344913363457,0.019400034099817276,-0.0012740743113681674,0.03551679477095604
0.04272520914673805,0.0043834298849105835,-0.023325016722083092,0.01901932992041111,-0.0011532786302268505,0.03596309944987297
0.042709026485681534,0.004580381326377392,-0.022961782291531563,0.019439227879047394,-0.0011384844547137618,0.034855086356401443
0.040409788489341736,0.004663531202822924,-0.023211149498820305,0.020005375146865845,-0.0010675402591004968,0.033316899091005325
0.04198937490582466,0.005034294445067644,-0.023542530834674835,0.02006899006664753,-0.0009987055091187358,0.034322671592235565
0.04241185262799263,0.004874624777585268,-0.02382914535701275,0.020110351964831352,-0.000918870500754565,0.034750260412693024
0.04215138405561447,0.004454487003386021,-0.02340499311685562,0.020204713568091393,-0.0008891606703400612,0.035859525203704834
0.04204082861542702,0.0043435776606202126,-0.023148030042648315,0.020481932908296585,-0.0008142246515490115,0.036896541714668274
0.04254630580544472,0.004411912057548761,-0.023403730243444443,0.02054867334663868,-0.0007392565021291375,0.03609263896942139
0.0425507053732872,0.004538384731858969,-0.023345237597823143,0.02079242281615734,-0.0006043467437848449,0.034563783556222916
0.04195024445652962,0.004649277310818434,-0.023734083399176598,0.021171730011701584,-0.0006078223814256489,0.03447965532541275
