davideferrari95/blind_handover_controller/data/Test 62 - [2024-02-07 -- 15-44-45]/joint_states_data.csv
shoulder_pan_joint,shoulder_lift_joint,elbow_joint,wrist_1_joint,wrist_2_joint,wrist_3_joint
0.008532783947885036,0.007724031340330839,-0.012729983776807785,0.008286770433187485,0.0003515335847623646,0.008017973974347115
0.008532783947885036,0.007724031340330839,-0.012729983776807785,0.008286770433187485,0.0003515335847623646,0.008017973974347115
0.008990849368274212,0.007454646751284599,-0.012551961466670036,0.007859543897211552,0.00038544787093997,0.008182758465409279
0.008990849368274212,0.007454646751284599,-0.012551961466670036,0.007859543897211552,0.00038544787093997,0.008182758465409279
0.009202935732901096,0.0070248935371637344,-0.013037297874689102,0.008609951473772526,0.00036715660826303065,0.007988891564309597
0.0097889956086874,0.00781159708276391,-0.012092476710677147,0.00864001177251339,0.0003499028389342129,0.008176678791642189
0.009806335903704166,0.007778108585625887,-0.012781037017703056,0.009328564628958702,0.0003544235951267183,0.008015889674425125
0.008963244035840034,0.007467247545719147,-0.012184664607048035,0.009058131836354733,0.0003370420599821955,0.007586885709315538
0.008807078003883362,0.007606623228639364,-0.012712888419628143,0.00848404224961996,0.00035374981234781444,0.008027743548154831
0.009441419504582882,0.008083589375019073,-0.011933266185224056,0.008252226747572422,0.0003472758689895272,0.008120626211166382
0.009262209758162498,0.007664585020393133,-0.012262535281479359,0.008573312312364578,0.0003319541283417493,0.008626044727861881
0.008586745709180832,0.008216172456741333,-0.012011824175715446,0.008846509270370007,0.0003173627774231136,0.007599808741360903
0.008970283903181553,0.007783311419188976,-0.011873563751578331,0.008027676492929459,0.00030396509100683033,0.007419303059577942
0.009085373021662235,0.007374374661594629,-0.01177187729626894,0.008090167306363583,0.000326845096424222,0.00744091859087348
0.00852857157588005,0.007691933307796717,-0.011612962931394577,0.00832317490130663,0.00031616672640666366,0.008062767796218395
0.008964277803897858,0.007805357687175274,-0.012528905645012856,0.008162274025380611,0.0002961531572509557,0.007853997871279716
0.009030608460307121,0.007434676866978407,-0.01171695813536644,0.007710382342338562,0.00027790648164227605,0.00804322399199009
0.008531142957508564,0.007214703131467104,-0.011689476668834686,0.00791861116886139,0.0002872319018933922,0.007847816683351994
0.008982458151876926,0.007235607132315636,-0.012467578984797001,0.007825949229300022,0.00029506103601306677,0.007962487637996674
0.00850692205131054,0.007682756520807743,-0.011862714774906635,0.007963482290506363,0.00028123054653406143,0.008164037950336933
0.008190275169909,0.007459235843271017,-0.012315517291426659,0.007716696243733168,0.00028915624716319144,0.00819323118776083
0.008317102678120136,0.0067383586429059505,-0.012903358787298203,0.00764085678383708,0.00029576136148534715,0.007747530937194824
0.00883982703089714,0.00710683036595583,-0.012584221549332142,0.007408333942294121,0.00028375809779390693,0.007828949950635433
0.008633321151137352,0.007183924783021212,-0.012588831596076488,0.0073824659921228886,0.000271607976173982,0.007704801857471466
0.008286908268928528,0.00735046248883009,-0.011965008452534676,0.007904008962213993,0.0002603846078272909,0.0077038658782839775
0.008943870663642883,0.007368932943791151,-0.012333348393440247,0.007958787493407726,0.0002833414764609188,0.007751674856990576
0.008335634134709835,0.0069711399264633656,-0.011584418825805187,0.007593382615596056,0.000274700578302145,0.007629741448909044
0.008335634134709835,0.0069711399264633656,-0.011584418825805187,0.007593382615596056,0.000274700578302145,0.007629741448909044
0.00856894813477993,0.006805249489843845,-0.012294423766434193,0.007631704211235046,0.00029918982181698084,0.008677203208208084
0.00887351855635643,0.005242038518190384,-0.011950037442147732,0.007576094940304756,0.00029159159748815,0.00812892522662878
0.009145671501755714,0.003884310135617852,-0.012193704955279827,0.007389355450868607,0.00025881652254611254,0.007913765497505665
0.007219783030450344,0.004758738446980715,-0.011491942219436169,0.0074125234968960285,0.0002447372244205326,0.008079001680016518
0.00833372212946415,0.005498973652720451,-0.012084821239113808,0.007597977761179209,0.0002321109059266746,0.007837314158678055
0.008616513572633266,0.005499688908457756,-0.01163141243159771,0.008010761812329292,0.0002533013466745615,0.008101778104901314
0.008234689012169838,0.005002649035304785,-0.01228263322263956,0.008217856287956238,0.0002517229877412319,0.008308235555887222
0.008087128400802612,0.004984306637197733,-0.011688795872032642,0.00794159434735775,0.00024114853295031935,0.008435203693807125
0.008737466298043728,0.004844324197620153,-0.011131060309708118,0.00777699938043952,0.0002308797847945243,0.008280561305582523
0.008503966964781284,0.004799495451152325,-0.011940548196434975,0.008135604672133923,0.00023946684086695313,0.0077023874036967754
0.008134114556014538,0.004680864978581667,-0.01144931185990572,0.008154526352882385,0.0002469100581947714,0.008023425005376339
0.008368562906980515,0.004684853833168745,-0.01144142635166645,0.007598349824547768,0.00023865525145083666,0.008316599763929844
0.008700156584382057,0.004750519059598446,-0.011836105957627296,0.007618774194270372,0.0002300123160239309,0.007943070493638515
0.008482782170176506,0.004757287912070751,-0.011401031166315079,0.0077897715382277966,0.0002219141460955143,0.00808524340391159
0.008293861523270607,0.004437287803739309,-0.01215501967817545,0.0076987361535429955,0.00024291548470500857,0.008111071772873402
0.008443795144557953,0.004223939497023821,-0.012013841420412064,0.0069055273197591305,0.0002367877896176651,0.007776160258799791
0.008719086647033691,0.004494039807468653,-0.01177158672362566,0.007297139149159193,0.00022936596360523254,0.008597021922469139
0.008328433148562908,0.004652567207813263,-0.011478361673653126,0.007969650439918041,0.00023236111155711114,0.00823925994336605
0.008574298582971096,0.004405336454510689,-0.011187376454472542,0.007448793854564428,0.0002306100504938513,0.008010577410459518
0.008709109388291836,0.004556666128337383,-0.012616810388863087,0.0070567661896348,0.00021999709133524448,0.0077239032834768295
0.00822423305362463,0.004434410482645035,-0.011386419646441936,0.007407103665173054,0.00020978201064281166,0.007954257540404797
0.008490621112287045,0.004205466713756323,-0.011407396756112576,0.00801559817045927,0.0002351682196604088,0.008279819041490555
0.00874476321041584,0.003994586877524853,-0.01139398105442524,0.007893980480730534,0.00022991758305579424,0.00821931567043066
0.008872603066265583,0.004270615521818399,-0.010938807390630245,0.007586099673062563,0.00022082535724621266,0.007798241451382637
0.00844810251146555,0.004570139106363058,-0.011309655383229256,0.007652883417904377,0.00021216760796960443,0.00805477611720562
0.008574427105486393,0.004598094150424004,-0.01138333324342966,0.00802057795226574,0.00020414641767274588,0.008153405971825123
0.008710605092346668,0.004603517707437277,-0.011488975025713444,0.007946090772747993,0.00019670887559186667,0.0077765570022165775
0.008890526369214058,0.0046847667545080185,-0.01113235391676426,0.008134243078529835,0.00019832623365800828,0.008386955596506596
0.008800947107374668,0.004723147489130497,-0.01198972575366497,0.008227845653891563,0.00020586480968631804,0.007839230820536613
0.008640594780445099,0.0047612846828997135,-0.011202441528439522,0.007799619343131781,0.0002002372348215431,0.007853353396058083
0.008640594780445099,0.0047612846828997135,-0.011202441528439522,0.007799619343131781,0.0002002372348215431,0.007853353396058083
0.008921234868466854,0.00522084953263402,-0.01102533284574747,0.007998578250408173,0.00019412646361161023,0.007888543419539928
0.008523230440914631,0.005129936151206493,-0.01155561301857233,0.008194424211978912,0.00018832666683010757,0.008755763061344624
0.008788385428488255,0.004890012089163065,-0.011057861149311066,0.007718988694250584,0.0001828603562898934,0.00817214883863926
0.008778810501098633,0.004663730505853891,-0.011660045012831688,0.007879739627242088,0.00017770202248357236,0.008185096085071564
0.00879510585218668,0.004638142418116331,-0.011212856508791447,0.007744782138615847,0.00017282676708418876,0.008391447365283966
0.009519096463918686,0.0047337645664811134,-0.010602867230772972,0.008004739880561829,0.0001860185875557363,0.008538617752492428
0.008419262245297432,0.005105678923428059,-0.012045036070048809,0.008050302043557167,0.0001868360850494355,0.008016939274966717
0.008766076527535915,0.005007691215723753,-0.011633412912487984,0.007867553271353245,0.00018246969557367265,0.008220411837100983
0.009111965075135231,0.005113270133733749,-0.011485383845865726,0.007529256399720907,0.00017798303451854736,0.00866110809147358
0.0086212744936347,0.004981650970876217,-0.011552338488399982,0.007346222177147865,0.00017369074339512736,0.008347188122570515
0.008476536720991135,0.0047052521258592606,-0.011598918586969376,0.007416692096740007,0.0001695991086307913,0.008126945234835148
0.008677362464368343,0.004829677753150463,-0.012116167694330215,0.00768403010442853,0.00016569744911976159,0.008341695182025433
0.008647301234304905,0.004819738678634167,-0.011507498100399971,0.007756380829960108,0.00016196850629057735,0.008824705146253109
0.008270710706710815,0.005184920039027929,-0.01148134097456932,0.00768778333440423,0.00015840501873753965,0.008405708707869053
0.008883446455001831,0.005083860829472542,-0.01184781827032566,0.006940075661987066,0.00015499486471526325,0.007611372508108616
0.008690626360476017,0.004827817901968956,-0.011712614446878433,0.006961124483495951,0.00015172839630395174,0.0077547295950353146
0.00828815158456564,0.005722697824239731,-0.012373209930956364,0.00745775131508708,0.00014859695511404425,0.007840189151465893
0.008864758536219597,0.005879200994968414,-0.012083648703992367,0.007436721585690975,0.00014559231931343675,0.0077828411012887955
0.00869306456297636,0.004508639220148325,-0.01194198802113533,0.007222701795399189,0.0001427064125891775,0.008592236787080765
0.008509276434779167,0.004367618355900049,-0.011298633180558681,0.0068792481906712055,0.00013792893150821328,0.008701903745532036
0.00813794694840908,0.005736944731324911,-0.011370277963578701,0.007558328099548817,0.00013205231516622007,0.008327052928507328
0.00813794694840908,0.005736944731324911,-0.011370277963578701,0.007558328099548817,0.00013205231516622007,0.008327052928507328
0.008808964863419533,0.005358452443033457,-0.011362649500370026,0.007631408050656319,0.00012461398728191853,0.007877266965806484
0.008808964863419533,0.005358452443033457,-0.011362649500370026,0.007631408050656319,0.00012461398728191853,0.007877266965806484
0.009631970897316933,0.005605695303529501,-0.012676069512963295,0.007685414515435696,0.00011505459406180307,0.007955762557685375
0.009631970897316933,0.005605695303529501,-0.012676069512963295,0.007685414515435696,0.00011505459406180307,0.007955762557685375
0.00847675371915102,0.005381277296692133,-0.011973638087511063,0.007286114152520895,0.0001121872483054176,0.008286484517157078
0.008579117245972157,0.0052327909506857395,-0.011278277263045311,0.007098366040736437,0.00010945712710963562,0.008151022717356682
0.009151418693363667,0.004983909428119659,-0.012122808024287224,0.007974527776241302,0.00010685783490771428,0.008130957372486591
0.008861900307238102,0.005405807867646217,-0.012020080350339413,0.00788408238440752,0.0001198589670821093,0.0082576097920537
0.00884483102709055,0.005601476412266493,-0.012042319402098656,0.006936927791684866,0.00012206288374727592,0.008742712438106537
0.00889583583921194,0.005506578832864761,-0.012199980206787586,0.006956946570426226,0.00011967975297011435,0.008867528289556503
0.00896517001092434,0.0058236937038600445,-0.01141651812940836,0.007467026822268963,0.00011710444232448936,0.00838751345872879
0.008838857524096966,0.005513250362128019,-0.011879699304699898,0.007417947985231876,0.0001146206195699051,0.00832599587738514
0.009178956039249897,0.005711670033633709,-0.011630340479314327,0.006784824654459953,0.00011223860929021612,0.008562052622437477
0.009234198369085789,0.005532564129680395,-0.01198156550526619,0.006726551800966263,0.00010995240154443309,0.008109338581562042
0.008586309850215912,0.0059325504116714,-0.01166300754994154,0.007382596842944622,0.00010775815462693572,0.007758069783449173
0.008335551247000694,0.005611341912299395,-0.011707986705005169,0.007746538147330284,0.00010564957483438775,0.008066447451710701
0.008842943236231804,0.005550422240048647,-0.012091055512428284,0.007198209874331951,0.000103623082395643,0.008222420699894428
0.008958321064710617,0.005428126081824303,-0.011368063278496265,0.007215752266347408,0.00010167204163735732,0.009021900594234467
0.00856575183570385,0.0054668886587023735,-0.01183162722736597,0.00769165949895978,9.979293099604547e-05,0.008987131528556347
0.008564424701035023,0.005526439752429724,-0.011625523678958416,0.00772104924544692,9.798236715141684e-05,0.008532783016562462
0.008944488130509853,0.005671713501214981,-0.011552718468010426,0.007570239715278149,9.623615915188566e-05,0.008609600365161896
0.008426869288086891,0.005400925409048796,-0.011941441334784031,0.0070546288043260574,0.00010926210234174505,0.008647393435239792
0.008512417785823345,0.0054407017305493355,-0.011709949932992458,0.007560538128018379,0.00010834306158358231,0.008470260538160801
0.008916250430047512,0.0050885723903775215,-0.011916344985365868,0.0075872731395065784,0.00010657290113158524,0.008199991658329964
0.008916250430047512,0.0050885723903775215,-0.011916344985365868,0.0075872731395065784,0.00010657290113158524,0.008199991658329964
0.00862463191151619,0.005848606117069721,-0.010915386490523815,0.007230307906866074,0.00010308940545655787,0.008717297576367855
0.00862463191151619,0.005848606117069721,-0.010915386490523815,0.007230307906866074,0.00010308940545655787,0.008717297576367855
0.00870859157294035,0.005307572893798351,-0.011402060277760029,0.007861441932618618,9.982243500417098e-05,0.008000653237104416
0.008498559705913067,0.005807267501950264,-0.011991826817393303,0.0076137143187224865,9.826552559388801e-05,0.008312949910759926
0.009157199412584305,0.005525479093194008,-0.011653132736682892,0.0071008773520588875,9.675639012129977e-05,0.008360371924936771
0.009461640380322933,0.005963820032775402,-0.01120646484196186,0.007466715294867754,9.52927948674187e-05,0.008268186822533607
0.009003776125609875,0.005964084528386593,-0.011229082942008972,0.00747900502756238,9.387296449858695e-05,0.008410898968577385
0.008776670321822166,0.0058026681654155254,-0.010945717804133892,0.007325350772589445,9.249472350347787e-05,0.00879873987287283
0.009365689940750599,0.005315699148923159,-0.011277950368821621,0.007236505392938852,9.115632565226406e-05,0.008785677142441273
0.008802611380815506,0.005632434971630573,-0.011534611694514751,0.007351570762693882,8.985625026980415e-05,0.008425594307482243
0.008307874202728271,0.0054793888702988625,-0.011187463998794556,0.007416510488837957,8.859262015903369e-05,0.00833097379654646
0.009100731462240219,0.005972693674266338,-0.01195344515144825,0.006991745438426733,8.73640674399212e-05,0.008808174170553684
0.00895569659769535,0.005475030746310949,-0.011351403780281544,0.007078413851559162,8.616919512860477e-05,0.00912204384803772
0.008852303959429264,0.005552738439291716,-0.011777680367231369,0.007944654673337936,9.402559226145968e-05,0.008246125653386116
0.00889301672577858,0.005664723925292492,-0.011557459831237793,0.0077962204813957214,9.56528601818718e-05,0.008356291800737381
0.009033202193677425,0.005797617137432098,-0.01139872521162033,0.007440564222633839,9.458421845920384e-05,0.008708631619811058
0.008739693090319633,0.0057167611084878445,-0.011490357108414173,0.006801839917898178,9.336985385743901e-05,0.008697179146111012
0.008795475587248802,0.005688375327736139,-0.01103258691728115,0.007252485491335392,9.21754035516642e-05,0.00877712108194828
0.009282875806093216,0.005551664624363184,-0.010856823064386845,0.007962496019899845,9.10102971829474e-05,0.009008835069835186
0.008989527821540833,0.005719230975955725,-0.011108075268566608,0.00748419901356101,8.987425826489925e-05,0.008996483869850636
0.00907213520258665,0.005610005464404821,-0.01041197869926691,0.007230774033814669,8.87662754394114e-05,0.008999706245958805
0.009012041613459587,0.0057730767875909805,-0.010950129479169846,0.007947128266096115,8.768522820901126e-05,0.008752386085689068
0.009259595535695553,0.006334167439490557,-0.011047479696571827,0.007749319076538086,8.663019980303943e-05,0.008551269769668579
0.008639123290777206,0.005635376088321209,-0.01070342119783163,0.007000262849032879,8.560030983062461e-05,0.008626849390566349
0.008928254246711731,0.005888670217245817,-0.010993365198373795,0.006351863034069538,8.459457603748888e-05,0.009317844174802303
0.008928254246711731,0.005888670217245817,-0.010993365198373795,0.006351863034069538,8.459457603748888e-05,0.009317844174802303
0.009157827123999596,0.005430122371762991,-0.010754956863820553,0.0068096560426056385,8.361220534425229e-05,0.00927432905882597
0.008705805987119675,0.005148782394826412,-0.010976841673254967,0.007773870136588812,8.265239011961967e-05,0.008666915819048882
0.009167298674583435,0.005421978421509266,-0.01049294788390398,0.006705983076244593,8.079734834609553e-05,0.008664028719067574
0.008861933834850788,0.005183672998100519,-0.010333535261452198,0.006791606545448303,7.990078302100301e-05,0.008599544875323772
0.008956308476626873,0.004944781307131052,-0.01123660895973444,0.007154369726777077,2.0303968994994648e-05,0.008543962612748146
0.009362762793898582,0.005141986533999443,-0.010157712735235691,0.007289494387805462,1.3257039199743303e-06,0.00875637587159872
0.00866882223635912,0.005597388371825218,-0.01025906391441822,0.006920272950083017,8.655899108589438e-08,0.0089517030864954
0.00867066066712141,0.005666404031217098,-0.010407841764390469,0.007163785398006439,5.651683565588428e-09,0.009153933264315128
0.009179379791021347,0.00558812590315938,-0.010559361428022385,0.00689021497964859,3.6901454114612875e-10,0.00863878894597292
0.009202929213643074,0.005141628906130791,-0.01132214441895485,0.006902012508362532,2.409401150815782e-11,0.008773409761488438
0.009302479214966297,0.005521018989384174,-0.01045474223792553,0.006722856312990189,1.5731668355153938e-12,0.008756064809858799
0.010330857709050179,0.005225879605859518,-0.010482625104486942,0.006797267124056816,1.027165413272288e-13,0.008604382164776325
0.008596304804086685,0.005181493237614632,-0.011054137721657753,0.007274448871612549,6.706656104494939e-15,0.008697230368852615
0.00863173883408308,0.005867785774171352,-0.009978611022233963,0.007475720718502998,4.3789671079136404e-16,0.00873891357332468
0.010381755419075489,0.005607942584902048,-0.009895100258290768,0.00728070130571723,2.8591524342675003e-17,0.008808440528810024
0.009415757842361927,0.005094916559755802,-0.010813827626407146,0.007176275365054607,1.8668223586451474e-18,0.008964755572378635
0.009501936845481396,0.005167324561625719,-0.009805921465158463,0.007518701255321503,1.2189016851503173e-19,0.008922988548874855
0.009560326114296913,0.005598557647317648,-0.011663675308227539,0.007764101028442383,7.958555897172e-21,0.009008923545479774
0.00942021980881691,0.0056175109930336475,-0.011351294815540314,0.0072451080195605755,5.19636839900051e-22,0.00967354141175747
0.009188639000058174,0.005622172728180885,-0.00997780729085207,0.0072385817766189575,3.3928569901088283e-23,0.00926217995584011
0.009169591590762138,0.00518639013171196,-0.010202769190073013,0.007640938740223646,2.215293196322713e-24,0.009157397784292698
0.009242297150194645,0.004980635363608599,-0.010439544916152954,0.0075184195302426815,1.4464279922005974e-25,0.009005077183246613
0.009015324525535107,0.005116407293826342,-0.010018528439104557,0.007335459813475609,9.44414106820489e-27,0.008972980082035065
0.009015324525535107,0.005116407293826342,-0.010018528439104557,0.007335459813475609,9.44414106820489e-27,0.008972980082035065
0.008915865793824196,0.0049108597449958324,-0.01069649774581194,0.006598943378776312,5.156221959623508e-05,0.009118827059864998
0.009289979003369808,0.004298965912312269,-0.010821586474776268,0.006749261636286974,5.708034586859867e-05,0.009050436317920685
0.008895345032215118,0.003850180422887206,-0.011820563115179539,0.007657862734049559,5.608225546893664e-05,0.009013551287353039
0.010137386620044708,0.004072594456374645,-0.011603846214711666,0.00685238977894187,5.5393637012457475e-05,0.009183271788060665
0.009142573922872543,0.0048689646646380424,-0.01151973381638527,0.007021676283329725,5.4720152547815815e-05,0.009226599708199501
0.009102418087422848,0.00484450301155448,-0.01123032160103321,0.007360680494457483,5.406280615716241e-05,0.009185370989143848
0.009412340819835663,0.004486423451453447,-0.01076283399015665,0.007327976170927286,5.342098666005768e-05,0.01009525265544653
0.00968693383038044,0.0044719986617565155,-0.011807543225586414,0.007026581093668938,5.279426113702357e-05,0.009495802223682404
0.009286326356232166,0.0045475466176867485,-0.011439155787229538,0.0068503678776323795,5.2182051149429753e-05,0.008965739980340004
0.009324019774794579,0.004659855738282204,-0.011620641686022282,0.007170358672738075,5.158389103598893e-05,0.00964326597750187
0.009755624458193779,0.004725966602563858,-0.011926369741559029,0.007431891281157732,5.09992751176469e-05,0.009975998662412167
0.00942690297961235,0.00426493538543582,-0.011442109011113644,0.007043174467980862,5.042779230279848e-05,0.00968889705836773
0.009654046036303043,0.004144436214119196,-0.011964607052505016,0.0068556866608560085,4.9868958740262315e-05,0.00969609059393406
0.009745619259774685,0.00482164928689599,-0.011580368503928185,0.006879989989101887,6.4236874095513485e-06,0.009844588115811348
0.009265770204365253,0.004844003822654486,-0.012018914334475994,0.006682422943413258,4.1942087136703776e-07,0.009792663156986237
0.010050898417830467,0.00436251750215888,-0.011910686269402504,0.00655949953943491,2.7385187451045567e-08,0.009547469206154346
0.00973820686340332,0.004506922792643309,-0.011327368207275867,0.006441973149776459,1.7880570357675651e-09,0.009855921380221844
0.009206761606037617,0.004623029846698046,-0.012207025662064552,0.006882391404360533,1.1674734790023678e-10,0.009795746766030788
0.00963031966239214,0.004719548858702183,-0.011741522699594498,0.007310796529054642,7.622767868309399e-12,0.009539589285850525
0.010127108544111252,0.004745339043438435,-0.01219138503074646,0.007061169948428869,4.977122772080456e-13,0.01041856687515974
0.009680756367743015,0.004754616413265467,-0.012093769386410713,0.0068455650471150875,3.249705599018757e-14,0.009932411834597588
0.00972764566540718,0.0046294513158500195,-0.011098460294306278,0.007432890590280294,2.1218255796850213e-15,0.009208609350025654
0.009854476898908615,0.004673841409385204,-0.011766966432332993,0.007599879056215286,1.3854004710842332e-16,0.00948051642626524
0.00974933709949255,0.004719404503703117,-0.011536813341081142,0.007282312959432602,9.045675774784874e-18,0.009429763071238995
0.010449344292283058,0.004943847190588713,-0.01183993648737669,0.007241975050419569,5.906179692047664e-19,0.009840214625000954
0.00964451301842928,0.004393802024424076,-0.011676113121211529,0.007584304548799992,3.856313430782801e-20,0.009808650240302086
0.00962329562753439,0.004472690634429455,-0.011949569918215275,0.007929056882858276,2.517897394933069e-21,0.009081963449716568
0.010636413469910622,0.004580134060233831,-0.01199285127222538,0.00753138680011034,1.6440070786262313e-22,0.009174853563308716
0.010036194697022438,0.004553426522761583,-0.011271997354924679,0.007217459846287966,1.0734192053827878e-23,0.009743180125951767
0.010016145184636116,0.005297651514410973,-0.012127682566642761,0.0080755315721035,4.5761543777958903e-26,0.009371745400130749
0.010016145184636116,0.005297651514410973,-0.012127682566642761,0.0080755315721035,4.5761543777958903e-26,0.009371745400130749
0.011001392267644405,0.005092007108032703,-0.011581771075725555,0.007542761042714119,2.987901967603946e-27,0.009513984434306622
0.009560687467455864,0.0048444801941514015,-0.011379988864064217,0.007224415894597769,1.9508865057184702e-28,0.009623823687434196
0.009689264930784702,0.004853819962590933,-0.0110238716006279,0.007343636825680733,1.2737894517487818e-29,0.009740294888615608
0.0105931106954813,0.004992761183530092,-0.011484763585031033,0.007911124266684055,8.316933802971782e-31,0.00994429923593998
0.009848671033978462,0.004921248182654381,-0.011532405391335487,0.007171028293669224,5.430364249315725e-32,0.01025356911122799
0.009692034684121609,0.004851575009524822,-0.010947364382445812,0.007316394709050655,3.5456399369654195e-33,0.009357307106256485
0.01027307752519846,0.004717499483376741,-0.011307940818369389,0.008136236108839512,2.315049339400626e-34,0.00955580361187458
0.009906361810863018,0.005007373169064522,-0.011476272717118263,0.007940035313367844,1.5115617572376484e-35,0.009906835854053497
0.01021393109112978,0.0045936377719044685,-0.011219006031751633,0.007782559376209974,9.869419072798603e-37,0.01015130989253521
0.01006454136222601,0.004473544657230377,-0.01155594177544117,0.0073736184276640415,6.444025131028747e-38,0.009856117889285088
0.010170681402087212,0.00457656430080533,-0.010538965463638306,0.0075918929651379585,4.20748832223698e-39,0.009491868317127228
0.009962303563952446,0.004642025101929903,-0.011721985414624214,0.007625434547662735,2.747189587370231e-40,0.009229915216565132
0.009603606536984444,0.0049050976522266865,-0.011305958963930607,0.007116510532796383,1.7936620343357659e-41,0.009855242446064949
0.009150742553174496,0.004807607736438513,-0.011029664427042007,0.00668425252661109,1.171485516175547e-42,0.009708123281598091
0.0099472776055336,0.005226088687777519,-0.01156044751405716,0.007685652002692223,7.707141553786494e-44,0.00959701370447874
0.01005951501429081,0.004933391232043505,-0.010994183830916882,0.007907276041805744,5.605193857299268e-45,0.009845642372965813
0.009482579305768013,0.004443235229700804,-0.011154483072459698,0.007455078884959221,0.0,0.009591737762093544
0.0101065868511796,0.0044845943339169025,-0.011367352679371834,0.007226796820759773,0.0,0.00944674201309681
0.00986960344016552,0.005159034393727779,-0.011247806251049042,0.007524851709604263,0.0,0.009307551197707653
0.010156095959246159,0.005103166680783033,-0.011448881588876247,0.007733919657766819,0.0,0.009503232315182686
0.0098476717248559,0.004855668172240257,-0.01111256517469883,0.007068897131830454,0.0,0.009716203436255455
0.0098476717248559,0.004855668172240257,-0.01111256517469883,0.007068897131830454,0.0,0.009716203436255455
0.0098476717248559,0.004855668172240257,-0.01111256517469883,0.007068897131830454,0.0,0.009716203436255455
0.010280260816216469,0.004781181458383799,-0.011529728770256042,0.00749224703758955,0.0,0.009996503591537476
0.010280260816216469,0.004781181458383799,-0.011529728770256042,0.00749224703758955,0.0,0.009996503591537476
0.009855366311967373,0.004579399712383747,-0.01172608695924282,0.007317553739994764,0.0,0.009542320854961872
0.010195150971412659,0.0053041065111756325,-0.01124735176563263,0.008126361295580864,0.0,0.009603080339729786
0.010195150971412659,0.0053041065111756325,-0.01124735176563263,0.008126361295580864,0.0,0.009603080339729786
0.009570593014359474,0.005224983207881451,-0.01067466102540493,0.007583560422062874,0.0,0.010111229494214058
0.010000056587159634,0.004951201844960451,-0.010980778373777866,0.0073966579511761665,0.0,0.01014156173914671
0.010326673276722431,0.004575341008603573,-0.011226776987314224,0.007648843806236982,0.0,0.009847690351307392
0.009814840741455555,0.005093667656183243,-0.010810683481395245,0.008057180792093277,0.0,0.009783994406461716
0.00991077907383442,0.0056207613088190556,-0.011535216122865677,0.007767851930111647,0.0,0.009989720769226551
0.010043748654425144,0.005195012781769037,-0.011184291914105415,0.007153775542974472,0.0,0.010930207557976246
0.00940241850912571,0.0046861739829182625,-0.011025246232748032,0.007789234630763531,0.0,0.009564734995365143
0.00969992857426405,0.004979378078132868,-0.011753535829484463,0.008294583298265934,0.0,0.009420559741556644
0.009941427037119865,0.004855475388467312,-0.011846824549138546,0.008327405899763107,0.0,0.009599500335752964
0.009409106336534023,0.004940214101225138,-0.011607839725911617,0.007900722324848175,0.0,0.010345149785280228
0.01045133825391531,0.005393825005739927,-0.011578629724681377,0.0077448152005672455,0.0,0.010335740633308887
0.011049631051719189,0.005199450068175793,-0.01144905760884285,0.00776239950209856,0.0,0.010965441353619099
0.011098746210336685,0.0048150853253901005,-0.011685016565024853,0.007432227022945881,0.0,0.010639660060405731
0.010831912979483604,0.004723333287984133,-0.010946918278932571,0.007558905053883791,0.0,0.010442948900163174
0.010495269671082497,0.004710780456662178,-0.01124278362840414,0.00809718482196331,0.0,0.010172054171562195
0.010831364430487156,0.004621647298336029,-0.011441497132182121,0.008115897886455059,0.0,0.009998375549912453
0.011248552240431309,0.005157971289008856,-0.010990853421390057,0.007881236262619495,0.0,0.010061320848762989
0.011014584451913834,0.005123265087604523,-0.011627175845205784,0.007166776340454817,0.0,0.010234366171061993
0.011352800764143467,0.004912937991321087,-0.011353692971169949,0.0072092036716639996,0.0,0.010567525401711464
0.011486558243632317,0.004997366573661566,-0.011651932261884212,0.007938005961477757,0.0,0.010846840217709541
0.010920152068138123,0.005034406669437885,-0.011364671401679516,0.007786530070006847,0.0,0.010289977304637432
0.011850171722471714,0.00470054941251874,-0.010615230537950993,0.007118816487491131,0.0,0.009930826723575592
0.01130137499421835,0.004890808369964361,-0.011257093399763107,0.007905086502432823,0.0,0.010019921697676182
0.011443659663200378,0.005423668771982193,-0.011372609995305538,0.007844855077564716,0.0,0.01043324638158083
0.01092812605202198,0.005158832762390375,-0.012091654352843761,0.007338423747569323,0.0,0.010646183975040913
0.01092812605202198,0.005158832762390375,-0.012091654352843761,0.007338423747569323,0.0,0.010646183975040913
0.01095640379935503,0.00465628644451499,-0.01104134600609541,0.007956909947097301,0.0,0.010361511260271072
0.010921239852905273,0.004705748520791531,-0.012010442093014717,0.007790887728333473,0.0,0.010311216115951538
0.011252710595726967,0.005286495666950941,-0.011367288418114185,0.007612863555550575,0.0,0.010665865615010262
0.011280219070613384,0.0055562942288815975,-0.011010314337909222,0.007656102534383535,0.0,0.010362858884036541
0.011166354641318321,0.0047316481359303,-0.011733162216842175,0.00791837926954031,0.0,0.010526846162974834
0.011878822930157185,0.00450532790273428,-0.010897756554186344,0.00769090186804533,0.0,0.010981784202158451
0.011812068521976471,0.004982529673725367,-0.011842744424939156,0.007126258220523596,0.0,0.010906307026743889
0.011516847647726536,0.005077565088868141,-0.01149942260235548,0.007031140383332968,0.0,0.010648360475897789
0.011669871397316456,0.004826104734092951,-0.01146025862544775,0.007470148149877787,0.0,0.010754096321761608
0.011387298814952374,0.0053692711517214775,-0.011556863784790039,0.007841651327908039,0.0,0.010330306366086006
0.012081648223102093,0.005304960533976555,-0.01137656532227993,0.007414298597723246,0.0,0.010637924075126648
0.011752394028007984,0.0049413107335567474,-0.011728591285645962,0.007923409342765808,0.0,0.010690613649785519
0.013407102786004543,0.005269684363156557,-0.011715888977050781,0.007993202656507492,0.0,0.01075546070933342
0.012113667093217373,0.005217035301029682,-0.011554834432899952,0.007987159304320812,0.0,0.010712583549320698
0.01128216553479433,0.0049272747710347176,-0.011573432944715023,0.007736856583505869,0.0,0.010716326534748077
0.01215569581836462,0.005320253781974316,-0.0110703743994236,0.008098790422081947,0.0,0.01081546675413847
0.01196566503494978,0.005132438614964485,-0.011998211964964867,0.007980402559041977,0.0,0.011424737051129341
0.01209328230470419,0.004863407462835312,-0.011774922721087933,0.007606116123497486,0.0,0.011012792587280273
0.011665133759379387,0.004681860562413931,-0.011675520800054073,0.007489297538995743,0.0,0.010662263259291649
0.011564875952899456,0.004639278631657362,-0.012411956675350666,0.007585094776004553,0.0,0.01078736875206232
0.011773589067161083,0.004956481046974659,-0.01165598351508379,0.007450762204825878,0.0,0.010667135007679462
0.01172669604420662,0.005565985571593046,-0.012221477925777435,0.007338101509958506,0.0,0.010956176556646824
0.01213405653834343,0.0052464245818555355,-0.012491478584706783,0.007450595498085022,0.0,0.011081707663834095
0.012156948447227478,0.004917940124869347,-0.01249973475933075,0.00792179349809885,0.0,0.01080973818898201
0.012106172740459442,0.005107680335640907,-0.01231091283261776,0.008044778369367123,0.0,0.010949073359370232
0.012155603617429733,0.00501086562871933,-0.01146222185343504,0.007627831771969795,0.0,0.011324123479425907
0.011887263506650925,0.004861423745751381,-0.01245126873254776,0.00796296913176775,0.0,0.01136921439319849
0.012319425120949745,0.005046754609793425,-0.012033666484057903,0.008180852979421616,0.0,0.011273856274783611
0.012319425120949745,0.005046754609793425,-0.012033666484057903,0.008180852979421616,0.0,0.011273856274783611
0.01264692097902298,0.005181979387998581,-0.012022627517580986,0.007867105305194855,0.0,0.011709941551089287
0.012348814867436886,0.004911009222269058,-0.01217778492718935,0.008611171506345272,6.902135282871313e-06,0.011012041009962559
0.012462745420634747,0.004303433932363987,-0.012500179931521416,0.008587749674916267,4.5066013854011544e-07,0.011119029484689236
0.012350162491202354,0.00395315932109952,-0.011906372383236885,0.008274984546005726,2.9424887415530065e-08,0.011572161689400673
0.012190080247819424,0.004387533292174339,-0.01296840701252222,0.008630204945802689,1.9212347268648955e-09,0.01113967876881361
0.012827382422983646,0.004617732483893633,-0.011842462234199047,0.00857519544661045,1.2544291994043277e-10,0.011150897480547428
0.012324491515755653,0.004686438012868166,-0.012261641211807728,0.008199606090784073,8.190526382123586e-12,0.010960469953715801
0.012355972081422806,0.0042802211828529835,-0.012308762408792973,0.007974264211952686,5.347828299986923e-13,0.010897507891058922
0.012263336218893528,0.004489235579967499,-0.011920075863599777,0.007963106036186218,3.491749668267999e-14,0.011269409209489822
0.01237365324050188,0.004687970038503408,-0.012098786421120167,0.008120378479361534,2.2798630811595973e-15,0.011600272729992867
0.01266880240291357,0.00435404060408473,-0.012150365859270096,0.0076949987560510635,1.4885877452544262e-16,0.011349099688231945
0.012242540717124939,0.004985635168850422,-0.012701718136668205,0.00750396866351366,9.719413556528703e-18,0.011692359112203121
0.012642505578696728,0.004854649771004915,-0.01279523316770792,0.008037068881094456,6.346082613609489e-19,0.011325742118060589
0.01238176878541708,0.00471298536285758,-0.012579069472849369,0.008209465071558952,4.143538650677342e-20,0.011431495659053326
0.012729480862617493,0.004391734953969717,-0.01265111193060875,0.0076709771528840065,2.7054343455385422e-21,0.011144451797008514
0.012804679572582245,0.004325166344642639,-0.012387729249894619,0.0077310292981565,1.76645545672983e-22,0.011760440655052662
0.012966548092663288,0.004155511502176523,-0.012938988395035267,0.007640065625309944,1.1533692326077606e-23,0.012288322672247887
0.013080218806862831,0.004881105851382017,-0.011832064017653465,0.008074929006397724,7.530677221531925e-25,0.011950872838497162
0.01295552495867014,0.004575179424136877,-0.012280909344553947,0.007887446321547031,4.9169943659970636e-26,0.012225081212818623
0.013141322880983353,0.004539655987173319,-0.012529348023235798,0.007612159941345453,3.210445676386819e-27,0.012201972305774689
0.012651428580284119,0.004180643707513809,-0.012907561846077442,0.008084146305918694,2.0961915403795464e-28,0.011982066556811333
0.013012338429689407,0.004309890326112509,-0.012554381042718887,0.007776856422424316,1.3686633186850044e-29,0.012052077800035477
0.012889279052615166,0.004677682649344206,-0.012355036102235317,0.007633979432284832,8.936392994781669e-31,0.011818710714578629
0.012889279052615166,0.004677682649344206,-0.012355036102235317,0.007633979432284832,8.936392994781669e-31,0.011818710714578629
0.012922980822622776,0.004567943047732115,-0.012287666089832783,0.00843451265245676,3.8097246611112314e-33,0.011839190497994423
0.012922980822622776,0.004567943047732115,-0.012287666089832783,0.00843451265245676,3.8097246611112314e-33,0.011839190497994423
0.01344324927777052,0.004695413634181023,-0.012157022021710873,0.007963061332702637,-0.00016600964590907097,0.011883692815899849
0.013384743593633175,0.004277477972209454,-0.013224274851381779,0.008847363293170929,-0.00020021798263769597,0.012043735012412071
0.013532652519643307,0.004816089756786823,-0.012581247836351395,0.008374853059649467,-0.00020099279936403036,0.012050434947013855
0.013035145588219166,0.004537589848041534,-0.01259943563491106,0.008230539038777351,-0.00019429743406362832,0.012421594001352787
0.013286219909787178,0.004529764875769615,-0.01246438268572092,0.008350783959031105,-0.00021673095761798322,0.012958165258169174
0.013071964494884014,0.004607207607477903,-0.01193451602011919,0.008649111725389957,-0.000211362712434493,0.01239313930273056
0.013588116504251957,0.004495687782764435,-0.01272713765501976,0.008228021673858166,-0.0002046213048743084,0.012337478809058666
0.013326049782335758,0.004558019805699587,-0.01256476528942585,0.008343302644789219,-0.00022275930678006262,0.012456486001610756
0.013984519988298416,0.004619803745299578,-0.013147879391908646,0.008857637643814087,-0.00021935156837571412,0.012429067865014076
0.013515290804207325,0.004633433651179075,-0.012639090418815613,0.00846262276172638,-0.00021344987908378243,0.012565599754452705
0.013535883277654648,0.004689078312367201,-0.012972773052752018,0.008361516520380974,-0.0003755981451831758,0.012240506708621979
0.01295663695782423,0.004791824147105217,-0.012937961146235466,0.009034376591444016,-0.0004101470985915512,0.012797155417501926
0.013525107875466347,0.0048062182031571865,-0.012972593307495117,0.008594322018325329,-0.0003970726393163204,0.012011120095849037
0.013891066424548626,0.004301052074879408,-0.013195106759667397,0.00838311668485403,-0.000416372437030077,0.012125036679208279
0.013897303491830826,0.00426618242636323,-0.012855861335992813,0.00802579801529646,-0.00040390572394244373,0.012221310287714005
0.014176318421959877,0.004543885588645935,-0.012998828664422035,0.008682208135724068,-0.00040689093293622136,0.012505707331001759
0.014001942239701748,0.0046769725158810616,-0.012363729998469353,0.008257456123828888,-0.00040825942414812744,0.014216272160410881
0.013864537701010704,0.004664303734898567,-0.013149592094123363,0.008124603889882565,-0.0003878611314576119,0.011807512491941452
0.013949139043688774,0.004608959425240755,-0.012514801695942879,0.008464537560939789,-0.0003681832749862224,0.01178240031003952
0.013714407570660114,0.004599289502948523,-0.012896920554339886,0.008311951532959938,-0.0004477582115214318,0.012116143479943275
0.013521107845008373,0.004611612763255835,-0.012848831713199615,0.007737230975180864,-0.0004141580720897764,0.013033510185778141
0.013994838111102581,0.004593289457261562,-0.01277132984250784,0.008612454868853092,-0.0003796809178311378,0.012972990050911903
0.013965216465294361,0.004597590304911137,-0.012980605475604534,0.008980398066341877,-0.0004152128240093589,0.01274150237441063
0.01415929663926363,0.0049424790777266026,-0.012856122106313705,0.00871298648416996,-0.0003894951078109443,0.01294659823179245
0.014130018651485443,0.004967026878148317,-0.012753698043525219,0.008303599432110786,-0.00041588276508264244,0.01275130920112133
0.01436598226428032,0.004801074042916298,-0.012643616646528244,0.008669779635965824,-0.0003968402452301234,0.01281092781573534
0.01436598226428032,0.004801074042916298,-0.012643616646528244,0.008669779635965824,-0.0003968402452301234,0.01281092781573534
0.01407274603843689,0.0044738226570189,-0.01304104644805193,0.009531074203550816,-0.00039974917308427393,0.012830963358283043
0.014002809301018715,0.004795147571712732,-0.012624572031199932,0.008380494080483913,-0.0004014615551568568,0.012907945550978184
0.013940800912678242,0.004810354206711054,-0.013012302108108997,0.008226742036640644,-0.0003817397227976471,0.013041077181696892
0.013919942080974579,0.004832770675420761,-0.0125852907076478,0.008554314263164997,-0.000379809585865587,0.013067537918686867
0.014416399411857128,0.005132909864187241,-0.012787135317921638,0.00825961772352457,-0.00041399209294468164,0.013060543686151505
0.013987591490149498,0.0048239449970424175,-0.012569639831781387,0.008648280054330826,-0.00039239655598066747,0.013135423883795738
0.014943541027605534,0.00442173145711422,-0.012802650220692158,0.009080572053790092,-0.0004230999911669642,0.013201642781496048
0.014637305401265621,0.00432188156992197,-0.012546478770673275,0.00877099297940731,-0.0003999663458671421,0.013247590512037277
0.014636171981692314,0.004880979191511869,-0.01310670468956232,0.009107457473874092,-0.00040247704600915313,0.012840124778449535
0.014642764814198017,0.004906762391328812,-0.012801573611795902,0.009512998163700104,-0.0004040349449496716,0.013057365082204342
0.014982197433710098,0.004746078979223967,-0.013399745337665081,0.009178582578897476,-0.0005150780198164284,0.012584771029651165
0.014600390568375587,0.004660142585635185,-0.012883367948234081,0.009402494877576828,-0.000575555139221251,0.012706841342151165
0.014886355958878994,0.004585422575473785,-0.012780378572642803,0.009396027773618698,-0.0005431291647255421,0.012392949312925339
0.01455676555633545,0.0043092528358101845,-0.01260224636644125,0.009521924890577793,-0.0005660346359945834,0.01278854813426733
0.015057315118610859,0.004490627907216549,-0.012601847760379314,0.009132830426096916,-0.0005648396909236908,0.01307179220020771
0.014795683324337006,0.004537027329206467,-0.013506046496331692,0.009371187537908554,-0.0005551522481255233,0.013410362415015697
0.01518267672508955,0.0047064730897545815,-0.012626267969608307,0.0088680200278759,-0.0005174499819986522,0.013633008114993572
0.015011862851679325,0.00471991952508688,-0.013226669281721115,0.008965380489826202,-0.0005935450899414718,0.013224349357187748
0.014935250394046307,0.004613271448761225,-0.012112106196582317,0.009152381680905819,-0.0005403325776569545,0.012884276919066906
0.015353882685303688,0.0042189802043139935,-0.013090861029922962,0.009077276103198528,-0.000529835990164429,0.012848411686718464
0.01501467078924179,0.004216472152620554,-0.013395472429692745,0.008495012298226357,-0.0005205242778174579,0.01371998991817236
0.014917619526386261,0.004781265277415514,-0.013533295132219791,0.00849408283829689,-0.00047722362796775997,0.013393756002187729
0.015092720277607441,0.004341968335211277,-0.013212944380939007,0.009312443435192108,-0.0004386054934002459,0.013728437013924122
0.015553934499621391,0.0044636111706495285,-0.013026728294789791,0.009034009650349617,-0.00046847379417158663,0.013837834820151329
0.015217849984765053,0.004645735491067171,-0.013410325162112713,0.009506012313067913,-0.0004398481687530875,0.013818779028952122
0.015484033152461052,0.004471375606954098,-0.012757588177919388,0.009010461159050465,-0.00041137856896966696,0.013609685935080051
0.01524882297962904,0.004145129583775997,-0.013356626965105534,0.008329843170940876,-0.0003861660370603204,0.014502322301268578
0.01519689243286848,0.004383023828268051,-0.013071564957499504,0.008170023560523987,-0.0003638539637904614,0.013372492045164108
0.01519689243286848,0.004383023828268051,-0.013071564957499504,0.008170023560523987,-0.0003638539637904614,0.013372492045164108
0.014875102788209915,0.00418436573818326,-0.013778994791209698,0.008764585480093956,-0.0003802079299930483,0.012751434929668903
0.015424596145749092,0.0048141637817025185,-0.014149150811135769,0.008314782753586769,-0.00035434970050118864,0.013855289667844772
0.015526002272963524,0.004700003191828728,-0.013382659293711185,0.008808115497231483,-0.0003377704124432057,0.014215540140867233
0.015456476248800755,0.00426896009594202,-0.014096538536250591,0.009227139875292778,-0.0003226344124414027,0.014134617522358894
0.015787627547979355,0.004388289991766214,-0.013636122457683086,0.008575738407671452,-0.0003087928635068238,0.01435984205454588
0.015730982646346092,0.004606239497661591,-0.013872799463570118,0.008279640227556229,-0.0002598348364699632,0.014034423045814037
0.015788666903972626,0.004769616760313511,-0.01354020182043314,0.008786105550825596,-0.00024129613302648067,0.014383678324520588
0.015726957470178604,0.004420223645865917,-0.013704406097531319,0.008628013543784618,-0.00022872528643347323,0.013966215774416924
0.015487821772694588,0.0044135237112641335,-0.013807816430926323,0.008687625639140606,-0.0002176401758333668,0.013931420631706715
0.01584346406161785,0.004637405276298523,-0.014274059794843197,0.009173252619802952,-0.00022788024216424674,0.013857045210897923
0.015691816806793213,0.004715319722890854,-0.013463697396218777,0.009055264294147491,-0.00023674001567997038,0.014097525738179684
0.016361083835363388,0.004405713174492121,-0.014139258302748203,0.008422576822340488,-0.00022797680867370218,0.013920324854552746
0.016317978501319885,0.004052295349538326,-0.014177834615111351,0.008921760134398937,-0.00021881808061152697,0.014388518407940865
0.016574662178754807,0.004413880407810211,-0.013760855421423912,0.0097128851339221,-0.00021029904019087553,0.014186608605086803
0.0160997211933136,0.004310254473239183,-0.013853143900632858,0.008906511589884758,-0.000218934757867828,0.014349223114550114
0.016166742891073227,0.004393753129988909,-0.013721118681132793,0.0090071652084589,-0.0002264939685119316,0.014226841740310192
0.016430485993623734,0.004891411866992712,-0.014457456767559052,0.009134835563600063,-0.00021960648882668465,0.01439165323972702
0.016905225813388824,0.004917162004858255,-0.013587916269898415,0.009180054068565369,-0.00021227201796136796,0.014039447531104088
0.01743934117257595,0.0043410188518464565,-0.013868169859051704,0.008691343478858471,-0.00021973949333187193,0.014338895678520203
0.01652950793504715,0.004273116588592529,-0.0133228600025177,0.00897030346095562,-0.00022630747116636485,0.01436594221740961
0.016441047191619873,0.004581076093018055,-0.014056033454835415,0.008991490118205547,-0.0002202644245699048,0.014744567684829235
0.016491815447807312,0.004678159020841122,-0.012994034215807915,0.00885010790079832,-0.00021378121164161712,0.014506750740110874
0.016083866357803345,0.004835296887904406,-0.013746821321547031,0.009419199079275131,-0.00023026237613521516,0.014821800403296947
0.016669152304530144,0.0042761387303471565,-0.013379793614149094,0.009359171614050865,-0.00023978350509423763,0.014350838959217072
0.016635114327073097,0.004121989943087101,-0.013762909919023514,0.009045090526342392,-0.00022900381009094417,0.014384220354259014
0.017454277724027634,0.004021976143121719,-0.013365154154598713,0.009395119734108448,-0.00021800004469696432,0.014239332638680935
0.017104361206293106,0.004480680450797081,-0.014156607910990715,0.009636432863771915,-0.00020793020667042583,0.014532447792589664
0.01638169214129448,0.004174253437668085,-0.013759166933596134,0.009657634422183037,-0.00023318307648878545,0.014570916071534157
0.01638169214129448,0.004174253437668085,-0.013759166933596134,0.009657634422183037,-0.00023318307648878545,0.014570916071534157
0.01704639568924904,0.003972530364990234,-0.013476580381393433,0.010610537603497505,-0.00022805752814747393,0.014907024800777435
0.016859417781233788,0.004422249272465706,-0.013327894732356071,0.010203047655522823,-0.00021911138901486993,0.01454106904566288
0.017303211614489555,0.004380838945508003,-0.01400452759116888,0.010247917845845222,-0.0002363052626606077,0.0158389825373888
0.017430657520890236,0.004105495288968086,-0.013660969212651253,0.009877903386950493,-0.00022789559443481266,0.014567110687494278
0.01802236959338188,0.003865328850224614,-0.013711536303162575,0.009488263167440891,-0.00021994714916218072,0.014446813613176346
0.01609286293387413,0.004044908564537764,-0.013490327633917332,0.010052957572042942,-0.0002388635912211612,0.014787103049457073
0.017243940383195877,0.0041155763901770115,-0.013695341534912586,0.00981300137937069,-0.0002346976107219234,0.015020535327494144
0.01751571148633957,0.004869323223829269,-0.013375404290854931,0.009722867049276829,-0.0002275172300869599,0.015218422748148441
0.017510680481791496,0.004489924758672714,-0.013787725009024143,0.009804134257137775,-0.00022105687821749598,0.015051709488034248
0.018090426921844482,0.004026369191706181,-0.013365312479436398,0.009560320526361465,-0.0002734613080974668,0.015131027437746525
0.017921898514032364,0.0043344758450984955,-0.01393689215183258,0.009263576939702034,-0.00026185312890447676,0.015340929850935936
0.01831374689936638,0.0044113704934716225,-0.013017700053751469,0.009732306003570557,-0.00024771521566435695,0.015285064466297626
0.01762245036661625,0.0042234077118337154,-0.013695340603590012,0.009764797985553741,-0.00026944276760332286,0.015468737110495567
0.01802903041243553,0.00444759288802743,-0.013198824599385262,0.009732230566442013,-0.00026698358124122024,0.015564226545393467
0.01788475550711155,0.004770675674080849,-0.013754642568528652,0.00969935953617096,-0.00029190711211413145,0.01536721270531416
0.017724286764860153,0.004651281982660294,-0.013302051462233067,0.00950097106397152,-0.0002838467189576477,0.01500080805271864
0.01844809204339981,0.004297347739338875,-0.013580339960753918,0.009389842860400677,-0.0002909194736275822,0.015138803981244564
0.018273815512657166,0.004043907392770052,-0.01336746383458376,0.009904884733259678,-0.0002966386964544654,0.015279200859367847
0.017733566462993622,0.004269464407116175,-0.013496974483132362,0.009910880587995052,-0.0003658705682028085,0.015660390257835388
0.018588023260235786,0.0046152048744261265,-0.013627166859805584,0.009575827978551388,-0.00040776573587208986,0.015616306103765965
0.0186050683259964,0.00468028150498867,-0.012978249229490757,0.00974381435662508,-0.00044369048555381596,0.015994776040315628
0.01835544966161251,0.004948293324559927,-0.01352375466376543,0.010034565813839436,-0.00041849265107885003,0.015794942155480385
0.018208518624305725,0.004406381864100695,-0.013238156214356422,0.00936155952513218,-0.00042038477840833366,0.015650160610675812
0.0180949866771698,0.004283341113477945,-0.01402479037642479,0.010064941830933094,-0.0004211147897876799,0.015504572540521622
0.01857692003250122,0.004149275366216898,-0.013327608816325665,0.010154631920158863,-0.0003964916686527431,0.015400772914290428
0.018693091347813606,0.004822706338018179,-0.013779183849692345,0.009713787585496902,-0.0004227259196341038,0.015491780824959278
0.018386924639344215,0.004881704691797495,-0.013251337222754955,0.010225517675280571,-0.00040507499943487346,0.015577847138047218
0.0185615923255682,0.004572492558509111,-0.014136516489088535,0.010507052764296532,-0.00047979794908314943,0.015503708273172379
0.018576111644506454,0.004575700033456087,-0.013507715426385403,0.010120339691638947,-0.0004830460238736123,0.015737466514110565
0.01827317662537098,0.004473697394132614,-0.014148593880236149,0.010733058676123619,-0.0004790427628904581,0.015931623056530952
0.018859008327126503,0.00453275628387928,-0.01364416629076004,0.010385711677372456,-0.00047800925676710904,0.015759674832224846
0.018859008327126503,0.00453275628387928,-0.01364416629076004,0.010385711677372456,-0.00047800925676710904,0.015759674832224846
0.018415475264191628,0.0045057740062475204,-0.013568851165473461,0.010980415157973766,-0.0005022721015848219,0.01607082225382328
0.018922163173556328,0.00473059481009841,-0.014443418942391872,0.010212510824203491,-0.000593364704400301,0.017847497016191483
0.018522711470723152,0.005270299967378378,-0.013964974321424961,0.010576551780104637,-0.0006148340180516243,0.016117990016937256
0.01865815557539463,0.004782612435519695,-0.014184877276420593,0.010498046875,-0.0005974897067062557,0.015971114858984947
0.01913539506494999,0.0045370240695774555,-0.013695178553462029,0.010505021549761295,-0.0006184933008626103,0.01635861024260521
0.018903344869613647,0.004470197483897209,-0.014198881573975086,0.011248938739299774,-0.0006329627940431237,0.016693895682692528
0.01897410675883293,0.004636505618691444,-0.0144063550978899,0.01071864552795887,-0.0005994681268930435,0.01674295961856842
0.019232312217354774,0.004734366200864315,-0.014906295575201511,0.010247176513075829,-0.0006188027909956872,0.016996201127767563
0.018955620005726814,0.004818886984139681,-0.014975875616073608,0.010766483843326569,-0.0006012035300955176,0.016989784315228462
0.019117921590805054,0.005098306108266115,-0.014785497449338436,0.01022582221776247,-0.0005340259522199631,0.01716637797653675
0.019040299579501152,0.0044823382049798965,-0.014342468231916428,0.010449805296957493,-0.000477534718811512,0.016703147441148758
0.019100623205304146,0.004034493118524551,-0.014674545265734196,0.01032723393291235,-0.0005117713590152562,0.016223803162574768
0.019268518313765526,0.004396709613502026,-0.014377584680914879,0.009774052537977695,-0.00047220857231877744,0.01599343679845333
0.01973598077893257,0.005116848275065422,-0.014744720421731472,0.010493816807866096,-0.0004345203924458474,0.0164249949157238
0.019357047975063324,0.004890910349786282,-0.01439544465392828,0.01103285513818264,-0.0004644520813599229,0.017004160210490227
0.01929299160838127,0.004630676470696926,-0.014786981977522373,0.010379753075540066,-0.00043633292079903185,0.01764577254652977
0.019176196306943893,0.0047426000237464905,-0.014221085235476494,0.010678628459572792,-0.0004625608853530139,0.01754193753004074
0.01895223930478096,0.004486869089305401,-0.013712456449866295,0.010845587588846684,-0.00043796750833280385,0.016753114759922028
0.01921183243393898,0.004424439277499914,-0.014575369656085968,0.009913502261042595,-0.00041306501952931285,0.016787998378276825
0.01968604512512684,0.004501550458371639,-0.01517290435731411,0.010308319702744484,-0.00039162885514087975,0.01675484888255596
0.019593244418501854,0.004586240276694298,-0.014124360866844654,0.010643141344189644,-0.00034614786272868514,0.01751088909804821
0.018828624859452248,0.004877056926488876,-0.014504588209092617,0.00998892541974783,-0.0003204690874554217,0.017252091318368912
0.01946617290377617,0.004732893779873848,-0.014183823019266129,0.010549205355346203,-0.0002990892971865833,0.016939274966716766
0.01960041932761669,0.004381084349006414,-0.014833561144769192,0.010260432958602905,-0.00028043659403920174,0.016920171678066254
0.019640615209937096,0.004352946300059557,-0.014262390322983265,0.009765295311808586,-0.0003131082921754569,0.016437770798802376
0.019640615209937096,0.004352946300059557,-0.014262390322983265,0.009765295311808586,-0.0003131082921754569,0.016437770798802376
0.019335182383656502,0.004581049084663391,-0.015092936344444752,0.010583428665995598,-0.00029897294007241726,0.016429860144853592
0.019123651087284088,0.004651447758078575,-0.014695096760988235,0.010066376999020576,-0.0002834828628692776,0.016764255240559578
0.019370973110198975,0.005082139745354652,-0.01429466251283884,0.010541270487010479,-0.0002985422615893185,0.017673684284090996
0.019426295533776283,0.00501466728746891,-0.014956209808588028,0.010071936063468456,-0.00028568145353347063,0.017258066684007645
0.019359705969691277,0.004443973768502474,-0.014493636786937714,0.010445062071084976,-0.00030970986699685454,0.017903771251440048
0.01899528317153454,0.0044310437515378,-0.014940068125724792,0.010943054221570492,-0.00029921290115453303,0.016819963231682777
0.019985148683190346,0.004929810296744108,-0.014256701804697514,0.010174738243222237,-0.00028742168797180057,0.01648000255227089
0.01983412355184555,0.00487153185531497,-0.015110478736460209,0.010373491793870926,-0.0002995296672452241,0.017016125842928886
0.020019931718707085,0.004854652099311352,-0.014434833079576492,0.010813271626830101,-0.00030178437009453773,0.017360549420118332
0.019745660945773125,0.004928759299218655,-0.01511169783771038,0.010575171560049057,-0.00031183206010609865,0.01789005845785141
0.01957176998257637,0.004731057211756706,-0.014338466338813305,0.01120760291814804,-0.00031895498977974057,0.017614537850022316
0.019701853394508362,0.0041169277392327785,-0.015046963468194008,0.010728876106441021,-0.00033994505065493286,0.017358066514134407
0.02021786943078041,0.004323978908360004,-0.014521610923111439,0.010912512429058552,-0.0003336959343869239,0.01802569255232811
0.020004961639642715,0.004285085014998913,-0.015127945691347122,0.011076903901994228,-0.00035112249315716326,0.017640013247728348
0.019823331385850906,0.0049547357484698296,-0.014879870228469372,0.011155364103615284,-0.0003455013211350888,0.017757635563611984
0.020450064912438393,0.004965303931385279,-0.015089025720953941,0.010235014371573925,-0.0005310280830599368,0.018215136602520943
0.02047950029373169,0.0047202636487782,-0.014497893862426281,0.010442313738167286,-0.0005789828719571233,0.018170110881328583
0.020103104412555695,0.004385799635201693,-0.015057815238833427,0.010610791854560375,-0.0006050668307580054,0.018119337037205696
0.02069246396422386,0.004177513066679239,-0.01492771040648222,0.010899106971919537,-0.000561830005608499,0.018025528639554977
0.02088809944689274,0.004827617201954126,-0.015079018659889698,0.01107884757220745,-0.0005164343165233731,0.018165811896324158
0.020674459636211395,0.004516447428613901,-0.014921247027814388,0.011264869943261147,-0.0005406880518421531,0.018394077196717262
0.02062612771987915,0.004582528956234455,-0.015138347633183002,0.010764606297016144,-0.0005067493766546249,0.018293771892786026
0.02077101171016693,0.004471354652196169,-0.01538220513612032,0.010754343122243881,-0.0005588934873230755,0.018097998574376106
0.020455608144402504,0.004156487062573433,-0.015283804386854172,0.010926324874162674,-0.0005843472899869084,0.017942462116479874
0.02030140720307827,0.0044088708236813545,-0.015559444203972816,0.011564332991838455,-0.000548683397937566,0.018010344356298447
0.020968396216630936,0.004562695510685444,-0.014939635992050171,0.011365065351128578,-0.0005711387493647635,0.018337339162826538
0.021086281165480614,0.004362436011433601,-0.015150049701333046,0.011392663232982159,-0.0005326532409526408,0.019009772688150406
0.02074010856449604,0.004368768073618412,-0.014736139215528965,0.011213302612304688,-0.0005569659406319261,0.018900521099567413
0.02098083309829235,0.004342388827353716,-0.015528569929301739,0.010958255268633366,-0.0005209429073147476,0.018833909183740616
0.021386878564953804,0.004484508652240038,-0.015431712381541729,0.010728536173701286,-0.0005692642880603671,0.017780708149075508
0.021386878564953804,0.004484508652240038,-0.015431712381541729,0.010728536173701286,-0.0005692642880603671,0.017780708149075508
0.0211347583681345,0.004558808635920286,-0.014680730178952217,0.010937429964542389,-0.0005561535945162177,0.018701130524277687
0.021065713837742805,0.004676785320043564,-0.015371190384030342,0.011193384416401386,-0.000547642819583416,0.018163498491048813
0.021462690085172653,0.004684277810156345,-0.015339723788201809,0.011250250041484833,-0.0005379216745495796,0.018236828967928886
0.02161085046827793,0.004789042752236128,-0.01587188057601452,0.011553705669939518,-0.0005591893568634987,0.018817609176039696
0.02127462811768055,0.0048390901647508144,-0.015575713478028774,0.011253970675170422,-0.000526773335877806,0.01830773428082466
0.021333061158657074,0.004781598690897226,-0.01597844436764717,0.011255883611738682,-0.0005694869323633611,0.018935201689600945
0.02176538296043873,0.00430137338116765,-0.015997830778360367,0.011642713099718094,-0.0006063117762096226,0.018964430317282677
0.02193562313914299,0.004376460798084736,-0.015299037098884583,0.011152788996696472,-0.0005566697800531983,0.019349396228790283
0.022016895934939384,0.004507831297814846,-0.015938010066747665,0.01160262618213892,-0.0005835203919559717,0.018632829189300537
0.021962396800518036,0.004541147034615278,-0.015587517991662025,0.011526396498084068,-0.0006102561019361019,0.0184019785374403
0.022419096902012825,0.004691580776125193,-0.016393311321735382,0.011155204847455025,-0.0007213149801827967,0.018291153013706207
0.021459827199578285,0.004312422126531601,-0.015347080305218697,0.011514406651258469,-0.0007317460258491337,0.01814178377389908
0.021197527647018433,0.004348936025053263,-0.0158922728151083,0.01106059830635786,-0.0006968557718209922,0.018714124336838722
0.021782342344522476,0.004519638605415821,-0.015822703018784523,0.011875491589307785,-0.0007164051057770848,0.019202856346964836
0.02241452783346176,0.004537166561931372,-0.01617325469851494,0.011629791930317879,-0.0007168104639276862,0.019892971962690353
0.022344401106238365,0.004695817828178406,-0.01626754365861416,0.011175035499036312,-0.000671200396027416,0.019943449646234512
0.02198079787194729,0.004462236072868109,-0.016390351578593254,0.011433112435042858,-0.0006523050251416862,0.01970275305211544
0.02227053977549076,0.004364602267742157,-0.0166745837777853,0.011327637359499931,-0.0006022593006491661,0.01968730054795742
0.022860508412122726,0.004178311675786972,-0.016335943713784218,0.011378709226846695,-0.0006247670389711857,0.019507164135575294
0.022980822250247,0.0043981121852993965,-0.016614263877272606,0.011959114111959934,-0.000571148470044136,0.019504083320498466
0.022624202072620392,0.004218554124236107,-0.016213156282901764,0.01129723060876131,-0.0005587405757978559,0.01999659650027752
0.02235335484147072,0.004461310338228941,-0.016547536477446556,0.012032642960548401,-0.0005477376980707049,0.019737016409635544
0.0220705084502697,0.004591470584273338,-0.016865428537130356,0.011757543310523033,-0.00050616409862414,0.019357949495315552
0.022477032616734505,0.004215078428387642,-0.016907744109630585,0.012241708114743233,-0.0005308656836859882,0.01963593065738678
0.023665981367230415,0.004233254585415125,-0.017586132511496544,0.01173458993434906,-0.0004981855163350701,0.02004728652536869
0.02304779924452305,0.004168051760643721,-0.016121411696076393,0.011272513307631016,-0.0004661778802983463,0.02001861296594143
0.022488584741950035,0.00439695967361331,-0.01698112301528454,0.0119887450709939,-0.00043750356417149305,0.019975176081061363
0.022488584741950035,0.00439695967361331,-0.01698112301528454,0.0119887450709939,-0.00043750356417149305,0.019975176081061363
0.023603636771440506,0.004567409865558147,-0.016891101375222206,0.0116709154099226,-0.0003407762269489467,0.019192375242710114
0.023603636771440506,0.004567409865558147,-0.016891101375222206,0.0116709154099226,-0.0003407762269489467,0.019192375242710114
0.02336079441010952,0.004269803408533335,-0.016427744179964066,0.01152723841369152,-0.00037567419349215925,0.019843248650431633
0.023356668651103973,0.004322453401982784,-0.017104322090744972,0.01227277796715498,-0.0003548209788277745,0.020209383219480515
0.023128174245357513,0.004204043187201023,-0.0170432236045599,0.011947780847549438,-0.00033316819462925196,0.02009919285774231
0.023624476045370102,0.004431706853210926,-0.016484908759593964,0.012178945355117321,-0.0003138151369057596,0.02006586641073227
0.023951511830091476,0.004660614766180515,-0.0147813456133008,0.012017223984003067,-0.0003206644323654473,0.019956031814217567
0.02393004298210144,0.004849370568990707,-0.017360728234052658,0.011865425854921341,-0.00032632870716042817,0.0198636706918478
0.023544667288661003,0.004555468447506428,-0.017663396894931793,0.011847139336168766,-0.00031163953826762736,0.020428912714123726
0.02363329380750656,0.004517189227044582,-0.016278883442282677,0.011900835670530796,-0.00029703695327043533,0.020585160702466965
0.023718783631920815,0.004592625889927149,-0.016872094944119453,0.013136416673660278,-0.00028366592596285045,0.0202189814299345
0.02426321990787983,0.004612565040588379,-0.016993338242173195,0.012661827728152275,-0.0003075725689996034,0.020573172718286514
0.024156691506505013,0.004493027459830046,-0.017081037163734436,0.01294627320021391,-0.00029722944600507617,0.02057495526969433
0.02422543801367283,0.004392858594655991,-0.01658630557358265,0.012546936981379986,-0.0002919499238487333,0.020374193787574768
0.023899996653199196,0.005060272756963968,-0.016099432483315468,0.012856782414019108,-0.0002802825765684247,0.020536381751298904
0.024039771407842636,0.004896964877843857,-0.016992978751659393,0.01260039396584034,-0.0002899787505157292,0.020748501643538475
0.0242584478110075,0.004875752609223127,-0.017018407583236694,0.012223274447023869,-0.0002977588155772537,0.020738139748573303
0.02444450743496418,0.004614229779690504,-0.016988011077046394,0.012379494495689869,-0.0002836701169144362,0.020609142258763313
0.024462958797812462,0.00426518265157938,-0.017005277797579765,0.01230619940906763,-0.00030276161851361394,0.020755918696522713
0.024608993902802467,0.004434669855982065,-0.016627971082925797,0.012837589718401432,-0.0002988144988194108,0.020774338394403458
0.023969827219843864,0.004614176228642464,-0.01726793497800827,0.012822478078305721,-0.00031610269797965884,0.021167315542697906
0.024340026080608368,0.004840221256017685,-0.016398901119828224,0.012576804496347904,-0.0003119399189017713,0.02118603140115738
0.02460365742444992,0.004669215530157089,-0.016885844990611076,0.012918212451040745,-0.0002995813556481153,0.021079260855913162
0.025197632610797882,0.004775605164468288,-0.017384923994541168,0.012359178625047207,-0.0004179504176136106,0.021019434556365013
0.02501225657761097,0.0046905409544706345,-0.01744454726576805,0.0124807832762599,-0.0004001608758699149,0.021124759688973427
0.024448949843645096,0.0046782963909208775,-0.01778753288090229,0.012324316427111626,-0.00040430406806990504,0.021954933181405067
0.023771900683641434,0.004414445720613003,-0.016800254583358765,0.012533624656498432,-0.00040644215187057853,0.021304579451680183
0.023771900683641434,0.004414445720613003,-0.016800254583358765,0.012533624656498432,-0.00040644215187057853,0.021304579451680183
0.02560989186167717,0.004413832910358906,-0.017204664647579193,0.012625403702259064,-0.0003799626720137894,0.020849129185080528
0.02441498264670372,0.004733330104500055,-0.017753344029188156,0.012945798225700855,-0.0003876974224112928,0.021403374150395393
0.025341607630252838,0.004948090296238661,-0.0180861484259367,0.012050611898303032,-0.0003915202687494457,0.021888628602027893
0.025629017502069473,0.004717019386589527,-0.017204441130161285,0.012263861484825611,-0.0003936756984330714,0.0224941186606884
0.02551131136715412,0.004491329193115234,-0.017426330596208572,0.011740914545953274,-0.00037472238182090223,0.022210244089365005
0.02569858357310295,0.0045212930999696255,-0.01774410903453827,0.012232610955834389,-0.0004145618004258722,0.022039182484149933
0.02499265782535076,0.004842975176870823,-0.017340105026960373,0.011975890025496483,-0.0003882619203068316,0.021244894713163376
0.025191836059093475,0.0046832324005663395,-0.0176128838211298,0.011652417480945587,-0.00035797161399386823,0.021230390295386314
0.025829249992966652,0.00542353093624115,-0.0174882709980011,0.012668918818235397,-0.00038033557939343154,0.021307334303855896
0.02605484053492546,0.0051083811558783054,-0.0176257137209177,0.011899271979928017,-0.00036945787724107504,0.02199186384677887
0.02534196339547634,0.004457911476492882,-0.01761903427541256,0.012440867722034454,-0.00034671666799113154,0.021893193945288658
0.025472652167081833,0.004416486248373985,-0.017198149114847183,0.01235742587596178,-0.00032584916334599257,0.0221173707395792
0.02544369548559189,0.004683030303567648,-0.01759210042655468,0.012589314952492714,-0.00035160750849172473,0.022049974650144577
0.02595060132443905,0.004726551007479429,-0.018284110352396965,0.012547953054308891,-0.000338757032295689,0.02219625562429428
0.026270803064107895,0.004794382955878973,-0.018096812069416046,0.012546123936772346,-0.0003442750603426248,0.02257981151342392
0.026114806532859802,0.004728995729237795,-0.01846591755747795,0.012866289354860783,-0.0003484278859104961,0.02199581265449524
0.026272546499967575,0.004391837865114212,-0.01706397347152233,0.012687135487794876,-0.000334734475472942,0.021700948476791382
0.026325758546590805,0.004018494393676519,-0.017287923023104668,0.013265217654407024,-0.0003535900905262679,0.0216665118932724
0.02622431516647339,0.00439089722931385,-0.01764070801436901,0.013005922548472881,-0.00038767550722695887,0.021787861362099648
0.02653421089053154,0.004652200732380152,-0.017485668882727623,0.013350576162338257,-0.00036914469092153013,0.022659670561552048
0.026050785556435585,0.004668445326387882,-0.018350599333643913,0.012629848904907703,-0.0003958477173000574,0.02278108336031437
0.026127947494387627,0.005204762332141399,-0.01803685910999775,0.0128712747246027,-0.00037887567305006087,0.022143982350826263
0.0265714842826128,0.004972219001501799,-0.01757204905152321,0.013104075565934181,-0.00040537776658311486,0.022008949890732765
0.02665652707219124,0.00448271818459034,-0.01796720176935196,0.0132735101506114,-0.0005761781940236688,0.02191496454179287
0.026957837864756584,0.004502250347286463,-0.017692409455776215,0.01354606356471777,-0.0005666213692165911,0.02289075218141079
0.027128932997584343,0.005128237418830395,-0.018746796995401382,0.013318219222128391,-0.0006008282653056085,0.022041892632842064
0.027128932997584343,0.005128237418830395,-0.018746796995401382,0.013318219222128391,-0.0006008282653056085,0.022041892632842064
0.027269627898931503,0.00510721281170845,-0.018324624747037888,0.013322299346327782,-0.0005463730776682496,0.021789535880088806
0.027080053463578224,0.004982545971870422,-0.018227700144052505,0.012828788720071316,-0.0005364218959584832,0.022142499685287476
0.027615226805210114,0.004943151492625475,-0.01809820905327797,0.013359692879021168,-0.0005563737358897924,0.02272588014602661
0.027119886130094528,0.0047036646865308285,-0.017978912219405174,0.013347410596907139,-0.0006003290764056146,0.0227382592856884
0.027126215398311615,0.004578544292598963,-0.018496699631214142,0.012793054804205894,-0.0005422693793661892,0.022663727402687073
0.027328329160809517,0.005015516187995672,-0.018620328977704048,0.012840744107961655,-0.0005554645322263241,0.02250084839761257
0.02759501524269581,0.005013061221688986,-0.018852245062589645,0.013138480484485626,-0.0005233627744019032,0.02264215052127838
0.02767624519765377,0.004916544072329998,-0.018827375024557114,0.013276683166623116,-0.0005168917705304921,0.022645341232419014
0.02718641236424446,0.005098479334264994,-0.018355730921030045,0.013386107981204987,-0.0005100591806694865,0.022548336535692215
0.02768956497311592,0.004605107009410858,-0.018477067351341248,0.013094622641801834,-0.00047395797446370125,0.022623255848884583
0.028137082234025,0.004488654434680939,-0.018685419112443924,0.013214674778282642,-0.0004994786577299237,0.02274233289062977
0.02784084342420101,0.004481707699596882,-0.018139829859137535,0.013268982991576195,-0.00047064543468877673,0.02272031269967556
0.027563773095607758,0.005027082748711109,-0.019072189927101135,0.013850554823875427,-0.0004519392969086766,0.022750766947865486
0.026412613689899445,0.005097910761833191,-0.01885068044066429,0.012989078648388386,-0.0004215491353534162,0.023304153233766556
0.026945510879158974,0.004752614535391331,-0.018307238817214966,0.01325050089508295,-0.0004526982957031578,0.023450713604688644
0.028379375115036964,0.0046456484124064445,-0.018610240891575813,0.012986796908080578,-0.0004260633431840688,0.023236680775880814
0.027534058317542076,0.004697524011135101,-0.018494948744773865,0.013601118698716164,-0.0004274035745766014,0.022367160767316818
0.02755376696586609,0.004484652075916529,-0.018292373046278954,0.013173172250390053,-0.00042767220293171704,0.02204425260424614
0.02884507365524769,0.004310018382966518,-0.018468495458364487,0.013603354804217815,-0.0004302207089494914,0.022238440811634064
0.028503715991973877,0.004902414977550507,-0.018127597868442535,0.013720867224037647,-0.0004303386667743325,0.023141127079725266
0.028108922764658928,0.004907605703920126,-0.01883763074874878,0.013431625440716743,-0.00047573045594617724,0.02347300946712494
0.027493063360452652,0.004711838439106941,-0.01931919902563095,0.013670387677848339,-0.0004898828337900341,0.02315523847937584
0.02757585234940052,0.004527214914560318,-0.017976325005292892,0.013770624063909054,-0.0005224052583798766,0.023254873231053352
0.028121985495090485,0.004390603397041559,-0.01813494972884655,0.01407163217663765,-0.0005252153496257961,0.02378016710281372
0.028091512620449066,0.004484590608626604,-0.01882261037826538,0.013497170060873032,-0.0005182049353606999,0.023404957726597786
0.028265733271837234,0.004637997131794691,-0.018300270661711693,0.013761506415903568,-0.0005314634181559086,0.02269347570836544
0.02816665731370449,0.0052462369203567505,-0.018963847309350967,0.013888413086533546,-0.0005098793189972639,0.022498777136206627
0.028335031121969223,0.005093426909297705,-0.019292257726192474,0.014103394001722336,-0.0006207882543094456,0.02317868545651436
0.02836522087454796,0.004837316926568747,-0.018662679940462112,0.01370082888752222,-0.000651486509013921,0.0228525809943676
0.028844090178608894,0.004754643887281418,-0.018376193940639496,0.013852923177182674,-0.0005784263485111296,0.024266881868243217
0.028222333639860153,0.005360589362680912,-0.01825725845992565,0.013864455744624138,-0.0005653161788359284,0.02391166053712368
0.028013959527015686,0.004849190358072519,-0.01867763325572014,0.013185215182602406,-0.0005210679955780506,0.02383330836892128
0.028013959527015686,0.004849190358072519,-0.01867763325572014,0.013185215182602406,-0.0005210679955780506,0.02383330836892128
0.02815396897494793,0.004587705247104168,-0.018391691148281097,0.013563234359025955,-0.0005407308926805854,0.02363552711904049
0.028098607435822487,0.004902215674519539,-0.018945764750242233,0.013366813771426678,-0.0005104681476950645,0.023766187950968742
0.02829558029770851,0.005036851391196251,-0.018726082518696785,0.013930847868323326,-0.000477149966172874,0.02358214743435383
0.026998070999979973,0.004471214953809977,-0.018369160592556,0.013614051043987274,-0.0004523368552327156,0.023794202134013176
0.028948316350579262,0.004462191369384527,-0.018540844321250916,0.01407737284898758,-0.00041826936649158597,0.02388271503150463
0.029139945283532143,0.005116177257150412,-0.01874851994216442,0.014006287790834904,-0.000439325871411711,0.02379494346678257
0.02879250794649124,0.004902420099824667,-0.017829235643148422,0.014378160238265991,-0.00047420334885828197,0.02374611422419548
0.028310228139162064,0.004184462130069733,-0.01859186589717865,0.013773811981081963,-0.000505129573866725,0.02409721165895462
0.028206704184412956,0.00421647634357214,-0.018691696226596832,0.014044334180653095,-0.000489054131321609,0.023902345448732376
0.02829054370522499,0.004575097933411598,-0.01847529411315918,0.01390091236680746,-0.0007216903613880277,0.0241840947419405
0.03016321174800396,0.004545920062810183,-0.018549103289842606,0.01392342522740364,-0.0006395913078449667,0.02485473081469536
0.029803264886140823,0.004630494862794876,-0.01880302093923092,0.014084037393331528,-0.0006146643427200615,0.024159755557775497
0.029098445549607277,0.004643286112695932,-0.018955497071146965,0.014947166666388512,-0.0005947239114902914,0.024121755734086037
0.027975667268037796,0.004546638112515211,-0.019152140244841576,0.014163895510137081,-0.0005384887335821986,0.024595171213150024
0.02876906283199787,0.004595239646732807,-0.018643418326973915,0.0142220975831151,-0.0005655592540279031,0.024641914293169975
0.029553646221756935,0.004592991899698973,-0.019117115065455437,0.014666191302239895,-0.0005596840055659413,0.024824418127536774
0.029268279671669006,0.004555444233119488,-0.019541924819350243,0.01470098178833723,-0.0005501604755409062,0.024916836991906166
0.029586702585220337,0.004687327425926924,-0.018864525482058525,0.014120392501354218,-0.0005131087964400649,0.02498406171798706
0.030077476054430008,0.004737135022878647,-0.017940789461135864,0.014295290224254131,-0.0004610974283423275,0.024636080488562584
0.03044729493558407,0.004909443203359842,-0.019529907032847404,0.014564258977770805,-0.00045480026165023446,0.024198049679398537
0.02923813834786415,0.004587553441524506,-0.01966063864529133,0.014465872198343277,-0.0004526359844021499,0.02488008327782154
0.029549555853009224,0.004399244673550129,-0.019205443561077118,0.015248291194438934,-0.0004801786271855235,0.025168783962726593
0.030332475900650024,0.004949419759213924,-0.019992345944046974,0.015068707056343555,-0.00045394300832413137,0.025533325970172882
0.03044009953737259,0.004506730940192938,-0.019351495429873466,0.015004877932369709,-0.0004762525495607406,0.025839945301413536
0.03022514469921589,0.004546080715954304,-0.019153349101543427,0.014745756052434444,-0.00045342560042627156,0.02523787133395672
0.030169116333127022,0.004278644919395447,-0.019368544220924377,0.013888240791857243,-0.000428855128120631,0.025528529658913612
0.030267253518104553,0.004516891669481993,-0.019324777647852898,0.013887563720345497,-0.00047750509111210704,0.025388294830918312
0.02874470315873623,0.0045605916529893875,-0.019905216991901398,0.014372032135725021,-0.0004954456817358732,0.02614111267030239
0.02874470315873623,0.0045605916529893875,-0.019905216991901398,0.014372032135725021,-0.0004954456817358732,0.02614111267030239
0.030455773696303368,0.0046808491460978985,-0.019570456817746162,0.014650149270892143,-0.00047167474986054003,0.025066658854484558
0.030610499903559685,0.004379608668386936,-0.018711376935243607,0.015147419646382332,-0.0004349339578766376,0.024638565257191658
0.030569255352020264,0.0042724646627902985,-0.01979224756360054,0.015436084009706974,-0.0004518521891441196,0.025803202763199806
0.030531352385878563,0.0041417935863137245,-0.01994280517101288,0.015273598954081535,-0.00043590052518993616,0.026510540395975113
0.030454080551862717,0.004441448953002691,-0.01981557533144951,0.014618687331676483,-0.00045157954446040094,0.025802433490753174
0.030839230865240097,0.0046004061587154865,-0.01997516117990017,0.015087698586285114,-0.0004375965800136328,0.024719903245568275
0.030928973108530045,0.004399161320179701,-0.019997702911496162,0.014895002357661724,-0.00044780035386793315,0.025479266420006752
0.031614892184734344,0.004575423896312714,-0.018636761233210564,0.015356984920799732,-0.0004897874314337969,0.02645931765437126
0.031378526240587234,0.0047204443253576756,-0.019636819139122963,0.015031591057777405,-0.0005193020915612578,0.025663970038294792
0.03178335726261139,0.004931617993861437,-0.020132746547460556,0.015082412399351597,-0.0005485411966219544,0.02593633532524109
0.03157215937972069,0.0043966444209218025,-0.019950658082962036,0.014773895964026451,-0.000717288174200803,0.027438873425126076
0.03136398643255234,0.004034971818327904,-0.0200232844799757,0.015372375026345253,-0.0008550049969926476,0.02730521559715271
0.03164828196167946,0.0038897781632840633,-0.020151732489466667,0.014999767765402794,-0.0008048767922446132,0.02602335996925831
0.03174370154738426,0.004372316878288984,-0.019624797627329826,0.015688056126236916,-0.0008054005447775126,0.025359787046909332
0.032202452421188354,0.00440280931070447,-0.019416088238358498,0.015292597003281116,-0.0008155435207299888,0.026189766824245453
0.03199709579348564,0.004262950271368027,-0.019891373813152313,0.015432008542120457,-0.0007532105664722621,0.02686583809554577
0.0325089730322361,0.004339736886322498,-0.020118748769164085,0.015183595009148121,-0.0007434815051965415,0.026583319529891014
0.03271558880805969,0.004460149444639683,-0.019741475582122803,0.015512357465922832,-0.0007635269430465996,0.026704661548137665
0.03277367725968361,0.004127169027924538,-0.01998557150363922,0.015627175569534302,-0.0007727439515292645,0.02673029713332653
0.032634664326906204,0.00441986508667469,-0.020253058522939682,0.015276577323675156,-0.0007863950449973345,0.026472434401512146
0.03381922096014023,0.00452606612816453,-0.019844869151711464,0.015423281118273735,-0.0007266465108841658,0.026510518044233322
0.03348339721560478,0.004625365138053894,-0.019862661138176918,0.01539394911378622,-0.0007428380777128041,0.026694709435105324
0.031211720779538155,0.004746225196868181,-0.020044522359967232,0.01569187082350254,-0.0007644424331374466,0.027034854516386986
0.03339303657412529,0.004769069608300924,-0.01983453705906868,0.015060889534652233,-0.0007736525731161237,0.026652565225958824
0.0338158905506134,0.0041383905336260796,-0.019818494096398354,0.015098954550921917,-0.0007742220186628401,0.026545094326138496
0.032952241599559784,0.0039082965813577175,-0.020290512591600418,0.014980529434978962,-0.0007200324325822294,0.026906877756118774
0.034177180379629135,0.004073958843946457,-0.020423168316483498,0.015364386141300201,-0.0007407210068777204,0.02726536989212036
0.034073252230882645,0.004566347226500511,-0.02008792757987976,0.014793112874031067,-0.000744332792237401,0.027379583567380905
0.034073252230882645,0.004566347226500511,-0.02008792757987976,0.014793112874031067,-0.000744332792237401,0.027379583567380905
0.03294990211725235,0.004632072057574987,-0.020475521683692932,0.01523786224424839,-0.0007344622863456607,0.027332443743944168
0.034439265727996826,0.004382190760225058,-0.019520068541169167,0.015675794333219528,-0.0007192725315690041,0.027400914579629898
0.03404361382126808,0.004256895277649164,-0.020144041627645493,0.015320470556616783,-0.0007545527769252658,0.027262836694717407
0.034250397235155106,0.004030574578791857,-0.020214010030031204,0.015207675285637379,-0.0007755475817248225,0.027154337614774704
0.03421613574028015,0.0041615888476371765,-0.02027827501296997,0.014648283831775188,-0.0007061170181259513,0.026735985651612282
0.033379022032022476,0.004178221803158522,-0.020530177280306816,0.015286128968000412,-0.0007228685426525772,0.026836659759283066
0.034034017473459244,0.004351377487182617,-0.02122361585497856,0.015685614198446274,-0.0007224745349958539,0.027445359155535698
0.034627147018909454,0.004585224203765392,-0.020801851525902748,0.01588613912463188,-0.0006759997340850532,0.02779233641922474
0.03440522029995918,0.004649645648896694,-0.020678799599409103,0.015616792254149914,-0.0006558996974490583,0.027351832017302513
0.033868830651044846,0.0043839216232299805,-0.02075144834816456,0.015334315598011017,-0.0006048314971849322,0.02674093283712864
0.03402547165751457,0.004033694043755531,-0.020549794659018517,0.015772270038723946,-0.0006343416753225029,0.02603568136692047
0.03393900394439697,0.003906496800482273,-0.020559296011924744,0.015595945529639721,-0.0006557600572705269,0.026993241161108017
0.03477835655212402,0.004312074277549982,-0.021013570949435234,0.016154034063220024,-0.0006460410077124834,0.027605226263403893
0.034392815083265305,0.0046220459043979645,-0.02099444530904293,0.015741800889372826,-0.0006280621746554971,0.027815351262688637
0.03294531628489494,0.004866056609898806,-0.021576013416051865,0.01639997959136963,-0.000700605392921716,0.028125667944550514
0.034702036529779434,0.005047814454883337,-0.021514892578125,0.015828276053071022,-0.0007400786853395402,0.027834981679916382
0.035968076437711716,0.004817336332052946,-0.021653885021805763,0.015830393880605698,-0.0008129141060635448,0.027725843712687492
0.03622863441705704,0.004410497844219208,-0.02189071662724018,0.01575644314289093,-0.000778981193434447,0.026637624949216843
0.034110818058252335,0.004534851759672165,-0.021859576925635338,0.015322074294090271,-0.0008947132155299187,0.026593293994665146
0.03393029049038887,0.004731636960059404,-0.02080519124865532,0.0154963294044137,-0.0008781364886090159,0.027890773490071297
0.03553219512104988,0.005074182525277138,-0.021208947524428368,0.01548747532069683,-0.0008155126124620438,0.02854626439511776
0.035334642976522446,0.005030435975641012,-0.021888982504606247,0.01633365824818611,-0.0007985935662873089,0.028411636129021645
0.0360659696161747,0.005106516182422638,-0.022270359098911285,0.01613490656018257,-0.0007824404747225344,0.02802618406713009
0.03567569702863693,0.0048710256814956665,-0.021926723420619965,0.01605616696178913,-0.0007477669278159738,0.027880704030394554
0.034758709371089935,0.004951932467520237,-0.021543821319937706,0.015840081498026848,-0.0006917304708622396,0.028237633407115936
0.0347498320043087,0.004730544984340668,-0.021807901561260223,0.0164379570633173,-0.0007077669724822044,0.028403624892234802
0.03572512045502663,0.004852732177823782,-0.02215765416622162,0.01671394146978855,-0.0007297656266018748,0.02840622328221798
0.035623785108327866,0.0054044052958488464,-0.02168462611734867,0.016750523820519447,-0.0007116347551345825,0.028565652668476105
0.03564082086086273,0.004817580804228783,-0.022338276728987694,0.015937594696879387,-0.0006342351553030312,0.028615280985832214
0.035393260419368744,0.0047815884463489056,-0.0224782545119524,0.016774185001850128,-0.0006682185339741409,0.02845269814133644
0.035393260419368744,0.0047815884463489056,-0.0224782545119524,0.016774185001850128,-0.0006682185339741409,0.02845269814133644
0.03565382584929466,0.00488918786868453,-0.021994885057210922,0.016027431935071945,-0.0006981586338952184,0.0290707778185606
0.03562254458665848,0.0048377858474850655,-0.021738210693001747,0.016681866720318794,-0.0007214788347482681,0.02803637646138668
0.035420890897512436,0.005174410995095968,-0.022425556555390358,0.015619749203324318,-0.0007336943526752293,0.028565021231770515
0.035676419734954834,0.005055265035480261,-0.022702038288116455,0.01588471233844757,-0.0008678104495629668,0.028714265674352646
0.036195460706949234,0.0043564969673752785,-0.022655488923192024,0.017025157809257507,-0.0008852705941535532,0.02871219627559185
0.03646083548665047,0.004255982115864754,-0.022072503343224525,0.016959143802523613,-0.0008712330018170178,0.028966285288333893
0.03604693338274956,0.004675795324146748,-0.02229963429272175,0.017492394894361496,-0.0008455693605355918,0.02883795276284218
0.036887750029563904,0.004768843296915293,-0.023294717073440552,0.0174297746270895,-0.0008014784543775022,0.029068568721413612
0.036614350974559784,0.005067020189017057,-0.023037537932395935,0.01739685982465744,-0.0008009537123143673,0.029271990060806274
0.03621804714202881,0.005019958131015301,-0.022675618529319763,0.01692705601453781,-0.0008213070686906576,0.029182393103837967
0.03655749559402466,0.004730565007776022,-0.022327285259962082,0.016543591395020485,-0.0008081912528723478,0.02892139181494713
0.037009622901678085,0.004637479316443205,-0.022842010483145714,0.016996555030345917,-0.0008175157126970589,0.028761792927980423
0.03598487377166748,0.004624201450496912,-0.02306867390871048,0.016388095915317535,-0.0007637060480192304,0.028782540932297707
0.036078017204999924,0.0050715673714876175,-0.023017307743430138,0.016434507444500923,-0.000777686305809766,0.028825968503952026
0.035969145596027374,0.005089718382805586,-0.02249458245933056,0.016402926295995712,-0.0007951593142934144,0.028840048238635063
0.03677748516201973,0.004983905702829361,-0.022392725571990013,0.016351230442523956,-0.0007005443330854177,0.02902493067085743
0.03681933879852295,0.005069853272289038,-0.022553911432623863,0.017033027485013008,-0.0007162297843024135,0.029696982353925705
0.036266326904296875,0.004944567568600178,-0.022976160049438477,0.016911327838897705,-0.0006486837519332767,0.030186982825398445
0.03641028329730034,0.004778963979333639,-0.023065663874149323,0.017330698668956757,-0.0006499526789411902,0.029411768540740013
0.03677021339535713,0.005135649349540472,-0.022353146225214005,0.017236514016985893,-0.000613533309660852,0.028437694534659386
0.03750189393758774,0.005168976727873087,-0.022479983046650887,0.01736581139266491,-0.0005661692703142762,0.028942102566361427
0.0374051034450531,0.004960326477885246,-0.02292647771537304,0.01802973262965679,-0.0005787713453173637,0.02982506901025772
0.03608265519142151,0.004739458207041025,-0.02321583591401577,0.01714198663830757,-0.0006096279248595238,0.029632577672600746
0.03725408390164375,0.005191624630242586,-0.022927027195692062,0.017200011759996414,-0.0006361955893225968,0.03032439388334751
0.036845628172159195,0.004988844972103834,-0.02248389646410942,0.01750027947127819,-0.0008584142779000103,0.030896516516804695
0.038320641964673996,0.004857207648456097,-0.022249899804592133,0.01754889078438282,-0.0009140963666141033,0.028650522232055664
0.03710043057799339,0.004849354736506939,-0.022828781977295876,0.01711576245725155,-0.0008819103240966797,0.029792528599500656
0.03643559291958809,0.004691455513238907,-0.022975267842411995,0.017526637762784958,-0.0009243740350939333,0.030715957283973694
0.03643559291958809,0.004691455513238907,-0.022975267842411995,0.017526637762784958,-0.0009243740350939333,0.030715957283973694
0.03795157000422478,0.004977509379386902,-0.022852974012494087,0.017143839970231056,-0.000996122369542718,0.030294017866253853
0.03813330456614494,0.004921826999634504,-0.022762145847082138,0.0170321986079216,-0.0009857934201136231,0.029745083302259445
0.038119543343782425,0.004611705429852009,-0.023006411269307137,0.01764555647969246,-0.0009742258698679507,0.030038125813007355
0.03904441371560097,0.004964059684425592,-0.02303384803235531,0.01724849082529545,-0.0009730844758450985,0.02990441583096981
0.03782076761126518,0.005381630267947912,-0.022306274622678757,0.017700377851724625,-0.0008876605425029993,0.030211012810468674
0.0381513386964798,0.0047186994925141335,-0.02247445471584797,0.017519067972898483,-0.00087427266407758,0.030042795464396477
0.038432542234659195,0.004517405293881893,-0.023486454039812088,0.01740780845284462,-0.0008282174821943045,0.030142026022076607
0.03770603612065315,0.004555669613182545,-0.02293386496603489,0.017916500568389893,-0.0007803527405485511,0.03028712421655655
0.03845255821943283,0.004684051498770714,-0.02301436848938465,0.01753212697803974,-0.000783064344432205,0.030372440814971924
0.038850948214530945,0.004690999630838633,-0.023078929632902145,0.01754283905029297,-0.0007249109330587089,0.030865253880620003
0.03838217258453369,0.005144238937646151,-0.0235632061958313,0.017660217359662056,-0.0006977327284403145,0.0306299589574337
0.038272321224212646,0.005015234928578138,-0.02314804121851921,0.01763174869120121,-0.0007195266662165523,0.03068878874182701
0.04012203589081764,0.004750304855406284,-0.02320805937051773,0.017828667536377907,-0.0007393242558464408,0.0306056197732687
0.03935497999191284,0.004491915460675955,-0.023209217935800552,0.017457081004977226,-0.0008781735086813569,0.030466187745332718
0.037581659853458405,0.004868232179433107,-0.02268836461007595,0.01792704500257969,-0.0009981660405173898,0.03100305050611496
0.03897958993911743,0.005280761513859034,-0.02305760234594345,0.01791948452591896,-0.0009531527757644653,0.03104386478662491
0.03855244070291519,0.0049715531058609486,-0.023532234132289886,0.01717894896864891,-0.00097543781157583,0.03101523406803608
0.0397292785346508,0.004925781395286322,-0.023459283635020256,0.01758226379752159,-0.0008960708510130644,0.03054678626358509
0.040056437253952026,0.004792347550392151,-0.02352621965110302,0.017725994810461998,-0.0008816563640721142,0.030655620619654655
0.03867514431476593,0.004961083643138409,-0.023561149835586548,0.018350115045905113,-0.0008834089967422187,0.03200758248567581
0.0381564237177372,0.004745232407003641,-0.023468928411602974,0.019340435042977333,-0.0008281571790575981,0.03177955746650696
0.04000427573919296,0.004826498683542013,-0.023221025243401527,0.018933048471808434,-0.0007798071019351482,0.030703147873282433
0.03987863287329674,0.004895347636193037,-0.023295974358916283,0.018496621400117874,-0.0007447708048857749,0.030137192457914352
0.03946057707071304,0.0048675695434212685,-0.02389702945947647,0.018161708489060402,-0.0007139382651075721,0.031125981360673904
0.03955884650349617,0.004719017073512077,-0.023758120834827423,0.01752864010632038,-0.0006491704843938351,0.03090103156864643
0.03957386687397957,0.0044862255454063416,-0.022840535268187523,0.018291670829057693,-0.0005994576495140791,0.03219945728778839
0.03970484808087349,0.0045787738636136055,-0.023503322154283524,0.019534481689333916,-0.0006293291226029396,0.031333088874816895
0.03992632031440735,0.004693466238677502,-0.023340700194239616,0.018517689779400826,-0.0006541165057569742,0.03122491016983986
0.03978022187948227,0.005205517169088125,-0.02339429222047329,0.018149206414818764,-0.0007969104335643351,0.030524665489792824
0.03978022187948227,0.005205517169088125,-0.02339429222047329,0.018149206414818764,-0.0007969104335643351,0.030524665489792824
0.040374208241701126,0.004451444372534752,-0.023112056776881218,0.0188324972987175,-0.0008193458197638392,0.03254736587405205
0.040374208241701126,0.004451444372534752,-0.023112056776881218,0.0188324972987175,-0.0008193458197638392,0.03254736587405205
0.04001826047897339,0.004233051557093859,-0.02361643686890602,0.01828990876674652,-0.0008274420979432762,0.03195733577013016
0.040075529366731644,0.004925299435853958,-0.02365466207265854,0.01827467791736126,-0.0007880689227022231,0.032147325575351715
0.039556171745061874,0.005085812881588936,-0.023667531087994576,0.01846359111368656,-0.0009016976109705865,0.03189723566174507
0.041036151349544525,0.0049668243154883385,-0.023581555113196373,0.017824921756982803,-0.000907874433323741,0.03172871470451355
0.040575575083494186,0.004731238353997469,-0.022935617715120316,0.017883483320474625,-0.000937765056733042,0.03168746829032898
0.03984528407454491,0.0045427726581692696,-0.02273978292942047,0.017665395513176918,-0.0010874515864998102,0.03216622769832611
0.04076867178082466,0.004597196355462074,-0.02357548102736473,0.017847469076514244,-0.001107658026739955,0.03226708993315697
0.04085716977715492,0.004721926990896463,-0.024799278005957603,0.019162682816386223,-0.0010154042392969131,0.03253846988081932
0.04091057926416397,0.004629466217011213,-0.02443740703165531,0.019356274977326393,-0.0009310357854701579,0.03246466815471649
0.040897972881793976,0.005013474263250828,-0.023923411965370178,0.019148044288158417,-0.0008993098745122552,0.03273893892765045
0.04065031185746193,0.004867043346166611,-0.02301919274032116,0.019517216831445694,-0.0008224615012295544,0.03286472707986832
0.04050012677907944,0.0048899599350988865,-0.024034131318330765,0.019012313336133957,-0.0007153705228120089,0.03266177326440811
0.04120339825749397,0.004809846170246601,-0.025151023641228676,0.018493102863430977,-0.0006173947476781905,0.032873935997486115
0.042518313974142075,0.004399769473820925,-0.024681176990270615,0.019044114276766777,-0.0006432574591599405,0.033262062817811966
0.04042135551571846,0.004564840812236071,-0.02384224534034729,0.018895991146564484,-0.0006512551917694509,0.03317159786820412
0.039804551750421524,0.004574971739202738,-0.024771910160779953,0.019078243523836136,-0.0006854787934571505,0.03318598121404648
0.04080305993556976,0.005203163251280785,-0.024865876883268356,0.0195122379809618,-0.0008393983589485288,0.03290243819355965
0.04132493585348129,0.005097469314932823,-0.02404371090233326,0.018945351243019104,-0.0009187073446810246,0.0322299487888813
0.043110430240631104,0.004730354528874159,-0.024995548650622368,0.01878899708390236,-0.0009289173176512122,0.03321613743901253
0.04128370061516762,0.0047303237952291965,-0.02403869666159153,0.01897330954670906,-0.0011966193560510874,0.033626921474933624
0.03989438712596893,0.004910537973046303,-0.024112027138471603,0.0188076663762331,-0.0011638583382591605,0.03357401490211487
0.04166269674897194,0.004800152033567429,-0.02539151906967163,0.01920502819120884,-0.0010556390043348074,0.0347202904522419
0.041555047035217285,0.0051246280781924725,-0.02410384640097618,0.019039833918213844,-0.0009252832969650626,0.03263203054666519
0.04163263365626335,0.004927195142954588,-0.02418404258787632,0.019078843295574188,-0.0008542014402337372,0.03238755464553833
0.041851889342069626,0.004803381860256195,-0.02466851845383644,0.019382815808057785,-0.0007453568396158516,0.03378066420555115
0.041851889342069626,0.004803381860256195,-0.02466851845383644,0.019382815808057785,-0.0007453568396158516,0.03378066420555115
0.042414840310811996,0.004979559686034918,-0.0251499991863966,0.01974310725927353,-0.0007579931989312172,0.033813394606113434
0.041922427713871,0.0048074135556817055,-0.024880336597561836,0.01957431435585022,-0.0007241338607855141,0.035205766558647156
0.04155799001455307,0.004939800128340721,-0.024736419320106506,0.019256379455327988,-0.0007390027167275548,0.0348140224814415
0.04173192381858826,0.0053790477104485035,-0.02465847134590149,0.019173013046383858,-0.0009515056735835969,0.03373577073216438
0.042340345680713654,0.005114550236612558,-0.024549027904868126,0.019170524552464485,-0.0010082528460770845,0.032736361026763916
0.043236684054136276,0.0048102340660989285,-0.024544335901737213,0.01960686966776848,-0.0010140207596123219,0.03389052301645279
0.04122239723801613,0.004776239860802889,-0.0246767345815897,0.019189391285181046,-0.0010481117060407996,0.03443548083305359
0.041454900056123734,0.005170097574591637,-0.024918055161833763,0.019241994246840477,-0.0011012587929144502,0.034299466758966446
0.0420006662607193,0.0050240508280694485,-0.02494635060429573,0.019388193264603615,-0.0010712729999795556,0.034288015216588974
0.042467791587114334,0.004930870141834021,-0.02516011893749237,0.019429730251431465,-0.0010635751532390714,0.03426945582032204
0.0438356027007103,0.0051475572399795055,-0.025301700457930565,0.01986556686460972,-0.0010198465315625072,0.034271396696567535
0.04116211459040642,0.004930616822093725,-0.02474789135158062,0.020328179001808167,-0.0010190482717007399,0.0344628281891346
0.04089268669486046,0.005401024594902992,-0.02436905726790428,0.019915316253900528,-0.001069558784365654,0.034238286316394806
0.0428096167743206,0.005025151185691357,-0.02474142238497734,0.019194474443793297,-0.0009914482943713665,0.034117721021175385
0.04326909780502319,0.005032278597354889,-0.025140734389424324,0.019669799134135246,-0.000988085987046361,0.034812718629837036
0.04251877963542938,0.005312626250088215,-0.024899417534470558,0.018819479271769524,-0.0009075214620679617,0.035358455032110214
0.042577799409627914,0.0051354593597352505,-0.024949682876467705,0.01896170899271965,-0.0008357103215530515,0.03422343358397484
0.042497605085372925,0.004851300735026598,-0.025305185467004776,0.019866887480020523,-0.000815441831946373,0.03503957763314247
0.043144263327121735,0.0047678276896476746,-0.025059636682271957,0.020461780950427055,-0.0008236194844357669,0.03565673157572746
0.04232843220233917,0.005081463139504194,-0.024597063660621643,0.020303258672356606,-0.0007665921584703028,0.03498980402946472
0.042916614562273026,0.005039197392761707,-0.02497292123734951,0.020867541432380676,-0.000673904491122812,0.03521851450204849
0.04319625347852707,0.004917153622955084,-0.025171121582388878,0.021574441343545914,-0.00069583480944857,0.03534477949142456
0.043582990765571594,0.005083095747977495,-0.02523486688733101,0.02103697508573532,-0.0007686466560699046,0.03499121218919754
0.04360508546233177,0.005054377019405365,-0.025475643575191498,0.020375113934278488,-0.000989881344139576,0.0362924262881279
0.04370742663741112,0.004888029303401709,-0.025042355060577393,0.020026860758662224,-0.0009892781963571906,0.036585669964551926
0.04408259317278862,0.00494129816070199,-0.02507372573018074,0.019790437072515488,-0.0009148319368250668,0.03468013182282448
0.04398520663380623,0.005315433256328106,-0.02600446529686451,0.02036363258957863,-0.0009087183861993253,0.03448261693120003
0.04462817311286926,0.0054888916201889515,-0.02622126042842865,0.02082778885960579,-0.0008669268572703004,0.0356719084084034
0.04462817311286926,0.0054888916201889515,-0.02622126042842865,0.02082778885960579,-0.0008669268572703004,0.0356719084084034
