davideferrari95/blind_handover_controller/data/Test 43 - [2024-02-07 -- 15-01-41]/joint_states_data.csv
shoulder_pan_joint,shoulder_lift_joint,elbow_joint,wrist_1_joint,wrist_2_joint,wrist_3_joint
0.00718702282756567,-0.0054292031563818455,-0.016542302444577217,0.019960418343544006,0.0,0.00890019629150629
0.00718702282756567,-0.0054292031563818455,-0.016542302444577217,0.019960418343544006,0.0,0.00890019629150629
0.006856913678348064,-0.005813614930957556,-0.016182446852326393,0.01913483813405037,0.0,0.008610655553638935
0.006268335040658712,-0.006399653851985931,-0.015854306519031525,0.01897440105676651,0.0,0.00829226803034544
0.006497297435998917,-0.0063591888174414635,-0.016474362462759018,0.019519265741109848,0.0,0.008334512822329998
0.007040473632514477,-0.0062458389438688755,-0.015328364446759224,0.019773060455918312,0.0,0.007854530587792397
0.007040473632514477,-0.0062458389438688755,-0.015328364446759224,0.019773060455918312,0.0,0.007854530587792397
0.0066420030780136585,-0.006282142363488674,-0.01574915274977684,0.01949869841337204,0.0,0.007473918609321117
0.006258365698158741,-0.006369372829794884,-0.015178397297859192,0.01960883103311062,0.0,0.008065125904977322
0.006410703994333744,-0.006557584274560213,-0.016275353729724884,0.019643455743789673,0.0,0.007669791113585234
0.006906431633979082,-0.00670409481972456,-0.016085976734757423,0.020361779257655144,0.0,0.007560845464468002
0.007009618449956179,-0.006357943639159203,-0.01617630198597908,0.020504087209701538,0.0,0.00759052624925971
0.006366210989654064,-0.0067534069530665874,-0.015936434268951416,0.019114911556243896,0.0,0.007319445721805096
0.006513657979667187,-0.006893484387546778,-0.015790410339832306,0.0194222591817379,0.0,0.0072643388994038105
0.006906646769493818,-0.006654931232333183,-0.015343141742050648,0.01966504380106926,0.0,0.007854142226278782
0.00715896999463439,-0.006903685163706541,-0.015895310789346695,0.01953061670064926,0.0,0.007959706708788872
0.006980531848967075,-0.006887957453727722,-0.015333698131144047,0.020303692668676376,0.0,0.007534543983638287
0.006354846525937319,-0.0074015045538544655,-0.016038674861192703,0.020458122715353966,0.0,0.007400084752589464
0.006647299509495497,-0.00693552615121007,-0.015365765430033207,0.01982130855321884,0.0,0.007469660602509975
0.006803721655160189,-0.00660455459728837,-0.015857767313718796,0.021195676177740097,0.0,0.007581671699881554
0.0071381330490112305,-0.006654898636043072,-0.015362012200057507,0.020507538691163063,0.0,0.007433902006596327
0.006802975665777922,-0.007216963917016983,-0.015576258301734924,0.019787417724728584,0.0,0.00741187296807766
0.007349308580160141,-0.007244381587952375,-0.015475662425160408,0.019939610734581947,0.0,0.007482901681214571
0.00705375662073493,-0.006998663302510977,-0.015422777272760868,0.020443273708224297,0.0,0.007551410235464573
0.006802613381296396,-0.006994649767875671,-0.01573917642235756,0.020637406036257744,0.0,0.007867136038839817
0.006597161293029785,-0.00760755455121398,-0.01519389171153307,0.020231015980243683,0.0,0.0074844276532530785
0.0068530370481312275,-0.007808733265846968,-0.015478745102882385,0.020643409341573715,0.0,0.00741412490606308
0.007291316986083984,-0.006866400130093098,-0.014940069057047367,0.020869892090559006,0.0,0.007352879736572504
0.006933960597962141,-0.006812983192503452,-0.015815269201993942,0.020605847239494324,0.0,0.007209766656160355
0.007204173132777214,-0.006972783710807562,-0.015111890621483326,0.020416222512722015,0.0,0.007310860324651003
0.006533009000122547,-0.007353566586971283,-0.01513185165822506,0.02078712172806263,0.0,0.00746559863910079
0.007034381851553917,-0.007218672428280115,-0.014773685485124588,0.02092892862856388,0.0,0.007462318520992994
0.007084500044584274,-0.007037775125354528,-0.015557770617306232,0.02049362100660801,0.0,0.007263814564794302
0.007172145415097475,-0.00724730733782053,-0.01458409521728754,0.020703976973891258,0.0,0.00725381076335907
0.006869660224765539,-0.007178543135523796,-0.015181508846580982,0.020958734676241875,0.0,0.007614612113684416
0.00725277466699481,-0.00724917184561491,-0.014862452633678913,0.020593322813510895,0.0,0.007579789496958256
0.007291985210031271,-0.006944593042135239,-0.015155728906393051,0.020030129700899124,0.0,0.007055490277707577
0.00713927298784256,-0.007353000808507204,-0.014769255183637142,0.01999637857079506,0.0,0.00694698840379715
0.00713927298784256,-0.007353000808507204,-0.014769255183637142,0.01999637857079506,0.0,0.00694698840379715
0.007409785874187946,-0.007438015192747116,-0.014999054372310638,0.019678156822919846,0.0,0.0073358542285859585
0.0069874003529548645,-0.00839101243764162,-0.014733890071511269,0.019836360588669777,0.0,0.007495495490729809
0.007481115870177746,-0.006492285523563623,-0.014472095295786858,0.021102841943502426,0.0,0.00814447458833456
0.00671842135488987,-0.007176813669502735,-0.014638482592999935,0.020457211881875992,0.0,0.007180101238191128
0.006816160399466753,-0.007929891347885132,-0.015066375024616718,0.01971879042685032,0.0,0.007024230435490608
0.007274143863469362,-0.007443280424922705,-0.014993530698120594,0.01931416615843773,0.0,0.00688489805907011
0.007327682338654995,-0.007394695188850164,-0.0148265790194273,0.018865635618567467,0.0,0.007251941133290529
0.0070860362611711025,-0.008052035234868526,-0.014646218158304691,0.019588559865951538,0.0,0.007949511520564556
0.006782672367990017,-0.008224233984947205,-0.014747372828423977,0.02037118189036846,0.0,0.007836587727069855
0.0072018480859696865,-0.0076257758773863316,-0.014517185278236866,0.02017192170023918,0.0,0.007218738552182913
0.007300167344510555,-0.007881003431975842,-0.014680645428597927,0.02009148709475994,0.0,0.0072045642882585526
0.007308991625905037,-0.008030864410102367,-0.014466781169176102,0.020738894119858742,0.0,0.007964124903082848
0.007348484359681606,-0.007719842717051506,-0.014759562909603119,0.02048087865114212,0.0,0.008020457811653614
0.007700031157582998,-0.008140678517520428,-0.014502914622426033,0.0204718466848135,0.0,0.0076275779865682125
0.007480716798454523,-0.00777923921123147,-0.014745819382369518,0.02034827508032322,0.0,0.007670510094612837
0.007306999526917934,-0.008197145536541939,-0.014905480667948723,0.020032420754432678,0.0,0.007618702482432127
0.006939270533621311,-0.007620731368660927,-0.014694218523800373,0.019708653911948204,0.0,0.007474919315427542
0.007500792387872934,-0.007449244614690542,-0.014050365425646305,0.01949906349182129,0.0,0.007399905938655138
0.007760478183627129,-0.008039183914661407,-0.014493663795292377,0.01912025175988674,0.0,0.007384596858173609
0.007449593394994736,-0.007957100868225098,-0.014659458771348,0.019472092390060425,0.0,0.0074909524992108345
0.007306304294615984,-0.007141678128391504,-0.014327939599752426,0.020503953099250793,0.0,0.007527757901698351
0.00766693614423275,-0.00716027757152915,-0.014627900905907154,0.020461224019527435,0.0,0.007135828025639057
0.009135864675045013,-0.007863667793571949,-0.014730763621628284,0.019927319139242172,0.0,0.007205454632639885
0.006921527907252312,-0.006876611616462469,-0.014742551371455193,0.01948382705450058,0.0,0.007626533508300781
0.006882938556373119,-0.0048759146593511105,-0.014759848825633526,0.019598672166466713,0.0,0.0077768247574567795
0.006882938556373119,-0.0048759146593511105,-0.014759848825633526,0.019598672166466713,0.0,0.0077768247574567795
0.008116067387163639,-0.004428469110280275,-0.014441662468016148,0.019568683579564095,0.0,0.007522295229136944
0.008493801578879356,-0.00531654292717576,-0.014850573614239693,0.019611334428191185,0.0,0.007493765093386173
0.007753852754831314,-0.006489371880888939,-0.01325465738773346,0.01985858380794525,0.0,0.0075655244290828705
0.007527525071054697,-0.005289654713124037,-0.015120700933039188,0.019231019541621208,0.0,0.007740153931081295
0.007527525071054697,-0.005289654713124037,-0.015120700933039188,0.019231019541621208,0.0,0.007740153931081295
0.007276682648807764,-0.00504152849316597,-0.014495429582893848,0.020325684919953346,0.0,0.00727558508515358
0.006754208356142044,-0.005536227021366358,-0.015533307567238808,0.020244309678673744,0.0,0.007107178680598736
0.007318990770727396,-0.005287958774715662,-0.015004763379693031,0.019881144165992737,0.0,0.007118518464267254
0.008087039925158024,-0.004835514817386866,-0.01557681430131197,0.019863730296492577,0.0,0.007019114214926958
0.007134611252695322,-0.004721156321465969,-0.014800270088016987,0.019706465303897858,0.0,0.0067286198027431965
0.006775012239813805,-0.004293759353458881,-0.014966657385230064,0.01980976015329361,0.0,0.006873957812786102
0.00736171193420887,-0.00458595622330904,-0.014467121101915836,0.020071091130375862,0.0,0.0070844003930687904
0.007426666561514139,-0.004750055726617575,-0.01488878671079874,0.019982151687145233,0.0,0.007360635790973902
0.006956914439797401,-0.004674713127315044,-0.014902517199516296,0.019712131470441818,0.0,0.007364099379628897
0.007027553394436836,-0.0047388747334480286,-0.015124086290597916,0.02008233219385147,0.0,0.00692193815484643
0.007503556553274393,-0.00465651648119092,-0.014545056968927383,0.02026483789086342,0.0,0.0070015196688473225
0.007341623771935701,-0.004366900771856308,-0.014714094810187817,0.020061813294887543,0.0,0.007038774900138378
0.0072302017360925674,-0.004013861529529095,-0.014849777333438396,0.02044317126274109,0.0,0.007300670724362135
0.0073627387173473835,-0.0043554361909627914,-0.014876745641231537,0.020236851647496223,0.0,0.008020459674298763
0.007533174939453602,-0.004193530883640051,-0.014222634956240654,0.019816629588603973,0.0,0.007579383905977011
0.007730173412710428,-0.004245579708367586,-0.01503068394958973,0.019371166825294495,0.0,0.007337366230785847
0.007327626459300518,-0.0046362862922251225,-0.015313209965825081,0.01971057802438736,0.0,0.007699807174503803
0.00681139063090086,-0.004299560561776161,-0.014771976508200169,0.019413646310567856,0.0,0.007502134423702955
0.0073882536962628365,-0.004400740843266249,-0.014927797019481659,0.019245695322752,0.0,0.00683433236554265
0.007498209830373526,-0.004233335144817829,-0.014515010640025139,0.01980554684996605,0.0,0.007170739583671093
0.007535496726632118,-0.0044824969954788685,-0.014716332778334618,0.019547756761312485,0.0,0.007514665834605694
0.007034944836050272,-0.004527254495769739,-0.014858868904411793,0.01923474855720997,0.0,0.007685687392950058
0.007034944836050272,-0.004527254495769739,-0.014858868904411793,0.01923474855720997,0.0,0.007685687392950058
0.007875055074691772,-0.0047258613631129265,-0.014983746223151684,0.019240830093622208,0.0,0.007170547731220722
0.007728552911430597,-0.004767080303281546,-0.014627230353653431,0.02003062516450882,0.0,0.007278272416442633
0.007336548063904047,-0.004919703584164381,-0.015155433677136898,0.019029896706342697,0.0,0.0074452669359743595
0.00805568601936102,-0.004619985353201628,-0.014766457490622997,0.01947692036628723,0.0,0.007886413484811783
0.0074882544577121735,-0.004877388942986727,-0.014360899105668068,0.019439656287431717,0.0,0.007387068122625351
0.007262218277901411,-0.004943986423313618,-0.014990372583270073,0.020002257078886032,0.0,0.007342273835092783
0.00802864320576191,-0.004692723508924246,-0.01423383504152298,0.019978301599621773,0.0,0.007530700881034136
0.007757635321468115,-0.004891627933830023,-0.014837130904197693,0.019591039046645164,0.0,0.007237283978611231
0.007619864773005247,-0.004806837532669306,-0.014585639350116253,0.01954243704676628,0.0,0.007199764251708984
0.0077066668309271336,-0.0046681733801960945,-0.015142790973186493,0.019527830183506012,0.0,0.0074202148243784904
0.00755353132262826,-0.0046790787018835545,-0.01452977117151022,0.01972750760614872,0.0,0.00760066881775856
0.007651529740542173,-0.005043669603765011,-0.014937586151063442,0.02025890350341797,0.0,0.007088634185492992
0.00764878885820508,-0.004993733949959278,-0.014642533846199512,0.020668867975473404,0.0,0.006969807669520378
0.0074494569562375546,-0.004820170812308788,-0.014632968232035637,0.01967267505824566,0.0,0.0072627016343176365
0.008188988082110882,-0.004746955819427967,-0.014156638644635677,0.019215047359466553,0.0,0.007608947344124317
0.008356179110705853,-0.00463203527033329,-0.014716953039169312,0.01929646171629429,0.0,0.00737913278862834
0.00791717879474163,-0.004885108210146427,-0.014366629533469677,0.019698292016983032,0.0,0.007336172740906477
0.00759747251868248,-0.005395543295890093,-0.014698406681418419,0.020340366289019585,0.0,0.007089652586728334
0.0077461181208491325,-0.0050807492807507515,-0.014244663529098034,0.01994134671986103,0.0,0.007892013527452946
0.008007918484508991,-0.004812362603843212,-0.014783703722059727,0.019209492951631546,0.0,0.007694291416555643
0.007764626294374466,-0.004709881730377674,-0.014278214424848557,0.019358176738023758,0.0,0.007445174735039473
0.007504886947572231,-0.00509366299957037,-0.014692055992782116,0.020224936306476593,0.0,0.007679670583456755
0.008398131467401981,-0.005145287606865168,-0.013906345702707767,0.019962627440690994,0.0,0.007858161814510822
0.00790113303810358,-0.004948953166604042,-0.014553414657711983,0.019133176654577255,0.0,0.008071346208453178
0.008098687045276165,-0.005271890200674534,-0.014117338694632053,0.019650841131806374,0.0,0.0077975718304514885
0.00783312413841486,-0.005171025171875954,-0.014747725799679756,0.018953237682580948,0.0,0.007747838273644447
0.00811993982642889,-0.004979564342647791,-0.014047615230083466,0.019089795649051666,0.0,0.007083381526172161
0.00811993982642889,-0.004979564342647791,-0.014047615230083466,0.019089795649051666,0.0,0.007083381526172161
0.008127614855766296,-0.005112983752042055,-0.014503085985779762,0.019476763904094696,0.0,0.007113376632332802
0.008206808939576149,-0.005100063979625702,-0.013857410289347172,0.019634613767266273,0.0,0.00736295897513628
0.008600764907896519,-0.005014404188841581,-0.014806401915848255,0.01949938014149666,0.0,0.007321862503886223
0.008100192993879318,-0.005174382124096155,-0.014003184624016285,0.019449464976787567,0.0,0.007944419980049133
0.00834677368402481,-0.005344720091670752,-0.014412726275622845,0.019211890175938606,0.0,0.007585935760289431
0.008733849041163921,-0.0056304484605789185,-0.014015855267643929,0.019720369949936867,0.0,0.0069791218265891075
0.008412432856857777,-0.004772698041051626,-0.014614916406571865,0.019695105031132698,0.0,0.008147316053509712
0.008195392787456512,-0.004993787966668606,-0.015272497199475765,0.019513538107275963,0.0,0.007935669273138046
0.008988374844193459,-0.005332320462912321,-0.014279196970164776,0.02024119533598423,0.0,0.0075545781292021275
0.008778157643973827,-0.005288993939757347,-0.015178575180470943,0.01981218345463276,0.0,0.007539477664977312
0.008669915609061718,-0.005190774332731962,-0.014395616948604584,0.018696961924433708,0.0,0.008517464622855186
0.008718019351363182,-0.004915563389658928,-0.014795404858887196,0.020618382841348648,0.0,0.008314243517816067
0.008770323358476162,-0.004824974574148655,-0.014249224215745926,0.019069641828536987,0.0,0.007129362318664789
0.00882479827851057,-0.0053705680184066296,-0.015004316344857216,0.018255682662129402,0.0,0.007641745265573263
0.008121318183839321,-0.005193006247282028,-0.014529249630868435,0.01891849935054779,0.0,0.007897399365901947
0.008793345652520657,-0.005056942813098431,-0.015146655961871147,0.01939353346824646,0.0,0.007960846647620201
0.008955110795795918,-0.00520386453717947,-0.01488043088465929,0.019185535609722137,0.0,0.00782910268753767
0.008314761333167553,-0.004823506344109774,-0.015104797668755054,0.01929212175309658,0.0,0.007973327301442623
0.009169390425086021,-0.0046869972720742226,-0.015503635630011559,0.01926148496568203,0.0,0.008295903913676739
0.008946791291236877,-0.005155760329216719,-0.015704112127423286,0.018601268529891968,0.0,0.007944945245981216
0.008651729673147202,-0.005387656856328249,-0.015603006817400455,0.0191580168902874,0.0,0.008063150569796562
0.009126887656748295,-0.0049369847401976585,-0.01570061407983303,0.018801743164658546,0.0,0.008123495616018772
0.008963186293840408,-0.004645859822630882,-0.015856796875596046,0.018334439024329185,0.0,0.008309338241815567
0.008546038530766964,-0.0047111003659665585,-0.015681283548474312,0.018798360601067543,0.0,0.00795629620552063
0.00874675065279007,-0.00466749956831336,-0.01601819321513176,0.018885495141148567,0.0,0.008116471581161022
0.008832878433167934,-0.0049567935056984425,-0.014744265004992485,0.01858523115515709,0.0,0.00818604789674282
0.008994157426059246,-0.005273119546473026,-0.015787795186042786,0.01867806352674961,0.0,0.0075530558824539185
0.008994157426059246,-0.005273119546473026,-0.015787795186042786,0.01867806352674961,0.0,0.0075530558824539185
0.008565123192965984,-0.0050762370228767395,-0.015177820809185505,0.018278639763593674,0.0,0.0076871332712471485
0.008626366965472698,-0.004895031452178955,-0.0157944243401289,0.018374577164649963,0.0,0.007782808504998684
0.009852761402726173,-0.004595964681357145,-0.01561181340366602,0.01857391558587551,0.0,0.007710627280175686
0.009087231941521168,-0.004567140247672796,-0.015638237819075584,0.018637757748365402,0.0,0.00789241399616003
0.008915779180824757,-0.004822749178856611,-0.015495222061872482,0.01935942843556404,0.0,0.007640900555998087
0.008978319354355335,-0.005155392922461033,-0.01530642993748188,0.019364863634109497,0.0,0.008572339080274105
0.00847106147557497,-0.005020709242671728,-0.015502285212278366,0.019288692623376846,0.0,0.007606484927237034
0.00882361177355051,-0.004812988452613354,-0.015802497044205666,0.020122220739722252,0.0,0.007439968641847372
0.00933517049998045,-0.004851598292589188,-0.015096418559551239,0.020049577578902245,0.0,0.008036111481487751
0.008557742461562157,-0.005341812502592802,-0.015678487718105316,0.019729983061552048,0.0,0.0079621821641922
0.009121502749621868,-0.005080635659396648,-0.01493876799941063,0.019807664677500725,0.0,0.007600908167660236
0.00893910601735115,-0.004840468056499958,-0.015759872272610664,0.019019166007637978,0.0,0.007468590512871742
0.008820521645247936,-0.005106314085423946,-0.014699223451316357,0.018851565197110176,0.0,0.008179140277206898
0.00892321951687336,-0.004995641298592091,-0.015085263177752495,0.019186044111847878,0.0,0.008190721273422241
0.008767587132751942,-0.004954036325216293,-0.01443612203001976,0.019563399255275726,0.0,0.008173641748726368
0.009377548471093178,-0.005141289439052343,-0.015108276158571243,0.01960405893623829,0.0,0.008378086611628532
0.008980957791209221,-0.004950918722897768,-0.015224586240947247,0.019640928134322166,0.0,0.008695132099092007
0.009492974728345871,-0.004874466452747583,-0.015433842316269875,0.01886345073580742,0.0,0.008158242329955101
0.009287715889513493,-0.005023889243602753,-0.014683583751320839,0.018863195553421974,0.0,0.008114507421851158
0.008581367321312428,-0.004863056354224682,-0.01515983510762453,0.01937335729598999,0.0,0.008224235847592354
0.008915477432310581,-0.005057418253272772,-0.015007760375738144,0.01949487254023552,0.0,0.007551787421107292
0.010010219179093838,-0.004999328404664993,-0.015071150846779346,0.019158625975251198,0.0,0.007907248102128506
0.008867585100233555,-0.004821030423045158,-0.01523770671337843,0.019329892471432686,0.0,0.008412165567278862
0.009210755117237568,-0.004792308434844017,-0.015176093205809593,0.019046086817979813,0.0,0.008289857767522335
0.00940927304327488,-0.004558719228953123,-0.0153086232021451,0.018941575661301613,0.0,0.008412505500018597
0.008851997554302216,-0.004390034358948469,-0.015045439824461937,0.01936803199350834,0.0,0.008401265367865562
0.009058224968612194,-0.004921372979879379,-0.015235645696520805,0.0190177820622921,0.0,0.008464933373034
0.009058224968612194,-0.004921372979879379,-0.015235645696520805,0.0190177820622921,0.0,0.008464933373034
0.009714930318295956,-0.0045489477925002575,-0.014884816482663155,0.02000531554222107,0.0,0.008407446555793285
0.009407962672412395,-0.004562591202557087,-0.015191927552223206,0.019055873155593872,0.0,0.008725480176508427
0.00917581282556057,-0.004488070495426655,-0.014826302416622639,0.017842672765254974,0.0,0.008661809377372265
0.00931465532630682,-0.004613922443240881,-0.01530471257865429,0.018588881939649582,0.0,0.00841523613780737
0.009048416279256344,-0.004404257982969284,-0.014621121808886528,0.018556606024503708,0.0,0.008515670895576477
0.00982876680791378,-0.004139892756938934,-0.014415251091122627,0.018430646508932114,0.0,0.008256455883383751
0.008731236681342125,-0.004435273818671703,-0.015271897427737713,0.01859230361878872,0.0,0.008609909564256668
0.008978177793323994,-0.004218130372464657,-0.014631153084337711,0.018259774893522263,0.0,0.00899853091686964
0.009701082482933998,-0.004210674669593573,-0.015086187981069088,0.018741300329566002,0.0,0.008492386899888515
0.009603947401046753,-0.004148702137172222,-0.01435607299208641,0.018367866054177284,0.0,0.00853206217288971
0.009450417011976242,-0.004359256010502577,-0.014662081375718117,0.018151186406612396,0.0,0.008277653716504574
0.009694071486592293,-0.0040471358224749565,-0.013972441665828228,0.018629474565386772,0.0,0.008304835297167301
0.009663351811468601,-0.0039527565240859985,-0.0148885203525424,0.018543049693107605,0.0,0.008451644331216812
0.009865104220807552,-0.0039273714646697044,-0.014330008998513222,0.01853882521390915,0.0,0.008703764528036118
0.009434066712856293,-0.004410960245877504,-0.014843466691672802,0.018903765827417374,0.0,0.008628042414784431
0.009517493657767773,-0.004122332204133272,-0.01441982015967369,0.018717560917139053,0.0,0.008529618382453918
0.0093838544562459,-0.0044005075469613075,-0.014782530255615711,0.018516557291150093,0.0,0.008907880634069443
0.00971133541315794,-0.0040893773548305035,-0.014695904217660427,0.018740056082606316,0.0,0.008771409280598164
0.009915980510413647,-0.00380908977240324,-0.015112279914319515,0.01820635050535202,0.0,0.0087060471996665
0.009564025327563286,-0.003932640887796879,-0.014679583720862865,0.018677648156881332,0.0,0.00908960122615099
0.009721048176288605,-0.004077864810824394,-0.015085392631590366,0.0188706424087286,0.0,0.009136912412941456
0.01009629387408495,-0.004448568448424339,-0.014525768347084522,0.018759142607450485,0.0,0.009227186441421509
0.009049835614860058,-0.004088466055691242,-0.014802911318838596,0.018815547227859497,0.0,0.008990741334855556
0.009855049662292004,-0.004319840110838413,-0.014457732439041138,0.018731530755758286,0.0,0.008811572566628456
0.009808956645429134,-0.00431604590266943,-0.01503671519458294,0.018509840592741966,0.0,0.008542532101273537
0.009379744529724121,-0.004069910384714603,-0.015027112327516079,0.018865441903471947,0.0,0.008902252651751041
0.009379744529724121,-0.004069910384714603,-0.015027112327516079,0.018865441903471947,0.0,0.008902252651751041
0.010291330516338348,-0.0038127582520246506,-0.014800482429564,0.018890487030148506,0.0,0.009171991609036922
0.009376117028295994,-0.0038251676596701145,-0.014705178327858448,0.018847506493330002,0.0,0.009961160831153393
0.009376117028295994,-0.0038251676596701145,-0.014705178327858448,0.018847506493330002,0.0,0.009961160831153393
0.010437369346618652,-0.003854922717437148,-0.015120900236070156,0.018797917291522026,0.0,0.008947158232331276
0.01006919052451849,-0.0041213142685592175,-0.014930583536624908,0.018713820725679398,0.0,0.0085989935323596
0.010137486271560192,-0.004065162967890501,-0.014817614108324051,0.018929993733763695,0.0,0.009471794590353966
0.00987134501338005,-0.003491997951641679,-0.015111618675291538,0.0190780907869339,0.0,0.00926982332020998
0.009338295087218285,-0.003504035994410515,-0.014749442227184772,0.01904979720711708,0.0,0.009185167960822582
0.010362213477492332,-0.004088170826435089,-0.015449206344783306,0.01878972351551056,0.0,0.009207201190292835
0.009933043271303177,-0.0042879036627709866,-0.014545969665050507,0.01877414993941784,0.0,0.00903811864554882
0.009320637211203575,-0.004033304750919342,-0.015223748981952667,0.01959923841059208,0.0,0.008713905699551105
0.009708237834274769,-0.0040127732791006565,-0.014986897818744183,0.01925937458872795,0.0,0.008853385224938393
0.009833630174398422,-0.0038929462898522615,-0.01573903113603592,0.018590565770864487,0.0,0.008980215527117252
0.00980459339916706,-0.0037045027129352093,-0.01478536520153284,0.018665162846446037,0.0,0.009061173535883427
0.010571697726845741,-0.0034991095308214426,-0.014844479039311409,0.01884966529905796,0.0,0.009196835570037365
0.010370660573244095,-0.0035878096241503954,-0.014349812641739845,0.019000034779310226,0.0,0.009200622327625751
0.01014853548258543,-0.00394784938544035,-0.015134069137275219,0.019421076402068138,0.0,0.009221435524523258
0.009963692165911198,-0.0039093950763344765,-0.01451929472386837,0.01842460036277771,0.0,0.00905863381922245
0.010215521790087223,-0.0035894406028091908,-0.01567094214260578,0.01824919693171978,0.0,0.009288564324378967
0.009635329246520996,-0.003515173913910985,-0.01510224025696516,0.01822531409561634,0.0,0.009210498072206974
0.009848956018686295,-0.0039834086783230305,-0.015039314515888691,0.018347658216953278,1.4556891301253927e-06,0.008936820551753044
0.010255840606987476,-0.004605265334248543,-0.014683706685900688,0.018911633640527725,9.504609721489032e-08,0.009805130772292614
0.009754086844623089,-0.004206632263958454,-0.015206227079033852,0.01846342906355858,6.2058314043156315e-09,0.00916214007884264
0.00990701001137495,-0.0039830137975513935,-0.015296251513063908,0.018001379445195198,4.0519643196290644e-10,0.008883144706487656
0.009942825883626938,-0.003982205409556627,-0.014919391833245754,0.01849197782576084,2.6456430796129027e-11,0.009035873226821423
0.009635712951421738,-0.00401040306314826,-0.014942927286028862,0.01892910897731781,1.7274157364938203e-12,0.00964591559022665
0.009729133918881416,-0.00437347125262022,-0.014931428246200085,0.017815854400396347,1.1278790537161756e-13,0.00971460621803999
0.009989629499614239,-0.004230467136949301,-0.015398993156850338,0.01777845248579979,7.364244203865184e-15,0.009807102382183075
0.009989629499614239,-0.004230467136949301,-0.015398993156850338,0.01777845248579979,7.364244203865184e-15,0.009807102382183075
0.009406165219843388,-0.004450211301445961,-0.01505328994244337,0.018192505463957787,4.808325461898885e-16,0.00978876557201147
0.010089791379868984,-0.004087213426828384,-0.015313802286982536,0.01889735832810402,3.139492877412337e-17,0.009528503753244877
0.009976794943213463,-0.0037668924778699875,-0.014473478309810162,0.01833621971309185,2.049864606903638e-18,0.009433014318346977
0.009955819696187973,-0.0038427861873060465,-0.01474105753004551,0.018329450860619545,8.738894984158511e-21,0.009237322025001049
0.009713328443467617,-0.0036849614698439837,-0.015312313102185726,0.018422283232212067,5.705873589061333e-22,0.009364470839500427
0.009810728952288628,-0.0035028064157813787,-0.0146835558116436,0.01816779375076294,3.725527522449581e-23,0.009160748682916164
0.00976276770234108,-0.00360788032412529,-0.014975807629525661,0.018402615562081337,2.432503088346924e-24,0.009671423584222794
0.009695872664451599,-0.0037511163391172886,-0.014664137735962868,0.018236901611089706,1.5882506383363953e-25,0.00986627209931612
0.009973530657589436,-0.003983255475759506,-0.015353254973888397,0.018482837826013565,1.0370142052161872e-26,0.009803391061723232
0.009988494217395782,-0.0037913413252681494,-0.014746432192623615,0.018432458862662315,6.770961090603095e-28,0.009738362394273281
0.009813163429498672,-0.003531640162691474,-0.015223254449665546,0.01869591325521469,4.420954131747671e-29,0.00968272052705288
0.009647518396377563,-0.0035756248980760574,-0.01435560081154108,0.01851494051516056,2.8865668735289373e-30,0.009492864832282066
0.009714718908071518,-0.0043440042063593864,-0.015041589736938477,0.01827835477888584,1.8847219319742448e-31,0.009720650501549244
0.00991510134190321,-0.004563143942505121,-0.015050689689815044,0.018162626773118973,1.2305886690193742e-32,0.009983152151107788
0.009558134712278843,-0.0038027125410735607,-0.015223030932247639,0.01890667900443077,8.034864801370236e-34,0.010182433761656284
0.010680609382689,-0.0035993752535432577,-0.014936557970941067,0.019112028181552887,-9.397642861586064e-05,0.009744656272232533
0.009941541589796543,-0.003712964477017522,-0.015071890316903591,0.018626997247338295,-0.0001728624338284135,0.010190990753471851
0.009374369867146015,-0.003874394576996565,-0.01464427076280117,0.019063016399741173,-0.00017165580356959254,0.00941501371562481
0.010707886889576912,-0.004035084042698145,-0.014944570139050484,0.01851644366979599,-0.0001902016665553674,0.009560827165842056
0.009838596917688847,-0.004287243355065584,-0.01485583558678627,0.018083471804857254,-0.00019122644152957946,0.010654697194695473
0.00932749081403017,-0.004364879801869392,-0.014835188165307045,0.018718235194683075,-0.0001851754932431504,0.01028403639793396
0.010941372253000736,-0.004234606865793467,-0.015072839334607124,0.0190378837287426,-0.00019369827350601554,0.00985822081565857
0.010021280497312546,-0.00404443871229887,-0.014459863305091858,0.018625203520059586,-0.0002012148906942457,0.009898652322590351
0.0096151577308774,-0.003506442066282034,-0.014879305846989155,0.018557021394371986,-0.00019585448899306357,0.01046270877122879
0.010257218964397907,-0.0035845618695020676,-0.014812824316322803,0.018115349113941193,-0.00019000592874363065,0.010123965330421925
0.010071393102407455,-0.0042037200182676315,-0.0150503134354949,0.017850426957011223,-0.00020731570839416236,0.01001027226448059
0.009520147927105427,-0.004337782971560955,-0.014909087680280209,0.01798602007329464,-0.000204572468646802,0.009927903302013874
0.009520147927105427,-0.004337782971560955,-0.014909087680280209,0.01798602007329464,-0.000204572468646802,0.009927903302013874
0.00990018155425787,-0.004065582528710365,-0.014960239641368389,0.017751505598425865,-0.00019911988056264818,0.01055474579334259
0.009949767030775547,-0.0037830942310392857,-0.014631506986916065,0.0183130893856287,-0.0002638910082168877,0.010455925017595291
0.009542607702314854,-0.003723778296262026,-0.0148740503937006,0.018229955807328224,-0.00031188823049888015,0.010401256382465363
0.01024156529456377,-0.004162152763456106,-0.014993332326412201,0.01807227171957493,-0.000318655016599223,0.010242016986012459
0.01024156529456377,-0.004162152763456106,-0.014993332326412201,0.01807227171957493,-0.000318655016599223,0.010242016986012459
0.010491712018847466,-0.002988856052979827,-0.01510608196258545,0.018825246021151543,-0.0002966213214676827,0.01041985023766756
0.009886495769023895,-0.0025526597164571285,-0.014667410403490067,0.0186195969581604,-0.0003248633584007621,0.011016054078936577
0.009976929984986782,-0.002101517515257001,-0.015959130600094795,0.01756315864622593,-0.00031164029496721923,0.010421575047075748
0.010839419439435005,-0.0021215148735791445,-0.014972217381000519,0.01806306280195713,-0.00029712478863075376,0.010482420213520527
0.011433485895395279,-0.0027683705557137728,-0.015744632109999657,0.01770518533885479,-0.00028375096735544503,0.01020034495741129
0.012076882645487785,-0.003069997997954488,-0.014993777498602867,0.017111079767346382,-0.0002715196169447154,0.01056265365332365
0.012295573018491268,-0.002788081532344222,-0.015299001708626747,0.017110951244831085,-0.0002602988388389349,0.01046986784785986
0.011650746688246727,-0.0025366414338350296,-0.014979574829339981,0.016963651403784752,-0.0002499686670489609,0.010672635398805141
0.011679057963192463,-0.0023984566796571016,-0.01551585178822279,0.018252303823828697,-0.00025724232546053827,0.010256929323077202
0.011653092689812183,-0.0022587559651583433,-0.015254353173077106,0.018609335646033287,-0.00026352700660936534,0.010593008249998093
0.011595088988542557,-0.002402430633082986,-0.01588059961795807,0.018387576565146446,-0.00025521180941723287,0.010657827369868755
0.011964808218181133,-0.002696302253752947,-0.015687428414821625,0.018582584336400032,-0.0002465382276568562,0.010326545685529709
0.011544235050678253,-0.0028776726685464382,-0.014905809424817562,0.018270334228873253,-0.00023837952176108956,0.0105049517005682
0.012016707099974155,-0.0026208495255559683,-0.015369388274848461,0.01804622821509838,-0.00023073935881257057,0.010680895298719406
0.01173030398786068,-0.0024733594618737698,-0.015516894869506359,0.018378131091594696,-0.00022941071074455976,0.011138413101434708
0.012386114336550236,-0.0022078589536249638,-0.016120193526148796,0.018215246498584747,-0.0002244560600956902,0.011280893348157406
0.011513234116137028,-0.002205773489549756,-0.015002255327999592,0.018436668440699577,-0.00021419378754217178,0.011272302828729153
0.011878962628543377,-0.0025100752245634794,-0.015127075836062431,0.018294619396328926,-0.0002044858265435323,0.01051679253578186
0.012597650289535522,-0.0024734390899538994,-0.014949786476790905,0.017327923327684402,-0.00019559725478757173,0.010657398961484432
0.011755320243537426,-0.0027495580725371838,-0.016131186857819557,0.017869982868433,-0.00018744778935797513,0.010458620265126228
0.012167851440608501,-0.002756284549832344,-0.014812543988227844,0.018014635890722275,-0.000197562447283417,0.010749503038823605
0.012167851440608501,-0.002756284549832344,-0.014812543988227844,0.018014635890722275,-0.000197562447283417,0.010749503038823605
0.012011831626296043,-0.0024198207538574934,-0.01487524714320898,0.017492663115262985,-0.00020643619063775986,0.010737428441643715
0.011968929320573807,-0.002514667809009552,-0.01463641133159399,0.017735444009304047,-0.00019986818369943649,0.010588623583316803
0.012105923146009445,-0.0024725531693547964,-0.015321377664804459,0.017948515713214874,-0.00019280155538581312,0.01123496051877737
0.012088218703866005,-0.00241072871722281,-0.015348406508564949,0.018056092783808708,-0.00018615841690916568,0.010780197568237782
0.012461964040994644,-0.0027089291252195835,-0.015328182838857174,0.017858093604445457,-0.00017995428061112761,0.010438489727675915
0.012373587116599083,-0.002848919713869691,-0.01500467024743557,0.018470490351319313,-0.00019586097914725542,0.010700558312237263
0.012152133509516716,-0.002637712052091956,-0.01516776718199253,0.01820908486843109,-0.00019080024503637105,0.010957568883895874
0.012246119789779186,-0.0026244567707180977,-0.014959819614887238,0.018036186695098877,-0.00018524652114138007,0.01074884831905365
0.01271728239953518,-0.002688435837626457,-0.015338022261857986,0.018023202195763588,-0.00020227265486028045,0.010814442299306393
0.012181124649941921,-0.0024515322875231504,-0.015279354527592659,0.017742961645126343,-0.0001997328654397279,0.011004183441400528
0.0124135110527277,-0.0025581682566553354,-0.015557912178337574,0.017995312809944153,-0.00019453720597084612,0.011141144670546055
0.012687459588050842,-0.0024135401472449303,-0.015259090811014175,0.018414752557873726,-0.00018943134637083858,0.01107847597450018
0.013042923994362354,-0.002487839199602604,-0.015645937994122505,0.018012922257184982,-0.00021380867110565305,0.011136612854897976
0.012721105478703976,-0.002291703363880515,-0.014716445468366146,0.01850246451795101,-0.00021351368923205882,0.011205753311514854
0.012580854818224907,-0.002280021319165826,-0.015371771529316902,0.018352461978793144,-0.00020445592235773802,0.011409163475036621
0.012706222012639046,-0.0026810343842953444,-0.01476485189050436,0.017760682851076126,-0.000224510338739492,0.011439332738518715
0.012833516113460064,-0.0024977284483611584,-0.015386635437607765,0.018180858343839645,-0.0002242849877802655,0.01117063406854868
0.012807165272533894,-0.0023597932886332273,-0.014629663899540901,0.01826298236846924,-0.00021591145195998251,0.01127243135124445
0.012555969879031181,-0.002147642895579338,-0.015109878964722157,0.018265554681420326,-0.00020764642977155745,0.011535566300153732
0.012873122468590736,-0.002042409498244524,-0.014562982134521008,0.01817019097507,-0.00019995866750832647,0.011223719455301762
0.012856047600507736,-0.002193538239225745,-0.015142119489610195,0.01842404343187809,-0.00022068848193157464,0.011173039674758911
0.01299329474568367,-0.0023110434412956238,-0.014857176691293716,0.018025601282715797,-0.00021691861911676824,0.011361525394022465
0.012748726643621922,-0.0025074132718145847,-0.015172401443123817,0.017696406692266464,-0.0002099397243000567,0.011652474291622639
0.013488627970218658,-0.0023136823438107967,-0.014917444437742233,0.01748567447066307,-0.00020318473980296403,0.011431214399635792
0.013308895751833916,-0.0022401525638997555,-0.015071922913193703,0.018004344776272774,-0.0002230608806712553,0.012937650084495544
0.012897013686597347,-0.0020663596224039793,-0.01487596333026886,0.018178259953856468,-0.00021801648836117238,0.01161977369338274
0.01349876169115305,-0.001994658261537552,-0.015257840044796467,0.018429815769195557,-0.0002608148497529328,0.011336524039506912
0.012818715535104275,-0.001961230067536235,-0.015420335344970226,0.01804455742239952,-0.00029079080559313297,0.011574015952646732
0.013305324129760265,-0.0020184325985610485,-0.015079526230692863,0.017641883343458176,-0.0002760165953077376,0.011763320304453373
0.01299077644944191,-0.002466039266437292,-0.015127097256481647,0.01818227954208851,-0.00029860163340345025,0.011790783144533634
0.013100801035761833,-0.002492069499567151,-0.014895854517817497,0.018163496628403664,-0.0002943382423836738,0.012038547545671463
0.013100801035761833,-0.002492069499567151,-0.014895854517817497,0.018163496628403664,-0.0002943382423836738,0.012038547545671463
0.012924821116030216,-0.002298861974850297,-0.015132647007703781,0.017827779054641724,-0.00027986447094008327,0.01163509488105774
0.01337633840739727,-0.002046234207227826,-0.014850425533950329,0.018434368073940277,-0.000266118673607707,0.011762909591197968
0.013203504495322704,-0.0019764613825827837,-0.015491207130253315,0.018310606479644775,-0.00025362015003338456,0.011929875239729881
0.01364411786198616,-0.00218287855386734,-0.015232641249895096,0.0179585088044405,-0.0002653197734616697,0.012004335410892963
0.01343100517988205,-0.002398331882432103,-0.014761323109269142,0.01758255995810032,-0.00025900392211042345,0.011949047446250916
0.013873223215341568,-0.0026140431873500347,-0.015121354721486568,0.01791251264512539,-0.0002490631304681301,0.012131177820265293
0.013473480008542538,-0.002291937591508031,-0.014695793390274048,0.017387468367815018,-0.0002396084601059556,0.012117135338485241
0.013708177022635937,-0.002273854101076722,-0.015210885554552078,0.01723993569612503,-0.00023082921688910574,0.012460019439458847
0.013344989158213139,-0.0021038642153143883,-0.014739238657057285,0.01788174919784069,-0.0002502584829926491,0.012461528182029724
0.013568599708378315,-0.0022633427288383245,-0.015156807377934456,0.018192332237958908,-0.00024551531532779336,0.012761597521603107
0.013398000970482826,-0.0026138843968510628,-0.014304515905678272,0.018088089302182198,-0.00023765808145981282,0.012798821553587914
0.0142305176705122,-0.0027461021672934294,-0.015185510739684105,0.017757000401616096,-0.000230079356697388,0.012366368435323238
0.01372771430760622,-0.0024986201897263527,-0.01519455760717392,0.01715555600821972,-0.0002350182767258957,0.012459561228752136
0.014228016138076782,-0.0022853307891637087,-0.015147279016673565,0.017104381695389748,-0.0002351273433305323,0.012138229794800282
0.01358841173350811,-0.002239845460280776,-0.014891971834003925,0.01707897149026394,-0.00022421909670811146,0.01225765235722065
0.013465356081724167,-0.0025062880013138056,-0.014913788065314293,0.017303403466939926,-0.00021362492407206446,0.012175369076430798
0.013560856692492962,-0.00253919861279428,-0.01467673759907484,0.01778491958975792,-0.0002419429802102968,0.011666239239275455
0.014005894772708416,-0.002624340821057558,-0.015085949562489986,0.01811748743057251,-0.00023393779702018946,0.01224692352116108
0.013836967758834362,-0.002675181021913886,-0.015347287058830261,0.018114838749170303,-0.00024267083790618926,0.012552636675536633
0.014141006395220757,-0.0023432252928614616,-0.01497647911310196,0.017775332555174828,-0.0002500933187548071,0.012560265138745308
0.014499043114483356,-0.002249405486509204,-0.014856661669909954,0.017562847584486008,-0.00024161591136362404,0.012473035603761673
0.0144497100263834,-0.0020364944357424974,-0.014943291433155537,0.018656855449080467,-0.0002637584402691573,0.012907197698950768
0.01389207225292921,-0.0020057593937963247,-0.01563287153840065,0.018581649288535118,-0.00025639060186222196,0.012950165197253227
0.014291548170149326,-0.0023218472488224506,-0.015572543255984783,0.018626008182764053,-0.0002487569581717253,0.012966188602149487
0.014551166445016861,-0.0026284283958375454,-0.01628761738538742,0.018751082941889763,-0.0003646097902674228,0.013174056075513363
0.014622771181166172,-0.002395505551248789,-0.014904052950441837,0.01814519613981247,-0.00034552221768535674,0.013113635592162609
0.015122639015316963,-0.002116214716807008,-0.015394968912005424,0.017838653177022934,-0.0003526063228491694,0.013017388060688972
0.015122639015316963,-0.002116214716807008,-0.015394968912005424,0.017838653177022934,-0.0003526063228491694,0.013017388060688972
0.01500312052667141,-0.002036723308265209,-0.014840194955468178,0.017365384846925735,-0.00035784795181825757,0.01274996716529131
0.014401878230273724,-0.002074659802019596,-0.015402075834572315,0.01736423373222351,-0.0003373569343239069,0.013096907176077366
0.014973411336541176,-0.0021490701474249363,-0.015136918984353542,0.017743512988090515,-0.0003634112945292145,0.013312914408743382
0.014642909169197083,-0.0023553050123155117,-0.015804197639226913,0.017298229038715363,-0.00034951331326738,0.013558253645896912
0.014234396629035473,-0.0021898893173784018,-0.015945224091410637,0.017653057351708412,-0.0003591552667785436,0.014134873636066914
0.014428294263780117,-0.002229102421551943,-0.015727045014500618,0.017795130610466003,-0.0003427717892918736,0.01333027333021164
0.014671096578240395,-0.0020064753480255604,-0.015274427831172943,0.018085716292262077,-0.0003967904776800424,0.012498997151851654
0.015128028579056263,-0.002078704070299864,-0.01593620702624321,0.017444828525185585,-0.00037466498906724155,0.012525895610451698
0.014926942996680737,-0.0020972818601876497,-0.015721390023827553,0.017428195104002953,-0.00038009099080227315,0.013069858774542809
0.015191087499260902,-0.002099105389788747,-0.015959834679961205,0.017333606258034706,-0.0003837807453237474,0.013472571037709713
0.014751225709915161,-0.001982638379558921,-0.015610333532094955,0.017182867974042892,-0.00036018327227793634,0.013300388120114803
0.01553289219737053,-0.001978399697691202,-0.015649762004613876,0.017568837851285934,-0.00037922049523331225,0.013471240177750587
0.015094310976564884,-0.0019124973332509398,-0.015337127260863781,0.01733473315834999,-0.0003698989748954773,0.013433822430670261
0.015319854952394962,-0.0019395664567127824,-0.016348687931895256,0.017041040584445,-0.0003501799947116524,0.013793222606182098
0.015089292079210281,-0.00227924482896924,-0.015272903256118298,0.01732722856104374,-0.00036674478906206787,0.013570585288107395
0.015764614567160606,-0.002237514592707157,-0.017090709879994392,0.017146531492471695,-0.00035939947701990604,0.013512913137674332
0.015676628798246384,-0.0021929508075118065,-0.01473610196262598,0.01798439212143421,-0.0003429913194850087,0.01349687110632658
0.015406757593154907,-0.0021103662438690662,-0.015081418678164482,0.017616529017686844,-0.00037031713873147964,0.01356913335621357
0.015691587701439857,-0.0021746023558080196,-0.01646866649389267,0.01716804690659046,-0.00035619077971205115,0.013686399906873703
0.01589219644665718,-0.0019421720644459128,-0.016133395954966545,0.01757214032113552,-0.00033097172854468226,0.013593501411378384
0.016265729442238808,-0.0020650350488722324,-0.015456154942512512,0.017427975311875343,-0.00036161328898742795,0.013411751948297024
0.01588580384850502,-0.0018797870725393295,-0.01516704261302948,0.018013065680861473,-0.0003457282145973295,0.01399737037718296
0.016238011419773102,-0.0020276836585253477,-0.015834011137485504,0.01870572380721569,-0.00032536310027353466,0.013832318596541882
0.015863360837101936,-0.0020972301717847586,-0.015311045572161674,0.018123090267181396,-0.0003068947698920965,0.013815689831972122
0.015863360837101936,-0.0020972301717847586,-0.015311045572161674,0.018123090267181396,-0.0003068947698920965,0.013815689831972122
0.01643431931734085,-0.0023063612170517445,-0.015990227460861206,0.01781444437801838,-0.0003354446089360863,0.014039075933396816
0.01626988872885704,-0.0019500016933307052,-0.01545779500156641,0.017368311062455177,-0.0003212726442143321,0.013756182044744492
0.016268933191895485,-0.0018942957976832986,-0.01587866246700287,0.017538797110319138,-0.00033811494358815253,0.013594163581728935
0.01644621044397354,-0.0017964326543733478,-0.015261145308613777,0.018287448212504387,-0.0003326346632093191,0.013897806406021118
0.016293853521347046,-0.001821864047087729,-0.01565597392618656,0.018133262172341347,-0.0003185757959727198,0.014269480481743813
0.016150379553437233,-0.0018960132729262114,-0.016050266101956367,0.017873136326670647,-0.00033081058063544333,0.014723123982548714
0.01687910035252571,-0.0018551473040133715,-0.01616501808166504,0.0177473034709692,-0.00031385276815854013,0.01436059270054102
0.016266461461782455,-0.0018856431124731898,-0.015585759654641151,0.018494458869099617,-0.00029375511803664267,0.01405598409473896
0.016636855900287628,-0.0016836149152368307,-0.0157973263412714,0.01814589463174343,-0.0003163852961733937,0.014376805163919926
0.016624873504042625,-0.0016128569841384888,-0.015037142671644688,0.017942920327186584,-0.0003108595556113869,0.014712992124259472
0.01635667122900486,-0.001606310368515551,-0.01605980657041073,0.018201244994997978,-0.00029471865855157375,0.01448708027601242
0.017075499519705772,-0.0017174762906506658,-0.015451607294380665,0.017064914107322693,-0.00027951240190304816,0.015163145028054714
0.01689702458679676,-0.0017554637743160129,-0.01578988879919052,0.016941359266638756,-0.00028737762477248907,0.014691762626171112
0.01688530668616295,-0.001654097461141646,-0.015463365241885185,0.01704375259578228,-0.0002940207195933908,0.014384034089744091
0.016925133764743805,-0.0017443315591663122,-0.0156623013317585,0.01765284687280655,-0.0002821619564201683,0.014332202263176441
0.016909724101424217,-0.001611862564459443,-0.01560946274548769,0.01883440650999546,-0.0003035876143258065,0.014699260704219341
0.017167367041110992,-0.0015765463467687368,-0.015542634762823582,0.018431568518280983,-0.0002957104006782174,0.013345042243599892
0.0167799461632967,-0.0014401550870388746,-0.016044314950704575,0.018085438758134842,-0.0002843309775926173,0.013897408731281757
0.017488885670900345,-0.001428984571248293,-0.015742961317300797,0.017743047326803207,-0.0002999507705681026,0.014649372547864914
0.01724766194820404,-0.0014891978353261948,-0.015912145376205444,0.017248203977942467,-0.00030513471574522555,0.014833206310868263
0.01741654798388481,-0.001435697777196765,-0.015079245902597904,0.01776696927845478,-0.00028731656493619084,0.015069331042468548
0.01775236427783966,-0.0016768442001193762,-0.015736620873212814,0.018092814832925797,-0.00027016797685064375,0.015157836489379406
0.017635144293308258,-0.0017160900169983506,-0.015562918037176132,0.018025092780590057,-0.00025486701633781195,0.014882671646773815
0.017891939729452133,-0.001543686375953257,-0.016150498762726784,0.018332112580537796,-0.0002861128014046699,0.015052498318254948
0.017490286380052567,-0.0016005722573027015,-0.015573532320559025,0.017805593088269234,-0.00027449402841739357,0.015007746405899525
0.01763390190899372,-0.0014744206564500928,-0.01572548598051071,0.017749639227986336,-0.0002613946271594614,0.014842758886516094
0.018176231533288956,-0.0014418911887332797,-0.015978088602423668,0.017978232353925705,-0.00024933370877988636,0.015116202645003796
0.01879766210913658,-0.0013724537566304207,-0.015706907957792282,0.01801641471683979,-0.0002676691219676286,0.015147360973060131
0.01839865744113922,-0.00130058778449893,-0.01593090035021305,0.018158171325922012,-0.0002656160795595497,0.015412812121212482
0.01839865744113922,-0.00130058778449893,-0.01593090035021305,0.018158171325922012,-0.0002656160795595497,0.015412812121212482
0.018222443759441376,-0.0011874479241669178,-0.01566644199192524,0.017774611711502075,-0.0002554489183239639,0.015171783044934273
0.017795760184526443,-0.001251500565558672,-0.01618683524429798,0.017626561224460602,-0.00026269888621754944,0.015362854115664959
0.018018672242760658,-0.0012281882809475064,-0.01560140959918499,0.017684239894151688,-0.0002689121465664357,0.015058852732181549
0.018328536301851273,-0.0011706009972840548,-0.01600874587893486,0.017318671569228172,-0.00026023900136351585,0.015535933896899223
0.01867455244064331,-0.0011100337142124772,-0.016259675845503807,0.017715852707624435,-0.00027773514739237726,0.015470681712031364
0.018399562686681747,-0.0010784681653603911,-0.015860989689826965,0.017464591190218925,-0.00026195068494416773,0.015289483591914177
0.01797921396791935,-0.0010286278557032347,-0.01574593409895897,0.017401158809661865,-0.0002936507517006248,0.01566697098314762
0.018701862543821335,-0.0011158763663843274,-0.015970487147569656,0.01684332638978958,-0.00028135243337601423,0.015495420433580875
0.018702588975429535,-0.001115988357923925,-0.015432802960276604,0.01721617765724659,-0.00026760288164950907,0.01564670167863369
0.019406229257583618,-0.001126765855588019,-0.015979455783963203,0.017723670229315758,-0.000294561090413481,0.015235119499266148
0.01899980939924717,-0.0009575862204656005,-0.01594381220638752,0.017430584877729416,-0.0003036973939742893,0.015300476923584938
0.01965397596359253,-0.000688316416926682,-0.01619388349354267,0.0172940194606781,-0.00030926105682738125,0.015565170906484127
0.01827002502977848,-0.0005383066018112004,-0.015440842136740685,0.01719755493104458,-0.0004398528835736215,0.015364798717200756
0.018290558829903603,-0.00029841469950042665,-0.0162655059248209,0.017711663618683815,-0.0004926298279315233,0.01538894884288311
0.018862659111618996,-0.00016939087072387338,-0.016008218750357628,0.01754678040742874,-0.0004990051384083927,0.015263867564499378
0.019223162904381752,-0.00023310577671509236,-0.016727404668927193,0.017176486551761627,-0.0004944317624904215,0.015696482732892036
0.01964336819946766,-0.00024406205920968205,-0.016693880781531334,0.01737852208316326,-0.0005217138095758855,0.016439275816082954
0.019419614225625992,-0.0002853123005479574,-0.016388630494475365,0.017132867127656937,-0.0004903064691461623,0.016222577542066574
0.01957438513636589,-0.000288062117761001,-0.017192531377077103,0.01748468540608883,-0.0005612673121504486,0.01536293514072895
0.01927054487168789,-0.00026068472652696073,-0.015546193346381187,0.01751045696437359,-0.0005861929967068136,0.015624972060322762
0.019480805844068527,-0.00023772795975673944,-0.016086077317595482,0.016968678683042526,-0.0006143721402622759,0.015928318724036217
0.019654246047139168,-0.000282519671600312,-0.016064707189798355,0.01721266098320484,-0.0006436757394112647,0.016356563195586205
0.01965557038784027,-0.00026938068913295865,-0.01673353835940361,0.016894372180104256,-0.0005946436431258917,0.016250988468527794
0.019667889922857285,-0.0002507227472960949,-0.017196614295244217,0.01724478416144848,-0.0006161841447465122,0.015872834250330925
0.019764240831136703,-0.00023439618234988302,-0.016283567994832993,0.01706662029027939,-0.0005748418043367565,0.01612362265586853
0.019703978672623634,-0.00022006536892149597,-0.01657688431441784,0.01716039702296257,-0.0006288014119490981,0.016053205356001854
0.019703978672623634,-0.00022006536892149597,-0.01657688431441784,0.01716039702296257,-0.0006288014119490981,0.016053205356001854
0.019580375403165817,-0.0002073865180136636,-0.015889421105384827,0.01773565076291561,-0.0006554427091032267,0.016239108517766
0.019932281225919724,-0.00019608877482824028,-0.016376417130231857,0.017283935099840164,-0.000644313869997859,0.01625090278685093
0.020233863964676857,-0.00018595829897094518,-0.01621522754430771,0.01708579994738102,-0.0006241760565899312,0.0164368636906147
0.0196992177516222,-0.0001768237998476252,-0.016715358942747116,0.017263462767004967,-0.0006098164594732225,0.01635124906897545
0.019488612189888954,-0.00025000356254167855,-0.016474450007081032,0.016880571842193604,-0.0005952243809588253,0.01638035662472248
0.020445434376597404,-0.00024656541063450277,-0.015801016241312027,0.01708766259253025,-0.0005986822652630508,0.016704460605978966
0.019735487177968025,-0.00022233209165278822,-0.015669189393520355,0.017284845933318138,-0.0006559995817951858,0.016824331134557724
0.01999892108142376,-0.00021186312369536608,-0.016607725992798805,0.017356503754854202,-0.000635303498711437,0.01675567775964737
0.020019609481096268,-0.00020233617397025228,-0.01648338884115219,0.01695156842470169,-0.0006566650117747486,0.016809668391942978
0.02016431652009487,-0.00019362942839507014,-0.016689928248524666,0.017466235905885696,-0.0006065188208594918,0.016790837049484253
0.020269157364964485,-0.00018564095080364496,-0.016664307564496994,0.017242517322301865,-0.0006976930308155715,0.016664737835526466
0.020358353853225708,-0.00017828609270509332,-0.015964316204190254,0.017814822494983673,-0.0007147640571929514,0.016970859840512276
0.01982336863875389,-0.00017149103223346174,-0.016283128410577774,0.018183361738920212,-0.0007093457970768213,0.016436664387583733
0.02002996951341629,-0.00016519537894055247,-0.016106517985463142,0.017944369465112686,-0.0006813086802139878,0.016661670058965683
0.020577959716320038,-0.00015934552357066423,-0.01685451529920101,0.01800631731748581,-0.0006601528730243444,0.016546912491321564
0.020518522709608078,-0.00015389613690786064,-0.016038058325648308,0.017459210008382797,-0.0006400117999874055,0.016940949484705925
0.020191704854369164,-0.0001488068519392982,-0.01617984101176262,0.017626957967877388,-0.0006291277823038399,0.017256837338209152
0.02019738405942917,-0.0001440434716641903,-0.016314147040247917,0.017569489777088165,-0.000642527942545712,0.017184311524033546
0.020335953682661057,-0.0001395756844431162,-0.01621468923985958,0.017276978120207787,-0.0006210572901181877,0.018574528396129608
0.020133061334490776,-0.00016207777662202716,-0.016643473878502846,0.017408717423677444,-0.0006403136649169028,0.017399689182639122
0.020105160772800446,-0.00015770280151627958,-0.015930112451314926,0.017429662868380547,-0.0006531780818477273,0.016933755949139595
0.02098190039396286,-0.0001532325113657862,-0.01625867560505867,0.01735609397292137,-0.0006169918924570084,0.01705041341483593
0.021458083763718605,-0.0001490043505327776,-0.015814444050192833,0.016917923465371132,-0.0006771076004952192,0.017614154145121574
0.020414352416992188,-0.00014500330144073814,-0.015893813222646713,0.016886031255126,-0.0006821565912105143,0.01763717085123062
0.020649954676628113,-0.00014121142157819122,-0.015643704682588577,0.017633579671382904,-0.0006546094664372504,0.017999639734625816
0.020334463566541672,-0.00013761261652689427,-0.015903683379292488,0.017709022387862206,-0.0006339820683933794,0.01812739484012127
0.02023855596780777,-0.00011445068957982585,-0.01606772653758526,0.017949623987078667,-0.0006145081133581698,0.01800549402832985
0.020620184019207954,-0.00010915115126408637,-0.015961037948727608,0.017832515761256218,-0.0005623825709335506,0.017479946836829185
0.020754415541887283,-0.00010653319623088464,-0.015993567183613777,0.0171778816729784,-0.000516419589985162,0.01709139160811901
0.020754415541887283,-0.00010653319623088464,-0.015993567183613777,0.0171778816729784,-0.000516419589985162,0.01709139160811901
0.020707596093416214,-0.00010406919318484142,-0.015572195872664452,0.017823707312345505,-0.0004772745887748897,0.0175494197756052
0.020047416910529137,-0.00010171683243243024,-0.01605604588985443,0.017407037317752838,-0.0004983737599104643,0.0180528424680233
0.020956171676516533,-9.946859063347802e-05,-0.015593602322041988,0.01742173731327057,-0.0004730778746306896,0.018787560984492302
0.02100551873445511,-9.525759378448129e-05,-0.016082456335425377,0.016965962946414948,-0.00041854529990814626,0.018273554742336273
0.020601261407136917,-9.328286250820383e-05,-0.016212191432714462,0.016991015523672104,-0.00039554343675263226,0.01846512407064438
0.021082928404211998,-9.138839959632605e-05,-0.016301658004522324,0.01611395925283432,-0.00034191657323390245,0.018070433288812637
0.02046731486916542,-8.956954116001725e-05,-0.01610518805682659,0.016282234340906143,-0.0003143472713418305,0.018484342843294144
0.020536653697490692,-8.782152144704014e-05,-0.01642506942152977,0.016615528613328934,-0.0002935847733169794,0.018628543242812157
0.020806152373552322,-8.61404332681559e-05,-0.016399318352341652,0.016744505614042282,-0.0003268612490501255,0.01832490600645542
0.02119278348982334,-8.452247857348993e-05,-0.016543535515666008,0.017652802169322968,-0.00031135298195295036,0.017960049211978912
0.021063657477498055,-8.296417217934504e-05,-0.01647607423365116,0.017729301005601883,-0.0002945799205917865,0.01732826605439186
0.021479569375514984,-8.146248728735372e-05,-0.01708909124135971,0.017654111608862877,-0.00030206088558770716,0.017567910254001617
0.02134172059595585,-8.00139459897764e-05,-0.017658015713095665,0.0176471546292305,-0.00030831684125587344,0.018270619213581085
0.02101871557533741,-7.86161472206004e-05,-0.016966650262475014,0.016459863632917404,-0.0002952407521661371,0.01840842515230179
0.021057529374957085,-6.709508306812495e-05,-0.01741868443787098,0.01788090541958809,-0.00028210695018060505,0.01861029490828514
0.020787326619029045,-6.0840509831905365e-05,-0.016756029799580574,0.0177464559674263,-0.00028888011001981795,0.020278939977288246
0.02149808779358864,-5.976191823720001e-05,-0.016866620630025864,0.017328642308712006,-0.00029462052043527365,0.018001070246100426
0.021953050047159195,-5.878506999579258e-05,-0.01668359339237213,0.016542252153158188,-0.00028414049302227795,0.0177707951515913
0.02146611548960209,-5.784058157587424e-05,-0.016965679824352264,0.01587354950606823,-0.00032310656388290226,0.01831384003162384
0.02134762331843376,-5.692602280760184e-05,-0.01765955239534378,0.016113149002194405,-0.00030865578446537256,0.01891973614692688
0.02175132744014263,-5.603992030955851e-05,-0.017094332724809647,0.01598668284714222,-0.00033932196674868464,0.019587917253375053
0.02202422544360161,-5.518137913895771e-05,-0.016808215528726578,0.01671850122511387,-0.00032571182237006724,0.019620630890130997
0.02202422544360161,-5.518137913895771e-05,-0.016808215528726578,0.01671850122511387,-0.00032571182237006724,0.019620630890130997
0.021808724850416183,-5.354008317226544e-05,-0.017451973631978035,0.01674564927816391,-0.0003362033166922629,0.019497878849506378
0.021964484825730324,-5.275550938677043e-05,-0.017588745802640915,0.01695805974304676,-0.00032196452957578003,0.01933104358613491
0.0217992402613163,-5.199326915317215e-05,-0.016652807593345642,0.017215285450220108,-0.00034727007732726634,0.01893991231918335
0.0217992402613163,-5.199326915317215e-05,-0.016652807593345642,0.017215285450220108,-0.00034727007732726634,0.01893991231918335
0.021715933457016945,-5.1253406127216294e-05,-0.016834119334816933,0.01778465136885643,-0.00033472065115347505,0.019299235194921494
0.021583613008260727,-5.0533948524389416e-05,-0.01684301719069481,0.017027858644723892,-0.00045578868594020605,0.01917377859354019
0.0220970306545496,-4.983443068340421e-05,-0.017148874700069427,0.016756070777773857,-0.0004230908234603703,0.018655288964509964
0.022457050159573555,-4.84919328300748e-05,-0.016821084544062614,0.015775414183735847,-0.0004275919927749783,0.019331615418195724
0.022799791768193245,-4.784750854014419e-05,-0.016927868127822876,0.016415677964687347,-0.0004535329935606569,0.019334036856889725
0.02257356233894825,-3.588488107197918e-05,-0.0168453399091959,0.016674015671014786,-0.0004303370660636574,0.01951969414949417
0.022839343175292015,-3.496272984193638e-05,-0.01724587194621563,0.01793627440929413,-0.00044569175224751234,0.01961607113480568
0.02264983393251896,2.669578134373296e-05,-0.01713073067367077,0.018412601202726364,-0.00043219837243668735,0.0196275282651186
0.02248557098209858,2.8736381864291616e-05,-0.016831673681735992,0.017533767968416214,-0.0004085339605808258,0.019654225558042526
0.022788720205426216,2.787926496239379e-05,-0.01703650690615177,0.017432061955332756,-0.0004123360849916935,0.02032960206270218
0.022788720205426216,2.787926496239379e-05,-0.01703650690615177,0.017432061955332756,-0.0004123360849916935,0.02032960206270218
0.02286660484969616,2.745406709436793e-05,-0.017155097797513008,0.018142808228731155,-0.0003796351084019989,0.02005510963499546
0.02290731854736805,2.7041631255997345e-05,-0.0172530859708786,0.018059048801660538,-0.00041528636938892305,0.01952476054430008
0.023105794563889503,2.6641395379556343e-05,-0.01689942553639412,0.017365604639053345,-0.00038956396747380495,0.01921091042459011
0.02314145676791668,2.6252851967001334e-05,-0.017326919361948967,0.01787499152123928,-0.00041595337097533047,0.020243899896740913
0.023629816249012947,3.863711390295066e-05,-0.016860738396644592,0.017001202329993248,-0.000396901712520048,0.020088691264390945
0.023739876225590706,3.826083047897555e-05,-0.017130857333540916,0.016884665936231613,-0.00041315151611343026,0.02026621624827385
0.02293398790061474,3.772849959204905e-05,-0.017026754096150398,0.016946785151958466,-0.00040238723158836365,0.019800351932644844
0.023036867380142212,3.720858148881234e-05,-0.016870802268385887,0.01675783284008503,-0.00038404372753575444,0.02041841670870781
0.02328438311815262,3.670286969281733e-05,-0.017518650740385056,0.017423339188098907,-0.00043991184793412685,0.020693164318799973
0.02367648482322693,3.621061478042975e-05,-0.016459031030535698,0.017201367765665054,-0.0004063025990035385,0.0205235555768013
0.02344367839396,4.357465513749048e-05,-0.017211060971021652,0.017141342163085938,-0.0004373209085315466,0.020118042826652527
0.024176044389605522,4.696509859059006e-05,-0.01721097156405449,0.016878345981240273,-0.00041266376501880586,0.02035392075777054
0.024571985006332397,4.641279156203382e-05,-0.017136672511696815,0.016315320506691933,-0.0004309157666284591,0.020051490515470505
0.024278156459331512,4.582271139952354e-05,-0.017344804480671883,0.016497191041707993,-0.0004460782802198082,0.020026952028274536
0.023844920098781586,4.524681935436092e-05,-0.01673845574259758,0.016352493315935135,-0.0004460615455172956,0.02041378617286682
0.023863114416599274,5.570478970184922e-05,-0.017161116003990173,0.01715339533984661,-0.0005423197289928794,0.021235035732388496
0.023689428344368935,5.5169701226986945e-05,-0.016924437135457993,0.017047865316271782,-0.0005745969829149544,0.021489188075065613
0.024136099964380264,5.45035109098535e-05,-0.017204342409968376,0.016961580142378807,-0.00058429513592273,0.021585075184702873
0.024136099964380264,5.45035109098535e-05,-0.017204342409968376,0.016961580142378807,-0.00058429513592273,0.021585075184702873
0.02474193088710308,0.00014248292427510023,-0.01701444946229458,0.017056068405508995,-0.0005917327362112701,0.020907828584313393
0.02473953180015087,0.00018119999731425196,-0.01752941869199276,0.017478307709097862,-0.0005596004775725305,0.021077482029795647
0.0245226863771677,0.0001747602509567514,-0.017007529735565186,0.01731763407588005,-0.0006765802972950041,0.021572202444076538
0.0248233824968338,0.00016823432815726846,-0.017385995015501976,0.01736351288855076,-0.0007106874254532158,0.02118157409131527
0.02507229894399643,0.0001621714764041826,-0.017617832869291306,0.017663639038801193,-0.0006858577253296971,0.020745012909173965
0.025541173294186592,0.00018740141240414232,-0.017228666692972183,0.01732366532087326,-0.0006598210311494768,0.021006343886256218
0.02526189759373665,0.00018151635595131665,-0.017421703785657883,0.017664175480604172,-0.0006412556977011263,0.02131654880940914
0.025055667385458946,0.0001756188867148012,-0.017210202291607857,0.0173176396638155,-0.0006232643499970436,0.021321306005120277
0.02516203559935093,0.0001980423548957333,-0.017469611018896103,0.017145484685897827,-0.0005795517936348915,0.022088367491960526
0.025404883548617363,0.00019237014930695295,-0.017544887959957123,0.017389455810189247,-0.0005620915908366442,0.02097504772245884
0.02519531361758709,0.0001866751117631793,-0.016920171678066254,0.017364703118801117,-0.0005761892534792423,0.020365659147500992
0.025289174169301987,0.00019832298858091235,-0.017384067177772522,0.01770533248782158,-0.0005411232123151422,0.020873893052339554
0.025313017889857292,0.00020128791220486164,-0.017535539343953133,0.017253540456295013,-0.0005328117404133081,0.021108433604240417
0.02576576918363571,0.00019592490571085364,-0.01780889742076397,0.01657581515610218,-0.0005244670319370925,0.021704424172639847
0.02557971514761448,0.000272538629360497,-0.01828989014029503,0.016976892948150635,-0.0005508990143425763,0.021497726440429688
0.02573912777006626,0.00029543854179792106,-0.017235631123185158,0.01681290939450264,-0.0005157786072231829,0.02100195363163948
0.025788607075810432,0.0002777493209578097,-0.018040798604488373,0.01717863231897354,-0.0005547028267756104,0.020766481757164
0.025613553822040558,0.00031177184428088367,-0.01790802739560604,0.01709229126572609,-0.0005534751689992845,0.02111063338816166
0.025894885882735252,0.00029665057081729174,-0.01719333603978157,0.01674564927816391,-0.0005421724636107683,0.0214875265955925
0.02577890269458294,0.000322521518683061,-0.01804083213210106,0.01667048968374729,-0.0004953033057972789,0.021510398015379906
0.0258993748575449,0.0003117816522717476,-0.01793387159705162,0.01630299724638462,-0.00045382187818177044,0.021964220330119133
0.025937184691429138,0.0002971447247546166,-0.018375998362898827,0.016924414783716202,-0.0004834520514123142,0.021562490612268448
0.025937184691429138,0.0002971447247546166,-0.018375998362898827,0.016924414783716202,-0.0004834520514123142,0.021562490612268448
0.025604769587516785,0.0003103406634181738,-0.018199553713202477,0.01697830855846405,-0.0005088101606816053,0.021511662751436234
0.025987979024648666,0.00031013251282274723,-0.017121145501732826,0.017221461981534958,-0.00048259366303682327,0.021738147363066673
0.027100784704089165,0.0002974950766656548,-0.018386874347925186,0.01700812764465809,-0.00045581013546325266,0.02165725640952587
0.026950830593705177,0.0003962821210734546,-0.018912864848971367,0.016486333683133125,-0.0004604975110851228,0.021543266251683235
0.026005735620856285,0.00036861427361145616,-0.01846468076109886,0.016793053597211838,-0.0004207718011457473,0.02186993882060051
0.026788638904690742,0.0003800104313995689,-0.017507297918200493,0.016733819618821144,-0.00042483414290472865,0.02201027050614357
0.02700791507959366,0.0004072120354976505,-0.01779722049832344,0.01661699451506138,-0.0004554853367153555,0.022108949720859528
0.026083974167704582,0.000388641026802361,-0.01879892498254776,0.016879364848136902,-0.0004582628607749939,0.02213023044168949
0.026730794459581375,0.0004176993970759213,-0.017826510593295097,0.016846967861056328,-0.00045675039291381836,0.022400662302970886
0.02686569094657898,0.0005559572018682957,-0.018116068094968796,0.016658924520015717,-0.000525568553712219,0.02241521328687668
0.027140051126480103,0.0006038048886694014,-0.018815189599990845,0.016937648877501488,-0.0005735665909014642,0.023423969745635986
0.026563238352537155,0.0005533323273994029,-0.01850716397166252,0.01699613779783249,-0.0006068611401133239,0.02269701473414898
0.02603718265891075,0.0005844535189680755,-0.018509475514292717,0.017518239095807076,-0.0005735412705689669,0.022181972861289978
0.026224739849567413,0.0006031276425346732,-0.018662000074982643,0.017500562593340874,-0.0005968938930891454,0.02221197448670864
0.02728186547756195,0.0005642639589495957,-0.018127450719475746,0.01743108034133911,-0.0008000080124475062,0.022338079288601875
0.02733572944998741,0.0006734974449500442,-0.01854589954018593,0.01772136054933071,-0.0008344564703293145,0.02308533526957035
0.02732389234006405,0.0007084262906573713,-0.018678726628422737,0.017310356721282005,-0.0007390346145257354,0.02331947721540928
0.027052072808146477,0.0007278010598383844,-0.01846400275826454,0.017348742112517357,-0.0007514381431974471,0.023330267518758774
0.027156442403793335,0.0007456878665834665,-0.018529945984482765,0.016242196783423424,-0.0007478563929907978,0.022612983360886574
0.02718205749988556,0.0008927111630328,-0.018143611028790474,0.017522547394037247,-0.0006974617717787623,0.021603329107165337
0.027317380532622337,0.0009167163516394794,-0.018698427826166153,0.017720911651849747,-0.0006587086245417595,0.02193797007203102
0.0272890143096447,0.0009039294673129916,-0.01910262182354927,0.01631263643503189,-0.0006692788447253406,0.022529248148202896
0.027170995250344276,0.0009033092646859586,-0.018385188654065132,0.016430500894784927,-0.0006190779386088252,0.02310599386692047
0.027312740683555603,0.0009249504655599594,-0.019113406538963318,0.016440454870462418,-0.0006247071432881057,0.022723589092493057
0.0275943074375391,0.0009600849007256329,-0.01880655251443386,0.016821058467030525,-0.0006279555382207036,0.02296646498143673
0.027525652199983597,0.0009626357932575047,-0.018334805965423584,0.017081763595342636,-0.0006125943618826568,0.023462120443582535
0.027466855943202972,0.0009697927162051201,-0.01916477084159851,0.016419153660535812,-0.0006778569077141583,0.023729121312499046
0.0277356319129467,0.0012760307872667909,-0.018996410071849823,0.01681477017700672,-0.0007098759524524212,0.023298993706703186
0.027920164167881012,0.001339543261565268,-0.01834254153072834,0.016354860737919807,-0.0006920640007592738,0.022459322586655617
0.027994930744171143,0.0013682780554518104,-0.01888754963874817,0.01653520204126835,-0.0006656137993559241,0.022687694057822227
0.02813240885734558,0.0013372477842494845,-0.01900739036500454,0.01679801195859909,-0.0006849025376141071,0.022754065692424774
0.02813240885734558,0.0013372477842494845,-0.01900739036500454,0.01679801195859909,-0.0006849025376141071,0.022754065692424774
0.02860300801694393,0.001232658396475017,-0.018975764513015747,0.016755856573581696,-0.0007045665988698602,0.02340548112988472
0.02860300801694393,0.001232658396475017,-0.018975764513015747,0.016755856573581696,-0.0007045665988698602,0.02340548112988472
0.028770767152309418,0.0011847958667203784,-0.018879570066928864,0.016644036397337914,-0.0007162836263887584,0.0233649592846632
0.028401808813214302,0.0011646420462056994,-0.019242027774453163,0.016474558040499687,-0.0007225661538541317,0.0233777966350317
0.02870192378759384,0.0014514151262119412,-0.018985679373145103,0.016475221142172813,-0.0007453884463757277,0.024953331798315048
0.028844080865383148,0.0014320429181680083,-0.01911482773721218,0.017081575468182564,-0.0007667047320865095,0.02353501133620739
0.028437117114663124,0.0019442858174443245,-0.01935550570487976,0.016867436468601227,-0.000726608035620302,0.02333156205713749
0.02728724293410778,0.0017958488315343857,-0.01916154846549034,0.017559843137860298,-0.0007361079333350062,0.023230543360114098
0.02915639989078045,0.001763262553140521,-0.018812019377946854,0.01736394502222538,-0.0007528436835855246,0.023409320041537285
0.029287079349160194,0.001719368970952928,-0.01909690536558628,0.01700221374630928,-0.0008170516812242568,0.02380368299782276
0.029510432854294777,0.0016998198116198182,-0.019188012927770615,0.017208918929100037,-0.0008556606480851769,0.024130847305059433
0.029265083372592926,0.0017317007295787334,-0.019262047484517097,0.016725793480873108,-0.0008470849716104567,0.02409805729985237
0.028018657118082047,0.0020699657034128904,-0.01935512199997902,0.017415281385183334,-0.0007721619331277907,0.02384861372411251
0.028344839811325073,0.002035941928625107,-0.018883157521486282,0.017339102923870087,-0.0007367169600911438,0.023888271301984787
0.02946723811328411,0.0022607543505728245,-0.018985608592629433,0.017292242497205734,-0.0007068705162964761,0.024026861414313316
0.029008353129029274,0.0020571397617459297,-0.019324099645018578,0.016942109912633896,-0.0006461609154939651,0.024420907720923424
0.028895704075694084,0.002190763596445322,-0.019676055759191513,0.016557864844799042,-0.000593062024563551,0.02433355338871479
0.03019261360168457,0.002446557395160198,-0.019492346793413162,0.016849061474204063,-0.0005332758883014321,0.024077055975794792
0.029434992000460625,0.0024622948840260506,-0.019711116328835487,0.016534939408302307,-0.000475225766422227,0.023936200886964798
0.029434992000460625,0.0024622948840260506,-0.019711116328835487,0.016534939408302307,-0.000475225766422227,0.023936200886964798
0.029102662578225136,0.0027586540672928095,-0.019136127084493637,0.016717439517378807,-0.0005036452203057706,0.02489977516233921
0.028237245976924896,0.0028644108679145575,-0.018678944557905197,0.017301000654697418,-0.0004698287521023303,0.025514069944620132
0.02831687591969967,0.00252724252641201,-0.019414754584431648,0.01703738421201706,-0.0004998169606551528,0.02507883496582508
0.02933133952319622,0.0025367375928908587,-0.01961454004049301,0.017070727422833443,-0.0004671479109674692,0.0238015279173851
0.029522990807890892,0.002684503560885787,-0.020058754831552505,0.016507107764482498,-0.00048086047172546387,0.023559702560305595
0.029244299978017807,0.0029244860634207726,-0.01863362081348896,0.017121925950050354,-0.00046410979120992124,0.023943796753883362
0.02959144487977028,0.002990622539073229,-0.020629310980439186,0.017041435465216637,-0.0005595118855126202,0.024847380816936493
0.02959144487977028,0.002990622539073229,-0.020629310980439186,0.017041435465216637,-0.0005595118855126202,0.024847380816936493
0.029024846851825714,0.002903224900364876,-0.020256448537111282,0.016513029113411903,-0.0005512679927051067,0.025211405009031296
0.029379626736044884,0.0031777641270309687,-0.018661562353372574,0.017266185954213142,-0.0005769627168774605,0.025612501427531242
0.029032882302999496,0.003012293018400669,-0.019810667261481285,0.017375381663441658,-0.0006832776707597077,0.025000562891364098
0.029205504804849625,0.0031949097756296396,-0.0193933192640543,0.017535274848341942,-0.0007127688731998205,0.02409839630126953
0.028916720300912857,0.003253417555242777,-0.018487928435206413,0.01712307333946228,-0.0007383000338450074,0.024180935695767403
0.029657065868377686,0.003549029352143407,-0.019491666927933693,0.01675460673868656,-0.0007579026860184968,0.023481879383325577
0.029572563245892525,0.003386180615052581,-0.02012673392891884,0.017239799723029137,-0.000754045438952744,0.024353893473744392
0.029669634997844696,0.0034853238612413406,-0.01911570131778717,0.0175430066883564,-0.0007027005776762962,0.025006521493196487
0.030286453664302826,0.003345649456605315,-0.019486146047711372,0.017604457214474678,-0.0007079793722368777,0.02486375719308853
0.030065808445215225,0.0033762941602617502,-0.01947038806974888,0.01790839619934559,-0.0006956022116355598,0.025131303817033768
0.02917785942554474,0.0036652875132858753,-0.018929218873381615,0.01677161641418934,-0.000665092549752444,0.024984467774629593
0.02906602993607521,0.0038667626213282347,-0.019204968586564064,0.01683736965060234,-0.0006872750236652792,0.025127938017249107
0.029814880341291428,0.0039008953608572483,-0.0193596500903368,0.016768965870141983,-0.0006905806949362159,0.024963483214378357
0.031077299267053604,0.0034333423245698214,-0.018719058483839035,0.017011569812893867,-0.0006488265353254974,0.02495470643043518
0.030714981257915497,0.0033439307007938623,-0.01916399598121643,0.017489230260252953,-0.0006754635833203793,0.025313835591077805
0.030714981257915497,0.0033439307007938623,-0.01916399598121643,0.017489230260252953,-0.0006754635833203793,0.025313835591077805
0.030158353969454765,0.003462549764662981,-0.019501961767673492,0.017456727102398872,-0.0006722313119098544,0.025475485250353813
0.02935039810836315,0.003722062101587653,-0.018954098224639893,0.017811156809329987,-0.0006456750561483204,0.025651101022958755
0.030432086437940598,0.0038414928130805492,-0.01923729106783867,0.016496675089001656,-0.0006693959585390985,0.02566472627222538
0.03078833967447281,0.0043765949085354805,-0.01928775943815708,0.017639150843024254,-0.0006525918724946678,0.025588974356651306
0.030577918514609337,0.004610721953213215,-0.019199242815375328,0.018230754882097244,-0.0006335110520012677,0.025760088115930557
0.03140827640891075,0.0046745468862354755,-0.019345929846167564,0.01766464114189148,-0.0005846308195032179,0.025632550939917564
0.03150836005806923,0.00440820399671793,-0.01930842362344265,0.017140042036771774,-0.0006061570602469146,0.025745805352926254
0.029980607330799103,0.0041595278307795525,-0.01942172460258007,0.017104750499129295,-0.0005718052270822227,0.025727704167366028
0.030965479090809822,0.0044627864845097065,-0.0193227119743824,0.017037956044077873,-0.0005223080515861511,0.025909703224897385
0.031636402010917664,0.0048531778156757355,-0.01876641996204853,0.01633782684803009,-0.0005502845160663128,0.026256443932652473
0.031181327998638153,0.004924233537167311,-0.019421659409999847,0.016460968181490898,-0.000510498124640435,0.026337703689932823
0.03146536275744438,0.004782075993716717,-0.019213931635022163,0.017096538096666336,-0.0005052162450738251,0.026210922747850418
0.03125477209687233,0.004902981221675873,-0.01876968704164028,0.017718307673931122,-0.0005000468227081001,0.025682048872113228
0.031326714903116226,0.00481871934607625,-0.0194364283233881,0.017382992431521416,-0.0004897590260952711,0.025899788364768028
0.03150150924921036,0.0045222691260278225,-0.01943277195096016,0.016291122883558273,-0.0004607361333910376,0.026080196723341942
0.03138906508684158,0.005031250417232513,-0.01874467357993126,0.016955871134996414,-0.0004913650336675346,0.026482313871383667
0.03231270983815193,0.00502886762842536,-0.019071415066719055,0.01628650352358818,-0.00045942788710817695,0.026270568370819092
0.031809888780117035,0.004737360868602991,-0.0192649457603693,0.016474997624754906,-0.0004896354512311518,0.025946814566850662
0.031887996941804886,0.004509908612817526,-0.01884584315121174,0.016947347670793533,-0.000514888612087816,0.02623065561056137
0.031882625073194504,0.004606389906257391,-0.019266339018940926,0.01667935773730278,-0.0004879720800090581,0.026346296072006226
0.03169730678200722,0.004712171386927366,-0.01873333565890789,0.016778593882918358,-0.0005771158030256629,0.02666938491165638
0.032308973371982574,0.004673642106354237,-0.01888468489050865,0.016558509320020676,-0.0006280193920247257,0.026844915002584457
0.032810911536216736,0.005249683279544115,-0.019199183210730553,0.017074311152100563,-0.0005869001033715904,0.02613706700503826
0.03232407569885254,0.0055197495967149734,-0.01958237774670124,0.01697390154004097,-0.0006130054243840277,0.02667742408812046
0.03232407569885254,0.0055197495967149734,-0.01958237774670124,0.01697390154004097,-0.0006130054243840277,0.02667742408812046
0.03260087966918945,0.005088037811219692,-0.019541649147868156,0.017247335985302925,-0.0006330052856355906,0.027893558144569397
0.03250900283455849,0.0054108682088553905,-0.019786518067121506,0.017477337270975113,-0.0005914111388847232,0.027216559275984764
0.032580554485321045,0.0052319676615297794,-0.019134435802698135,0.017283093184232712,-0.0006860209978185594,0.025761447846889496
0.032953981310129166,0.004809344653040171,-0.019106924533843994,0.017854997888207436,-0.0006057596765458584,0.026112165302038193
0.0332232266664505,0.005452045705169439,-0.0198795348405838,0.01710972934961319,-0.0006261918460950255,0.027286766096949577
0.033310726284980774,0.00522284209728241,-0.01947394758462906,0.017122941091656685,-0.0005722089554183185,0.026947252452373505
0.03382103890180588,0.005383649840950966,-0.019485823810100555,0.01707947812974453,-0.0005507060559466481,0.028128953650593758
0.03335665166378021,0.0051224613562226295,-0.019335158169269562,0.017648393288254738,-0.0005743015790358186,0.028122175484895706
0.03361629694700241,0.0053497799672186375,-0.01912863366305828,0.017557812854647636,-0.0005359600181691349,0.027054734528064728
0.034577224403619766,0.005205961875617504,-0.01986253634095192,0.017318475991487503,-0.0005069964099675417,0.026356633752584457
0.03563782945275307,0.005290404427796602,-0.01994767040014267,0.017296455800533295,-0.00046088872477412224,0.027267055585980415
0.03240067884325981,0.005491906311362982,-0.019392497837543488,0.01692056842148304,-0.00045873160706833005,0.028452193364501
0.033615171909332275,0.005545300897210836,-0.019657135009765625,0.017703155055642128,-0.00045649614185094833,0.028773408383131027
0.03484304994344711,0.005552215967327356,-0.019685113802552223,0.01763559877872467,-0.0004886494134552777,0.028401479125022888
0.03412850573658943,0.005496867932379246,-0.019407961517572403,0.017123054713010788,-0.0005210397648625076,0.027918340638279915
0.03468808904290199,0.0059606898576021194,-0.019251037389039993,0.01743718609213829,-0.0008031371980905533,0.028027435764670372
0.03545204550027847,0.005307839252054691,-0.019992511719465256,0.01722964271903038,-0.0008314938750118017,0.027638878673315048
0.03453105688095093,0.0051550595089793205,-0.0196703914552927,0.017814796417951584,-0.0008550551137886941,0.028019621968269348
0.033317871391773224,0.0053354837000370026,-0.019709108397364616,0.017682138830423355,-0.0010362736647948623,0.028238287195563316
0.034962136298418045,0.005606917664408684,-0.019697226583957672,0.01747046783566475,-0.0010880804620683193,0.02814539335668087
0.03522814065217972,0.004528053104877472,-0.01973561942577362,0.017897630110383034,-0.001050335355103016,0.028390564024448395
0.03492887690663338,0.0032363133504986763,-0.01950070820748806,0.017609111964702606,-0.0009781603002920747,0.02805439382791519
0.03487986698746681,0.0024401212576776743,-0.01976224035024643,0.017542876303195953,-0.0009103100164793432,0.028056833893060684
0.034255534410476685,0.0033125830814242363,-0.01981385238468647,0.01751524582505226,-0.0008230601088143885,0.028124311938881874
0.03473258391022682,0.0038152970373630524,-0.01958087459206581,0.01737924851477146,-0.0007098322967067361,0.028303679078817368
0.03499171510338783,0.004350070841610432,-0.019722670316696167,0.017805149778723717,-0.000672316353302449,0.028461113572120667
0.034948281943798065,0.004211832769215107,-0.02002042904496193,0.016399143263697624,-0.000643850420601666,0.028689851984381676
0.034948281943798065,0.004211832769215107,-0.02002042904496193,0.016399143263697624,-0.000643850420601666,0.028689851984381676
0.03478040173649788,0.00353100523352623,-0.020057914778590202,0.018299279734492302,-0.0006031954544596374,0.02823375165462494
0.03478040173649788,0.00353100523352623,-0.020057914778590202,0.018299279734492302,-0.0006031954544596374,0.02823375165462494
0.034826166927814484,0.0037094037979841232,-0.020747654139995575,0.01741628162562847,-0.0005552652874030173,0.02827499434351921
0.0355241522192955,0.003731587203219533,-0.020783880725502968,0.017274539917707443,-0.0005783278029412031,0.029028218239545822
0.03498920053243637,0.0037470206152647734,-0.02080727554857731,0.017136169597506523,-0.000544714683201164,0.029537571594119072
0.03524460643529892,0.0033859843388199806,-0.020964743569493294,0.017393650487065315,-0.0005940861883573234,0.028003040701150894
0.03697904199361801,0.0036248944234102964,-0.020640965551137924,0.017196405678987503,-0.0006318436353467405,0.027706092223525047
0.03657613322138786,0.0033297999761998653,-0.02069632150232792,0.01734847016632557,-0.0009598618489690125,0.028667328879237175
0.03423997014760971,0.0031893420964479446,-0.02153746411204338,0.017014235258102417,-0.0009951973333954811,0.028794368728995323
0.03467792272567749,0.003209348302334547,-0.021104618906974792,0.017238587141036987,-0.0009545929497107863,0.029070502147078514
0.03630441799759865,0.003527300199493766,-0.020584240555763245,0.01751183159649372,-0.0008564269519411027,0.029535263776779175
0.03582170978188515,0.003318340517580509,-0.021157855167984962,0.017127295956015587,-0.0008555355598218739,0.02944493107497692
0.0367979034781456,0.003135641338303685,-0.021698519587516785,0.017598511651158333,-0.0007994318730197847,0.0285993330180645
0.036577530205249786,0.0034196637570858,-0.021076451987028122,0.017549481242895126,-0.000758279871661216,0.02809024043381214
0.03582633286714554,0.003717967541888356,-0.02107108011841774,0.01735067367553711,-0.0007162602851167321,0.028723912313580513
0.03549686819314957,0.003801054088398814,-0.021295756101608276,0.017845163121819496,-0.0007338144932873547,0.029406430199742317
0.03628198057413101,0.0037631280720233917,-0.02151462621986866,0.017775367945432663,-0.0007446311064995825,0.02977573499083519
0.03673368692398071,0.0037975977174937725,-0.020832594484090805,0.018392696976661682,-0.0007505527464672923,0.02947811596095562
0.03705911338329315,0.0034458760637789965,-0.020905708894133568,0.018200913444161415,-0.0007679256377741694,0.02945895493030548
0.0368330180644989,0.003497678553685546,-0.02133956365287304,0.018156835809350014,-0.0007274158415384591,0.02982163242995739
0.03650829195976257,0.004174729809165001,-0.021368682384490967,0.018735304474830627,-0.0007440888439305127,0.029956312850117683
0.03691071644425392,0.004488662350922823,-0.020780056715011597,0.019040506333112717,-0.0007604276761412621,0.02975207008421421
0.03703966364264488,0.004325884394347668,-0.021524719893932343,0.018712546676397324,-0.0008189005311578512,0.03010484017431736
0.037056490778923035,0.00401691347360611,-0.021375244483351707,0.01903388276696205,-0.0008400612277910113,0.030179807916283607
0.036951251327991486,0.0042771161533892155,-0.02116531878709793,0.01841188222169876,-0.0008175570983439684,0.03035762533545494
0.037829138338565826,0.004416285082697868,-0.020957820117473602,0.017599720507860184,-0.0007726790499873459,0.030081631615757942
0.037142496556043625,0.004386169370263815,-0.02157670445740223,0.017722057178616524,-0.0007829610258340836,0.030854452401399612
0.03781680762767792,0.0043418025597929955,-0.0218240674585104,0.017632197588682175,-0.0008090083720162511,0.029757952317595482
0.037951987236738205,0.0045278542675077915,-0.021235914900898933,0.018503088504076004,-0.0007186151342466474,0.03010706789791584
0.03729056194424629,0.004751939792186022,-0.02080678381025791,0.018569517880678177,-0.0007280588615685701,0.030106157064437866
0.03754720091819763,0.004378666169941425,-0.021293990314006805,0.017672305926680565,-0.0006542166229337454,0.030332447960972786
0.03754720091819763,0.004378666169941425,-0.021293990314006805,0.017672305926680565,-0.0006542166229337454,0.030332447960972786
0.03800465166568756,0.00443659583106637,-0.0218066293746233,0.018002357333898544,-0.0006745121208950877,0.030470186844468117
0.03806273266673088,0.005052306689321995,-0.020562702789902687,0.018485406413674355,-0.0006387559697031975,0.03006291203200817
0.03836282342672348,0.0046232533641159534,-0.021895045414566994,0.018758634105324745,-0.000610058312304318,0.03032025322318077
0.038465555757284164,0.004791184328496456,-0.02245442010462284,0.018146049231290817,-0.0006430657813325524,0.0303499698638916
0.03876066580414772,0.004939686506986618,-0.021781664341688156,0.017903639003634453,-0.0006705837440676987,0.030581150203943253
0.03831729292869568,0.004793236032128334,-0.021394647657871246,0.017399556934833527,-0.0006930739618837833,0.030677253380417824
0.03816544637084007,0.004724306520074606,-0.022043123841285706,0.016937190666794777,-0.0010325300972908735,0.030705537647008896
0.03903602063655853,0.004652693867683411,-0.021778080612421036,0.017731571570038795,-0.0009537248406559229,0.03036530688405037
0.04024462029337883,0.004629923962056637,-0.020996440201997757,0.01814977638423443,-0.0009322640253230929,0.03057875670492649
0.038091063499450684,0.004690481815487146,-0.021515995264053345,0.018375588580965996,-0.0008822492090985179,0.03138759359717369
0.037864867597818375,0.004661025479435921,-0.022674234583973885,0.016967447474598885,-0.0008312956779263914,0.03175469487905502
0.039299070835113525,0.004690412897616625,-0.022266298532485962,0.01855342835187912,-0.0007677320390939713,0.030583901330828667
0.039380062371492386,0.0051680561155080795,-0.021927639842033386,0.019027691334486008,-0.0006676719640381634,0.029996370896697044
0.04016566649079323,0.005022658500820398,-0.021597953513264656,0.019098447635769844,-0.0006896855193190277,0.030382709577679634
0.03943619504570961,0.004915425553917885,-0.021996673196554184,0.01840989664196968,-0.0007626160513609648,0.03066783770918846
0.038174696266651154,0.004769208841025829,-0.022623898461461067,0.01828475296497345,-0.0007445102673955262,0.03077957034111023
0.03891880065202713,0.004727442283183336,-0.021333200857043266,0.01819455809891224,-0.0009843673324212432,0.03238801658153534
0.03997816890478134,0.0047595747746527195,-0.021992800757288933,0.017494194209575653,-0.0009850218193605542,0.03179558739066124
0.03876974433660507,0.005149137694388628,-0.022575853392481804,0.01822536811232567,-0.0009741710382513702,0.029872097074985504
0.040089163929224014,0.004989901557564735,-0.02256820537149906,0.01832517609000206,-0.0008715941221453249,0.030504334717988968
0.03922025114297867,0.004777407273650169,-0.02232087217271328,0.018252942711114883,-0.0008622048771940172,0.031454410403966904
0.039119280874729156,0.005103788338601589,-0.021948477253317833,0.018590303137898445,-0.0007516802288591862,0.0317174457013607
0.04004001244902611,0.005125863943248987,-0.02217879891395569,0.01792549528181553,-0.0007650195620954037,0.03135203197598457
0.039158646017313004,0.004992038477212191,-0.022452689707279205,0.01815267652273178,-0.0007590083405375481,0.03176585212349892
0.03958996757864952,0.005217472556978464,-0.02248825505375862,0.01829734817147255,-0.0007001087651588023,0.03166375681757927
0.04014784097671509,0.005096584092825651,-0.022301461547613144,0.01828661747276783,-0.0007151911850087345,0.03170328214764595
0.04001715034246445,0.004980981815606356,-0.022041993215680122,0.018598804250359535,-0.00066243892069906,0.031444013118743896
0.04001715034246445,0.004980981815606356,-0.022041993215680122,0.018598804250359535,-0.00066243892069906,0.031444013118743896
0.03964879363775253,0.005118987523019314,-0.022535625845193863,0.01822693832218647,-0.0006607343093492091,0.031634651124477386
0.040252599865198135,0.004965661559253931,-0.022481752559542656,0.018145084381103516,-0.0007333074463531375,0.03146672621369362
0.040252599865198135,0.004965661559253931,-0.022481752559542656,0.018145084381103516,-0.0007333074463531375,0.03146672621369362
0.040764398872852325,0.005325200967490673,-0.022480294108390808,0.017534641548991203,-0.0010223760036751628,0.03174962103366852
0.04017670452594757,0.005224548280239105,-0.022762741893529892,0.018198421224951744,-0.0010111331939697266,0.031819310039281845
0.041447024792432785,0.0049651856534183025,-0.022455772385001183,0.018358634784817696,-0.0009021259611472487,0.03217994421720505
0.04157163202762604,0.004868610296398401,-0.022415684536099434,0.018661268055438995,-0.000887855130713433,0.0319865345954895
0.039863619953393936,0.005034592002630234,-0.022421957924962044,0.018551211804151535,-0.0008263830095529556,0.03237117454409599
0.03993818908929825,0.005338806193321943,-0.022933049127459526,0.018389208242297173,-0.0008339426713064313,0.032127294689416885
0.04146315157413483,0.005629909690469503,-0.023275764659047127,0.019392769783735275,-0.00081165338633582,0.031977806240320206
0.04077417030930519,0.005186281632632017,-0.022951990365982056,0.01900220289826393,-0.000820477434899658,0.03198358416557312
0.04086525738239288,0.004902431275695562,-0.02237311750650406,0.018144242465496063,-0.0009289133013226092,0.032883234322071075
0.04084417223930359,0.0052924384362995625,-0.022590775042772293,0.018695775419473648,-0.001020572381094098,0.03335275873541832
0.040702495723962784,0.00521468510851264,-0.023169299587607384,0.01762477681040764,-0.0010071024298667908,0.03242500126361847
0.041168034076690674,0.005794092081487179,-0.022879572585225105,0.017317505553364754,-0.0009922541212290525,0.031409427523612976
0.04075454920530319,0.00570157915353775,-0.023056861013174057,0.01797974482178688,-0.0009112539701163769,0.03231019899249077
0.04106207191944122,0.005568056367337704,-0.023411018773913383,0.018197394907474518,-0.0009558068122714758,0.032158903777599335
0.041599784046411514,0.005515058524906635,-0.02345115877687931,0.018714098259806633,-0.0008801111252978444,0.032546527683734894
0.041610997170209885,0.0056615169160068035,-0.023241467773914337,0.01898827776312828,-0.0008783020311966538,0.03408215939998627
0.041809290647506714,0.005805219057947397,-0.02396358922123909,0.018457721918821335,-0.0008585698087699711,0.033270012587308884
0.04154012352228165,0.006113868672400713,-0.023316049948334694,0.0191056989133358,-0.0007981076487340033,0.0327017717063427
0.04057154431939125,0.005887221544981003,-0.023036658763885498,0.019209660589694977,-0.0008581384900026023,0.03191469982266426
0.04241860285401344,0.005738212261348963,-0.023161686956882477,0.018325453624129295,-0.0008671645191498101,0.03326258435845375
0.042751871049404144,0.006100900005549192,-0.02399676851928234,0.018144158646464348,-0.0008862708928063512,0.03392362222075462
0.042751871049404144,0.006100900005549192,-0.02399676851928234,0.018144158646464348,-0.0008862708928063512,0.03392362222075462
0.04203612357378006,0.006017380394041538,-0.02420206181704998,0.01745806634426117,-0.0011857453500851989,0.03345450758934021
0.04224390164017677,0.006220255047082901,-0.024029813706874847,0.018238874152302742,-0.0011706288205459714,0.03366435691714287
0.04230867698788643,0.006438873242586851,-0.02398076467216015,0.018947206437587738,-0.0010561614762991667,0.03329681605100632
0.042634665966033936,0.006116557866334915,-0.023571304976940155,0.01884966529905796,-0.0010287450859323144,0.03323409706354141
0.042376838624477386,0.006162895355373621,-0.02346007153391838,0.018999891355633736,-0.0009127745870500803,0.033514343202114105
0.042092662304639816,0.006092395633459091,-0.02406327798962593,0.01837974227964878,-0.0008756459574215114,0.03384300693869591
0.04328319430351257,0.006443612277507782,-0.024425756186246872,0.018236398696899414,-0.0008203373872675002,0.03387083858251572
0.04391196370124817,0.0058417790569365025,-0.024333996698260307,0.018286410719156265,-0.0008285633521154523,0.03372426703572273
0.04179029539227486,0.006009815726429224,-0.024098729714751244,0.01813623309135437,-0.0009627080871723592,0.034222561866045
0.04213983193039894,0.006860186345875263,-0.023415226489305496,0.018594462424516678,-0.0009797659004107118,0.03402666375041008
0.042141396552324295,0.006794638931751251,-0.02361851930618286,0.01864023506641388,-0.0012353870552033186,0.033660780638456345
0.04411937668919563,0.005905186757445335,-0.024211810901761055,0.01835303008556366,-0.0013699039118364453,0.03411077335476875
0.044132404029369354,0.006448068656027317,-0.024493394419550896,0.018884753808379173,-0.0012862064177170396,0.03424150496721268
0.04157748073339462,0.005938872694969177,-0.023884430527687073,0.0187637098133564,-0.0010875104926526546,0.03455990180373192
0.04222196713089943,0.005932553671300411,-0.02385120652616024,0.018200986087322235,-0.0010506489779800177,0.03446513041853905
0.04360097646713257,0.0055345045402646065,-0.023649320006370544,0.01857324317097664,-0.0008931513293646276,0.034657590091228485
0.043337561190128326,0.0057112229987978935,-0.023904090747237206,0.01881752349436283,-0.0008163584861904383,0.03420205041766167
0.043470367789268494,0.006019259337335825,-0.024096839129924774,0.019097095355391502,-0.000762359646614641,0.03479109704494476
0.04314339533448219,0.006094877142459154,-0.023786606267094612,0.019121944904327393,-0.0007528609712608159,0.0348593033850193
0.04352639615535736,0.006151234265416861,-0.024223197251558304,0.01847093366086483,-0.0007425689254887402,0.036048196256160736
0.04306516423821449,0.006056375335901976,-0.023963933810591698,0.018478568643331528,-0.0007716096588410437,0.035486217588186264
0.043485127389431,0.005526143126189709,-0.023565910756587982,0.018848620355129242,-0.000819617067463696,0.033919624984264374
0.04317537695169449,0.006303794216364622,-0.02388489432632923,0.01886896602809429,-0.0008488784078508615,0.03411483392119408
0.0435301810503006,0.00627296743914485,-0.02403121441602707,0.019094955176115036,-0.0008636941784061491,0.03541405498981476
0.04473285749554634,0.006508760154247284,-0.023991065099835396,0.018904784694314003,-0.0010609714081510901,0.035331208258867264
0.04313797131180763,0.006289347540587187,-0.02447480522096157,0.0185511726886034,-0.0010279053822159767,0.03654097020626068
0.04313797131180763,0.006289347540587187,-0.02447480522096157,0.0185511726886034,-0.0010279053822159767,0.03654097020626068
0.04287412017583847,0.005969499237835407,-0.024067487567663193,0.018981387838721275,-0.0008982204017229378,0.03636106476187706
0.04321995750069618,0.006069298833608627,-0.02353936806321144,0.019168419763445854,-0.0008653939585201442,0.034939609467983246
0.04414084553718567,0.006595094222575426,-0.02400437369942665,0.018923526629805565,-0.0007856990559957922,0.03452138230204582
0.044602565467357635,0.006626460235565901,-0.026085173711180687,0.019064391031861305,-0.0007927516708150506,0.03589755669236183
0.04253192991018295,0.006206585094332695,-0.023950261995196342,0.01898566074669361,-0.0007050863350741565,0.03644658252596855
0.04441186785697937,0.006303427740931511,-0.025067031383514404,0.019052226096391678,-0.000784700911026448,0.035908062011003494
0.044436030089855194,0.006434398237615824,-0.02464698627591133,0.019131749868392944,-0.0010482472134754062,0.035412296652793884
0.044027116149663925,0.006759890355169773,-0.02437767945230007,0.018858520314097404,-0.0013538781786337495,0.03591185808181763
0.044206660240888596,0.006403906736522913,-0.024126265197992325,0.01922743208706379,-0.0013013564748689532,0.03587382286787033
0.04435776174068451,0.006587325129657984,-0.024297410622239113,0.019070588052272797,-0.0012591363629326224,0.035445500165224075
0.044150181114673615,0.006237952038645744,-0.02481328696012497,0.01842602714896202,-0.001342583680525422,0.035539109259843826
0.04437997192144394,0.006612174212932587,-0.02479185163974762,0.018834302201867104,-0.0013472503051161766,0.0361434742808342
0.04407507926225662,0.00686625437811017,-0.023666013032197952,0.0182090662419796,-0.0013659761752933264,0.03568439185619354
0.04452146217226982,0.006056256126612425,-0.02375904843211174,0.018879583105444908,-0.0013835509307682514,0.03626316785812378
0.04468311741948128,0.00609681336209178,-0.024885091930627823,0.01973814330995083,-0.0012981514446437359,0.03670567274093628
0.044673457741737366,0.006640613544732332,-0.025056879967451096,0.019992953166365623,-0.0011785929091274738,0.03611200675368309
0.045052558183670044,0.006675275042653084,-0.024734552949666977,0.019171714782714844,-0.0010912874713540077,0.036316704005002975
0.04481935128569603,0.007148325443267822,-0.02447677217423916,0.019023600965738297,-0.0009775740327313542,0.03628990426659584
0.045327428728342056,0.006618211045861244,-0.024033093824982643,0.019127333536744118,-0.0009600296034477651,0.036185331642627716
0.0449870303273201,0.006598819978535175,-0.02393362857401371,0.01909024268388748,-0.0009432783117517829,0.03613268584012985
0.04519001394510269,0.0069303554482758045,-0.02425713650882244,0.019935835152864456,-0.0008901214459910989,0.03751200810074806
0.045367203652858734,0.00687056127935648,-0.02430693991482258,0.019873421639204025,-0.0007637542439624667,0.03761710599064827
0.045877087861299515,0.00680167879909277,-0.02477767877280712,0.018546804785728455,-0.0007748341886326671,0.03554351255297661
0.045822933316230774,0.0064932615496218204,-0.024506619200110435,0.018435882404446602,-0.0007822929765097797,0.035622961819171906
0.04591021686792374,0.006641077343374491,-0.024542368948459625,0.018616359680891037,-0.0007949944119900465,0.03638298809528351
0.04602598026394844,0.006837395019829273,-0.02473791316151619,0.018634486943483353,-0.0008130029309540987,0.03709780052304268
0.045648448169231415,0.006843273993581533,-0.0238299909979105,0.019769664853811264,-0.0009199302876368165,0.03833617642521858
