davideferrari95/blind_handover_controller/data/Test 284 - [2024-02-08 -- 13-55-37]/joint_states_data.csv
shoulder_pan_joint,shoulder_lift_joint,elbow_joint,wrist_1_joint,wrist_2_joint,wrist_3_joint
0.0029969329480081797,0.006692010443657637,-0.009438486769795418,0.003897149581462145,-2.216474115357414e-08,0.0031154854223132133
0.0029969329480081797,0.006692010443657637,-0.009438486769795418,0.003897149581462145,-2.216474115357414e-08,0.0031154854223132133
0.0029895512852817774,0.007199622690677643,-0.0096305375918746,0.0039917598478496075,-1.4471991383047111e-09,0.003292687935754657
0.0027321854140609503,0.006902134045958519,-0.009849266149103642,0.003495404263958335,-3.7265243008732796e-05,0.0036245647352188826
0.002658237935975194,0.006488327868282795,-0.009213648736476898,0.0031766779720783234,-9.32383700273931e-05,0.003907038830220699
0.0026085502468049526,0.006560985464602709,-0.009589795023202896,0.002999843331053853,-9.497419523540884e-05,0.003693064209073782
0.002571260556578636,0.006956194993108511,-0.009262201376259327,0.0031535550951957703,-9.324788697995245e-05,0.003465218935161829
0.0028384823817759752,0.0070024412125349045,-0.00934780016541481,0.0031348413322120905,-9.137041342910379e-05,0.0031759801786392927
0.0029828513506799936,0.006417963653802872,-0.009360531345009804,0.003007994731888175,-8.95530465641059e-05,0.003341957461088896
0.002969646593555808,0.007157336920499802,-0.009240287356078625,0.002684790873900056,-8.78056525834836e-05,0.0036412666086107492
0.0027636827435344458,0.006568590644747019,-0.00923512876033783,0.0026065565180033445,-8.61250446178019e-05,0.0034737319219857454
0.0028341596480458975,0.006761771626770496,-0.01016164105385542,0.0024384253192692995,-8.450780296698213e-05,0.0032926001586019993
0.0031735789962112904,0.006592046469449997,-0.009773198515176773,0.0025901785120368004,-9.736688662087545e-05,0.003189337905496359
0.0031456109136343002,0.006582746282219887,-0.009050683118402958,0.0026412736624479294,-9.7596479463391e-05,0.0031743182335048914
0.003034325549378991,0.007223073858767748,-0.009670542553067207,0.002886811038479209,-9.599131590221077e-05,0.0033387725707143545
0.0028586771804839373,0.0069121080450713634,-0.009863794781267643,0.0028345773462206125,-9.432325896341354e-05,0.003142601577565074
0.002822648733854294,0.006763533689081669,-0.009358176030218601,0.002896774560213089,-9.270447480957955e-05,0.0029795998707413673
0.0028174896724522114,0.00651030708104372,-0.00983446929603815,0.0027795895002782345,-9.113984560826793e-05,0.0032557533122599125
0.002903524786233902,0.006942963693290949,-0.009502595290541649,0.0026866020634770393,-8.962709398474544e-05,0.0035762975458055735
0.002813087310642004,0.0070482599548995495,-0.008939451538026333,0.0025139444041997194,-8.816381159704179e-05,0.0035481040831655264
0.0029625266324728727,0.007510852068662643,-0.010253426618874073,0.0027719177305698395,-8.674751734361053e-05,0.0034112511202692986
0.0029625266324728727,0.007510852068662643,-0.010253426618874073,0.0027719177305698395,-8.674751734361053e-05,0.0034112511202692986
0.0029170881025493145,0.006900266744196415,-0.009659330360591412,0.002966468222439289,-8.537598478142172e-05,0.0034129854757338762
0.0027712471783161163,0.006802950985729694,-0.009038610383868217,0.00305743794888258,-9.094609413295984e-05,0.0032366218511015177
0.0026135442312806845,0.006699131801724434,-0.009828747250139713,0.0032952497713267803,-9.608809341443703e-05,0.003463229862973094
0.0029100440442562103,0.007054770365357399,-0.009558512829244137,0.0030175424180924892,-9.367887832922861e-05,0.0034926198422908783
0.0029377753380686045,0.006963656283915043,-0.01093201618641615,0.0029787663370370865,-9.23080078791827e-05,0.003776832949370146
0.002680534264072776,0.007336000446230173,-0.00991609413176775,0.0026726045180112123,-9.097524161916226e-05,0.0035069743171334267
0.0026896956842392683,0.007745387032628059,-0.009200775064527988,0.002657925710082054,-8.968015026766807e-05,0.0034360664431005716
0.0026714897248893976,0.007081511430442333,-0.00978684239089489,0.0026572016067802906,-8.842146053211764e-05,0.0033244809601455927
0.00255959271453321,0.006707990542054176,-0.010378114879131317,0.002754836343228817,-8.719769539311528e-05,0.003423788119107485
0.0028175280895084143,0.006698104552924633,-0.009637713432312012,0.002711561042815447,-8.600731962360442e-05,0.0032167239114642143
0.002905371133238077,0.007186303846538067,-0.010114839300513268,0.0028778179548680782,-8.484889985993505e-05,0.003062385832890868
0.002950238762423396,0.006872972473502159,-0.010044915601611137,0.0028926364611834288,-8.372138108825311e-05,0.0029813412111252546
0.002862657653167844,0.006753329187631607,-0.009652934037148952,0.002869570627808571,-8.262341725639999e-05,0.0030398438684642315
0.002999173477292061,0.006636938080191612,-0.010212563909590244,0.0026814499869942665,-8.729568071430549e-05,0.0033664992079138756
0.003229720052331686,0.006614370737224817,-0.01024335715919733,0.0027301234658807516,-9.162752394331619e-05,0.003643926465883851
0.0031260226387530565,0.006782085634768009,-0.009207446128129959,0.0026351280976086855,-9.08270594663918e-05,0.0034969483967870474
0.0030174986459314823,0.006641642656177282,-0.009948911145329475,0.0025581298395991325,-8.97184872883372e-05,0.003939418587833643
0.0028195895720273256,0.006640572566539049,-0.010557368397712708,0.0027844575233757496,-8.861585956765339e-05,0.0038075547199696302
0.0028207916766405106,0.007215775083750486,-0.009245160035789013,0.0026357066817581654,-8.753847941989079e-05,0.0031165522523224354
0.002915669698268175,0.007056580390781164,-0.009713205508887768,0.0025398903526365757,-8.648708899272606e-05,0.0032206715550273657
0.003394137602299452,0.0072771464474499226,-0.009691190905869007,0.002641401719301939,-8.546048047719523e-05,0.003039242932572961
0.003782545682042837,0.006792786065489054,-0.009533289819955826,0.0027924510650336742,-8.44579772092402e-05,0.0033354517072439194
0.003350204788148403,0.00667098443955183,-0.010345128364861012,0.0028265556320548058,-8.347885159309953e-05,0.0034422988537698984
0.0030247692484408617,0.00685178954154253,-0.010117575526237488,0.002663628663867712,-8.252198313130066e-05,0.003243325976654887
0.002943680388852954,0.007140312343835831,-0.008873471058905125,0.002564926166087389,-8.158689161064103e-05,0.0032201665453612804
0.002943680388852954,0.007140312343835831,-0.008873471058905125,0.002564926166087389,-8.158689161064103e-05,0.0032201665453612804
0.0033415979705750942,0.007433709688484669,-0.009644875302910805,0.0025750240311026573,-7.977895438671112e-05,0.003486627945676446
0.0033415979705750942,0.007433709688484669,-0.009644875302910805,0.0025750240311026573,-7.977895438671112e-05,0.003486627945676446
0.003174189245328307,0.007747988682240248,-0.009364173747599125,0.00274880463257432,-1.0276456123392563e-05,0.003763526910915971
0.0029949999880045652,0.007921208627521992,-0.010209182277321815,0.0025808995123952627,-3.922076939488761e-05,0.0038172968197613955
0.0031836593989282846,0.0074201407842338085,-0.00886564888060093,0.0023158760741353035,-9.183726797346026e-05,0.0032727736979722977
0.0031820691656321287,0.006957093719393015,-0.010124074295163155,0.002555098384618759,-9.021713776746765e-05,0.00311604468151927
0.00306909391656518,0.007011414971202612,-0.009692691266536713,0.002546964678913355,-8.845823322189972e-05,0.0031770607456564903
0.0032478398643434048,0.0070122345350682735,-0.009370326064527035,0.002826360985636711,-8.67538110469468e-05,0.0033179314341396093
0.003096380503848195,0.00716472277417779,-0.010323639027774334,0.002884694142267108,-8.511298801749945e-05,0.003610301064327359
0.0031389498617500067,0.00712737487629056,-0.008445902727544308,0.002958830678835511,-8.35330574773252e-05,0.004162858705967665
0.003190796822309494,0.007736549712717533,-0.009396540001034737,0.0029672395903617144,-8.201053424272686e-05,0.004189548548310995
0.0030683763325214386,0.006989354733377695,-0.010511829517781734,0.002996375085785985,-8.054271893342957e-05,0.003938371781259775
0.0034683654084801674,0.007019589655101299,-0.009468546137213707,0.0031030031386762857,-7.912653381936252e-05,0.003746411995962262
0.003335767425596714,0.007307036314159632,-0.009355064481496811,0.0028159860521554947,-7.775925769237801e-05,0.0037032447289675474
0.0034851673990488052,0.007583178114145994,-0.009956796653568745,0.002538855653256178,-7.643832941539586e-05,0.0037916740402579308
0.0031927661038935184,0.007180375512689352,-0.009605949744582176,0.0024678842164576054,-7.516163896070793e-05,0.003830071771517396
0.003108064644038677,0.007146986201405525,-0.009216349571943283,0.0025161546654999256,-7.392682891804725e-05,0.003894965862855315
0.003235782030969858,0.007255767937749624,-0.009863578714430332,0.002561806933954358,-7.273199298651889e-05,0.0038442215882241726
0.0035584857687354088,0.007822975516319275,-0.009983631782233715,0.002793264342471957,-7.157514482969418e-05,0.0037717281375080347
0.0037512576673179865,0.007091825362294912,-0.00946798175573349,0.0027978047728538513,-7.045450183795765e-05,0.003669718047603965
0.0033135919366031885,0.0069982451386749744,-0.01017899252474308,0.002806472359225154,-6.936840509297326e-05,0.0036835744976997375
0.0035056541673839092,0.007299230899661779,-0.009745976887643337,0.002693267771974206,-7.846034714020789e-05,0.0038105810526758432
0.003848687279969454,0.00754980044439435,-0.009469469077885151,0.0026877906639128923,-8.052277553360909e-05,0.00396789750084281
0.003678862936794758,0.007088068872690201,-0.00954356323927641,0.0025638879742473364,-7.954765169415623e-05,0.003522553015500307
0.003503510495647788,0.007076033391058445,-0.009784827008843422,0.0025690882466733456,-7.840649777790532e-05,0.003593690926209092
0.003712661797180772,0.007295504678040743,-0.00955211091786623,0.0027966892812401056,-7.728526543360204e-05,0.00372121250256896
0.0038786816876381636,0.007549912668764591,-0.010184340178966522,0.002438998082652688,-7.619481766596437e-05,0.004121743608266115
0.003931649029254913,0.007126113399863243,-0.009976187720894814,0.0022383243776857853,-7.5134688813705e-05,0.004144920967519283
0.0038038892671465874,0.007020781747996807,-0.009320984594523907,0.00237173936329782,-7.410354010062292e-05,0.003550958586856723
0.0033195207361131907,0.007316079456359148,-0.009307385422289371,0.002873137826099992,-7.310044748010114e-05,0.003129315562546253
0.0032916595228016376,0.007642111741006374,-0.009713386185467243,0.0028864091727882624,-7.212409400381148e-05,0.00291429297067225
0.003581524593755603,0.007530165836215019,-0.008668418973684311,0.0029262350872159004,-7.117346831364557e-05,0.0032041934318840504
0.0037887103389948606,0.006927039939910173,-0.009473328478634357,0.0026604027952998877,-7.024763181107119e-05,0.0035653833765536547
0.0037887103389948606,0.006927039939910173,-0.009473328478634357,0.0026604027952998877,-7.024763181107119e-05,0.0035653833765536547
0.003757575759664178,0.0072698830626904964,-0.009744069539010525,0.002368794521316886,-6.934553675819188e-05,0.0037724010180681944
0.004022335633635521,0.007668901234865189,-0.00898025557398796,0.0023675449192523956,-6.760910764569417e-05,0.004060258157551289
0.003904376644641161,0.00755344657227397,-0.009561900980770588,0.0023772455751895905,-6.677313649561256e-05,0.0038589893374592066
0.0039036546368151903,0.007520962040871382,-0.009380176663398743,0.0027785710990428925,-6.595756713068113e-05,0.003862066427245736
0.003949932288378477,0.007675184868276119,-0.009051081724464893,0.0029455607291311026,-6.516160647151992e-05,0.003978238441050053
0.004043402150273323,0.007868139073252678,-0.009482226334512234,0.00261581945233047,-6.438475975301117e-05,0.003994632512331009
0.003998519387096167,0.007286709267646074,-0.009198212996125221,0.0025741292629390955,-6.362611020449549e-05,0.0039245449006557465
0.0039199646562337875,0.007207813672721386,-0.008908513933420181,0.0026448299176990986,-7.267361070262268e-05,0.003880593925714493
0.004386332351714373,0.007674210239201784,-0.009664005599915981,0.002715790644288063,-7.247631583595648e-05,0.0038970219902694225
0.0037896132562309504,0.007486127782613039,-0.009861817583441734,0.002624955028295517,-7.169320451794192e-05,0.004344279412180185
0.0035486340057104826,0.007293841801583767,-0.008712484501302242,0.0026676529087126255,-7.088924758136272e-05,0.004126443061977625
0.0036478505935519934,0.007364526856690645,-0.009159659966826439,0.0027309537399560213,-7.010068657109514e-05,0.0039022795390337706
0.004191749729216099,0.008096396923065186,-0.009197237901389599,0.002579496707767248,-3.514282070682384e-05,0.0038496642373502254
0.004246084950864315,0.008330797776579857,-0.009806347079575062,0.0024957756977528334,-2.294575097039342e-06,0.003797143930569291
0.0038933511823415756,0.007065581623464823,-0.009493861347436905,0.0024789501912891865,-1.4981935692048864e-07,0.0037683481350541115
0.003731544129550457,0.008486687205731869,-0.009460421279072762,0.0023798816837370396,-9.782133325586528e-09,0.0037594514433294535
0.0036951592192053795,0.0075161089189350605,-0.009056206792593002,0.002400015713647008,-6.387034234833777e-10,0.0033852325286716223
0.003725491464138031,0.0077077304013073444,-0.009429246187210083,0.0021993773989379406,-4.17027697097172e-11,0.003556707641109824
0.0037976778112351894,0.008436896838247776,-0.009478092193603516,0.002250980120152235,-2.7228926578748425e-12,0.003831322304904461
0.0038558831438422203,0.00859714113175869,-0.00908204261213541,0.0024180482141673565,-1.777854393650996e-13,0.0034710243344306946
0.003840732155367732,0.007912625558674335,-0.009153642691671848,0.002435634844005108,-1.1608118979933302e-14,0.0034499468747526407
0.0037987264804542065,0.007614007219672203,-0.009277792647480965,0.002731183310970664,-7.579273046646345e-16,0.0035043105017393827
0.004227601457387209,0.007477753795683384,-0.008881100453436375,0.0026309755630791187,-4.9487238198842455e-17,0.0034014901611953974
0.004127813503146172,0.0077111790888011456,-0.009204200468957424,0.002532649552449584,-3.2311628940518418e-18,0.003576235845685005
0.004127813503146172,0.0077111790888011456,-0.009204200468957424,0.002532649552449584,-3.2311628940518418e-18,0.003576235845685005
0.0035400118213146925,0.007797879632562399,-0.009663807228207588,0.0026477694045752287,-2.1097182069558444e-19,0.0038114849012345076
0.00364444637671113,0.0077223749831318855,-0.009264644235372543,0.002773931482806802,-1.3774953114727474e-20,0.0039190445095300674
0.0041787042282521725,0.007715543266385794,-0.009388655424118042,0.0025991543661803007,-5.872478740324603e-23,0.0038653884548693895
0.004253773018717766,0.0073149180971086025,-0.009497442282736301,0.002674810355529189,-3.8343085224942094e-24,0.004226401448249817
0.004027823451906443,0.007260313257575035,-0.009450417011976242,0.002462293952703476,-2.5035297083665017e-25,0.004471374675631523
0.00383515702560544,0.00749942334368825,-0.009613755159080029,0.0025794613175094128,-1.6346257988020755e-26,0.00406864657998085
0.0038446211256086826,0.00813625380396843,-0.009047742001712322,0.0026361444033682346,-1.0672937528390411e-27,0.004314423073083162
0.003860348602756858,0.00823741964995861,-0.009088415652513504,0.0027057682164013386,-6.968665743855465e-29,0.004147878382354975
0.003751202020794153,0.008013289421796799,-0.010664956644177437,0.0026565296575427055,-4.550041090902995e-30,0.0034959842450916767
0.003835064824670553,0.00773313082754612,-0.009814861230552197,0.00262889894656837,-2.9708517933134047e-31,0.0034489776007831097
0.004044031258672476,0.008276393637061119,-0.0092637212947011,0.002535975771024823,-1.9397541987632875e-32,0.003645584685727954
0.004054547753185034,0.008053538389503956,-0.009679512120783329,0.0024471087381243706,-1.266520868094623e-33,0.004341936204582453
0.004255537409335375,0.007758129853755236,-0.009636225178837776,0.0025675317738205194,-8.269477058199426e-35,0.004636652301996946
0.0040583536028862,0.008240526542067528,-0.009326925501227379,0.0027084904722869396,-5.399377596042563e-36,0.004615631885826588
0.003931758459657431,0.008262383751571178,-0.010073618963360786,0.002716135000810027,-3.525407527869524e-37,0.0042726113460958
0.0044220141135156155,0.007726217154413462,-0.00957267265766859,0.00282455375418067,-2.301839138917307e-38,0.003805913031101227
0.0041780318133533,0.007822022773325443,-0.009167330339550972,0.0028566031251102686,-1.5029360432407604e-39,0.003390772268176079
0.004404248669743538,0.007374494336545467,-0.01026829145848751,0.002705524442717433,-9.813153015820261e-41,0.0035210424102842808
0.004309492651373148,0.006935314740985632,-0.010097283869981766,0.0028025631327182055,-6.406736578893064e-42,0.004021576605737209
0.004474451765418053,0.0069866725243628025,-0.009937298484146595,0.002933256793767214,-4.189882408331203e-43,0.004144077189266682
0.004406323656439781,0.007388024590909481,-0.009487614035606384,0.0030775507912039757,-2.6624670822171524e-44,0.004290157463401556
0.00450935959815979,0.007098207250237465,-0.009720941074192524,0.0030060468707233667,-1.401298464324817e-45,0.004147815518081188
0.004602941684424877,0.007233016192913055,-0.010547696612775326,0.0026654526591300964,-0.0,0.004473631735891104
0.004257122054696083,0.0066519007086753845,-0.01010804995894432,0.00263406615704298,-0.0,0.00416822824627161
0.004349591210484505,0.006993352901190519,-0.009667552076280117,0.0026971905026584864,-0.0,0.0042761098593473434
0.005745931528508663,0.007333298679441214,-0.010299471206963062,0.0027329137083142996,-0.0,0.004193047061562538
0.004560619127005339,0.006719070952385664,-0.010363045148551464,0.0027641684282571077,-4.06355393351987e-05,0.004269449505954981
0.004484632983803749,0.00671119149774313,-0.00995907187461853,0.0029030460864305496,-5.275196963339113e-05,0.004792361054569483
0.004507394973188639,0.006491524167358875,-0.010543176904320717,0.0027956508565694094,-5.239059100858867e-05,0.0048567489720880985
0.004486897028982639,0.00692460872232914,-0.010508744046092033,0.0026748930104076862,-5.179112122277729e-05,0.004323574714362621
0.004977481905370951,0.006393068004399538,-0.009377124719321728,0.002858472988009453,-5.1202081522205845e-05,0.004031479358673096
0.004977481905370951,0.006393068004399538,-0.009377124719321728,0.002858472988009453,-5.1202081522205845e-05,0.004031479358673096
0.0048744454979896545,0.006584580987691879,-0.010140649974346161,0.0030389740131795406,-5.0626076699700207e-05,0.0039911894127726555
0.004983752500265837,0.00651088310405612,-0.010243530385196209,0.0029462820384651423,-5.006285209674388e-05,0.004376775585114956
0.004813872743397951,0.006870432756841183,-0.009676490910351276,0.0030978836584836245,-2.509751357138157e-05,0.004682815633714199
0.004867524839937687,0.007026371546089649,-0.009983623400330544,0.0028832589741796255,-1.6386883316954481e-06,0.005067900288850069
0.004588006529957056,0.0066704219207167625,-0.010102429427206516,0.0027202432975172997,-1.0699464070285103e-07,0.004980287980288267
0.004898329731076956,0.00631674425676465,-0.009545129723846912,0.002687031403183937,-6.985986011898149e-09,0.00473558297380805
0.005436497740447521,0.007077823393046856,-0.010033001191914082,0.002848920878022909,-4.5613496313379187e-10,0.00427503464743495
0.00508024962618947,0.006923362147063017,-0.009993541054427624,0.0030428029131144285,-2.9782353666574224e-11,0.004032152239233255
0.005420982372015715,0.006167904939502478,-0.008978317491710186,0.0032300101593136787,-1.944574926429632e-12,0.004293388221412897
0.005181157495826483,0.006745285354554653,-0.009823629632592201,0.0030283420346677303,-1.2696683710910345e-13,0.0047828201204538345
0.004809354431927204,0.006885908544063568,-0.010207096114754677,0.002839471446350217,-8.290026651258664e-15,0.005298747681081295
0.005303556565195322,0.0072356038726866245,-0.009892262518405914,0.002669029403477907,-5.412795172234747e-16,0.005120085086673498
0.0052917031571269035,0.006771184038370848,-0.009344217367470264,0.0027906959876418114,-3.534168540929968e-17,0.004796674475073814
0.005971122533082962,0.006114942021667957,-0.008930506184697151,0.0030898067634552717,-2.307559905445039e-18,0.004486239515244961
0.005527662578970194,0.0059059783816337585,-0.00920503307133913,0.002864464418962598,-1.506671874896863e-19,0.004204523749649525
0.005319221410900354,0.007024890743196011,-0.009903434664011002,0.0026873545721173286,-9.837490196237666e-21,0.00443600257858634
0.005439200438559055,0.006873761769384146,-0.010161308571696281,0.0027377151418477297,-6.423178625509302e-22,0.0045760865323245525
0.005376661196351051,0.006174840498715639,-0.009223020635545254,0.0029479903168976307,-4.193877081778555e-23,0.0048252190463244915
0.00576661666855216,0.006031855940818787,-0.009621754288673401,0.003315721405670047,-2.7383020600274547e-24,0.005181454587727785
0.0055142552591860294,0.006199145223945379,-0.00963708944618702,0.0036212936975061893,-1.7879156475309088e-25,0.004884984809905291
0.005215602461248636,0.006666828878223896,-0.009711581282317638,0.003701483830809593,-1.1673810964865392e-26,0.004417565185576677
0.00504307309165597,0.006602808833122253,-0.009888059459626675,0.0029789044056087732,-7.622163866641435e-28,0.004489444196224213
0.005736514460295439,0.006292174570262432,-0.009487337432801723,0.002755558816716075,-4.9767284626695564e-29,0.004618652164936066
0.005431353580206633,0.006049171090126038,-0.009026207961142063,0.00272345170378685,-3.24944818623795e-30,0.005070174112915993
0.005945481359958649,0.0064977435395121574,-0.009692813269793987,0.0028261877596378326,-2.121657512061862e-31,0.005401382222771645
0.005548594053834677,0.006992550101131201,-0.00971866026520729,0.0032070137094706297,-1.3852907050852953e-32,0.0051017398945987225
0.005548594053834677,0.006992550101131201,-0.00971866026520729,0.0032070137094706297,-1.3852907050852953e-32,0.0051017398945987225
0.005445599090307951,0.006298956926912069,-0.009614775888621807,0.0032417387701570988,-5.90571116918002e-35,0.004285207483917475
0.005938774440437555,0.006371899042278528,-0.010704741813242435,0.0033177263103425503,-3.856007466766892e-36,0.004504902753978968
0.005450803320854902,0.006655792705714703,-0.009705154225230217,0.00316736102104187,-2.5176974805173527e-37,0.005075620021671057
0.005784957204014063,0.007034566253423691,-0.009695306420326233,0.003199181752279401,-1.643876540834854e-38,0.0054212831892073154
0.005731657613068819,0.006867301184684038,-0.010399363934993744,0.003275524824857712,-1.0733343678388439e-39,0.005390952806919813
0.006100187078118324,0.006373181939125061,-0.009619698859751225,0.0035269875079393387,-7.008033749934843e-41,0.005234146490693092
0.005701521877199411,0.0063179959543049335,-0.009850933216512203,0.003266842570155859,-4.575239486020528e-42,0.005009448155760765
0.005936106666922569,0.00695775356143713,-0.010311037302017212,0.00315530295483768,-2.9847657290118604e-43,0.005379695910960436
0.005728885531425476,0.007184536196291447,-0.009369367733597755,0.0032761581242084503,-1.961817850054744e-44,0.005202331114560366
0.005764503497630358,0.006858571898192167,-0.010171027854084969,0.0032393753062933683,-1.401298464324817e-45,0.004576533567160368
0.005955997854471207,0.006461267359554768,-0.010094615630805492,0.0031158924102783203,-0.0,0.004825956653803587
0.005525739397853613,0.0071021271869540215,-0.009454842656850815,0.0033696400932967663,-0.0,0.005525954067707062
0.005742885638028383,0.007248873822391033,-0.009830893017351627,0.0032274057157337666,-0.0,0.005629623308777809
0.005705961026251316,0.006660777609795332,-0.010032601654529572,0.003375666681677103,-0.0,0.005316116381436586
0.005640723742544651,0.006834902334958315,-0.010596944950520992,0.003502349369227886,-0.0,0.00566802266985178
0.005645798519253731,0.006895361468195915,-0.01013587974011898,0.003558150725439191,-0.0,0.005646874196827412
0.0059982649981975555,0.007215579971671104,-0.009547825902700424,0.003439674386754632,-0.0,0.005375624168664217
0.005808723624795675,0.0073863002471625805,-0.009555025026202202,0.003582410281524062,-0.0,0.005052587948739529
0.005817422643303871,0.006650800816714764,-0.009697177447378635,0.0033859710674732924,-0.0,0.0048548453487455845
0.006001430097967386,0.006499870214611292,-0.009676351211965084,0.0038419212214648724,-0.0,0.0052061304450035095
0.005829670466482639,0.007134889252483845,-0.009382476098835468,0.004132260102778673,-0.0,0.00522442813962698
0.006131219211965799,0.006948783993721008,-0.010134470649063587,0.003614261979237199,-0.0,0.005681861191987991
0.006447020918130875,0.0072780391201376915,-0.00990144070237875,0.003591889748349786,-0.0,0.005425880663096905
0.006055828183889389,0.006996736861765385,-0.009351298213005066,0.003888288978487253,-0.0,0.005743349902331829
0.006196038331836462,0.0072965775616467,-0.010035979561507702,0.004011465236544609,-0.0,0.0054527148604393005
0.00597166083753109,0.0072314622811973095,-0.009408488869667053,0.0034958322066813707,-0.0,0.005937106907367706
0.006048299837857485,0.0074353269301354885,-0.009241483174264431,0.003003962803632021,-0.0,0.005484736990183592
0.00672296155244112,0.006892550736665726,-0.009865935891866684,0.0035410658456385136,-0.0,0.005616726819425821
0.006283152382820845,0.007086495403200388,-0.009655914269387722,0.0034743689466267824,-0.0,0.005763175431638956
0.006283152382820845,0.007086495403200388,-0.009655914269387722,0.0034743689466267824,-0.0,0.005763175431638956
0.006299566477537155,0.006832802668213844,-0.010213657282292843,0.003280533943325281,-0.0,0.005715473089367151
0.006582819391041994,0.006849249359220266,-0.009477607905864716,0.0033483244478702545,-0.0,0.005743576679378748
0.0063510169275105,0.007202439475804567,-0.008901990950107574,0.0032486231066286564,-0.0,0.005757705774158239
0.00626167980954051,0.007553582079708576,-0.009394900873303413,0.003538109827786684,-0.0,0.0059357983991503716
0.006499236915260553,0.007589901797473431,-0.010531565174460411,0.0037534863222390413,-0.0,0.005628844723105431
0.006736841518431902,0.0071222516708076,-0.009209463372826576,0.003394646570086479,-0.0,0.005893264897167683
0.006429969798773527,0.006618236657232046,-0.00983006414026022,0.0035381359048187733,-0.0,0.005675540305674076
0.006286355666816235,0.006759313866496086,-0.009765827096998692,0.00361435255035758,-0.0,0.005643615033477545
0.006389552261680365,0.0065528638660907745,-0.00939347967505455,0.003628056263551116,-0.0,0.0057242801412940025
0.006061216350644827,0.00694813160225749,-0.010236377827823162,0.0036383180413395166,-0.0,0.005865044891834259
0.006534310057759285,0.00702014472335577,-0.009258326143026352,0.003378522815182805,-0.0,0.0057194591499865055
0.006874857470393181,0.006975826807320118,-0.009630821645259857,0.0032834899611771107,-0.0,0.005898791365325451
0.006800715811550617,0.006820881739258766,-0.009457482025027275,0.003496014280244708,-0.0,0.005981385242193937
0.006301349960267544,0.006377039011567831,-0.009885394014418125,0.003790440736338496,-0.0,0.006205548066645861
0.006657694932073355,0.006202608812600374,-0.00942026637494564,0.004264463670551777,-0.0,0.0061650946736335754
0.007005972322076559,0.007027389481663704,-0.009520779363811016,0.004051311407238245,-0.0,0.006065329536795616
0.006723129656165838,0.006577277090400457,-0.010247551836073399,0.0035240568686276674,-0.0,0.006294309627264738
0.006429749075323343,0.006338594947010279,-0.01013590395450592,0.003389460500329733,-0.0,0.00646198820322752
0.006316919811069965,0.00640079053118825,-0.009713152423501015,0.003515972290188074,-0.0,0.006393514573574066
0.006893344223499298,0.00619882345199585,-0.00984974205493927,0.0036740994546562433,-0.0,0.005936570465564728
0.006964175496250391,0.006612084805965424,-0.010140512138605118,0.0037152590230107307,-0.0,0.006416420917958021
0.006721499375998974,0.006811976432800293,-0.00995117612183094,0.0037469544913619757,-0.0,0.006677514407783747
0.007259965408593416,0.006351692136377096,-0.009884879924356937,0.0036641492042690516,-0.0,0.006247462704777718
0.007259965408593416,0.006351692136377096,-0.009884879924356937,0.0036641492042690516,-0.0,0.006247462704777718
0.006698475684970617,0.0061865560710430145,-0.010079917497932911,0.003567958017811179,-0.0,0.006031181663274765
0.007067340891808271,0.0066046202555298805,-0.009830283932387829,0.0035936604253947735,-0.0,0.006153938826173544
0.006909147370606661,0.0068571376614272594,-0.010003368370234966,0.003713431302458048,-0.0,0.006626936607062817
0.007403427269309759,0.0063557992689311504,-0.010216903872787952,0.0034807927440851927,-0.0,0.006369117647409439
0.007403427269309759,0.0063557992689311504,-0.010216903872787952,0.0034807927440851927,-0.0,0.006369117647409439
0.007074802648276091,0.0063146138563752174,-0.010256479494273663,0.0036262893117964268,-0.0,0.0065273018553853035
0.006884872447699308,0.006596924737095833,-0.010291165672242641,0.004237004555761814,-0.0,0.006811052095144987
0.006728875916451216,0.006527315825223923,-0.009814715944230556,0.004135922994464636,-0.0,0.00630433252081275
0.0071951597929000854,0.006344112567603588,-0.009615001268684864,0.004091478418558836,-0.0,0.0062502785585820675
0.007387029007077217,0.006307948846369982,-0.01046006940305233,0.0038661963772028685,-0.0,0.005810912232846022
0.00675023952499032,0.006822602357715368,-0.01031654141843319,0.003490861039608717,-0.0,0.006058171391487122
0.006897534243762493,0.006883092224597931,-0.010401991195976734,0.0035740770399570465,-0.0,0.006802062038332224
0.007259925361722708,0.006743870675563812,-0.011095586232841015,0.003739285049960017,-0.0,0.007310196757316589
0.007416020147502422,0.006280684377998114,-0.010743710212409496,0.004103403072804213,-0.0,0.007549426518380642
0.00748668797314167,0.0065400926396250725,-0.00990181602537632,0.00462637422606349,-0.0,0.007089999504387379
0.006891078315675259,0.006897582206875086,-0.01064099371433258,0.00426151417195797,-0.0,0.006795090157538652
0.007321245968341827,0.006077795755118132,-0.010433086194097996,0.003885144367814064,-0.0,0.006631505209952593
0.007786801550537348,0.006026101764291525,-0.010314476676285267,0.004220311995595694,-0.0,0.006673245225101709
0.007003411650657654,0.006468537263572216,-0.010806652717292309,0.0041749924421310425,-0.0,0.006854761857539415
0.007132337894290686,0.007200934458523989,-0.010031669400632381,0.0035853846929967403,-0.0,0.007164875976741314
0.007300086319446564,0.006886693648993969,-0.010508761741220951,0.0038211820647120476,-0.0,0.006990472786128521
0.008164511062204838,0.006494436413049698,-0.011133987456560135,0.004498932510614395,-0.0,0.007142965216189623
0.007791514508426189,0.006488121580332518,-0.010207454673945904,0.004929706454277039,-0.0,0.007413461804389954
0.008050015196204185,0.00686173141002655,-0.0103987455368042,0.004815930966287851,-0.0,0.007639703340828419
0.007766148075461388,0.007085456512868404,-0.01045272033661604,0.004215619992464781,-0.0,0.007572712376713753
0.007698013447225094,0.006883335765451193,-0.010122445411980152,0.003945019096136093,-0.0,0.006849386263638735
0.007933815941214561,0.006094811949878931,-0.009696582332253456,0.00386157538741827,-0.0,0.006648207549005747
0.007933815941214561,0.006094811949878931,-0.009696582332253456,0.00386157538741827,-0.0,0.006648207549005747
0.00755346892401576,0.006124467123299837,-0.010558703914284706,0.0038320226594805717,-0.0,0.0068619949743151665
0.0076357112266123295,0.006711969152092934,-0.011189085431396961,0.004678589291870594,-0.0,0.0070039983838796616
0.00791201926767826,0.006523445714265108,-0.011297432705760002,0.00489753857254982,-0.0,0.007086948957294226
0.008184871636331081,0.006371221970766783,-0.010090630501508713,0.004590590950101614,-0.0,0.006983655039221048
0.008311809040606022,0.006659602280706167,-0.010569289326667786,0.004152620676904917,-0.0,0.007045617327094078
0.008371087722480297,0.006922889966517687,-0.00999463815242052,0.004016689956188202,-0.0,0.006962222512811422
0.008022808469831944,0.006785004399716854,-0.010978001169860363,0.0038654254749417305,-0.0,0.007314854301512241
0.007776301819831133,0.006439289078116417,-0.010354752652347088,0.004085872322320938,-0.0,0.00748054264113307
0.008214147761464119,0.0065347966738045216,-0.009793315082788467,0.0047236233949661255,-0.0,0.00863009411841631
0.008187452331185341,0.006912458222359419,-0.010540665127336979,0.004682548809796572,-0.0,0.008255097083747387
0.008131081238389015,0.006848478224128485,-0.010240131989121437,0.004438432864844799,-0.0,0.0065162754617631435
0.008121288381516933,0.006716189906001091,-0.01044473983347416,0.004452692810446024,-0.0,0.007158287800848484
0.008501782082021236,0.006466275546699762,-0.010311701335012913,0.004491540603339672,-0.0,0.007141808047890663
0.008466373197734356,0.006892762612551451,-0.010429130867123604,0.004484980367124081,-0.0,0.007585444021970034
0.007971163839101791,0.00682971253991127,-0.009897192008793354,0.004419149365276098,-8.502114724251442e-06,0.007674028165638447
0.008418269455432892,0.0066846879199147224,-0.010536967776715755,0.004593475256115198,-5.551273147830216e-07,0.007611841894686222
0.00880118366330862,0.006636735983192921,-0.01011530589312315,0.004995363298803568,-3.624585076522635e-08,0.007895455695688725
0.008500517345964909,0.006449195556342602,-0.009817679412662983,0.004526992328464985,-2.366594920033549e-09,0.007974904030561447
0.008037956431508064,0.006713901646435261,-0.010705488733947277,0.0044819205068051815,-1.54521728745749e-10,0.008038212545216084
0.00856611505150795,0.006515644025057554,-0.01051999069750309,0.004343362059444189,-1.0089165614068918e-11,0.007887771353125572
0.008926762267947197,0.006380160804837942,-0.010111222043633461,0.0043410020880401134,-6.587505064006849e-13,0.007694318890571594
0.008328624069690704,0.006224130745977163,-0.010457390919327736,0.004468537401407957,-4.3011699480928825e-14,0.007556315511465073
0.008689367212355137,0.006437802687287331,-0.010026639327406883,0.004520919639617205,-2.808356583104709e-15,0.007574088405817747
0.008767527528107166,0.006589416414499283,-0.010819465853273869,0.004565196577459574,-1.8336561301227213e-16,0.007557564415037632
0.008625861257314682,0.0064720576629042625,-0.01080111600458622,0.004408542532473803,-1.1972464947943488e-17,0.008168203756213188
0.009655178524553776,0.006129834800958633,-0.010873330757021904,0.004367935936897993,-7.817163362440639e-19,0.007848831824958324
0.009038666263222694,0.006474075373262167,-0.010575207881629467,0.004477784503251314,-5.1040491457465534e-20,0.007941540330648422
0.008465257473289967,0.00644667586311698,-0.010600322857499123,0.0046613747254014015,-3.3325794215215197e-21,0.008008907549083233
0.008838613517582417,0.006348739843815565,-0.010173334740102291,0.005081048235297203,-2.175936365669994e-22,0.008357582613825798
0.009071572683751583,0.006142471916973591,-0.010699527338147163,0.005499613005667925,-1.420730917238352e-23,0.008453612215816975
0.009071572683751583,0.006142471916973591,-0.010699527338147163,0.005499613005667925,-1.420730917238352e-23,0.008453612215816975
0.008683517575263977,0.006689155474305153,-0.010113385505974293,0.004826985765248537,-6.056798225684318e-26,0.008323642425239086
0.008683517575263977,0.006689155474305153,-0.010113385505974293,0.004826985765248537,-6.056798225684318e-26,0.008323642425239086
0.009627038612961769,0.006596922874450684,-0.010796311311423779,0.004884731024503708,-3.954656784742129e-27,0.008208410814404488
0.00879982952028513,0.006186073180288076,-0.010456371121108532,0.004886557348072529,-1.6859321403900202e-29,0.00809542741626501
0.009082580916583538,0.006035941652953625,-0.01090479176491499,0.004728248342871666,-1.1007932834998483e-30,0.008398161269724369
0.009819276630878448,0.0063572414219379425,-0.00983034260571003,0.0049263788387179375,-7.18739328790506e-32,0.008192882873117924
0.009303931146860123,0.0063782925717532635,-0.010240745730698109,0.005007085856050253,-4.6928540977588306e-33,0.00862178485840559
0.00940763857215643,0.005912600550800562,-0.01071050763130188,0.0049582249484956264,-3.0640982169735886e-34,0.008472192101180553
0.009517337195575237,0.005662605166435242,-0.009796956554055214,0.004966923035681248,-2.000637144759615e-35,0.008500381372869015
0.009072260931134224,0.0058363149873912334,-0.010828452184796333,0.004976473283022642,-1.3062732092880649e-36,0.008452658541500568
0.009563388302922249,0.006190575193613768,-0.010918492451310158,0.004704168066382408,-8.529030008043514e-38,0.008452050387859344
0.009723314084112644,0.006717185955494642,-0.009996331296861172,0.0046045961789786816,-2.2635154891759157e-05,0.008879145607352257
0.009542100131511688,0.006076876074075699,-0.010321764275431633,0.004750379361212254,-0.00014520260447170585,0.00851238053292036
0.010953197255730629,0.00595687935128808,-0.010421689599752426,0.004772144369781017,-0.0001484559033997357,0.00838050153106451
0.010362239554524422,0.006123283877968788,-0.010793187655508518,0.005074684042483568,-0.00014422352251131088,0.008480442687869072
0.009770502336323261,0.00608762027695775,-0.011079386807978153,0.005332962144166231,-0.00013977763592265546,0.008733867667615414
0.010268154554069042,0.006281908601522446,-0.010924572125077248,0.0051233721897006035,-0.00013556814519688487,0.008642807602882385
0.01050314586609602,0.006321688182651997,-0.011327776126563549,0.005331689957529306,-0.00013160369417164475,0.008992552757263184
0.010737910866737366,0.005526954773813486,-0.011257150210440159,0.005294148810207844,-0.00015171781706158072,0.009080672636628151
0.010367879644036293,0.0060339816845953465,-0.010211224667727947,0.005052836611866951,-0.00014908454613760114,0.00903757568448782
0.010679668746888638,0.006013782694935799,-0.011041592806577682,0.005529856774955988,-0.00014517788076773286,0.009304358623921871
0.010112802498042583,0.00636895140632987,-0.010913075879216194,0.0056046186946332455,-0.0001413833670085296,0.009624850004911423
0.010750136338174343,0.005697445012629032,-0.010681558400392532,0.005777840502560139,-0.00013777618005406111,0.00923091545701027
0.010631447657942772,0.005899596959352493,-0.011004694737493992,0.005385035183280706,-0.0001537921343697235,0.009248273447155952
0.010576722212135792,0.005716440733522177,-0.010811924003064632,0.005355338100343943,-0.00015274249017238617,0.009096813388168812
0.010739171877503395,0.005994575563818216,-0.010869896970689297,0.005262013059109449,-0.00014929744065739214,0.008810801431536674
0.010316412895917892,0.006391240283846855,-0.01100681908428669,0.005113564897328615,-0.0001458522310713306,0.008977546356618404
0.010316412895917892,0.006391240283846855,-0.01100681908428669,0.005113564897328615,-0.0001458522310713306,0.008977546356618404
0.010767522267997265,0.005628911778330803,-0.010770140215754509,0.0052239056676626205,-0.0001425525260856375,0.00950099341571331
0.01095194648951292,0.00535820284858346,-0.01119582261890173,0.005422568414360285,-0.00015669652202632278,0.009557330049574375
0.010895299725234509,0.005397630389779806,-0.010913836769759655,0.005518447142094374,-0.0001556927163619548,0.009454363957047462
0.010733300819993019,0.0058515421114861965,-0.011220655404031277,0.005824575200676918,-0.00014939448738005012,0.010389337316155434
0.011033216491341591,0.005463707726448774,-0.011294841766357422,0.006223901174962521,-0.00019733194494619966,0.009495493024587631
0.010659712366759777,0.00492527661845088,-0.010880478657782078,0.006127866916358471,-0.00020500032405834645,0.009940972551703453
0.010667385533452034,0.005264555104076862,-0.01145204808562994,0.005703809205442667,-0.0001971090241568163,0.009331850335001945
0.010816643014550209,0.00572802172973752,-0.010832390747964382,0.005585232749581337,-0.00018890372302848846,0.009475748054683208
0.010888817720115185,0.005669737700372934,-0.011891510337591171,0.005777354352176189,-0.0002150882501155138,0.010437028482556343
0.010157422162592411,0.0057549080811440945,-0.01116430014371872,0.006303542759269476,-0.00020896783098578453,0.009454218670725822
0.010963832959532738,0.005090930499136448,-0.011314339935779572,0.006421566009521484,-0.00020132029021624476,0.008845881558954716
0.011486734263598919,0.004777523688971996,-0.011417206376791,0.005907244049012661,-0.0002099386474583298,0.009639717638492584
0.010173670016229153,0.005353457760065794,-0.011076429858803749,0.005652655381709337,-0.00021750722953584045,0.009804226458072662
0.010491222143173218,0.005168265663087368,-0.011450189165771008,0.005517175886780024,-0.00022597629867959768,0.009927068836987019
0.010496925562620163,0.005863774102181196,-0.011550681665539742,0.005809348542243242,-0.00023258975124917924,0.01007934007793665
0.010262833908200264,0.0055397311225533485,-0.01123498473316431,0.006119679659605026,-0.00022619157971348614,0.010365339927375317
0.010747771710157394,0.005280452314764261,-0.011819892562925816,0.0056237573735415936,-0.00021996378200128675,0.009948315098881721
0.0108207818120718,0.0049677640199661255,-0.011224097572267056,0.005707664880901575,-0.00033028848702088,0.01068536564707756
0.011162797920405865,0.005063928663730621,-0.012033157981932163,0.005474228877574205,-0.0003618817718233913,0.010198567993938923
0.011223087087273598,0.005555603187531233,-0.011707781814038754,0.006341368891298771,-0.0003532169503159821,0.009978504851460457
0.010291391983628273,0.00553994020447135,-0.011319479905068874,0.00667068175971508,-0.0003324441786389798,0.010480637662112713
0.010958544909954071,0.005556602496653795,-0.012003818526864052,0.006295034661889076,-0.0003516805008985102,0.00989984069019556
0.011584905907511711,0.00541094783693552,-0.012150670401751995,0.006193405482918024,-0.00034448548103682697,0.009717537090182304
0.011297776363790035,0.005594018846750259,-0.011939558200538158,0.005784156266599894,-0.00037092153797857463,0.010162010788917542
0.011475310660898685,0.0051449937745928764,-0.011951321735978127,0.006188651081174612,-0.0005069494363851845,0.010441874153912067
0.011475310660898685,0.0051449937745928764,-0.011951321735978127,0.006188651081174612,-0.0005069494363851845,0.010441874153912067
0.011327866464853287,0.005274440161883831,-0.011540574952960014,0.006694483105093241,-0.0005745615344494581,0.01011422835290432
0.011507631279528141,0.00550233805552125,-0.01195218414068222,0.0062078144401311874,-0.000571143114939332,0.010225803591310978
0.011507631279528141,0.00550233805552125,-0.01195218414068222,0.0062078144401311874,-0.000571143114939332,0.010225803591310978
0.01119408942759037,0.005135752260684967,-0.012601451016962528,0.006190206855535507,-0.0005836976342834532,0.010588955134153366
0.011349939741194248,0.005292956251651049,-0.012152460403740406,0.006600973661988974,-0.0006850143545307219,0.0106498459354043
0.011484025977551937,0.00600803829729557,-0.012521103955805302,0.006824223790317774,-0.0008230928797274828,0.010575029999017715
0.011827684007585049,0.005443588364869356,-0.011796907521784306,0.006325962487608194,-0.0007541002705693245,0.010661165229976177
0.011874990537762642,0.005140255205333233,-0.013075092807412148,0.0062085543759167194,-0.000758016190957278,0.010200013406574726
0.011391128413379192,0.005620777141302824,-0.011698469519615173,0.006487889681011438,-0.0008169942302629352,0.010803265497088432
0.011243118904531002,0.005403074901551008,-0.012023664079606533,0.006588990334421396,-0.0008648826042190194,0.010340589098632336
0.011625691317021847,0.005846856627613306,-0.012287714518606663,0.00666075712069869,-0.0008719745092093945,0.010253681801259518
0.012128381058573723,0.005397840868681669,-0.011940726079046726,0.006471436936408281,-0.0008777125040069222,0.010183405131101608
0.011198556050658226,0.005257984157651663,-0.012220598757266998,0.006426997482776642,-0.0010838956804946065,0.010624642483890057
0.012136954814195633,0.005319234915077686,-0.011804099194705486,0.006374536082148552,-0.0010639324318617582,0.010158177465200424
0.011846613138914108,0.005624258425086737,-0.012399015948176384,0.006833942607045174,-0.0009731489699333906,0.010603007860481739
0.01196449063718319,0.005375206004828215,-0.012309122830629349,0.0069568888284265995,-0.0009587729582563043,0.010643853805959225
0.012221013195812702,0.005496214143931866,-0.012540044263005257,0.0072191376239061356,-0.0010114816250279546,0.01040333416312933
0.011481025256216526,0.005061431787908077,-0.012184452265501022,0.007419835310429335,-0.0010028958786278963,0.010692905634641647
0.011918775737285614,0.005118426866829395,-0.011605480685830116,0.007615585345774889,-0.0010216261725872755,0.010693607851862907
0.01222568191587925,0.005543654318898916,-0.012793837115168571,0.007084756623953581,-0.001110845827497542,0.010948320850729942
0.013808250427246094,0.0051272474229335785,-0.012754893861711025,0.007355745881795883,-0.0011131144128739834,0.010939324274659157
0.014398625120520592,0.005329331383109093,-0.012799780815839767,0.007576642092317343,-0.0010187061270698905,0.010967358946800232
0.01390157826244831,0.0056109982542693615,-0.012275404296815395,0.00692558940500021,-0.000933549483306706,0.011134601198136806
0.013596282340586185,0.005181778687983751,-0.011934760957956314,0.006768748164176941,-0.0009166130912490189,0.011080021969974041
0.013812188059091568,0.005072114523500204,-0.012388493865728378,0.006963948719203472,-0.0008324768859893084,0.011218801140785217
0.014441837556660175,0.005049705505371094,-0.012389025650918484,0.007106253877282143,-0.0007148981094360352,0.01148867979645729
0.01393137127161026,0.005780600011348724,-0.012894130311906338,0.006865598261356354,-0.0007316280389204621,0.011094980873167515
0.014356098137795925,0.005449590273201466,-0.011956372298300266,0.006624892819672823,-0.0006508136284537613,0.011274849995970726
0.014010286889970303,0.005096934735774994,-0.012838287279009819,0.006484677083790302,-0.0006643831147812307,0.01173388585448265
0.01432892121374607,0.00511963339522481,-0.012193120084702969,0.007110264152288437,-0.000611170195043087,0.011987466365098953
0.01432892121374607,0.00511963339522481,-0.012193120084702969,0.007110264152288437,-0.000611170195043087,0.011987466365098953
0.015551448799669743,0.005231013987213373,-0.011994143947958946,0.007430313620716333,-0.000557740859221667,0.011150800622999668
0.014161033555865288,0.005534918047487736,-0.012308434583246708,0.0073207370005548,-0.0005123810260556638,0.011078081093728542
0.013980326242744923,0.005292106419801712,-0.0118796331807971,0.0070793405175209045,-0.00047381388139910996,0.011383157223463058
0.014689254574477673,0.005825052037835121,-0.013071564957499504,0.008016863837838173,-0.00044065219117328525,0.011165149509906769
0.014713093638420105,0.004818357992917299,-0.012601971626281738,0.007357886526733637,-0.0003865447943098843,0.011684222146868706
0.014950614422559738,0.0054455893114209175,-0.012870745733380318,0.00728894816711545,-0.0003641880757641047,0.011553080752491951
0.01506499107927084,0.005385091993957758,-0.012699371203780174,0.007897674106061459,-0.00034427878563292325,0.011916503310203552
0.014476796612143517,0.005834382958710194,-0.01266985572874546,0.007883218117058277,-0.0003264338301960379,0.011906981468200684
0.014840474352240562,0.005293429363518953,-0.012188831344246864,0.007051945198327303,-0.0003103474446106702,0.011741813272237778
0.014347809366881847,0.005160320084542036,-0.012799853459000587,0.007378065958619118,-0.00033513206290081143,0.012339696288108826
0.014852871187031269,0.005415828432887793,-0.012309020385146141,0.007052055560052395,-0.0003226753615308553,0.012118975631892681
0.014302187599241734,0.005250161048024893,-0.012798409909009933,0.0071305143646895885,-0.00030899172998033464,0.012139380909502506
0.014821243472397327,0.005471708718687296,-0.012399138882756233,0.007215236779302359,-0.0002962853468488902,0.012216344475746155
0.014605522155761719,0.005522238090634346,-0.012828996405005455,0.007126163691282272,-0.0002845735289156437,0.012035936117172241
0.015046627260744572,0.005423747468739748,-0.012755326926708221,0.007565963547676802,-0.00027375214267522097,0.012042519636452198
0.014682231470942497,0.005058984272181988,-0.012209596112370491,0.008091004565358162,-0.0002637229044921696,0.012063191272318363
0.014687979593873024,0.005460395012050867,-0.012751140631735325,0.007588920183479786,-0.000254403508733958,0.012269730679690838
0.01487684529274702,0.005814561620354652,-0.012156547978520393,0.006776147056370974,-0.0002457202353980392,0.012060956098139286
0.014960258267819881,0.005624014418572187,-0.012960872612893581,0.007242041174322367,-0.00023760984186083078,0.012031644582748413
0.015111750923097134,0.005598001182079315,-0.012377328239381313,0.007962998934090137,-0.00023001823865342885,0.012274988926947117
0.01516337227076292,0.0050924126990139484,-0.012615586631000042,0.007587003987282515,-0.00022289660410024226,0.012352668680250645
0.014807785861194134,0.0052208141423761845,-0.012496128678321838,0.006858200300484896,-0.0002162027230951935,0.012860973365604877
0.01466495729982853,0.005328655242919922,-0.01255204901099205,0.0070434934459626675,-0.00020989921176806092,0.012280888855457306
0.014987293630838394,0.005550190340727568,-0.013041218742728233,0.007913279347121716,-0.000203953284653835,0.012594001367688179
0.01475487370043993,0.005593898706138134,-0.01285078190267086,0.007267017383128405,-0.00019833438273053616,0.012117985635995865
0.014974546618759632,0.005596885457634926,-0.013190380297601223,0.006834752392023802,-0.00019301702559459955,0.01245520357042551
0.014680418185889721,0.005178303923457861,-0.01306369062513113,0.007371994666755199,-0.0001879776391433552,0.012671206146478653
0.014526654966175556,0.005047944374382496,-0.012795789167284966,0.007528217509388924,-0.00018319424998480827,0.012567691504955292
0.014441688545048237,0.005624519661068916,-0.012981402687728405,0.007485637441277504,-0.00017864906112663448,0.012733874842524529
0.01501699723303318,0.005855842959135771,-0.01267428882420063,0.007424470037221909,-0.00017432351887691766,0.012754030525684357
0.015192549675703049,0.005130280274897814,-0.012445149011909962,0.007312055677175522,-0.00016627155127935112,0.012815706431865692
0.015192549675703049,0.005130280274897814,-0.012445149011909962,0.007312055677175522,-0.00016627155127935112,0.012815706431865692
0.01455649733543396,0.0049993558786809444,-0.013153180480003357,0.0079247010871768,-0.0001625182485440746,0.01275443285703659
0.015016461722552776,0.005029213149100542,-0.012742653489112854,0.00799636822193861,-0.00015893069212324917,0.012853273190557957
0.014921983703970909,0.005794481374323368,-0.013426993042230606,0.008327513933181763,-0.00015549830277450383,0.012854179367423058
0.015468578785657883,0.005606474820524454,-0.013173673301935196,0.008286401629447937,-0.00015221071953419596,0.013182963244616985
0.014833610504865646,0.005748974159359932,-0.013482973910868168,0.00824115239083767,-0.00014905953139532357,0.012568088248372078
0.01559700071811676,0.005226422101259232,-0.012692978605628014,0.008485355414450169,-0.0001460362400393933,0.013788919895887375
0.015226350165903568,0.005311222281306982,-0.013579923659563065,0.008589011617004871,-0.00014313298743218184,0.013196109794080257
0.015178021043539047,0.005493338219821453,-0.013269358314573765,0.00848894938826561,-0.00014034280320629478,0.012604163028299809
0.01511034183204174,0.005870203487575054,-0.013277368620038033,0.008070155046880245,-0.00013765976473223418,0.012477405369281769
0.015538324601948261,0.005780237726867199,-0.013282504864037037,0.008666780777275562,-0.0001350770180579275,0.013230359181761742
0.015423980541527271,0.005156154744327068,-0.013172383420169353,0.00811895914375782,-0.00013258961553219706,0.01326846331357956
0.01530525740236044,0.005121325608342886,-0.013618937693536282,0.007990703918039799,-0.00013019205653108656,0.013507217168807983
0.015302963554859161,0.005316616501659155,-0.013307628221809864,0.008229849860072136,-0.0001278796116821468,0.01363782025873661
0.014860025607049465,0.005681963171809912,-0.01377500593662262,0.00822389591485262,-0.00012564778444357216,0.01360234059393406
0.01497954223304987,0.005820062011480331,-0.012764736078679562,0.008126359432935715,-0.00012349286407697946,0.013847160153090954
0.01505989395081997,0.0055868960916996,-0.013561522588133812,0.007760023232549429,-0.00012141047773184255,0.013914999552071095
0.015937425196170807,0.005197199061512947,-0.013220950961112976,0.008194590918719769,-0.00011939704563701525,0.014244088903069496
0.015781516209244728,0.005662485025823116,-0.013873784802854061,0.008215032517910004,-0.00011744943913072348,0.013714711181819439
0.015908533707261086,0.00533281359821558,-0.013619931414723396,0.008051077835261822,-0.00011556428944459185,0.013105498626828194
0.015421121381223202,0.005165226757526398,-0.014466993510723114,0.0082034757360816,-0.00011373870802344754,0.012996555306017399
0.015705570578575134,0.005843742284923792,-0.01408365461975336,0.008305171504616737,-0.00011196988634765148,0.013587294146418571
0.015655366703867912,0.005439795553684235,-0.014069410972297192,0.00844802800565958,-0.00011025521962437779,0.013958274386823177
0.015672925859689713,0.005631631705909967,-0.013518160209059715,0.008280836045742035,-0.00010859237227123231,0.014489049091935158
0.015714142471551895,0.005179550964385271,-0.013849304057657719,0.007826576009392738,-0.00010697885591071099,0.01422306802123785
0.015750303864479065,0.005472898483276367,-0.013737503439188004,0.008084029890596867,-0.00010541274241404608,0.014061935245990753
0.015880052000284195,0.005353645887225866,-0.014042484574019909,0.008589218370616436,-0.0001024138618959114,0.01417664997279644
0.015880052000284195,0.005353645887225866,-0.014042484574019909,0.008589218370616436,-0.0001024138618959114,0.01417664997279644
0.01571863517165184,0.005466660019010305,-0.01419638842344284,0.008427970111370087,-0.00010097758786287159,0.01409189309924841
0.01531173475086689,0.005085862707346678,-0.014448977075517178,0.008764698170125484,-9.958098962670192e-05,0.014315836131572723
0.016117921099066734,0.005247910041362047,-0.014614264480769634,0.008487803861498833,-9.82224810286425e-05,0.014486083760857582
0.015853963792324066,0.005162414163351059,-0.014014474116265774,0.008721760474145412,-9.690108709037304e-05,0.014470286667346954
0.0162461269646883,0.0054001878015697,-0.014017574489116669,0.00855125393718481,-9.561382466927171e-05,0.014054779894649982
0.015813523903489113,0.0054734875448048115,-0.014243879355490208,0.00857317540794611,-9.436115942662582e-05,0.014085271395742893
0.016100723296403885,0.005072247702628374,-0.014228426851332188,0.008133335039019585,-9.314002090832219e-05,0.014269262552261353
0.016076063737273216,0.005236191209405661,-0.014048170298337936,0.008741139434278011,-9.195056918542832e-05,0.013856521807610989
0.015541359782218933,0.005361874587833881,-0.014021974988281727,0.00860208086669445,-9.079123265109956e-05,0.013900957070291042
0.015843229368329048,0.005677408538758755,-0.014461209997534752,0.008468794636428356,-8.966050518210977e-05,0.014325303956866264
0.015759067609906197,0.005303224548697472,-0.014103805646300316,0.008445851504802704,-8.855773194227368e-05,0.014016748405992985
0.01620437391102314,0.005733816418796778,-0.014490627683699131,0.009173226542770863,-8.748171967454255e-05,0.014678478240966797
0.016168728470802307,0.00538288801908493,-0.01411511842161417,0.008757517673075199,-8.643169712740928e-05,0.0145336352288723
0.015022405423223972,0.005357407499104738,-0.014177766628563404,0.008943995460867882,-8.540672570234165e-05,0.015618475154042244
0.016530949622392654,0.0056430562399327755,-0.013988330960273743,0.009122660383582115,-8.440515375696123e-05,0.014494406059384346
0.016954829916357994,0.00551009364426136,-0.014545059762895107,0.008727258071303368,-8.342759247170761e-05,0.014072003774344921
0.016206689178943634,0.005540202371776104,-0.014269095845520496,0.008503840304911137,-8.247156802099198e-05,0.014226121827960014
0.016197290271520615,0.005467870272696018,-0.014415448531508446,0.009208673611283302,-8.153758972184733e-05,0.014799580909311771
0.016366688534617424,0.0056148613803088665,-0.01402452401816845,0.009363001212477684,-8.062497363425791e-05,0.01501983217895031
0.016400258988142014,0.005605872720479965,-0.014411338604986668,0.008927280083298683,-7.973208266776055e-05,0.015345205552875996
0.016912633553147316,0.005730137228965759,-0.014133552089333534,0.00995769165456295,-1.0270417078572791e-05,0.015126719139516354
0.01700541004538536,0.006125410087406635,-0.014567961916327477,0.009266862645745277,-6.705847681587329e-07,0.01496219914406538
0.016788547858595848,0.005451098550111055,-0.014233643189072609,0.009452326223254204,-4.378438944740992e-08,0.014670141041278839
0.01670774631202221,0.005391296930611134,-0.014302301220595837,0.00936958659440279,-2.8588078571090136e-09,0.015046405605971813
0.017222948372364044,0.00617359671741724,-0.014364591799676418,0.008827026933431625,-1.2187546111208647e-11,0.015205626375973225
0.01742771826684475,0.005501857027411461,-0.014250140637159348,0.008976586163043976,-7.957596170546366e-13,0.015137345530092716
0.01742771826684475,0.005501857027411461,-0.014250140637159348,0.008976586163043976,-7.957596170546366e-13,0.015137345530092716
0.017950870096683502,0.0056203133426606655,-0.014397864229977131,0.009730068035423756,-3.3924478453999356e-15,0.015275401994585991
0.017950870096683502,0.0056203133426606655,-0.014397864229977131,0.009730068035423756,-3.3924478453999356e-15,0.015275401994585991
0.01736999675631523,0.005317379720509052,-0.014566191472113132,0.009635894559323788,-2.2150260971790696e-16,0.014984331093728542
0.01830429770052433,0.005446188151836395,-0.014160128310322762,0.009743225760757923,-1.4462538326440443e-17,0.014732686802744865
0.018295032903552055,0.005579532589763403,-0.014428678900003433,0.010173264890909195,-9.443003917013749e-19,0.015267572365701199
0.017925161868333817,0.0054525695741176605,-0.01417663786560297,0.01000633928924799,-6.16560653810508e-20,0.015464236959815025
0.0179289598017931,0.005438797641545534,-0.014484837651252747,0.009767815470695496,-4.025700633188054e-21,0.015555202029645443
0.017713982611894608,0.005628727842122316,-0.014241027645766735,0.009508248418569565,-2.628494633615998e-22,0.015697123482823372
0.018090039491653442,0.005717250984162092,-0.014670764096081257,0.00929820816963911,-1.716219279672418e-23,0.015588505193591118
0.018451860174536705,0.005925657693296671,-0.01403140090405941,0.010115438140928745,-1.1205685342193293e-24,0.015091119334101677
0.01833174005150795,0.005381954368203878,-0.014469606801867485,0.010238922201097012,-7.316511716304285e-26,0.014944865368306637
0.01865963824093342,0.005290857050567865,-0.014373895712196827,0.009860980324447155,-4.777158678673731e-27,0.015400180593132973
0.018625712022185326,0.005235725548118353,-0.014914429746568203,0.009935859590768814,-3.1191434525509936e-28,0.015460392460227013
0.018374387174844742,0.005691246595233679,-0.014277415350079536,0.009608583524823189,-1.6177475117729045e-05,0.01606416329741478
0.01860857754945755,0.005411595571786165,-0.014422472566366196,0.010708577930927277,-1.0562735042185523e-06,0.01573728770017624
0.01864631474018097,0.005381082650274038,-0.014287128113210201,0.01033178810030222,-6.896711113313359e-08,0.015961933881044388
0.01878080889582634,0.005251556169241667,-0.014518365263938904,0.00956959929317236,-4.503059258809117e-09,0.015770530328154564
0.019198574125766754,0.0049324496649205685,-0.014384104870259762,0.010189640335738659,-2.9401758805391864e-10,0.0158656295388937
0.01873938925564289,0.005450010299682617,-0.014621628448367119,0.009957367554306984,-1.919724622323482e-11,0.01586308144032955
0.018677402287721634,0.005241391249001026,-0.014322333969175816,0.009709109552204609,-1.2534428790039742e-12,0.01684083417057991
0.019333254545927048,0.0059255980886518955,-0.014508610591292381,0.010028031654655933,-8.184085868853316e-14,0.01612861268222332
0.01902971789240837,0.005288512911647558,-0.014086083509027958,0.01063370332121849,-5.3436233912675275e-15,0.016377441585063934
0.018882136791944504,0.005321773700416088,-0.014239480718970299,0.009937559254467487,-3.489004148612328e-16,0.016604628413915634
0.019336413592100143,0.005562440492212772,-0.014234384521842003,0.010146835818886757,-2.2780706270943092e-17,0.01599101908504963
0.019636601209640503,0.005247039254754782,-0.014576227404177189,0.010612107813358307,-1.4874173591339188e-18,0.016760842874646187
0.020261967554688454,0.0052249920554459095,-0.01481582410633564,0.010638675652444363,-0.0003226605476811528,0.017609169706702232
0.020261967554688454,0.0052249920554459095,-0.01481582410633564,0.010638675652444363,-0.0003226605476811528,0.017609169706702232
0.020237350836396217,0.004903786350041628,-0.014122374355793,0.010950971394777298,-0.0003786289889831096,0.01718221791088581
0.019704381003975868,0.005220216698944569,-0.014861874282360077,0.010934126563370228,-0.00041427454561926425,0.01660051755607128
0.019466623663902283,0.0051278830505907536,-0.014400831423699856,0.0105410385876894,-0.00044474692549556494,0.016757145524024963
0.019775325432419777,0.004946751985698938,-0.015069038607180119,0.010407751426100731,-0.0009584444342181087,0.01643301546573639
0.01976894773542881,0.005243852734565735,-0.014739095233380795,0.009648006409406662,-0.0009774394566193223,0.01649470441043377
0.020425839349627495,0.005227325018495321,-0.014670346863567829,0.010628810152411461,-0.0009682641830295324,0.016829799860715866
0.019955208525061607,0.005179835949093103,-0.014247152954339981,0.010681676678359509,-0.0009143982315436006,0.016767095774412155
0.019828801974654198,0.005241779610514641,-0.014934742823243141,0.010120403952896595,-0.001022933516651392,0.0175875723361969
0.020536907017230988,0.005093059968203306,-0.014099788852036,0.01070262398570776,-0.0010092047741636634,0.01740972138941288
0.02088421955704689,0.005321427248418331,-0.015491102822124958,0.009887578897178173,-0.000993572291918099,0.017468130216002464
0.020635312423110008,0.005282034166157246,-0.0153030501678586,0.01014670729637146,-0.00093785987701267,0.017368899658322334
0.02016831561923027,0.005791560281068087,-0.01468639075756073,0.010641704313457012,-0.0010403675260022283,0.017114628106355667
0.020553061738610268,0.005335527006536722,-0.015490289777517319,0.01081294845789671,-0.001044131931848824,0.01721721515059471
0.02027358114719391,0.004758586175739765,-0.015435551293194294,0.01132531650364399,-0.001049890648573637,0.017094191163778305
0.020094921812415123,0.004893819335848093,-0.015613803640007973,0.010470673441886902,-0.0013120501535013318,0.017801957204937935
0.02073235623538494,0.004653450101613998,-0.014773305505514145,0.009757967665791512,-0.0012485097395256162,0.01777045801281929
0.02160249836742878,0.00428406335413456,-0.014970793388783932,0.010299555957317352,-0.0011906875297427177,0.017354777082800865
0.02093483693897724,0.00452195992693305,-0.01491921953856945,0.010750463232398033,-0.001037557260133326,0.01732892356812954
0.020449083298444748,0.004611657001078129,-0.015401752665638924,0.010985531844198704,-0.000902550935279578,0.017307041212916374
0.021159369498491287,0.004528490360826254,-0.014786778949201107,0.011254629120230675,-0.0007569027366116643,0.017585046589374542
0.02128978818655014,0.0045734974555671215,-0.015604236163198948,0.010727062821388245,-0.0007095556939020753,0.017616039142012596
0.02108406461775303,0.004188327584415674,-0.015004653483629227,0.010593697428703308,-0.0006750000175088644,0.017425162717700005
0.021113639697432518,0.004385414533317089,-0.01525202952325344,0.010892202146351337,-0.0006030677468515933,0.01806708052754402
0.021685494109988213,0.0046500153839588165,-0.01516555342823267,0.010893129743635654,-0.0005426058196462691,0.016998520120978355
0.02149263210594654,0.004668019711971283,-0.01558782160282135,0.011156231164932251,-0.0004930156283080578,0.017213327810168266
0.02120877057313919,0.004600582178682089,-0.014939846470952034,0.011004174128174782,-0.0004517287015914917,0.018061181530356407
0.021315600723028183,0.004619401879608631,-0.015705855563282967,0.010420124977827072,-0.0004678286786656827,0.017990974709391594
0.021576428785920143,0.004534974228590727,-0.015720698982477188,0.0104595385491848,-0.0004502188239712268,0.018076617270708084
0.021245446056127548,0.004850945435464382,-0.01566322334110737,0.009953859262168407,-0.00039480338455177844,0.017934337258338928
0.021245446056127548,0.004850945435464382,-0.01566322334110737,0.009953859262168407,-0.00039480338455177844,0.017934337258338928
0.021410493180155754,0.004976212978363037,-0.014696319587528706,0.010129273869097233,-0.000371516274753958,0.01805409975349903
0.021967431530356407,0.004535198677331209,-0.015451977029442787,0.010154199786484241,-0.0003974690625909716,0.017600391060113907
0.021935543045401573,0.0040861861780285835,-0.015122050419449806,0.010259884409606457,-0.0003795529482886195,0.01824430748820305
0.02181527204811573,0.004295960534363985,-0.015695733949542046,0.010668314062058926,-0.0003607312683016062,0.01847030408680439
0.021700600162148476,0.004969712346792221,-0.015347874723374844,0.010205905884504318,-0.00034352653892710805,0.018047194927930832
0.0217535849660635,0.004989298060536385,-0.015832548961043358,0.010680857114493847,-0.0003283063997514546,0.01827382855117321
0.021912068128585815,0.004413889721035957,-0.015056949108839035,0.010994108393788338,-0.0002491008199285716,0.018182147294282913
0.022080127149820328,0.00443588150665164,-0.01542238425463438,0.010883769951760769,-0.0002322382788406685,0.01799844019114971
0.022025231271982193,0.004508038051426411,-0.01525831688195467,0.011561629362404346,-0.00022058830654714257,0.0181412510573864
0.022063447162508965,0.004525319207459688,-0.015670767053961754,0.011132298037409782,-0.00021026153990533203,0.018116921186447144
0.022009141743183136,0.004663760308176279,-0.015197684988379478,0.01109389029443264,-0.00023567539756186306,0.01821383833885193
0.02240608260035515,0.004476677160710096,-0.015896670520305634,0.011179681867361069,-0.0002303935179952532,0.018379397690296173
0.021837040781974792,0.004419247154146433,-0.016156131401658058,0.011057107709348202,-0.00025563311646692455,0.018350375816226006
0.02187259867787361,0.004669527523219585,-0.015226919203996658,0.011523015797138214,-0.0002478370734024793,0.018590960651636124
0.022456882521510124,0.004733282141387463,-0.015626316890120506,0.011834475211799145,-0.0002638048608787358,0.018720585852861404
0.02330756187438965,0.00440890621393919,-0.01562616415321827,0.011504999361932278,-0.00026216224068775773,0.018424689769744873
0.022536613047122955,0.004543305840343237,-0.015973063185811043,0.012113619595766068,-0.00025345271569676697,0.018952960148453712
0.022656001150608063,0.0045177931897342205,-0.015430476516485214,0.011335188522934914,-0.0002448658342473209,0.019032148644328117
0.02218272164463997,0.0048070945776999,-0.016077512875199318,0.011439543217420578,-0.0002913180214818567,0.01883305422961712
0.022471345961093903,0.005271198693662882,-0.0158532727509737,0.011507758870720863,-0.0003223329840693623,0.019062139093875885
0.02394181862473488,0.0049703228287398815,-0.016123248264193535,0.011429834179580212,-0.00030395263456739485,0.019002417102456093
0.023288901895284653,0.004575456492602825,-0.0161209087818861,0.01175253838300705,-0.0003126237425021827,0.020379727706313133
0.022570468485355377,0.004406989086419344,-0.01583469659090042,0.011345840990543365,-0.0003196408215444535,0.01958152838051319
0.023505305871367455,0.0049776616506278515,-0.016153112053871155,0.011729906313121319,-0.0003406292526051402,0.01896391250193119
0.02388628199696541,0.004667067900300026,-0.01595694199204445,0.011604932136833668,-0.00033433057251386344,0.01934054307639599
0.023564234375953674,0.004645112901926041,-0.016488797962665558,0.011644638143479824,-0.00035757292062044144,0.019748728722333908
0.02338540367782116,0.004923935979604721,-0.015825295820832253,0.01205624919384718,-0.0003466566267888993,0.019831279292702675
0.022494742646813393,0.004909047856926918,-0.01661156490445137,0.011768960393965244,-0.00048152031376957893,0.01972341723740101
0.022494742646813393,0.004909047856926918,-0.01661156490445137,0.011768960393965244,-0.00048152031376957893,0.01972341723740101
0.02312796749174595,0.00483632693067193,-0.01632656902074814,0.01208483800292015,-0.00048531536594964564,0.020044337958097458
0.023937571793794632,0.004839922301471233,-0.016606168821454048,0.011903651058673859,-0.0004465149249881506,0.019236063584685326
0.023791929706931114,0.005027981009334326,-0.016094621270895004,0.011991673149168491,-0.0004124713595956564,0.018589971587061882
0.023676836863160133,0.005631374195218086,-0.01633806899189949,0.01150861382484436,-0.00044256020919419825,0.0190411526709795
0.02331298030912876,0.005302154924720526,-0.016133319586515427,0.011621533893048763,-0.0004171171458438039,0.019237404689192772
0.023597195744514465,0.004673982039093971,-0.016928624361753464,0.011624489910900593,-0.000391439680242911,0.01952616684138775
0.023955320939421654,0.004887023940682411,-0.01696753315627575,0.012038378044962883,-0.0004073350573889911,0.019933389499783516
0.024204395711421967,0.004891590680927038,-0.01644933596253395,0.012234007939696312,-0.00039700421621091664,0.01966395229101181
0.023569529876112938,0.004971180111169815,-0.01651628129184246,0.011842801235616207,-0.0003770047624129802,0.02006109617650509
0.023668844252824783,0.0057877302169799805,-0.016578298062086105,0.01223530899733305,-0.00036017922684550285,0.02007375843822956
0.0241899061948061,0.0052848560735583305,-0.016969595104455948,0.011988075450062752,-0.00034932277048937976,0.020288430154323578
0.024166224524378777,0.004842547699809074,-0.01601528935134411,0.012389588169753551,-0.0003251848684158176,0.020256657153367996
0.02420060895383358,0.005194659344851971,-0.016931992024183273,0.012383433990180492,-0.00034794790553860366,0.019945209845900536
0.02441306598484516,0.005094961728900671,-0.0171558428555727,0.01236301101744175,-0.0003399501438252628,0.01959400437772274
0.024110987782478333,0.00533105107024312,-0.017427336424589157,0.01284760981798172,-0.0003206653636880219,0.019855638965964317
0.02414853498339653,0.005505592096596956,-0.017617594450712204,0.012896159663796425,-0.0003463930916041136,0.020022014155983925
0.02442011423408985,0.005088869947940111,-0.016753586009144783,0.013368072919547558,-0.0003340003895573318,0.02045273222029209
0.02453652210533619,0.004831063561141491,-0.01768558658659458,0.012780520133674145,-0.000359799072612077,0.0205309446901083
0.024573132395744324,0.005330103449523449,-0.01781555451452732,0.013017505407333374,-0.00041848584078252316,0.020641213282942772
0.024412693455815315,0.005104062147438526,-0.01805693842470646,0.012256409972906113,-0.0004904565284959972,0.020319106057286263
0.024906713515520096,0.005235521588474512,-0.018227072432637215,0.012404760345816612,-0.000489830388687551,0.01998484693467617
0.024602776393294334,0.005143690388649702,-0.017721597105264664,0.012695198878645897,-0.0005216600839048624,0.020565032958984375
0.024472661316394806,0.00511679332703352,-0.01752736233174801,0.012354888953268528,-0.0005461003165692091,0.02227264828979969
0.02485213242471218,0.004851577803492546,-0.017436880618333817,0.01245077047497034,-0.0005154642276465893,0.020757023245096207
0.024964135140180588,0.005128531716763973,-0.017369508743286133,0.011595544405281544,-0.0006614224403165281,0.020318834111094475
0.024999255314469337,0.0055413879454135895,-0.018148209899663925,0.01192557904869318,-0.0006295892526395619,0.02028597518801689
0.025053732097148895,0.005260408390313387,-0.01822219416499138,0.012082364410161972,-0.0006366092711687088,0.020614802837371826
0.025053732097148895,0.005260408390313387,-0.01822219416499138,0.012082364410161972,-0.0006366092711687088,0.020614802837371826
0.025644097477197647,0.005285285413265228,-0.018123527988791466,0.012297042645514011,-0.0005917192320339382,0.020814187824726105
0.025219157338142395,0.005476566031575203,-0.018297338858246803,0.012672199867665768,-0.0006113839335739613,0.02095743454992771
0.025305794551968575,0.005008792504668236,-0.017129091545939445,0.012534807436168194,-0.0006059809820726514,0.021192701533436775
0.025468386709690094,0.005193660035729408,-0.018328217789530754,0.012270422652363777,-0.0005891869077458978,0.020819349214434624
0.025691403076052666,0.00548401428386569,-0.017930766567587852,0.012821290642023087,-0.0005861717509105802,0.02086055465042591
0.025760095566511154,0.005579872988164425,-0.018244225531816483,0.01242922991514206,-0.0005710014374926686,0.020901713520288467
0.026084186509251595,0.005010915920138359,-0.01810915395617485,0.012465616688132286,-0.0005191269447095692,0.0210066307336092
0.02547101490199566,0.004591174889355898,-0.018123911693692207,0.012252039276063442,-0.0005417695501819253,0.020804300904273987
0.02470499835908413,0.0048734648153185844,-0.01859700120985508,0.012302128598093987,-0.0005073701031506062,0.021097678691148758
0.025336364284157753,0.005084070842713118,-0.017838820815086365,0.01300201565027237,-0.000528062111698091,0.02098117023706436
0.026393035426735878,0.005149037577211857,-0.018188949674367905,0.012503505684435368,-0.0004993591574020684,0.020982185378670692
0.02517484873533249,0.0053177583031356335,-0.018676524981856346,0.012890534475445747,-0.0004708424676209688,0.02152146026492119
0.02578636445105076,0.004877043422311544,-0.018339715898036957,0.01234669703990221,-0.00047077707131393254,0.021916847676038742
0.027144376188516617,0.004683105740696192,-0.01873423345386982,0.012579950504004955,-0.00042907908209599555,0.021836571395397186
0.026526527479290962,0.005000216420739889,-0.018685590475797653,0.012154706753790379,-0.0004646566812880337,0.02149403654038906
0.026391709223389626,0.0049629961140453815,-0.018003348261117935,0.012276562862098217,-0.0004943868261761963,0.021136656403541565
0.026165548712015152,0.004958623088896275,-0.01826443336904049,0.01313017588108778,-0.0005155651015229523,0.021320536732673645
0.026089727878570557,0.005162135232239962,-0.0182812362909317,0.012739159166812897,-0.0004976717755198479,0.02169620804488659
0.026733053848147392,0.005187909584492445,-0.017953163012862206,0.013449355028569698,-0.0006303378031589091,0.02219156175851822
0.02677340991795063,0.005529649555683136,-0.018299410119652748,0.013139590620994568,-0.0005645338096655905,0.021522989496588707
0.026562808081507683,0.005288316402584314,-0.018275218084454536,0.013572829775512218,-0.0005022800178267062,0.021893661469221115
0.026498738676309586,0.005460033193230629,-0.01841449923813343,0.013038229197263718,-0.0005356242181733251,0.0219730194658041
0.02655152976512909,0.00579763762652874,-0.0184469074010849,0.01355702430009842,-0.0004922302905470133,0.0225246399641037
0.02641930617392063,0.005192132666707039,-0.01776476949453354,0.013202158734202385,-0.0005162643501535058,0.021762944757938385
0.026782682165503502,0.0051839305087924,-0.018423106521368027,0.012807836756110191,-0.0004853192367590964,0.02150578983128071
0.026583850383758545,0.005070413462817669,-0.018514325842261314,0.013170060701668262,-0.000482391391415149,0.021385962143540382
0.026745842769742012,0.004853071179240942,-0.017867716029286385,0.013062450103461742,-0.0004789717204403132,0.021837523207068443
0.02630498632788658,0.005356444511562586,-0.01858949102461338,0.013802286237478256,-0.00045084275188855827,0.021405300125479698
0.027110867202281952,0.005225940141826868,-0.018485376611351967,0.014254499226808548,-0.0004160294192843139,0.02234046347439289
0.02676970884203911,0.004968077875673771,-0.0181585643440485,0.013998173177242279,-0.00038010001298971474,0.022748516872525215
0.026523549109697342,0.005008270964026451,-0.018584784120321274,0.014568445272743702,-0.00038436969043686986,0.022568102926015854
0.026523549109697342,0.005008270964026451,-0.018584784120321274,0.014568445272743702,-0.00038436969043686986,0.022568102926015854
0.027281418442726135,0.005025669001042843,-0.01819513738155365,0.014760477468371391,-0.0003877414856106043,0.0224499199539423
0.027742648497223854,0.005439977627247572,-0.018494969233870506,0.014231906272470951,-0.00039708285476081073,0.022289332002401352
0.027709420770406723,0.005344077479094267,-0.017857221886515617,0.013846686109900475,-0.0004236983659211546,0.022343073040246964
0.02736053057014942,0.005276194773614407,-0.018369562923908234,0.013939112424850464,-0.00040323633584193885,0.022670406848192215
0.026929019019007683,0.005034563597291708,-0.01844133250415325,0.013743528164923191,-0.0005146617768332362,0.02247009240090847
0.027201306074857712,0.004990558605641127,-0.017822522670030594,0.01380072720348835,-0.0005504012806341052,0.022631559520959854
0.02704317308962345,0.005728143732994795,-0.01845124363899231,0.013310706242918968,-0.0005621927557513118,0.022773945704102516
0.028339270502328873,0.005466348025947809,-0.018442636355757713,0.013895176351070404,-0.0005522642750293016,0.02300519309937954
0.02763434685766697,0.0053635574877262115,-0.018279090523719788,0.013312025927007198,-0.0005778191844001412,0.022739745676517487
0.027714475989341736,0.005101175047457218,-0.018558861687779427,0.013887490145862103,-0.0007117377244867384,0.022691180929541588
0.026710575446486473,0.004888161085546017,-0.018213870003819466,0.013620098121464252,-0.0007635846268385649,0.023123735561966896
0.027551721781492233,0.00540546141564846,-0.01854212023317814,0.014388901181519032,-0.0007829920505173504,0.023476194590330124
0.027984619140625,0.005223382730036974,-0.019162554293870926,0.014072864316403866,-0.0007708299672231078,0.023211294785141945
0.027868930250406265,0.005089950282126665,-0.019033292308449745,0.014332916587591171,-0.0007379254675470293,0.023273222148418427
0.028118818998336792,0.005277824122458696,-0.019441144540905952,0.014197288081049919,-0.0007500987267121673,0.023198841139674187
0.02894820272922516,0.005359084345400333,-0.01944178342819214,0.01470438577234745,-0.0008126397733576596,0.02317887730896473
0.028584668412804604,0.005518862046301365,-0.018534207716584206,0.014273406006395817,-0.0008273340063169599,0.02321040816605091
0.028621384873986244,0.005182276945561171,-0.019158493727445602,0.014609107747673988,-0.000836346996948123,0.023416807875037193
0.027801914140582085,0.00486907409504056,-0.019367555156350136,0.013899484649300575,-0.0009058297146111727,0.023546265438199043
0.028306446969509125,0.0052417125552892685,-0.01886514574289322,0.014044615440070629,-0.000990825705230236,0.0236943569034338
0.029170066118240356,0.00541991600766778,-0.01978735253214836,0.01407551672309637,-0.000981946592219174,0.023352330550551414
0.029233155772089958,0.005549636669456959,-0.01981949619948864,0.014871391467750072,-0.0009709121659398079,0.023709630593657494
0.029325220733880997,0.0052165682427585125,-0.01898818276822567,0.014678540639579296,-0.0008818337810225785,0.024011125788092613
0.02916617877781391,0.005035785026848316,-0.019221721217036247,0.01512331422418356,-0.000867931405082345,0.024142388254404068
0.02916617877781391,0.005035785026848316,-0.019221721217036247,0.01512331422418356,-0.000867931405082345,0.024142388254404068
0.02884838543832302,0.005153397098183632,-0.019665824249386787,0.014437887817621231,-0.000869121344294399,0.02397933416068554
0.028130263090133667,0.004173776134848595,-0.019541960209608078,0.014614039100706577,-0.0008619764121249318,0.02408524788916111
0.028130263090133667,0.004173776134848595,-0.019541960209608078,0.014614039100706577,-0.0008619764121249318,0.02408524788916111
0.029624929651618004,0.003940085414797068,-0.019750254228711128,0.014964686706662178,-0.0007927770493552089,0.024532554671168327
0.02977275289595127,0.004070345778018236,-0.019233660772442818,0.015088692307472229,-0.0007487830589525402,0.024512706324458122
0.029849166050553322,0.004292784258723259,-0.01957317441701889,0.014707363210618496,-0.0007084300741553307,0.025026777759194374
0.029825348407030106,0.004603281617164612,-0.019626028835773468,0.015197244472801685,-0.0007059924537315965,0.02396104857325554
0.029694391414523125,0.00458814250305295,-0.019378680735826492,0.01491573080420494,-0.0006560357287526131,0.02389420196413994
0.03005465492606163,0.004270357079803944,-0.01953868195414543,0.015615841373801231,-0.0006744546117261052,0.024919750168919563
0.03057199902832508,0.004451942164450884,-0.019244330003857613,0.015975164249539375,-0.0006617583567276597,0.025458283722400665
0.030221249908208847,0.004222002811729908,-0.019738513976335526,0.015958338975906372,-0.0006945106433704495,0.02448880486190319
0.03029979020357132,0.004361304454505444,-0.020092731341719627,0.015193247236311436,-0.0007049629930406809,0.023335563018918037
0.030804919078946114,0.004476564470678568,-0.019599970430135727,0.01490001194179058,-0.0006558746099472046,0.024165796115994453
0.03096560202538967,0.004596350714564323,-0.019259151071310043,0.015013999305665493,-0.0006364235305227339,0.0254767294973135
0.03125816583633423,0.004566711839288473,-0.019732993096113205,0.014616786502301693,-0.0006188824772834778,0.025228500366210938
0.030956566333770752,0.004170600324869156,-0.01982187107205391,0.015000277198851109,-0.0006880111177451909,0.02525309845805168
0.03127765282988548,0.00398348830640316,-0.019703108817338943,0.014633879996836185,-0.0007277269614860415,0.026396000757813454
0.031176159158349037,0.004314209334552288,-0.01989329233765602,0.015123913064599037,-0.000741783354897052,0.026579001918435097
0.03154214471578598,0.004496616777032614,-0.019890345633029938,0.014967786148190498,-0.0007583415135741234,0.025695007294416428
0.031411606818437576,0.004467856138944626,-0.01952740177512169,0.015154000371694565,-0.0008110487833619118,0.024824118241667747
0.031343474984169006,0.0047156051732599735,-0.019964419305324554,0.014700934290885925,-0.0008554409141652286,0.025262782350182533
0.031274065375328064,0.004488023929297924,-0.019738150760531425,0.015086321160197258,-0.0008004154078662395,0.025955049321055412
0.03236914798617363,0.004443793091922998,-0.019509317353367805,0.014881273731589317,-0.0008091446943581104,0.02606779895722866
0.03329743444919586,0.004477034788578749,-0.020033448934555054,0.015637138858437538,-0.0008192472741939127,0.026004228740930557
0.030784623697400093,0.004534306935966015,-0.019962793216109276,0.015100720338523388,-0.0007944488897919655,0.026117775589227676
0.030784623697400093,0.004534306935966015,-0.019962793216109276,0.015100720338523388,-0.0007944488897919655,0.026117775589227676
0.03299814462661743,0.004568042699247599,-0.019786227494478226,0.015186200849711895,-0.0008092511561699212,0.026069767773151398
0.03299814462661743,0.004568042699247599,-0.019786227494478226,0.015186200849711895,-0.0008092511561699212,0.026069767773151398
0.031873952597379684,0.005137948784977198,-0.019705915823578835,0.015733102336525917,-0.0007676506065763533,0.02587377466261387
0.03237190470099449,0.00483538256958127,-0.019537219777703285,0.014625266194343567,-0.0007719344575889409,0.026118339970707893
0.03334914892911911,0.004352333024144173,-0.019442545250058174,0.015162335708737373,-0.0007901210919953883,0.02593785524368286
0.03189948946237564,0.004554057959467173,-0.01935754530131817,0.015805667266249657,-0.0007623597630299628,0.02629067376255989
0.03250338137149811,0.00448167510330677,-0.01944454200565815,0.016332434490323067,-0.0007715741521678865,0.026727670803666115
0.03361767157912254,0.004906189627945423,-0.02032477781176567,0.0163352619856596,-0.0007473920122720301,0.026517052203416824
0.03314445540308952,0.005046607926487923,-0.02108280174434185,0.016771599650382996,-0.0007168396841734648,0.02628830075263977
0.03286866471171379,0.0043451557867228985,-0.01993587613105774,0.01649276353418827,-0.0006552766426466405,0.026307983323931694
0.03332451730966568,0.004203557502478361,-0.020572742447257042,0.01688981056213379,-0.0006326400907710195,0.026374589651823044
0.03305865079164505,0.004136525560170412,-0.020489081740379333,0.01690317690372467,-0.0006544085335917771,0.026526346802711487
0.0336405485868454,0.004838297143578529,-0.01950100064277649,0.016408706083893776,-0.0006431209621950984,0.026643285527825356
0.03362322226166725,0.004885239992290735,-0.020401954650878906,0.016491634771227837,-0.0006231190054677427,0.02686586044728756
0.03356418386101723,0.00472781527787447,-0.021309224888682365,0.01619267836213112,-0.0006397112738341093,0.026399658992886543
0.033360470086336136,0.004562695510685444,-0.02109389752149582,0.016545355319976807,-0.0007488852716051042,0.026482699438929558
0.0333896242082119,0.004368003457784653,-0.019668180495500565,0.01651734672486782,-0.0007876635645516217,0.027219081297516823
0.03316063806414604,0.004534918814897537,-0.02089289389550686,0.016867216676473618,-0.0007952765445224941,0.0276911910623312
0.03356894850730896,0.004662367980927229,-0.021762149408459663,0.01667732186615467,-0.0007185135036706924,0.026997458189725876
0.033839043229818344,0.0047665610909461975,-0.02069709636271,0.016480302438139915,-0.0007312173838727176,0.026262326166033745
0.03285524994134903,0.005074876360595226,-0.020257029682397842,0.016464076936244965,-0.000673555419780314,0.026108581572771072
0.03390412777662277,0.005107121076434851,-0.021376147866249084,0.016155123710632324,-0.0006718062213622034,0.027351535856723785
0.034782130271196365,0.005054367706179619,-0.020871583372354507,0.01654372364282608,-0.0006758769741281867,0.02735094539821148
0.0352826789021492,0.004823039285838604,-0.01992509700357914,0.015891965478658676,-0.000624188978690654,0.02743484266102314
0.03386383131146431,0.004933809395879507,-0.020848793908953667,0.016547881066799164,-0.0006476918351836503,0.027771029621362686
0.0336395800113678,0.004839305765926838,-0.021744031459093094,0.01669187657535076,-0.0006333322380669415,0.027648495510220528
0.03466121479868889,0.0052366903983056545,-0.021169088780879974,0.01682296022772789,-0.0006164030637592077,0.02741416171193123
0.03446613624691963,0.005163007881492376,-0.020615076646208763,0.016923444345593452,-0.0006374979857355356,0.026662085205316544
0.03471047058701515,0.004944636020809412,-0.020972907543182373,0.016963623464107513,-0.0005697923479601741,0.026915067806839943
0.03550737351179123,0.00509145250543952,-0.02157733403146267,0.017280224710702896,-0.0005549967754632235,0.02811458148062229
0.03550737351179123,0.00509145250543952,-0.02157733403146267,0.017280224710702896,-0.0005549967754632235,0.02811458148062229
0.03421555086970329,0.00474773533642292,-0.021113764494657516,0.017101524397730827,-0.0004957331693731248,0.028139838948845863
0.03468038886785507,0.0049662175588309765,-0.021063515916466713,0.017139194533228874,-0.000524482864420861,0.02816190756857395
0.03468038886785507,0.0049662175588309765,-0.021063515916466713,0.017139194533228874,-0.000524482864420861,0.02816190756857395
0.035488635301589966,0.005032201763242483,-0.021167924627661705,0.017763745039701462,-0.0005011243047192693,0.02838246151804924
0.03536505624651909,0.004789842292666435,-0.02088341675698757,0.017064666375517845,-0.0004823734052479267,0.028230128809809685
0.03495060279965401,0.004876682069152594,-0.02091331221163273,0.017249980941414833,-0.000452980661066249,0.027657048776745796
0.0351477786898613,0.004895088262856007,-0.021083390340209007,0.017287755385041237,-0.00042510469211265445,0.02817678451538086
0.03570803627371788,0.005173875950276852,-0.020813360810279846,0.016810467466711998,-0.0003900181327480823,0.02807631343603134
0.035660453140735626,0.005577601958066225,-0.021491309627890587,0.01734013669192791,-0.00041168025927618146,0.028421074151992798
0.035525716841220856,0.005081272218376398,-0.021400516852736473,0.01730356551706791,-0.0003976984298788011,0.028474245220422745
0.035897910594940186,0.0052162036299705505,-0.0209234356880188,0.017548704519867897,-0.00042487974860705435,0.02978462725877762
0.036768123507499695,0.005030052270740271,-0.02116217277944088,0.017830682918429375,-0.00040492869447916746,0.028123512864112854
0.03564705699682236,0.004813340026885271,-0.021393876522779465,0.017424920573830605,-0.00043155488674528897,0.02828281931579113
0.036704737693071365,0.004951594863086939,-0.021214133128523827,0.01760321855545044,-0.0005048392340540886,0.028488392010331154
0.03661227598786354,0.005357076413929462,-0.02064848504960537,0.016998669132590294,-0.0005347671103663743,0.02866402268409729
0.03631982207298279,0.004688184708356857,-0.02103978767991066,0.017178278416395187,-0.0005728534888476133,0.028875596821308136
0.03640313073992729,0.0051004341803491116,-0.021473325788974762,0.017478354275226593,-0.0006045240443199873,0.028890326619148254
0.036737579852342606,0.004928826820105314,-0.021411806344985962,0.017479322850704193,-0.0006306472350843251,0.02899407409131527
0.03668496012687683,0.0049356394447386265,-0.020617764443159103,0.017825407907366753,-0.0007151310564950109,0.028939642012119293
0.03704506903886795,0.004915527068078518,-0.02099224179983139,0.017299698665738106,-0.0007950877770781517,0.02896810695528984
0.03681810200214386,0.005682497285306454,-0.02132587693631649,0.017540734261274338,-0.0007531536975875497,0.029111305251717567
0.03703583404421806,0.005257922224700451,-0.021394316107034683,0.01770484261214733,-0.0007598792435601354,0.029414355754852295
0.03750205785036087,0.0048061260022223,-0.020716190338134766,0.017533091828227043,-0.0006897170678712428,0.029330706223845482
0.037494104355573654,0.004645695444196463,-0.021491751074790955,0.018123064190149307,-0.000704816950019449,0.029171748086810112
0.037135470658540726,0.0042244791984558105,-0.022121069952845573,0.01805604062974453,-0.0006468688370659947,0.029123233631253242
0.03754204139113426,0.004457872826606035,-0.021861789748072624,0.017796313390135765,-0.0006123688071966171,0.02926572971045971
0.038242973387241364,0.004690924659371376,-0.02144317515194416,0.01822005584836006,-0.0005564519669860601,0.029558593407273293
0.03837282210588455,0.004942296072840691,-0.02148166485130787,0.01772100105881691,-0.000581570842768997,0.029990559443831444
0.03837282210588455,0.004942296072840691,-0.02148166485130787,0.01772100105881691,-0.000581570842768997,0.029990559443831444
0.03741753101348877,0.004385130014270544,-0.021363623440265656,0.018321391195058823,-0.00055785255972296,0.02852822095155716
0.037732213735580444,0.004363630898296833,-0.020788777619600296,0.018449272960424423,-0.0005212342948652804,0.029283152893185616
0.03859712556004524,0.004593770485371351,-0.02172086201608181,0.01897219941020012,-0.0004819522437173873,0.030189206823706627
0.038854748010635376,0.004668357316404581,-0.02293522097170353,0.0188930481672287,-0.000507181219290942,0.029718825593590736
0.037094131112098694,0.004888527560979128,-0.022718286141753197,0.018338777124881744,-0.0005099331610836089,0.030586067587137222
0.03646478429436684,0.00479971943423152,-0.021514523774385452,0.019265305250883102,-0.00048703441279940307,0.030718404799699783
0.03822380676865578,0.004609275609254837,-0.021546708419919014,0.018773876130580902,-0.0005058988463133574,0.028824834153056145
0.03818534314632416,0.004621764179319143,-0.02206645905971527,0.018145006150007248,-0.0004808524972759187,0.029210956767201424
0.03788367286324501,0.0046749296598136425,-0.02253449708223343,0.018813779577612877,-0.0005112577928230166,0.03027908317744732
0.03888982906937599,0.004537623841315508,-0.022323552519083023,0.018360648304224014,-0.0005271629197522998,0.031037654727697372
0.03804628551006317,0.004919365048408508,-0.021496376022696495,0.018259497359395027,-0.0006049380172044039,0.030528299510478973
0.03772839158773422,0.004833063576370478,-0.02219650335609913,0.01883281022310257,-0.0006774167413823307,0.030086563900113106
0.03831256553530693,0.00473802862688899,-0.022119097411632538,0.019003339111804962,-0.0006542804185301065,0.030085958540439606
0.037958431988954544,0.004229946993291378,-0.02281522937119007,0.01916598342359066,-0.0006776490481570363,0.030275501310825348
0.038237620145082474,0.004222358111292124,-0.022415123879909515,0.01880231872200966,-0.0006932917167432606,0.030191516503691673
0.03858836367726326,0.004200823605060577,-0.021905120462179184,0.018432263284921646,-0.000747857557144016,0.030166849493980408
0.03804134950041771,0.004823040217161179,-0.022964298725128174,0.01855785772204399,-0.0007295897230505943,0.030164571478962898
0.03788711130619049,0.004461073782294989,-0.022178305312991142,0.018792685121297836,-0.0007419362082146108,0.030260950326919556
0.0397585891187191,0.00448875967413187,-0.022185150533914566,0.01838182657957077,-0.0006654213066212833,0.030451519414782524
0.03969559818506241,0.004178610630333424,-0.022665582597255707,0.018515365198254585,-0.0006406386382877827,0.03053850308060646
0.03718450665473938,0.003963513765484095,-0.022335033863782883,0.018398048356175423,-0.0006201533833518624,0.03040582872927189
0.038365256041288376,0.00420263921841979,-0.02260483428835869,0.018387505784630775,-0.000636888318695128,0.030407682061195374
0.03862153738737106,0.004535909742116928,-0.022681960836052895,0.019022248685359955,-0.0006095430580899119,0.031058508902788162
0.03862153738737106,0.004535909742116928,-0.022681960836052895,0.019022248685359955,-0.0006095430580899119,0.031058508902788162
0.03896116837859154,0.0042473128996789455,-0.0222031120210886,0.01900685951113701,-0.0006469508516602218,0.030945386737585068
0.039929844439029694,0.004431076347827911,-0.022519491612911224,0.018579015508294106,-0.0006748037994839251,0.031347014009952545
0.03943754732608795,0.004137728363275528,-0.022434890270233154,0.018627982586622238,-0.001005006954073906,0.03064148500561714
0.03943754732608795,0.004137728363275528,-0.022434890270233154,0.018627982586622238,-0.001005006954073906,0.03064148500561714
0.039234962314367294,0.004107265267521143,-0.022398721426725388,0.019001411274075508,-0.0009378372342325747,0.03120308741927147
0.0386822484433651,0.004132939502596855,-0.02229655161499977,0.01886407844722271,-0.000869801442604512,0.03208599612116814
0.0394199900329113,0.004506953991949558,-0.022570321336388588,0.018450487405061722,-0.0008692070841789246,0.03156363219022751
0.03938046097755432,0.004246903583407402,-0.02255263179540634,0.01862226612865925,-0.0008056243532337248,0.03047318570315838
0.039186879992485046,0.004411973990499973,-0.022369569167494774,0.018378524109721184,-0.0007617094670422375,0.030697051435709
0.039512693881988525,0.004107206594198942,-0.022792598232626915,0.018456248566508293,-0.0007189761381596327,0.03169663995504379
0.03942759335041046,0.004421820864081383,-0.022795135155320168,0.018506580963730812,-0.0007362451287917793,0.0313904844224453
0.0393308661878109,0.0042869094759225845,-0.022971229627728462,0.01814180426299572,-0.000762499519623816,0.03211922571063042
0.039922237396240234,0.0043034483678638935,-0.02272695302963257,0.0186210498213768,-0.0009635341702960432,0.032450586557388306
0.03993565961718559,0.003994142636656761,-0.022463880479335785,0.01910327933728695,-0.0010419958271086216,0.031721100211143494
0.04001028835773468,0.0043684751726686954,-0.022680457681417465,0.019037654623389244,-0.0009776826482266188,0.031048927456140518
0.0399603433907032,0.0042549497447907925,-0.022902507334947586,0.019353529438376427,-0.0012102376203984022,0.0312676802277565
0.03882591798901558,0.004510669969022274,-0.02252190187573433,0.01944301836192608,-0.0011650429805740714,0.0326172411441803
0.04064395651221275,0.004211287014186382,-0.02236315794289112,0.01867697387933731,-0.0010504237143322825,0.03257899358868599
0.041023366153240204,0.003985845949500799,-0.022403495386242867,0.018865812569856644,-0.0009981117909774184,0.03210880607366562
0.04070879518985748,0.004373001866042614,-0.022737443447113037,0.019126148894429207,-0.000901595049072057,0.03212125226855278
0.04024649038910866,0.004242314491420984,-0.023411819711327553,0.01942584291100502,-0.0007751247612759471,0.031732697039842606
0.04084360599517822,0.004033547826111317,-0.02409929595887661,0.020287523046135902,-0.000721001997590065,0.03210252895951271
0.04057374224066734,0.003928645513951778,-0.02286781743168831,0.020379677414894104,-0.0007391530671156943,0.032373327761888504
0.0407460518181324,0.0038992385379970074,-0.02301035448908806,0.02002924308180809,-0.0007571306778118014,0.03201775997877121
0.04071483388543129,0.004133137874305248,-0.022581597790122032,0.019467731937766075,-0.000852547527756542,0.03223688155412674
0.04071483388543129,0.004133137874305248,-0.022581597790122032,0.019467731937766075,-0.000852547527756542,0.03223688155412674
0.040636997669935226,0.003994029480963945,-0.022731516510248184,0.01961539499461651,-0.0009434120147489011,0.03250172734260559
0.04085792973637581,0.0038178798276931047,-0.023135196417570114,0.019474565982818604,-0.0009422714356333017,0.032570015639066696
0.04196461662650108,0.004221091978251934,-0.02321828529238701,0.01937674917280674,-0.0009369877516292036,0.032704949378967285
0.04126651585102081,0.004118978977203369,-0.022845780476927757,0.019639993086457253,-0.000859260733705014,0.032606471329927444
0.04001165181398392,0.004063252359628677,-0.023441560566425323,0.01955341547727585,-0.0008802379015833139,0.03257041797041893
0.041142381727695465,0.003976843785494566,-0.024118909612298012,0.021045180037617683,-0.0008775165188126266,0.03261023387312889
0.042396724224090576,0.00395925110206008,-0.0234540943056345,0.02061254158616066,-0.0008651250973343849,0.032783329486846924
0.042268894612789154,0.0044381930492818356,-0.023055648431181908,0.019403111189603806,-0.0008500756812281907,0.03300916403532028
0.03974774479866028,0.004639039281755686,-0.022806717082858086,0.019644005224108696,-0.000879966071806848,0.03314438834786415
0.0413774736225605,0.0042495704255998135,-0.02321433462202549,0.019778374582529068,-0.0008844439871609211,0.032879311591386795
0.042065124958753586,0.004319068510085344,-0.02408406138420105,0.019611703231930733,-0.0009015796822495759,0.03405305743217468
0.04177074134349823,0.004633718635886908,-0.023703254759311676,0.020114095881581306,-0.0008178082061931491,0.03375834599137306
0.04187991842627525,0.004639832768589258,-0.023538747802376747,0.020599912852048874,-0.0008789664134383202,0.03449023514986038
0.04157332330942154,0.00435077678412199,-0.02356858365237713,0.020002789795398712,-0.0008552530780434608,0.0347881093621254
0.04220644012093544,0.004479946568608284,-0.024082839488983154,0.020397460088133812,-0.0008279570611193776,0.03377056494355202
0.041524793952703476,0.004229316022247076,-0.02373996376991272,0.020299851894378662,-0.0007811298710294068,0.03262282907962799
0.041899215430021286,0.004331422504037619,-0.023525767028331757,0.02054435946047306,-0.0007838310557417572,0.03332298621535301
0.0418512187898159,0.00459294393658638,-0.023304447531700134,0.020141875371336937,-0.0008355415775440633,0.033695973455905914
0.04215499758720398,0.00410261657088995,-0.02277221716940403,0.01991843990981579,-0.0008847942226566374,0.03393352031707764
0.04308263957500458,0.004218590911477804,-0.023468762636184692,0.019944950938224792,-0.0009174147271551192,0.03495411574840546
0.04218596592545509,0.004236718639731407,-0.024214759469032288,0.020123040303587914,-0.0013784993207082152,0.034741006791591644
0.04069550335407257,0.004437326919287443,-0.023869922384619713,0.020092984661459923,-0.0013067054096609354,0.033278271555900574
0.04198310896754265,0.004405680578202009,-0.02395574189722538,0.02018042840063572,-0.0012360442196950316,0.032948240637779236
0.04180559143424034,0.004357143305242062,-0.023870769888162613,0.019699884578585625,-0.0011155196698382497,0.03443745896220207
0.04325968772172928,0.0042070047929883,-0.023375404998660088,0.019813962280750275,-0.0010199462994933128,0.03501619026064873
0.04225268214941025,0.004341644234955311,-0.02340931072831154,0.02044198103249073,-0.0009228898561559618,0.03479841724038124
0.04058416932821274,0.004057467915117741,-0.023789310827851295,0.019967414438724518,-0.0009141831542365253,0.03490062430500984
0.042789191007614136,0.004328315146267414,-0.023900626227259636,0.019927458837628365,-0.0009118944290094078,0.034299466758966446
0.04252015799283981,0.00434286892414093,-0.023664366453886032,0.02034381777048111,-0.0008655052515678108,0.03485114872455597
0.04275370016694069,0.004525573458522558,-0.023384524509310722,0.020275522023439407,-0.0008726497180759907,0.03483738750219345
0.04244764894247055,0.004321614280343056,-0.023391729220747948,0.020035475492477417,-0.0008766151149757206,0.034726180136203766
0.042389724403619766,0.0044408757239580154,-0.024123989045619965,0.020346244797110558,-0.0010682340944185853,0.0345194973051548
