davideferrari95/blind_handover_controller/data/Test 141 - [2024-02-07 -- 17-24-59]/joint_states_data.csv
shoulder_pan_joint,shoulder_lift_joint,elbow_joint,wrist_1_joint,wrist_2_joint,wrist_3_joint
-0.003123670583590865,-0.00884055346250534,0.009769081138074398,0.0029419276397675276,0.0,-0.0044837575405836105
-0.0029907042626291513,-0.008903151378035545,0.010535509325563908,0.003071361221373081,0.0,-0.004492646548897028
-0.0029907042626291513,-0.008903151378035545,0.010535509325563908,0.003071361221373081,0.0,-0.004492646548897028
-0.0028527940157800913,-0.008805491961538792,0.00951442588120699,0.002688789740204811,0.0,-0.004058725666254759
-0.002849732292816043,-0.008911024779081345,0.009450871497392654,0.0022076477762311697,0.0,-0.0037109374534338713
-0.002819235436618328,-0.008521941490471363,0.00991838052868843,0.0020564862061291933,0.0,-0.0036682209465652704
-0.00284058996476233,-0.008860143832862377,0.01030929759144783,0.0021468917839229107,0.0,-0.003714850638061762
-0.00284058996476233,-0.008860143832862377,0.01030929759144783,0.0021468917839229107,0.0,-0.003714850638061762
-0.0029719967860728502,-0.008597997948527336,0.009582225233316422,0.002285911003127694,0.0,-0.00357251544483006
-0.0028115303721278906,-0.009197377599775791,0.009727846831083298,0.002042466541752219,0.0,-0.0035063328687101603
-0.0028115303721278906,-0.009197377599775791,0.009727846831083298,0.002042466541752219,0.0,-0.0035063328687101603
-0.002765091834589839,-0.008679394610226154,0.009408681653439999,0.0017218634020537138,0.0,-0.003911884035915136
-0.002608547220006585,-0.007767762988805771,0.009584272280335426,0.0015696375630795956,0.0,-0.0040289852768182755
-0.0028072220738977194,-0.00825442560017109,0.009735985659062862,0.0014588661724701524,0.0,-0.0039159562438726425
-0.002903603482991457,-0.008636402897536755,0.009592149406671524,0.0013500201748684049,0.0,-0.004194921348243952
-0.002715279348194599,-0.008301670663058758,0.009893624112010002,0.0012822520220652223,0.0,-0.0034547639079391956
-0.0026669171638786793,-0.00854671373963356,0.009495864622294903,0.0016318467678502202,0.0,-0.003479497041553259
-0.002706667175516486,-0.008914909325540066,0.009401272982358932,0.0018330443417653441,0.0,-0.0036847467999905348
-0.0025380824226886034,-0.008467549458146095,0.009938769042491913,0.001934812986291945,0.0,-0.003611839609220624
-0.002619696082547307,-0.00894581712782383,0.00904354639351368,0.001755157602019608,0.0,-0.0035864929668605328
-0.0027216344606131315,-0.008851277641952038,0.008834821172058582,0.001443492597900331,0.0,-0.0036567298229783773
-0.0026805114466696978,-0.008523481898009777,0.009571032598614693,0.0012957514263689518,2.11212409340078e-06,-0.004077470395714045
-0.002928254660218954,-0.009061058051884174,0.009657603688538074,0.0013557365164160728,1.3790659636470082e-07,-0.0039592827670276165
-0.0028289114125072956,-0.008830441161990166,0.008938255719840527,0.0012823552824556828,9.004316403604662e-09,-0.0036511733196675777
-0.002773707266896963,-0.008368667215108871,0.009625621140003204,0.001378308399580419,5.87917492467227e-10,-0.0033554641995579004
-0.00270373048260808,-0.008652519434690475,0.009378216229379177,0.0013290749629959464,3.8386811090918016e-11,-0.003162763314321637
-0.002920990576967597,-0.00833988469094038,0.009286090731620789,0.0015162390191107988,2.5063846397638256e-12,-0.0034186982084065676
-0.002935816766694188,-0.0085555175319314,0.009121433831751347,0.0015857121907174587,1.6364900157651158e-13,-0.00408812565729022
-0.0028859167359769344,-0.008278818801045418,0.008998784236609936,0.001660449430346489,1.0685109718409132e-14,-0.004212537780404091
-0.0031513150315731764,-0.008383269421756268,0.008352525532245636,0.001588344224728644,6.976612810444054e-16,-0.004058706108480692
-0.0028810997027903795,-0.008462738245725632,0.008515387773513794,0.001519319717772305,4.55523003202583e-17,-0.0034780637361109257
-0.0030568374786525965,-0.0082742003723979,0.009663228876888752,0.0015260193031281233,2.9742395618171057e-18,-0.00352017511613667
-0.0030603879131376743,-0.008192487061023712,0.008801443502306938,0.0015047930646687746,1.9419658494831196e-19,-0.0033291224390268326
-0.0029376118909567595,-0.008274320513010025,0.008390173316001892,0.0014462857507169247,1.2679648853640058e-20,-0.0034432329703122377
-0.002817772328853607,-0.00828971154987812,0.009003878571093082,0.0015200055204331875,8.278905116370797e-22,-0.0036388731095939875
-0.0029026807751506567,-0.007827927358448505,0.009258014149963856,0.0014638039283454418,5.405533668951285e-23,-0.0037059495225548744
-0.0029232632368803024,-0.007832417264580727,0.008892525918781757,0.0015394693473353982,3.529427193261677e-24,-0.003686094656586647
-0.0031621716916561127,-0.008860161527991295,0.008902542293071747,0.0015466136392205954,2.304463863681407e-25,-0.003649394027888775
-0.0031621716916561127,-0.008860161527991295,0.008902542293071747,0.0015466136392205954,2.304463863681407e-25,-0.003649394027888775
-0.003087817458435893,-0.008125117979943752,0.009699971415102482,0.0014280951581895351,1.5046501794592253e-26,-0.0033576874993741512
-0.0028281884733587503,-0.007883607409894466,0.008535264991223812,0.0013583999825641513,9.824290942870759e-28,-0.0031956706661731005
-0.0029910258017480373,-0.008617701940238476,0.008974725380539894,0.0013162697432562709,4.188249132318776e-30,-0.003914086613804102
-0.003016004106029868,-0.008496318943798542,0.008604712784290314,0.00129586027469486,2.73462750485747e-31,-0.0038816744927316904
-0.00287498626857996,-0.008246625773608685,0.00874729361385107,0.0013184851268306375,1.7855162625607505e-32,-0.0033623138442635536
-0.0028809350915253162,-0.008416411466896534,0.009058620780706406,0.0013621569378301501,1.1658145221852506e-33,-0.003224194049835205
-0.00283200666308403,-0.008990549482405186,0.009353652596473694,0.0014712108531966805,7.61193547968006e-35,-0.0030154420528560877
-0.003259559627622366,-0.008321010507643223,0.008582822978496552,0.0014280464965850115,4.9700498800956157e-36,-0.003920454066246748
-0.0031770498026162386,-0.008454189635813236,0.008312109857797623,0.0014762465143576264,3.2450872989109017e-37,-0.004153978545218706
-0.0028821900486946106,-0.008854066021740437,0.008716569282114506,0.0013548543211072683,2.1188102215576783e-38,-0.00396718317642808
-0.002940270584076643,-0.00792286079376936,0.008626585826277733,0.00131155364215374,1.3834319089046757e-39,-0.003721086774021387
-0.002984455320984125,-0.008208924904465675,0.008681179955601692,0.001148061128333211,9.032769901037771e-41,-0.0036556816194206476
-0.0030530814547091722,-0.00867336243391037,0.009025043807923794,0.0011681411415338516,5.898065236343155e-42,-0.0033985089976340532
-0.002998579293489456,-0.008417160250246525,0.00871489942073822,0.0011763108195737004,3.853570776893247e-43,-0.003350361716002226
-0.0031566754914820194,-0.008098742924630642,0.00797188188880682,0.0014087845338508487,2.5223372357846707e-44,-0.0034242006950080395
-0.0031937004532665014,-0.00818266998976469,0.00882470328360796,0.0014263883931562304,1.401298464324817e-45,-0.003355321241542697
-0.003168447408825159,-0.008801337331533432,0.008776512928307056,0.0013568870490416884,0.0,-0.003591149812564254
-0.0033268285915255547,-0.00832685548812151,0.0084958765655756,0.0012499128933995962,0.0,-0.0037468934897333384
-0.003138697938993573,-0.008318543434143066,0.00870567373931408,0.001291810185648501,0.0,-0.0037317725364118814
-0.0028488249517977238,-0.008999990299344063,0.008664684370160103,0.0011501258704811335,0.0,-0.0036822310648858547
-0.002977265976369381,-0.008160233497619629,0.008580571971833706,0.0010965674882754683,0.0,-0.0033140317536890507
-0.0031215909402817488,-0.00812290608882904,0.00885294284671545,0.0009853937663137913,0.0,-0.003101459238678217
-0.003016525646671653,-0.008357381448149681,0.008740616030991077,0.0009625725797377527,0.0,-0.002881542546674609
-0.0028084220830351114,-0.008973807096481323,0.008957358077168465,0.0009619229240342975,0.0,-0.002953287912532687
-0.0027527338825166225,-0.007938100956380367,0.009189671836793423,0.0009540810715407133,0.0,-0.0033285629469901323
-0.0027527338825166225,-0.007938100956380367,0.009189671836793423,0.0009540810715407133,0.0,-0.0033285629469901323
-0.0028836484998464584,-0.008188465610146523,0.008316194638609886,0.000994952628389001,0.0,-0.0036663527134805918
-0.0027764595579355955,-0.009004121646285057,0.008542228490114212,0.0009926250204443932,0.0,-0.0035808258689939976
-0.002610629191622138,-0.008677146397531033,0.008378698490560055,0.0009788076858967543,0.0,-0.003491489216685295
-0.00280128326267004,-0.008609775453805923,0.008600781671702862,0.0009596322197467089,0.0,-0.0032300029415637255
-0.0026357551105320454,-0.008486130274832249,0.008871580474078655,0.0009217504411935806,0.0,-0.0030229156836867332
-0.0026098762173205614,-0.008482769131660461,0.008178399875760078,0.00093211664352566,0.0,-0.003134623635560274
-0.002772437408566475,-0.009105974808335304,0.007911968976259232,0.0009284582338295877,0.0,-0.0033066975884139538
-0.0025376600679010153,-0.008773069828748703,0.008474178612232208,0.0011172177037224174,0.0,-0.003300853306427598
-0.0025739744305610657,-0.00850341934710741,0.008434208109974861,0.0011046252911910415,0.0,-0.003228894667699933
-0.0024556152056902647,-0.008096042089164257,0.007947429083287716,0.0010053518926724792,0.0,-0.0032590327318757772
-0.0023815366439521313,-0.008447893895208836,0.008187126368284225,0.0009861408034339547,0.0,-0.0031015686690807343
-0.002644713968038559,-0.0089949956163764,0.00827182549983263,0.0009107465739361942,0.0,-0.002867487957701087
-0.002827851101756096,-0.008786184713244438,0.007833054289221764,0.0009037543786689639,0.0,-0.0029780210461467505
-0.0029206054750829935,-0.008618270047008991,0.007822575978934765,0.000869380310177803,0.0,-0.0029779342003166676
-0.0026796436868608,-0.008926930837333202,0.008309590630233288,0.0008152978261932731,0.0,-0.0029758892487734556
-0.0025782727170735598,-0.008426373824477196,0.00828491523861885,0.0008211287786252797,0.0,-0.0030050550121814013
-0.0026291199028491974,-0.008815990760922432,0.008058418519794941,0.00082109629875049,0.0,-0.0029173411894589663
-0.00256121507845819,-0.009298304095864296,0.00802328996360302,0.0008454673225060105,0.0,-0.0028063973877578974
-0.002932732691988349,-0.00883104745298624,0.0077440631575882435,0.000837544968817383,0.0,-0.00294402614235878
-0.002952721668407321,-0.00897682923823595,0.007278417237102985,0.0008441791869699955,0.0,-0.0031377384439110756
-0.0028323601000010967,-0.00877455249428749,0.008421453647315502,0.000886379333678633,0.0,-0.0029340863693505526
-0.002583182416856289,-0.008861000649631023,0.008633239194750786,0.0009548838716000319,0.0,-0.002855746541172266
-0.0026716222055256367,-0.008400403894484043,0.00792477186769247,0.0009507871582172811,0.0,-0.002999929478392005
-0.002686746884137392,-0.008708683773875237,0.007563967723399401,0.0009442258160561323,0.0,-0.0030132473912090063
-0.0026197039987891912,-0.009278214536607265,0.007620260119438171,0.0009719201480038464,0.0,-0.0029516094364225864
-0.0027893735095858574,-0.008604689501225948,0.007577401585876942,0.001018214039504528,0.0,-0.0030467964243143797
-0.0028567856643348932,-0.008818181231617928,0.007955280132591724,0.001002705073915422,0.0,-0.0029163071885704994
-0.0028567856643348932,-0.008818181231617928,0.007955280132591724,0.001002705073915422,0.0,-0.0029163071885704994
-0.002488563070073724,-0.009228617884218693,0.0076973638497292995,0.0009563977364450693,0.0,-0.0027920138090848923
-0.002554862294346094,-0.00864164624363184,0.008274774998426437,0.0009004685562103987,0.0,-0.0027155433781445026
-0.002739595016464591,-0.008425399661064148,0.007989301346242428,0.0008552262443117797,0.0,-0.0027909926138818264
-0.002696734620258212,-0.008771777153015137,0.00751209631562233,0.0008645012858323753,0.0,-0.0028531032148748636
-0.002608901122584939,-0.008778086863458157,0.008170990273356438,0.0008691218099556863,0.0,-0.002698359778150916
-0.0022771917283535004,-0.008542845025658607,0.007912163622677326,0.0009965577628463507,0.0,-0.00254670693539083
-0.0020822840742766857,-0.008931044489145279,0.007581784389913082,0.0009884430328384042,0.0,-0.002279362641274929
-0.0020371738355606794,-0.009154599159955978,0.0071593718603253365,0.0009137756424024701,0.0,-0.002171723637729883
-0.002230426063761115,-0.008655990473926067,0.007248511537909508,0.0008565049502067268,0.0,-0.0022786869667470455
-0.002641179133206606,-0.009151428937911987,0.00804184190928936,0.0008090570918284357,0.0,-0.002185543766245246
-0.002338005928322673,-0.008783466182649136,0.008023303002119064,0.0007301170844584703,0.0,-0.002208111109212041
-0.0023369458504021168,-0.00856754183769226,0.007526567671447992,0.0006625146488659084,0.0,-0.002172992564737797
-0.0020886266138404608,-0.009087667800486088,0.0074949911795556545,0.0005815920303575695,0.0,-0.002292583230882883
-0.002201332012191415,-0.008638580329716206,0.007477771025151014,0.0006036576814949512,0.0,-0.002168444450944662
-0.0021847542375326157,-0.008183310739696026,0.007375549990683794,0.000598144659306854,0.0,-0.002123868791386485
-0.0021549251396209,-0.009209963493049145,0.008289163932204247,0.0005835313349962234,0.0,-0.0019491970306262374
-0.002422802150249481,-0.009014266543090343,0.008559339679777622,0.0006076708086766303,0.0,-0.002086585620418191
-0.0023194800596684217,-0.008739037439227104,0.008024596609175205,0.0006301850080490112,0.0,-0.0022674957290291786
-0.002434642519801855,-0.008603162132203579,0.006992808543145657,0.000609066104516387,0.0,-0.002307809190824628
-0.002205250784754753,-0.008984114043414593,0.0071887061931192875,0.000640133221168071,0.0,-0.0024288278073072433
-0.0020909637678414583,-0.009101387113332748,0.008021142333745956,0.0006677232449874282,0.0,-0.002171057043597102
-0.002120628021657467,-0.008278309367597103,0.00773182837292552,0.0006901804590597749,0.0,-0.002053523436188698
-0.00206289766356349,-0.008737832307815552,0.007564282510429621,0.0009122629417106509,0.0,-0.0019072176655754447
-0.0022711739875376225,-0.009041834622621536,0.00763498991727829,0.0008689670939929783,0.0,-0.0020403466187417507
-0.002186821773648262,-0.008598429150879383,0.007468864321708679,0.0008703876519575715,0.0,-0.0021741895470768213
-0.0020534901414066553,-0.009244685992598534,0.0074304756708443165,0.0008662511245347559,0.0,-0.0021961655002087355
-0.0018799733370542526,-0.008631632663309574,0.007320357486605644,0.0009027005289681256,0.0,-0.0022633662447333336
-0.0018688634736463428,-0.008682875894010067,0.007916759699583054,0.0009267166606150568,0.0,-0.0020812288857996464
-0.0018688634736463428,-0.008682875894010067,0.007916759699583054,0.0009267166606150568,0.0,-0.0020812288857996464
-0.0017521923873573542,-0.008800591342151165,0.00820128247141838,0.0009243047097697854,0.0,-0.0019992743618786335
-0.001964946510270238,-0.008744783699512482,0.008011302910745144,0.0008206015336327255,0.0,-0.001874973182566464
-0.002043725922703743,-0.008526219055056572,0.007138743996620178,0.0008118315017782152,0.0,-0.0022128447890281677
-0.0020033903419971466,-0.00802934542298317,0.007462671957910061,0.0008350600255653262,0.0,-0.0023320436011999846
-0.001949401805177331,-0.008662483654916286,0.008251124992966652,0.0008530208142474294,0.0,-0.0023256961721926928
-0.0017963441787287593,-0.008237423375248909,0.008026724681258202,0.0008656388381496072,0.0,-0.0021934842225164175
-0.0017094884533435106,-0.00818334985524416,0.0072511727921664715,0.0011220439337193966,0.0,-0.001980074215680361
-0.001660623587667942,-0.008364577777683735,0.006992053240537643,0.0010970454895868897,0.0,-0.0019262040732428432
-0.0014698106097057462,-0.009058644063770771,0.007321639452129602,0.0010667912429198623,0.0,-0.0018832352943718433
-0.0014994575176388025,-0.008616120554506779,0.007310930639505386,0.0009850203059613705,0.0,-0.0016793454997241497
-0.0014230557717382908,-0.008608367294073105,0.008133056573569775,0.0009106638026423752,0.0,-0.0015491157537326217
-0.0015029320493340492,-0.009097201749682426,0.007889018394052982,0.0008994229719974101,0.0,-0.0014300651382654905
-0.0014211060479283333,-0.008512389846146107,0.007430970203131437,0.000881678075529635,0.0,-0.0013436601730063558
-0.0013580773957073689,-0.008393419906497002,0.007526692934334278,0.000854318670462817,0.0,-0.001288540312089026
-0.001429284457117319,-0.009653876535594463,0.006985412910580635,0.0008088391623459756,0.0,-0.0013180749956518412
-0.0013348537031561136,-0.008733879774808884,0.008117448538541794,0.0008004347328096628,0.0,-0.0012650600401684642
-0.0012799291871488094,-0.008493299596011639,0.00764606473967433,0.0008203118923120201,0.0,-0.001352778053842485
-0.0013338964199647307,-0.0089979637414217,0.007240203209221363,0.0008311601122841239,0.0,-0.001470618648454547
-0.0013851787662133574,-0.009305118583142757,0.008018963038921356,0.0008392141899093986,0.0,-0.0014528599567711353
-0.0013851787662133574,-0.009305118583142757,0.008018963038921356,0.0008392141899093986,0.0,-0.0014528599567711353
-0.0013886727392673492,-0.00907776691019535,0.007975294254720211,0.0009323932463303208,0.0,-0.0016411790857091546
-0.001490181777626276,-0.008561443537473679,0.007079179398715496,0.0009135989239439368,0.0,-0.0017039941158145666
-0.0013061354402452707,-0.00867876410484314,0.00803824421018362,0.0008091509807854891,0.0,-0.0018502895254641771
-0.0012527009239420295,-0.008565589785575867,0.008011208847165108,0.000779137306381017,0.0,-0.0018269105348736048
-0.0013007037341594696,-0.009058666415512562,0.007007561158388853,0.000744130345992744,0.0,-0.001694507198408246
-0.0012658409541472793,-0.008641481399536133,0.006320056971162558,0.000670773268211633,0.0,-0.0015530919190496206
-0.0012384994188323617,-0.0076802391558885574,0.007182088680565357,0.0006409414345398545,0.0,-0.0012960926396772265
-0.0011754296720027924,-0.008147314190864563,0.007610400207340717,0.0006927339127287269,0.0,-0.0011941272532567382
-0.0011317494791001081,-0.008944752626121044,0.007429059129208326,0.00071563950041309,0.0,-0.001228264532983303
-0.0010576817439869046,-0.008532651700079441,0.006945947650820017,0.0008653588010929525,0.0,-0.001135459984652698
-0.0010330131044611335,-0.008119571022689342,0.00700595136731863,0.0009636544855311513,0.0,-0.001184685155749321
-0.0010114858159795403,-0.008510138839483261,0.007309235632419586,0.0009594521834515035,0.0,-0.0011603075545281172
-0.000995913054794073,-0.008461586199700832,0.007401823997497559,0.0008906284347176552,0.0,-0.0011446777498349547
-0.001123396446928382,-0.008328257128596306,0.006735949777066708,0.0008902527624741197,0.0,-0.0012805949663743377
-0.0010892029386013746,-0.008279134519398212,0.007154378574341536,0.0009526157518848777,0.0,-0.0012170432601124048
-0.0010602655820548534,-0.008425742387771606,0.007590106688439846,0.0009849922498688102,0.0,-0.0010554443579167128
-0.0009610813576728106,-0.00801225658506155,0.007768006529659033,0.0009923462057486176,0.0,-0.0010255496017634869
-0.0009485195623710752,-0.008159294724464417,0.006633886601775885,0.0013014510041102767,0.0,-0.0009085445781238377
-0.0009261264931410551,-0.0070477984845638275,0.006770289968699217,0.001373669016174972,0.0,-0.0008740978082641959
-0.0008914410718716681,-0.00641013216227293,0.007824323140084743,0.0014253660337999463,0.0,-0.0008757442119531333
-0.0008922192500904202,-0.006849945057183504,0.0075958590023219585,0.0014396548504009843,0.0,-0.0008787410915829241
-0.000834766891784966,-0.006981255020946264,0.0064869108609855175,0.0013325999025255442,0.0,-0.0009863224113360047
-0.000834766891784966,-0.006981255020946264,0.0064869108609855175,0.0013325999025255442,0.0,-0.0009863224113360047
-0.0008073732606135309,-0.0074370200745761395,0.006845065858215094,0.0010816744761541486,0.0,-0.0010809730738401413
-0.0008073732606135309,-0.0074370200745761395,0.006845065858215094,0.0010816744761541486,0.0,-0.0010809730738401413
-0.0008160430588759482,-0.006925700698047876,0.007422845344990492,0.0009678748319856822,0.0,-0.000996792339719832
-0.0007263734005391598,-0.0069226110354065895,0.006822646129876375,0.0009482728783041239,0.0,-0.0009786722948774695
-0.0007429406396113336,-0.0068900128826498985,0.006196799222379923,0.000972552050370723,0.0,-0.0009400778799317777
-0.0006745472201146185,-0.00719752162694931,0.006463439669460058,0.0010311277583241463,0.0,-0.0008317414904013276
-0.0005619440926238894,-0.006455496419221163,0.007172892801463604,0.0010891350684687495,0.0,-0.0008202121243812144
-0.000499739486258477,-0.006562477443367243,0.0066476138308644295,0.0010703792795538902,0.0,-0.0007727443589828908
-0.0005383824463933706,-0.007067976985126734,0.006504358258098364,0.0011558558326214552,0.0,-0.0007774882251396775
-0.0005439250380732119,-0.0069259158335626125,0.006619579158723354,0.001124785398133099,0.0,-0.0008081194246187806
-0.000524353701621294,-0.0064702872186899185,0.007082533091306686,0.0011259384918957949,0.0,-0.0008197564166039228
-0.00048437854275107384,-0.006496524438261986,0.006307221949100494,0.0011410043807700276,0.0,-0.0010355495614930987
-0.0004497905320022255,-0.006665595807135105,0.006322567816823721,0.0012229499407112598,0.0,-0.0010328296339139342
-0.00047892139991745353,-0.006920214742422104,0.006746556609869003,0.0012145681539550424,0.0,-0.0008862466202117503
-0.0004497926856856793,-0.0061645712703466415,0.0069289430975914,0.0013629932655021548,0.0,-0.0008543669246137142
-0.000448342296294868,-0.005920667666941881,0.006638793740421534,0.0013715320965275168,0.0,-0.0007768457871861756
-0.00040903378976508975,-0.00668402248993516,0.006016726139932871,0.0013131742598488927,0.0,-0.0006930668605491519
-0.0004488549311645329,-0.006763620767742395,0.006233071442693472,0.0013872127747163177,0.0,-0.0007071199943311512
-0.00041532207978889346,-0.006379473954439163,0.006541713606566191,0.0013545035617426038,0.0,-0.0006487490609288216
-0.00044221748248673975,-0.006219528149813414,0.0071454839780926704,0.0012975370045751333,0.0,-0.0006007359479553998
-0.00034876028075814247,-0.006228146143257618,0.006226371508091688,0.0013394588604569435,0.0,-0.00047754758270457387
-0.00015079528384376317,-0.006267382297664881,0.005714859813451767,0.0013134945183992386,0.0,-0.00046936169383116066
-0.00011655295384116471,-0.006389734800904989,0.0060529084876179695,0.0012437717523425817,0.0,-0.00046587985707446933
-0.00010300210124114528,-0.006875081919133663,0.006609227508306503,0.0013076172908768058,0.0,-0.00043108919635415077
-0.0001525413681520149,-0.006914936006069183,0.006340967025607824,0.0013081178767606616,0.0,-0.0004612100310623646
-0.00016718052211217582,-0.006965820211917162,0.005819825921207666,0.0013003668282181025,0.0,-0.00043350280611775815
-8.593370876042172e-05,-0.006583626382052898,0.005785389803349972,0.0016282296273857355,0.0,-0.00045975763350725174
-7.076961628627032e-05,-0.006775717716664076,0.006679029669612646,0.0015948652289807796,0.0,-0.0004354738921392709
-7.076961628627032e-05,-0.006775717716664076,0.006679029669612646,0.0015948652289807796,0.0,-0.0004354738921392709
-6.105733336880803e-05,-0.006865640636533499,0.006068381946533918,0.0017683595651760697,0.0,-0.000390984263503924
-6.105733336880803e-05,-0.006865640636533499,0.006068381946533918,0.0017683595651760697,0.0,-0.000390984263503924
-5.7177796406904235e-05,-0.0073424638248980045,0.006408157292753458,0.001802427927032113,0.0,-0.00040678746881894767
-5.376181434257887e-05,-0.007629522122442722,0.005834932439029217,0.001629989012144506,0.0,-0.0003761208790820092
-6.046516318747308e-06,-0.007039806805551052,0.006178026553243399,0.00155586504843086,0.0,-0.00034728879109025
-1.0883515200177385e-09,-0.006911261472851038,0.006715558469295502,0.0014830564614385366,0.0,-0.0003008354105986655
-1.4601625464294443e-11,-0.00744331581518054,0.005786761175841093,0.0013747275806963444,0.0,-0.0002819739456754178
-1.9589943545377658e-13,-0.00819978304207325,0.0058810715563595295,0.001282131066545844,0.0,-0.00026533956406638026
-2.628240956101713e-15,-0.00695402454584837,0.006193459499627352,0.0013031798880547285,0.0,-0.00025055871810764074
-3.5261210661865624e-17,-0.007115093991160393,0.006129348650574684,0.001402440364472568,0.0,-0.0002373390889260918
-6.346893428324376e-21,-0.007994065061211586,0.005704932846128941,0.0013599019730463624,0.0,-0.00021468530758284032
-6.346893428324376e-21,-0.007994065061211586,0.005704932846128941,0.0013599019730463624,0.0,-0.00021468530758284032
-8.515167190436062e-23,-0.006969143636524677,0.00607708003371954,0.0016663502901792526,0.0,-0.00020490701717790216
-1.1424183049645277e-24,-0.006973134819418192,0.005996097344905138,0.0015868049813434482,0.0,-0.0001959809014806524
-1.5326998853924676e-26,-0.007327970117330551,0.005870021414011717,0.001702742651104927,0.0,-0.00018780010577756912
-2.056312512727335e-28,-0.008055707439780235,0.006017203442752361,0.0017455104971304536,0.0,-0.00018027516489382833
-2.758805495843149e-30,-0.007827785797417164,0.005282152909785509,0.0015991852851584554,0.0,-0.00017333026335109025
-3.701289641883294e-32,-0.007038036361336708,0.005917496047914028,0.0015788018936291337,0.0,-0.00016690022312104702
-4.965752366306421e-34,-0.00815659575164318,0.005824603606015444,0.0015295831253752112,0.0,-0.00016093051817733794
-6.662191719485198e-36,-0.007970753125846386,0.006489976309239864,0.0017238709842786193,0.0,-0.00015537341823801398
-8.938179452098917e-38,-0.006937555968761444,0.0056884754449129105,0.0016609067097306252,0.0,-0.0001501870428910479
-1.1991709699352125e-39,-0.0069788857363164425,0.005787386558949947,0.001795656164176762,0.0,-0.00014533591456711292
-1.6088307668913225e-41,-0.008184894919395447,0.0054373182356357574,0.0018026598263531923,0.0,-0.0001407884556101635
-2.1579996350602183e-43,-0.007914659567177296,0.005955469328910112,0.0018072453094646335,0.0,-0.00013651675544679165
-2.802596928649634e-45,-0.007768026553094387,0.0059454068541526794,0.0017587681068107486,0.0,-0.0001324968907283619
-0.0,-0.007106200326234102,0.00580597436055541,0.0016569533618167043,0.0,-0.00012870700447820127
0.0,-0.008062629029154778,0.005497003439813852,0.0016246455488726497,0.0,-0.00012512785906437784
0.0,-0.008062629029154778,0.005497003439813852,0.0016246455488726497,0.0,-0.00012512785906437784
0.0,-0.007973638363182545,0.005003110971301794,0.0015253981109708548,0.0,-0.00012174241419415921
0.0,-0.006774715147912502,0.005096633918583393,0.0014595737447962165,0.0,-0.00011853536125272512
0.0,-0.006843788083642721,0.005708098411560059,0.0015277673956006765,0.0,-0.000115493057819549
0.00030510820215567946,-0.007162031717598438,0.005701784044504166,0.0018842185381799936,0.0,-8.863106631906703e-05
0.00029288954101502895,-0.006954875774681568,0.005213448312133551,0.001917331712320447,0.0,-8.58375133248046e-05
0.00032782828202471137,-0.0072066523134708405,0.00465882383286953,0.0019983991514891386,0.0,-8.379503560718149e-05
0.0003110532707069069,-0.007409120909869671,0.005524916108697653,0.002250018296763301,0.0,-8.188599167624488e-05
0.00032623994047753513,-0.007324807811528444,0.005484843160957098,0.00224517029710114,0.0,-8.006456482689828e-05
0.0003252046008128673,-0.0069178566336631775,0.00582398334518075,0.002244309987872839,0.0,-7.832262053852901e-05
0.0003483991895336658,-0.007230496499687433,0.005296897143125534,0.0020160521380603313,0.0,-6.723018304910511e-05
0.00033702285145409405,-0.007599249482154846,0.004695357754826546,0.0018884182209149003,0.0,-5.69283620279748e-05
0.0004448304243851453,-0.007853671908378601,0.004793189931660891,0.0017981947166845202,0.0,-5.518426405615173e-05
0.0005194079130887985,-0.007076219655573368,0.005411026533693075,0.0019698443356901407,0.0,-5.404173498391174e-05
0.0005007506697438657,-0.007284326013177633,0.005296183750033379,0.0021936551202088594,0.0,3.120930341538042e-05
0.0005084520671516657,-0.007538287900388241,0.005331809166818857,0.0022291308268904686,0.0,4.206150697427802e-05
0.000492794846650213,-0.007799869868904352,0.005081408191472292,0.0019193380139768124,0.0,4.184011049801484e-05
0.0005199479637667537,-0.007178692612797022,0.004380806349217892,0.001883494551293552,0.0,5.871851317351684e-05
0.0004925981047563255,-0.007358495611697435,0.005074597895145416,0.0017159190028905869,0.0,5.9870435507036746e-05
0.0006880841101519763,-0.007496342994272709,0.005541492253541946,0.0017633866518735886,0.0,7.325012848014012e-05
0.0007154599297791719,-0.0074815996922552586,0.0050364607013762,0.0019300287822261453,0.0,7.632115739397705e-05
0.0006727504078298807,-0.007234268821775913,0.004976352676749229,0.0020791979040950537,0.0,9.254479664377868e-05
0.0006938224541954696,-0.006761346943676472,0.0048745376989245415,0.001985834911465645,0.0,9.188137482851744e-05
0.0008456984651274979,-0.006795472931116819,0.004960629623383284,0.002120127435773611,0.0,0.00044368149247020483
0.0008651706157252192,-0.0069937631487846375,0.004423626698553562,0.0021437550894916058,0.0,0.000498938316013664
0.0008413494215346873,-0.006662207189947367,0.004532913211733103,0.0020884147379547358,0.0,0.0005049855099059641
0.0008413494215346873,-0.006662207189947367,0.004532913211733103,0.0020884147379547358,0.0,0.0005049855099059641
0.0007762986933812499,-0.007300626952201128,0.004959689453244209,0.0020482265390455723,0.0,0.0004999018856324255
0.0007888555410318077,-0.006812149193137884,0.004469666630029678,0.0020107077434659004,0.0,0.0005226485664024949
0.0008119632257148623,-0.006856379099190235,0.004571246448904276,0.0021284520626068115,0.0,0.0008025571587495506
0.0008288293029181659,-0.006607023999094963,0.00456942617893219,0.0022044177167117596,0.0,0.0008497555973008275
0.0009160200133919716,-0.006398604717105627,0.004583587870001793,0.0026685118209570646,0.0,0.0008872954058460891
0.0008511048508808017,-0.0061806985177099705,0.004654334392398596,0.002400970086455345,0.0,0.001246855710633099
0.0010807827347889543,-0.006839274894446135,0.004671964328736067,0.001980808097869158,0.0,0.0017818465130403638
0.001065263175405562,-0.006085764151066542,0.004839709959924221,0.001917133224196732,0.0,0.0017567654140293598
0.0011099582770839334,-0.0059998235665261745,0.00480418698862195,0.002268756041303277,0.0,0.001705750124529004
0.0010864038486033678,-0.00664034578949213,0.00437945406883955,0.002604312263429165,0.0,0.0017014243640005589
0.001059493632055819,-0.006847730837762356,0.004470953717827797,0.0026642794255167246,0.0,0.001625927397981286
0.0010364005574956536,-0.006543897092342377,0.004403889179229736,0.002757438225671649,0.0,0.001651455881074071
0.0011390737490728498,-0.006138406228274107,0.0048120291903615,0.002602841705083847,0.0,0.0016248275060206652
0.001138776890002191,-0.00670839287340641,0.0043501961044967175,0.002370770089328289,0.0,0.0017316164448857307
0.0011240029707551003,-0.0069989413022994995,0.004474247340112925,0.00225011701695621,0.0,0.0018477494595572352
0.001555564347654581,-0.0064180996268987656,0.004641852807253599,0.0021414130460470915,0.0,0.0022951820865273476
0.0022502364590764046,-0.006260425318032503,0.004147189669311047,0.002235160209238529,0.0,0.0022735907696187496
0.0023806369863450527,-0.0064959232695400715,0.004095209296792746,0.0022026761434972286,0.0,0.0024032595101743937
0.002284054644405842,-0.006490157451480627,0.004142913967370987,0.002348303096368909,0.0,0.0024241891223937273
0.0021447320468723774,-0.006243922747671604,0.004421561025083065,0.002302817301824689,0.0,0.002357575809583068
0.0019185820128768682,-0.006656014826148748,0.004552160855382681,0.0021949573419988155,0.0,0.002367502311244607
0.0018856311216950417,-0.006069052964448929,0.004826860502362251,0.002276776358485222,0.0,0.002223835326731205
0.002088151639327407,-0.006028937641531229,0.004357502330094576,0.002443125005811453,4.16400183667065e-07,0.0023154497612267733
0.001964936498552561,-0.006500208750367165,0.003926420118659735,0.00245890230871737,2.718795499845328e-08,0.002206731354817748
0.0024881763383746147,-0.006091971416026354,0.0037937737070024014,0.002619927516207099,1.775179336860333e-09,0.0021118458826094866
0.0024838123936206102,-0.005994700361043215,0.004079265985637903,0.002386548323556781,1.1590652743143082e-10,0.0021012972574681044
0.0024838123936206102,-0.005994700361043215,0.004079265985637903,0.002386548323556781,1.1590652743143082e-10,0.0021012972574681044
0.002595301019027829,-0.0058578671887516975,0.0039386753924191,0.002453327178955078,7.567868207103423e-12,0.0027103920001536608
0.002749847015365958,-0.005974453873932362,0.0037160534411668777,0.0026284113992005587,4.94127687985374e-13,0.003556639887392521
0.0028906511142849922,-0.00610585929825902,0.003729594871401787,0.0027408634778112173,3.226301062246584e-14,0.003839855780825019
0.003174594836309552,-0.0060299718752503395,0.004336973186582327,0.0026306898798793554,2.106543834767133e-15,0.0038127456791698933
0.003141979221254587,-0.006338150706142187,0.004074912052601576,0.00272814417257905,1.3754225553144756e-16,0.003387212986126542
0.0029889533761888742,-0.0061676339246332645,0.0034566300455480814,0.002784946234896779,5.863642446035007e-19,0.0032644823659211397
0.0034969954285770655,-0.005609531886875629,0.003616709727793932,0.002783525735139847,3.828539549246626e-20,0.0035965112037956715
0.0038019903004169464,-0.006007054820656776,0.0036846587900072336,0.002706897212192416,2.4997628332519076e-21,0.0038741054013371468
0.003851831890642643,-0.00557655468583107,0.0035602999851107597,0.0028010441455990076,1.632166591983226e-22,0.004008925054222345
0.0033896781969815493,-0.005796854849904776,0.0034837359562516212,0.0028469327371567488,1.0656881318533503e-23,0.003992658574134111
0.00363227934576571,-0.005852653179317713,0.003640452865511179,0.0029768531676381826,6.958181634128472e-25,0.003508720314130187
0.004250596277415752,-0.006175576243549585,0.0037789642810821533,0.0028767562471330166,4.543195707545998e-26,0.0036135998088866472
0.004418483469635248,-0.005413825158029795,0.003680143505334854,0.0027889618650078773,2.966382396777341e-27,0.0033577915746718645
0.004274796694517136,-0.005426619201898575,0.003435397520661354,0.0026881529483944178,1.9368357634385716e-28,0.0035727927461266518
0.0042642164044082165,-0.005494360812008381,0.0034942729398608208,0.0029022598173469305,1.2646152543660378e-29,0.0037617653142660856
0.004426672123372555,-0.006118802819401026,0.003768819384276867,0.002902726177126169,8.2570343724358e-31,0.0038480316288769245
0.004580289125442505,-0.0057003372348845005,0.0035870647989213467,0.002913618925958872,5.391253201275166e-32,0.003828151384368539
0.004739363677799702,-0.005715933162719011,0.003475341945886612,0.002814497100189328,3.5201030568777746e-33,0.003821264486759901
0.0047612786293029785,-0.005502615123987198,0.0037208490539342165,0.0028934625443071127,2.298375686718181e-34,0.004011865705251694
0.004991467110812664,-0.005921023897826672,0.0034130180720239878,0.0028502356726676226,1.5006750896470068e-35,0.004181937780231237
0.005345060024410486,-0.005293428432196379,0.0031731268391013145,0.0028701736591756344,9.798337143208894e-37,0.004481589421629906
0.005561101716011763,-0.005788631737232208,0.003154399571940303,0.002793285297229886,6.397614125890309e-38,0.004348481073975563
0.00502522848546505,-0.006497357040643692,0.0032843067310750484,0.0031727240420877934,4.177185242945956e-39,0.004028810188174248
0.004904525820165873,-0.0061366381123661995,0.003093000967055559,0.0033486555330455303,2.7274032530539645e-40,0.0038525520358234644
0.005501322448253632,-0.005695775151252747,0.0028791341464966536,0.0031898764427751303,1.7807700884639775e-41,0.0037851326633244753
0.005726127419620752,-0.005331571213901043,0.002799226902425289,0.0029399984050542116,1.1630777253895982e-42,0.004042956046760082
0.005726127419620752,-0.005331571213901043,0.002799226902425289,0.0029399984050542116,1.1630777253895982e-42,0.004042956046760082
0.005930050741881132,-0.005592958070337772,0.0029045273549854755,0.0027501946315169334,7.567011707354012e-44,0.004109206143766642
0.005788333248347044,-0.005674764513969421,0.0030893299262970686,0.002877008868381381,5.605193857299268e-45,0.004355171229690313
0.005744699854403734,-0.0060763293877244,0.003441452980041504,0.0030483053997159004,0.0,0.00447804993018508
0.005748285911977291,-0.00535350339487195,0.003066662698984146,0.0027765827253460884,-0.00012517017603386194,0.004110314883291721
0.006070856004953384,-0.005151027347892523,0.002771714935079217,0.0028827290516346693,-0.0001227103639394045,0.0043137515895068645
0.006091950926929712,-0.005983506795018911,0.002945521380752325,0.003323823446407914,-0.00011951359192607924,0.0046812365762889385
0.006062293890863657,-0.00554655073210597,0.0030327634885907173,0.0034354371018707752,-0.00011642549361567944,0.005052497610449791
0.006391556933522224,-0.005924145691096783,0.002946968423202634,0.0035149985924363136,-0.00013466666860040277,0.004943585488945246
0.006166795734316111,-0.005398536566644907,0.002701589372009039,0.003658916102722287,-0.00013273769582156092,0.004787381738424301
0.006582813803106546,-0.004905317910015583,0.002553180092945695,0.003404922317713499,-0.00012964099005330354,0.0045201219618320465
0.006686115171760321,-0.005291031673550606,0.002537450985983014,0.003451830707490444,-0.0001449340197723359,0.004827715456485748
0.007159513421356678,-0.005216927733272314,0.002449692226946354,0.003684360533952713,-0.00014414380711968988,0.0050498116761446
0.007560493890196085,-0.005471270997077227,0.0027714772149920464,0.003799594007432461,-0.00014108081813901663,0.004548035096377134
0.007112298160791397,-0.005488352384418249,0.002636431949213147,0.004247784148901701,-0.00013800119631923735,0.004961029626429081
0.007491351570934057,-0.0046546319499611855,0.0023841848596930504,0.00411874009296298,-0.0001350436214124784,0.0054307421669363976
0.007794860750436783,-0.004403226543217897,0.0020919262897223234,0.004142024554312229,-0.0001462191721657291,0.005423292052000761
0.007618566509336233,-0.004658808466047049,0.0020094560459256172,0.0039744810201227665,-0.00014767248649150133,0.005300858989357948
0.008115149103105068,-0.0051561640575528145,0.0019520139321684837,0.003752147313207388,-0.0001449894771212712,0.005145709030330181
0.007869265042245388,-0.0049981833435595036,0.0019404498161748052,0.0035304573830217123,-0.00014214585826266557,0.0052902898751199245
0.007825633510947227,-0.004866566974669695,0.002268200507387519,0.003545584622770548,-0.00022506967070512474,0.005455890670418739
0.00790147203952074,-0.00468967342749238,0.0021547465585172176,0.0036045799497514963,-0.000240669323829934,0.005154367070645094
0.00776865566149354,-0.004498151130974293,0.002101014368236065,0.0036613894626498222,-0.0002301647764397785,0.005213606636971235
0.007944763638079166,-0.0043862685561180115,0.001913166604936123,0.003739028237760067,-0.00021907499467488378,0.005138489417731762
0.008210605941712856,-0.004610107280313969,0.0018971665995195508,0.003759034676477313,-0.00020890978339593858,0.005785963963717222
0.008261089213192463,-0.005137031432241201,0.0018810272449627519,0.003381249960511923,-0.00019963926752097905,0.0054074181243777275
0.008261089213192463,-0.005137031432241201,0.0018810272449627519,0.003381249960511923,-0.00019963926752097905,0.0054074181243777275
0.008427603170275688,-0.004904025699943304,0.0019231527112424374,0.0035387345124036074,-0.00019115692703053355,0.005793468095362186
0.008097054436802864,-0.004451818764209747,0.001871749060228467,0.00420402642339468,-0.00017618555284570903,0.005942940711975098
0.008070978336036205,-0.004741921089589596,0.001710692304186523,0.004328188020735979,-0.00019894765864592046,0.005499695427715778
0.008341607637703419,-0.004501419607549906,0.0015576306032016873,0.004115020390599966,-0.00019577285274863243,0.006543617229908705
0.008525870740413666,-0.00458197807893157,0.0014543087454512715,0.004178582224994898,-0.00018917764828074723,0.0061651295982301235
0.008643027395009995,-0.004566552583128214,0.0013721365248784423,0.004101662430912256,-0.00018279044888913631,0.005813282448798418
0.0095401331782341,-0.0051478794775903225,0.0013926808023825288,0.0038556603249162436,-0.00017680588643997908,0.005363910458981991
0.008422230370342731,-0.004533381666988134,0.001427645911462605,0.0036414163187146187,-0.00017119970289058983,0.005594328045845032
0.008727837353944778,-0.003994103986769915,0.001423479407094419,0.0035796640440821648,-0.00018993791309185326,0.0057810405269265175
0.009072539396584034,-0.004320758860558271,0.00152179307769984,0.0037716205697506666,-0.00018758400983642787,0.006250511389225721
0.008362027816474438,-0.004642948973923922,0.0013985164696350694,0.004260111600160599,-0.00018236909818369895,0.006413456052541733
0.009422549046576023,-0.004751964472234249,0.0012163035571575165,0.004130630288273096,-0.0001772520481608808,0.006339077837765217
0.009081107564270496,-0.004570770543068647,0.0010442944476380944,0.004009847529232502,-0.00017240186571143568,0.006287160329520702
0.008816907182335854,-0.004350912291556597,0.0011257886653766036,0.004390196409076452,-0.0001795819407561794,0.006311199627816677
0.009288678877055645,-0.004545693751424551,0.0011242508189752698,0.004218321293592453,-0.00018600956536829472,0.006332211196422577
0.010202170349657536,-0.004233135841786861,0.0011775855673477054,0.004378203768283129,-0.00018203005311079323,0.006533524952828884
0.008953970856964588,-0.004034583456814289,0.0011401301017031074,0.004218158777803183,-0.0001779612503014505,0.006725711282342672
0.008594229817390442,-0.004064520820975304,0.0010852146660909057,0.0043085478246212006,-0.00018429169722367078,0.006866405718028545
0.009435751475393772,-0.004051132593303919,0.0010574035113677382,0.004495067987591028,-0.00017789541743695736,0.006873053964227438
0.009107748046517372,-0.003971387166529894,0.0009876600233837962,0.004645244218409061,-0.00017118500545620918,0.006614047102630138
0.00668549258261919,-0.003866367507725954,0.0009451902587898076,0.004876662511378527,-0.0001649144833208993,0.006508966907858849
0.006184089928865433,-0.004211772698909044,0.0009379161056131124,0.00444263918325305,-0.0001826238731155172,0.007202463690191507
0.0071275257505476475,-0.0035578974056988955,0.0008538229740224779,0.004055735655128956,-0.0001838413591030985,0.006995070725679398
0.007955770939588547,-0.003425409086048603,0.0008582001319155097,0.003937802277505398,-0.00017825764371082187,0.006977275013923645
0.007955770939588547,-0.003425409086048603,0.0008582001319155097,0.003937802277505398,-0.00017825764371082187,0.006977275013923645
0.007324987556785345,-0.0035706546623259783,0.0008589435019530356,0.004210533574223518,-0.00017259166634175926,0.00713270902633667
0.006967551074922085,-0.004256692714989185,0.00086145632667467,0.004629497416317463,-0.00019143590179737657,0.006617863196879625
0.007326820865273476,-0.004034799989312887,0.0008380801300518215,0.004659791011363268,-0.0001890195271698758,0.006648825015872717
0.0072491783648729324,-0.004105154424905777,0.0007758493302389979,0.004333422053605318,-0.00020316311565693468,0.0072401138022542
0.007210677023977041,-0.004385844804346561,0.0007100073853507638,0.004165284335613251,-0.0002701138728298247,0.006844858173280954
0.00757028441876173,-0.004182854667305946,0.0006766757578589022,0.004352885764092207,-0.0003184539673384279,0.007099216338247061
0.007882452569901943,-0.004092920571565628,0.0006009018397890031,0.004571534227579832,-0.0003459361323621124,0.007485507521778345
0.007280472666025162,-0.004049560986459255,0.0006346685695461929,0.005084793549031019,-0.00033838729723356664,0.0077819302678108215
0.007482839282602072,-0.004027978517115116,0.0005691546248272061,0.005201942287385464,-0.0003653282765299082,0.007044549100100994
0.007953263819217682,-0.004181199241429567,0.0005902499542571604,0.004812516737729311,-0.0003757911326829344,0.007291018962860107
0.008202626369893551,-0.004189722705632448,0.0005482416017912328,0.0046340120024979115,-0.0003790511400438845,0.008117199875414371
0.008421523496508598,-0.004349425435066223,0.0005044544814154506,0.004268642049282789,-0.0003615208261180669,0.008077776990830898
0.008467302657663822,-0.004043285269290209,0.00046704980195499957,0.004420170560479164,-0.00034621136728674173,0.007897499017417431
0.008580813184380531,-0.0039147366769611835,0.00043480857857502997,0.004715619143098593,-0.0004774362314492464,0.0076513998210430145
0.008902253583073616,-0.0038240221329033375,0.00040673065814189613,0.005481432192027569,-0.00044159337994642556,0.007892083376646042
0.008791833184659481,-0.003851810237392783,0.00019842050096485764,0.005373550578951836,-0.0004027538816444576,0.008414240553975105
0.009661485441029072,-0.003828067099675536,0.00015876725956331939,0.0051765660755336285,-0.00036967862979508936,0.00850993487983942
0.008942648768424988,-0.004395574796944857,0.00014561937132384628,0.00455372454598546,-0.00040508637903258204,0.00799163244664669
0.008294123224914074,-0.004136078059673309,7.016988092800602e-05,0.00447542779147625,-0.00038065804983489215,0.007708514109253883
0.008949920535087585,-0.00383509648963809,9.414185342393466e-07,0.004602494183927774,-0.00038465054240077734,0.007990824989974499
0.00911618210375309,-0.004104395862668753,1.2630330559204594e-08,0.005265508778393269,-0.00038748810766264796,0.008473879657685757
0.008937499485909939,-0.0041648815385997295,1.694520079809081e-10,0.005198946222662926,-0.00036666402593255043,0.008694694377481937
0.009368929080665112,-0.004011812619864941,2.2734151800679614e-12,0.005006896331906319,-0.0003465960035100579,0.008158957585692406
0.009396754205226898,-0.003868688829243183,3.0500765351966844e-14,0.005028051324188709,-0.0003631403378676623,0.008106543682515621
0.008823610842227936,-0.004013341385871172,4.092067254860156e-16,0.004756081383675337,-0.0003560383920557797,0.008163047023117542
0.009465157985687256,-0.0040163020603358746,-0.0001868465478764847,0.004492765758186579,-0.000339933525538072,0.007929977960884571
0.009465157985687256,-0.0040163020603358746,-0.0001868465478764847,0.004492765758186579,-0.000339933525538072,0.007929977960884571
0.01052306778728962,-0.003951327409595251,-0.0001411049597663805,0.005506491754204035,-0.00032464880496263504,0.007357157301157713
0.009438632056117058,-0.004322641063481569,-0.00012176601740065962,0.0055297366343438625,-0.00031089119147509336,0.00718007842078805
0.00996121671050787,-0.004534916486591101,-0.00010724117601057515,0.005362328141927719,-0.0002824731345754117,0.007447059731930494
0.010375065729022026,-0.004318121820688248,-9.581671474734321e-05,0.005074981600046158,-0.0002652333350852132,0.00803567934781313
0.009754360653460026,-0.004021062050014734,-8.659240120323375e-05,0.004765518009662628,-0.00025042734341695905,0.008303712122142315
0.010654477402567863,-0.004288587719202042,-7.26142679923214e-05,0.005809407215565443,-0.00022533605806529522,0.00800144113600254
0.009982267394661903,-0.004359946586191654,-6.719125667586923e-05,0.0055937860161066055,-0.00021458735864143819,0.008241422474384308
0.010302822105586529,-0.004132610745728016,-0.00012244483514223248,0.00532753299921751,-0.00024030214990489185,0.008349976502358913
0.010830284096300602,-0.004416812676936388,-0.00011688563245115802,0.004885671194642782,-0.00023472141765523702,0.008526572957634926
0.01009980496019125,-0.004094757605344057,-0.00010978764476021752,0.004872438497841358,-0.00022524682572111487,0.0085670854896307
0.010795945301651955,-0.004471306689083576,-0.00013734826643485576,0.00532908970490098,-0.0002162461169064045,0.008486412465572357
0.01090338546782732,-0.004127182066440582,-0.00014653544349130243,0.005532677751034498,-0.00023354335280600935,0.008492039516568184
0.01148731168359518,-0.004440787248313427,-0.00013920354831498116,0.005882950033992529,-0.00023298771702684462,0.008171692490577698
0.011238163337111473,-0.004224225878715515,-0.00017126774764619768,0.005262036807835102,-0.00022518752666655928,0.008730782195925713
0.00990063976496458,-0.0041757007129490376,-0.00016818747099023312,0.0050005121156573296,-0.00021744845435023308,0.008471066132187843
0.010608836077153683,-0.003975707106292248,-0.00016074329323600978,0.0051845042034983635,-0.00021019445557612926,0.008662463165819645
0.01129264198243618,-0.00385706196539104,-0.00024214207951445132,0.0053438968025147915,-0.00022491875279229134,0.00905955582857132
0.01100258156657219,-0.00374743714928627,-0.0002331631549168378,0.005609266925603151,-0.00022470128897111863,0.00918777659535408
0.011198941618204117,-0.0037389113567769527,-0.0002654413983691484,0.005469216965138912,-0.00021833177015651017,0.009381625801324844
0.011457438580691814,-0.004451376385986805,-0.00029081240063533187,0.005906739272177219,-0.00021193394786678255,0.009147836826741695
0.010778650641441345,-0.004762402269989252,-0.00028249778551980853,0.005403600167483091,-0.00020587506878655404,0.009737333282828331
0.011573989875614643,-0.004459770396351814,-0.00027043436421081424,0.005678496789187193,-0.0002007096481975168,0.009362725540995598
0.011890755966305733,-0.003991928417235613,-0.00029196456307545304,0.006335290148854256,-0.00020562672580126673,0.009500441141426563
0.011439843103289604,-0.00385615904815495,-0.0002845717244781554,0.006150014232844114,-0.0001975204941118136,0.009610187262296677
0.01145625114440918,-0.004287258721888065,-0.00042904698057100177,0.0057439785450696945,-0.00018927082419395447,0.009277216158807278
0.011140899732708931,-0.004187899176031351,-0.0004610928299371153,0.005247196182608604,-0.00018163405184168369,0.009972876869142056
0.011462949216365814,-0.0042480709962546825,-0.0004928018897771835,0.005870153196156025,-0.00020713159756269306,0.009331459179520607
0.011462949216365814,-0.0042480709962546825,-0.0004928018897771835,0.005870153196156025,-0.00020713159756269306,0.009331459179520607
0.011664239689707756,-0.004262134432792664,-0.0004916894249618053,0.005967648699879646,-0.00019440562755335122,0.009270207025110722
0.012018023058772087,-0.004366289358586073,-0.0004585916467476636,0.00562328053638339,-0.00018765788991004229,0.0096213323995471
0.012018023058772087,-0.004366289358586073,-0.0004585916467476636,0.00562328053638339,-0.00018765788991004229,0.0096213323995471
0.011488948948681355,-0.004658028949052095,-0.00048769405111670494,0.005797324236482382,-0.00020757567835971713,0.009382595308125019
0.011317446827888489,-0.004432214889675379,-0.0006003152811899781,0.005786750465631485,-0.00020444409165065736,0.009630111046135426
0.011233707889914513,-0.004278593230992556,-0.0006176495226100087,0.006299552507698536,-0.00019824567425530404,0.009995547123253345
0.01154487393796444,-0.004437856841832399,-0.0006121868500486016,0.0057720281183719635,-0.0001865221856860444,0.010070350021123886
0.011478833854198456,-0.004281977191567421,-0.0006314374622888863,0.006064128130674362,-0.00020362104987725616,0.010460044257342815
0.01205056719481945,-0.004448318388313055,-0.000782962772063911,0.0056802062317729,-0.00020102702546864748,0.010594830848276615
0.01163469534367323,-0.004627888556569815,-0.0008220401359722018,0.005850398913025856,-0.00019576297199819237,0.010519035160541534
0.011654481291770935,-0.004309627693146467,-0.0008326676907017827,0.006065137684345245,-0.000254878425039351,0.010774383321404457
0.011625017039477825,-0.004310523625463247,-0.0008435213239863515,0.006161899771541357,-0.0002501424460206181,0.010908600874245167
0.011932583525776863,-0.004024451598525047,-0.001014700043015182,0.006038743536919355,-0.00023755109577905387,0.010488016530871391
0.011654929257929325,-0.004594437777996063,-0.0010034356964752078,0.005836712196469307,-0.00022567409905605018,0.010627786628901958
0.011480511166155338,-0.00486709363758564,-0.0010784503538161516,0.006221161223948002,-0.0002521180431358516,0.010927644558250904
0.011950156651437283,-0.004567429888993502,-0.0009923460893332958,0.006485903635621071,-0.0002457437221892178,0.01123761385679245
0.012287807650864124,-0.003733971854671836,-0.0011379863135516644,0.006014092359691858,-0.00023536467051599175,0.010985721834003925
0.011510565876960754,-0.004004712216556072,-0.001111116842366755,0.005634977016597986,-0.00022555308532901108,0.010283946990966797
0.012093381024897099,-0.004232076462358236,-0.001079384470358491,0.005779102444648743,-0.00023416637850459665,0.010743869468569756
0.012042750604450703,-0.004059577826410532,-0.0012949156807735562,0.0062435828149318695,-0.0002416520583210513,0.010584316216409206
0.012173258699476719,-0.0037873107939958572,-0.0013546055415645242,0.006159236654639244,-0.00023376071476377547,0.010899555869400501
0.012034772895276546,-0.003693666309118271,-0.0015162065392360091,0.005979857873171568,-0.00022546401305589825,0.011091466061770916
0.012223121710121632,-0.0037032875698059797,-0.0016062631038948894,0.006296857725828886,-0.00021767786529380828,0.011318499222397804
0.012179872952401638,-0.0037643101532012224,-0.0014982715947553515,0.006816850509494543,-0.0002364824467804283,0.011964607052505016
0.011683659628033638,-0.0038590349722653627,-0.0015893838135525584,0.006975085008889437,-0.00023243307077791542,0.011945429258048534
0.01215581875294447,-0.004254425410181284,-0.0016199271194636822,0.007062908262014389,-0.00022539024939760566,0.011492247693240643
0.011889184825122356,-0.003993227146565914,-0.0017693077679723501,0.0066564190201461315,-0.00021856366947758943,0.011497537605464458
0.012214223854243755,-0.0037855475675314665,-0.0017850307049229741,0.006524872034788132,-0.00024446676252409816,0.011333178728818893
0.012847756035625935,-0.003739205887541175,-0.0019199971575289965,0.007022035773843527,-0.00024222215870395303,0.011678919196128845
0.01234338991343975,-0.0038322224281728268,-0.0018976761493831873,0.007088565733283758,-0.00023052495089359581,0.01157849095761776
0.012926038354635239,-0.0034355265088379383,-0.0021957606077194214,0.0067042335867881775,-0.00026018815697170794,0.012021482922136784
0.012926038354635239,-0.0034355265088379383,-0.0021957606077194214,0.0067042335867881775,-0.00026018815697170794,0.012021482922136784
0.012149727903306484,-0.0037138822954148054,-0.0020959428511559963,0.006838505621999502,-0.00026753885322250426,0.01148351188749075
0.011923154816031456,-0.003826572559773922,-0.002050108043476939,0.006511433515697718,-0.00025693702627904713,0.011255922727286816
0.011923154816031456,-0.003826572559773922,-0.002050108043476939,0.006511433515697718,-0.00025693702627904713,0.011255922727286816
0.012775449082255363,-0.004206490237265825,-0.002180035226047039,0.006366618908941746,-0.00027975920238532126,0.011494804173707962
0.01236648391932249,-0.0035060355439782143,-0.0021791376639157534,0.006950903218239546,-0.0002719960466492921,0.011881600134074688
0.012725163251161575,-0.003194850869476795,-0.002586144022643566,0.007537861820310354,-0.0004202501440886408,0.011367025785148144
0.012189905159175396,-0.003323685610666871,-0.0027744073886424303,0.006750655826181173,-0.00039476348320022225,0.011319179087877274
0.012976603582501411,-0.0032605549786239862,-0.0026277510914951563,0.006525958888232708,-0.0004311501979827881,0.011560690589249134
0.012703723274171352,-0.003835044102743268,-0.0027016608510166407,0.006753958761692047,-0.00045280312770046294,0.011318598873913288
0.013067765161395073,-0.004130247049033642,-0.002832375932484865,0.007218886166810989,-0.00043703417759388685,0.011478048749268055
0.012303912080824375,-0.0035671524237841368,-0.003337724134325981,0.007406021002680063,-0.0004640694533009082,0.011700842529535294
0.01264748815447092,-0.003570614382624626,-0.0032327850349247456,0.007492825388908386,-0.0004393582057673484,0.012449276633560658
0.012934376485645771,-0.0032851984724402428,-0.003058318980038166,0.006942416075617075,-0.0004143014957662672,0.012727506458759308
0.012598875910043716,-0.0034920519683510065,-0.003263019025325775,0.007311337161809206,-0.0003934631240554154,0.013696912676095963
0.013757612556219101,-0.0031778577249497175,-0.0036232913844287395,0.007347654551267624,-0.0004490824940148741,0.01208281796425581
0.013243122026324272,-0.003330162027850747,-0.004213822074234486,0.007320611737668514,-0.00041397727909497917,0.011700673028826714
0.013482163660228252,-0.003418819047510624,-0.004150620196014643,0.007387776393443346,-0.00037944450741633773,0.012241349555552006
0.013235663063824177,-0.003459283849224448,-0.004005919676274061,0.007745908107608557,-0.0003499362210277468,0.012271111831068993
0.01385025680065155,-0.003626862308010459,-0.004361922387033701,0.00777901615947485,-0.0003246707783546299,0.012494642287492752
0.013070875778794289,-0.0034267602022737265,-0.004359113983809948,0.006847741547971964,-0.0003028081846423447,0.012252379208803177
0.013327243737876415,-0.002752534346655011,-0.0045681726187467575,0.006430224981158972,-0.00033649307442829013,0.012430455535650253
0.0134394196793437,-0.0020225222688168287,-0.0043399641290307045,0.007090887054800987,-0.00031998855411075056,0.012739290483295918
0.013498201966285706,-0.00188853417057544,-0.004393408074975014,0.007415236905217171,-0.0003022936871275306,0.013046887703239918
0.013648578897118568,-0.0015255602775141597,-0.004554701969027519,0.007088895421475172,-0.00028627674328163266,0.012826267629861832
0.013974725268781185,-0.0017049902817234397,-0.005187710747122765,0.006736505310982466,-0.00029397086473181844,0.012744832783937454
0.013974725268781185,-0.0017049902817234397,-0.005187710747122765,0.006736505310982466,-0.00029397086473181844,0.012744832783937454
0.013964246027171612,-0.0020640657749027014,-0.004772176034748554,0.007587227039039135,-0.00030044931918382645,0.012917782180011272
0.01392424013465643,-0.0021051601506769657,-0.005038040690124035,0.007979007437825203,-0.00028805035981349647,0.012763623148202896
0.013786650262773037,-0.002135972026735544,-0.005380276590585709,0.007596166804432869,-0.0003046157362405211,0.01313923578709364
0.014184259809553623,-0.0016252454370260239,-0.0053323423489928246,0.007956776767969131,-0.00029067060677334666,0.012984266504645348
0.013647244311869144,-0.001644774223677814,-0.005150872282683849,0.008031001314520836,-0.000266792718321085,0.01314866915345192
0.013988847844302654,-0.0015198063338175416,-0.005997068248689175,0.0073915766552090645,-0.0002885072899516672,0.012666909955441952
0.014121881686151028,-0.0015027265762910247,-0.00578070105984807,0.00681831082329154,-0.00028486299561336637,0.013078545220196247
0.014823241159319878,-0.0015672312583774328,-0.005890670232474804,0.007513395510613918,-0.0003134221478831023,0.013001288287341595
0.01463466789573431,-0.00149618461728096,-0.005628735292702913,0.008499904535710812,-0.0003012288943864405,0.013249887153506279
0.014431435614824295,-0.0015711648156866431,-0.00613511772826314,0.008535370230674744,-0.0003259384830016643,0.01339900866150856
0.014386878348886967,-0.0014529282925650477,-0.005828641355037689,0.00776427099481225,-0.00031421863241121173,0.013216213323175907
0.014768082648515701,-0.0014459535013884306,-0.00606098398566246,0.007992524653673172,-0.0004256586835253984,0.013413041830062866
0.014769244939088821,-0.0013764043105766177,-0.006851919926702976,0.007848640903830528,-0.0004947660490870476,0.013372098095715046
0.015135152265429497,-0.0013209698954597116,-0.0069891298189759254,0.007876954041421413,-0.0005305575905367732,0.013773705810308456
0.01469620130956173,-0.0014349303673952818,-0.006497664842754602,0.007630120497196913,-0.0005328743136487901,0.014174912124872208
0.015219194814562798,-0.001495874603278935,-0.006446026265621185,0.008560055866837502,-0.0005251524271443486,0.01404500287026167
0.01538659818470478,-0.0017574116354808211,-0.007042283657938242,0.008225402794778347,-0.000538032443728298,0.013703499920666218
0.015957532450556755,-0.0015756365610286593,-0.007212120573967695,0.007858820259571075,-0.0005155126564204693,0.014008592814207077
0.015962235629558563,-0.0014450085582211614,-0.007430774625390768,0.008086612448096275,-0.00048202977632172406,0.014287397265434265
0.015549350529909134,-0.0012095134006813169,-0.00698815518990159,0.008777243085205555,-0.0004978779470548034,0.014495358802378178
0.015946492552757263,-0.0012656522449105978,-0.008042987436056137,0.0084556108340621,-0.0004899572813883424,0.014264692552387714
0.015677690505981445,-0.0012395922094583511,-0.007868445478379726,0.007663678377866745,-0.0005095846718177199,0.014067888259887695
0.01618846505880356,-0.001174810458905995,-0.007483447436243296,0.007896656170487404,-0.00048409902956336737,0.014116326346993446
0.01626553386449814,-0.001296656089834869,-0.0075439331121742725,0.008246467448771,-0.0004999186494387686,0.014128007926046848
0.016826055943965912,-0.001258720993064344,-0.008714220486581326,0.00842456053942442,-0.00047886569518595934,0.01424996368587017
0.016041342169046402,-0.0015050927177071571,-0.0090177645906806,0.007876538671553135,-0.0004460520576685667,0.015458212234079838
0.0162192452698946,-0.0013978604692965746,-0.00805619452148676,0.008078645914793015,-0.00046039122389629483,0.014005701057612896
0.016420498490333557,-0.0013292845105752349,-0.007824400439858437,0.008277022279798985,-0.0004455549060367048,0.014070487581193447
0.016577260568737984,-0.001266589853912592,-0.008440869860351086,0.00802498497068882,-0.0004424530197866261,0.01497820857912302
0.016577260568737984,-0.001266589853912592,-0.008440869860351086,0.00802498497068882,-0.0004424530197866261,0.01497820857912302
0.01615755259990692,-0.0012049051001667976,-0.008213435299694538,0.00826477725058794,-0.00040656549390405416,0.014906366355717182
0.016684088855981827,-0.0012600298505276442,-0.008884486742317677,0.007844469510018826,-0.0004424017679411918,0.01489369198679924
0.016322944313287735,-0.0012349728494882584,-0.008841043338179588,0.007941681891679764,-0.00041307671926915646,0.014610600657761097
0.01664280705153942,-0.0011919914977625012,-0.008382358588278294,0.008296719752252102,-0.00038398182368837297,0.014652464538812637
0.016523253172636032,-0.0013466530945152044,-0.008456100709736347,0.008314734324812889,-0.00041406351374462247,0.014702907763421535
0.016437126323580742,-0.0013055899180471897,-0.009515142999589443,0.008271420374512672,-0.00039191890391521156,0.014922106638550758
0.01681770756840706,-0.0012483460595831275,-0.008598746731877327,0.0084028085693717,-0.00040803695446811616,0.01485279481858015
0.01643718034029007,-0.0014076251536607742,-0.0084755914285779,0.008860123343765736,-0.0003976653970312327,0.014885901473462582
0.017037609592080116,-0.0013239758554846048,-0.009511902928352356,0.008567346259951591,-0.0004461409989744425,0.015420114621520042
0.017223723232746124,-0.001443474437110126,-0.0093532744795084,0.008306067436933517,-0.0004877999017480761,0.015201530419290066
0.01708606258034706,-0.0013947527622804046,-0.00863008014857769,0.008628643117845058,-0.00045698133180849254,0.015549985691905022
0.017269985750317574,-0.0014608103083446622,-0.009502571076154709,0.00862355250865221,-0.00048260900075547397,0.015197400003671646
0.016782864928245544,-0.0013468745164573193,-0.009718617424368858,0.008213257417082787,-0.0004559718945529312,0.01519690454006195
0.017501583322882652,-0.0012880997965112329,-0.008980579674243927,0.008145858533680439,-0.00047822901979088783,0.014885111711919308
0.017625652253627777,-0.0012131945695728064,-0.009277152828872204,0.008606753312051296,-0.0004551881575025618,0.014465362764894962
0.01762833632528782,-0.001164973946288228,-0.009689291007816792,0.008052017539739609,-0.0005028745508752763,0.013835408724844456
0.018659407272934914,-0.0012298510409891605,-0.009614940732717514,0.008012778125703335,-0.0005155483377166092,0.014056801795959473
0.018110794946551323,-0.0011831813026219606,-0.01027800515294075,0.008239351212978363,-0.0005469662719406188,0.014188377186655998
0.017668195068836212,-0.0013862778432667255,-0.010124833323061466,0.008248187601566315,-0.0005067838355898857,0.01477366778999567
0.01773361675441265,-0.0015261488733813167,-0.009235553443431854,0.008398006670176983,-0.0005305857048369944,0.014435245655477047
0.01732437126338482,-0.0014498097589239478,-0.010118641890585423,0.008100811392068863,-0.0004977511707693338,0.014649835415184498
0.017915301024913788,-0.001601674477569759,-0.010249627754092216,0.00838492251932621,-0.00046183241647668183,0.014283246360719204
0.017780214548110962,-0.0014947273302823305,-0.009911546483635902,0.0083991764113307,-0.0004834088322240859,0.014974717050790787
0.018226051703095436,-0.0013939801137894392,-0.010656078346073627,0.007913836278021336,-0.0004597744846250862,0.014697621576488018
0.01774897612631321,-0.0012716547353193164,-0.00965939275920391,0.00920942984521389,-0.000434070301707834,0.01582065224647522
0.01859329640865326,-0.0012631533900275826,-0.01086620893329382,0.009055603295564651,-0.00043924839701503515,0.015366951003670692
0.01859329640865326,-0.0012631533900275826,-0.01086620893329382,0.009055603295564651,-0.00043924839701503515,0.015366951003670692
0.018848905339837074,-0.0014459890080615878,-0.010456527583301067,0.008943067863583565,-0.00043898297008126974,0.015008723363280296
0.018484972417354584,-0.0014781367499381304,-0.010242247022688389,0.00898092519491911,-0.00040811122744344175,0.015600251965224743
0.018929453566670418,-0.001442985376343131,-0.011125542223453522,0.008754881098866463,-0.0004341923922766,0.014237692579627037
0.019504643976688385,-0.0013731922954320908,-0.011083060875535011,0.009374003857374191,-0.0004566545248962939,0.014574073255062103
0.01759629137814045,-0.0014003257965669036,-0.011312582530081272,0.009783880785107613,-0.0004426264204084873,0.015322225168347359
0.01845473051071167,-0.0012916425475850701,-0.011090574786067009,0.009531612507998943,-0.000540890556294471,0.01565650850534439
0.018920909613370895,-0.0013633151538670063,-0.011033065617084503,0.00930309109389782,-0.0005198728758841753,0.01590280793607235
0.018749311566352844,-0.0013228179886937141,-0.01146158017218113,0.00916002131998539,-0.00046841579023748636,0.016019307076931
0.019318070262670517,-0.0015253969468176365,-0.00838057603687048,0.009210782125592232,-0.0004243616131134331,0.01623815856873989
0.018820911645889282,-0.0014411521842703223,-0.0072374953888356686,0.008797083981335163,-0.0003877624112647027,0.01587066799402237
0.018941598013043404,-0.0013534824829548597,-0.008353154174983501,0.008748826570808887,-0.00035697303246706724,0.01604144088923931
0.01904822140932083,-0.0014404731336981058,-0.008897033520042896,0.00820440985262394,-0.00039219841710291803,0.015769431367516518
0.018752289935946465,-0.0013463663635775447,-0.008265226148068905,0.008213869296014309,-0.00036936820833943784,0.015772845596075058
0.01889248751103878,-0.0013034819858148694,-0.00813001673668623,0.007937951013445854,-0.00034595391480252147,0.015700677409768105
0.0193747878074646,-0.001395303988829255,-0.009143078699707985,0.009091696701943874,-0.00032513021142221987,0.015966802835464478
0.019040141254663467,-0.0014199852012097836,-0.00852985680103302,0.009621324017643929,-0.00035087240394204855,0.01571051962673664
0.019095666706562042,-0.001421975321136415,-0.007782310713082552,0.009915960021317005,-0.0003380868292879313,0.015514635480940342
0.0193646140396595,-0.0014632594538852572,-0.008519535884261131,0.010800772346556187,-0.00032123789424076676,0.01572365127503872
0.019537735730409622,-0.0014100548578426242,-0.008549117483198643,0.010434838011860847,-0.00030567171052098274,0.015731152147054672
0.019602591171860695,-0.001299819559790194,-0.008295800536870956,0.011061368510127068,-0.00029152564820833504,0.015893258154392242
0.019602591171860695,-0.001299819559790194,-0.008295800536870956,0.011061368510127068,-0.00029152564820833504,0.015893258154392242
0.019194886088371277,-0.0013027363456785679,-0.00962076522409916,0.010605186223983765,-0.0002998572599608451,0.016333607956767082
0.019194886088371277,-0.0013027363456785679,-0.00962076522409916,0.010605186223983765,-0.0002998572599608451,0.016333607956767082
0.019568245857954025,-0.0011902416590601206,-0.0087087107822299,0.01013475563377142,-0.00029221843578852713,0.015990979969501495
0.019911374896764755,-0.0011131477076560259,-0.008907372131943703,0.00941421091556549,-0.00027055805549025536,0.015978366136550903
0.01981186680495739,-0.0012428383342921734,-0.00937305111438036,0.009224995970726013,-0.0002102794824168086,0.016534127295017242
0.01974617689847946,-0.0011940497206524014,-0.008720879442989826,0.00862880703061819,-0.00020030632731504738,0.016585100442171097
0.01974617689847946,-0.0011940497206524014,-0.008720879442989826,0.00862880703061819,-0.00020030632731504738,0.016585100442171097
0.01958787627518177,-0.0011726937955245376,-0.00898037850856781,0.008789405226707458,-0.0002249583340017125,0.016742412000894547
0.020105691626667976,-0.001291763037443161,-0.009198401123285294,0.010272062383592129,-0.000220334593905136,0.016484681516885757
0.020094815641641617,-0.001231778645887971,-0.008725867606699467,0.00986389722675085,-0.0002119817363563925,0.01697726733982563
0.01966591738164425,-0.001177266356535256,-0.009864378720521927,0.009334784001111984,-0.0002356838813284412,0.017598096281290054
0.020163847133517265,-0.001248706947080791,-0.009111675433814526,0.009791742078959942,-0.0002534111263230443,0.016457105055451393
0.019964154809713364,-0.001241042627952993,-0.008947094902396202,0.009754989296197891,-0.00025231565814465284,0.01640048250555992
0.01976231299340725,-0.0014464950654655695,-0.00925307348370552,0.009892742149531841,-0.0004117777571082115,0.016486693173646927
0.02008817531168461,-0.001572119421325624,-0.009995055384933949,0.010482162237167358,-0.0004682627331931144,0.01719306968152523
0.02039438858628273,-0.001484340406022966,-0.009193583391606808,0.009664307348430157,-0.000468709651613608,0.016933778300881386
0.01990889571607113,-0.0013640453107655048,-0.009738421998918056,0.009355560876429081,-0.0004337327554821968,0.016981439664959908
0.019628463312983513,-0.0012674210593104362,-0.009659030474722385,0.01036486029624939,-0.00046384046436287463,0.016781095415353775
0.02021898701786995,-0.0012020599097013474,-0.008946898393332958,0.009700637310743332,-0.0004816179280169308,0.01704893633723259
0.020586790516972542,-0.001183254411444068,-0.010268162935972214,0.009201054461300373,-0.00046687506255693734,0.017258716747164726
0.020827675238251686,-0.001220088335685432,-0.010197236202657223,0.010470463894307613,-0.000587802438531071,0.01721997745335102
0.021366246044635773,-0.0012741242535412312,-0.009961404837667942,0.010066622868180275,-0.0006288555450737476,0.01740586943924427
0.021080082282423973,-0.0013948072446510196,-0.010570153594017029,0.009693549014627934,-0.0006153290160000324,0.017063749954104424
0.020204517990350723,-0.0015025283209979534,-0.010213321074843407,0.010213653557002544,-0.000598379410803318,0.017226312309503555
0.019689615815877914,-0.0014020429225638509,-0.010582354851067066,0.010000134818255901,-0.0006217582267709076,0.017286324873566628
0.019689615815877914,-0.0014020429225638509,-0.010582354851067066,0.010000134818255901,-0.0006217582267709076,0.017286324873566628
0.0205898005515337,-0.001281998585909605,-0.010381254367530346,0.010160848498344421,-0.0007348483777604997,0.017162876203656197
0.021018780767917633,-0.0012039131252095103,-0.010729830712080002,0.010444805026054382,-0.0007500306819565594,0.017421694472432137
0.020853566005825996,-0.0011528742033988237,-0.009961331263184547,0.009537693113088608,-0.0006853071972727776,0.017184730619192123
0.02032024785876274,-0.0011135335080325603,-0.010554385371506214,0.009821191430091858,-0.0006839094567112625,0.01724415086209774
0.02086048573255539,-0.0011053855996578932,-0.010515812784433365,0.009822960942983627,-0.0006599948392249644,0.01722516492009163
0.02110488899052143,-0.001085816416889429,-0.010722075589001179,0.009994306601583958,-0.0006646723486483097,0.017753250896930695
0.020987195894122124,-0.0013026671949774027,-0.010594655759632587,0.01051836647093296,-0.0006562435301020741,0.017877032980322838
0.02109627053141594,-0.001230567111633718,-0.011081215925514698,0.010136738419532776,-0.0006316648214124143,0.017790451645851135
0.020539717748761177,-0.0011743636569008231,-0.011084637604653835,0.010760312899947166,-0.0006377330864779651,0.01793556846678257
0.02060841955244541,-0.0010727363405749202,-0.010998801328241825,0.010138336569070816,-0.0005985740572214127,0.018015537410974503
0.020893249660730362,-0.0011083189165219665,-0.011337769217789173,0.009723227471113205,-0.0006052417447790504,0.01792845129966736
0.021487850695848465,-0.0010731733636930585,-0.011193668469786644,0.009980017319321632,-0.0005747349932789803,0.018202852457761765
0.020740646868944168,-0.0010583645198494196,-0.011331446468830109,0.010469225235283375,-0.0005333032459020615,0.01848418451845646
0.02177109383046627,-0.0012291886378079653,-0.011328400112688541,0.009899068623781204,-0.0005269594839774072,0.01758098416030407
0.021318888291716576,-0.0010598000371828675,-0.01099445577710867,0.009934685193002224,-0.0005236667930148542,0.017433667555451393
0.02077842690050602,-0.001031865831464529,-0.010918320156633854,0.010661061853170395,-0.000515403866302222,0.017944175750017166
0.02083640731871128,-0.001013120636343956,-0.011018462479114532,0.01016717404127121,-0.0005110573256388307,0.018425900489091873
0.021310707554221153,-0.0009375464869663119,-0.010767525993287563,0.010209334082901478,-0.0005048472085036337,0.01901654154062271
0.02121007815003395,-0.0009201241191476583,-0.011459315195679665,0.009954440407454967,-0.0005020055104978383,0.01914958283305168
0.021139375865459442,-0.0009170423727482557,-0.01121441088616848,0.01050023827701807,-0.0004972170572727919,0.0190597977489233
0.0212754737585783,-0.0009148749522864819,-0.01119155716150999,0.011231554672122002,-0.00046691548777744174,0.018468201160430908
0.021586960181593895,-0.0009272968745790422,-0.011535058729350567,0.010386088863015175,-0.0005022091791033745,0.01776471734046936
0.02171691507101059,-0.0009551807888783514,-0.010942857712507248,0.0106116384267807,-0.000472414045361802,0.01788577064871788
0.02152138575911522,-0.0009472352685406804,-0.01145341619849205,0.010357225313782692,-0.00042884782305918634,0.018592195585370064
0.02152138575911522,-0.0009472352685406804,-0.01145341619849205,0.010357225313782692,-0.00042884782305918634,0.018592195585370064
0.021257005631923676,-0.0009410118800587952,-0.011604229919612408,0.009935176931321621,-0.00042942262371070683,0.019569939002394676
0.021575452759861946,-0.0008529156912118196,-0.011215806007385254,0.010512922890484333,-0.00042961412691511214,0.01961698569357395
0.021660275757312775,-0.0008535233791917562,-0.011091409251093864,0.01080530695617199,-0.00044902059016749263,0.018855314701795578
0.021400732919573784,-0.0008606847259216011,-0.011007770895957947,0.010942007414996624,-0.0004334910772740841,0.019149426370859146
0.021260323002934456,-0.0008660053135827184,-0.011257728561758995,0.010694623924791813,-0.00040651304880157113,0.019376134499907494
0.021799564361572266,-0.0008669931557960808,-0.010965948924422264,0.010493522509932518,-0.00038192252395674586,0.01964547112584114
0.022386180236935616,-0.0008522142888978124,-0.010701918043196201,0.010172526352107525,-0.0004079659120179713,0.019581886008381844
0.021550267934799194,-0.0008830559672787786,-0.011041048914194107,0.01072289701551199,-0.0003692819445859641,0.01855369284749031
0.022325865924358368,-0.0007866925443522632,-0.01095027755945921,0.010278255678713322,-0.00035984505666419864,0.018423670902848244
0.02218576893210411,-0.000797888555098325,-0.011367816478013992,0.010140197351574898,-0.0003369879850652069,0.018981946632266045
0.021768338978290558,-0.000719454837962985,-0.010796338319778442,0.010548403486609459,-0.00031374514219351113,0.019079664722085
0.022161899134516716,-0.0006540821050293744,-0.011305483989417553,0.011310900561511517,-0.000293301185593009,0.019770272076129913
0.02223926968872547,-0.0005337006296031177,-0.011097182519733906,0.011663318611681461,-0.0003265846462454647,0.020727775990962982
0.022519949823617935,-0.0002498478861525655,-0.01075893547385931,0.011249669827520847,-0.0003363776777405292,0.019445117563009262
0.02251339517533779,-9.895002585835755e-05,-0.011675912886857986,0.01186133362352848,-0.00034168269485235214,0.01888050138950348
0.02197209931910038,-8.763079677009955e-05,-0.010823589749634266,0.011507406830787659,-0.0003255619667470455,0.019163640215992928
0.02222292497754097,-0.0001499861100455746,-0.01059865951538086,0.01101102214306593,-0.0003096559375990182,0.019690627232193947
0.023026078939437866,-0.00014652051322627813,-0.011615647003054619,0.010694128461182117,-0.00031574544846080244,0.02018294483423233
0.02377510815858841,-0.00013559783110395074,-0.011842374689877033,0.010130783542990685,-0.00032080779783427715,0.020061274990439415
0.023980237543582916,-0.0001260982535313815,-0.011599663645029068,0.01090561505407095,-0.00030831940239295363,0.01995675638318062
0.023754676803946495,-6.597588799195364e-05,-0.011086818762123585,0.011582445353269577,-0.00029573391657322645,0.0202625785022974
0.023589108139276505,-5.539427002076991e-05,-0.01046753954142332,0.012027686461806297,-0.0002840693632606417,0.020239027217030525
0.022814150899648666,-8.620273729320616e-05,-0.011762061156332493,0.012433044612407684,-0.00027328546275384724,0.020339252427220345
0.023735037073493004,-9.825239249039441e-05,-0.011412244290113449,0.012094016186892986,-0.0002880629326682538,0.020348360762000084
0.024144090712070465,-9.33799528866075e-05,-0.011469933204352856,0.011959442868828773,-0.0002746040700003505,0.020029636099934578
0.023905806243419647,-8.877742220647633e-05,-0.01149588730186224,0.01135663315653801,-0.00025905921938829124,0.020147547125816345
0.023575687780976295,-5.687151133315638e-05,-0.011216419748961926,0.011223634704947472,-0.00028109035338275135,0.019967246800661087
0.023899376392364502,-4.05984501412604e-05,-0.012143311090767384,0.011394885368645191,-0.000277940824162215,0.02029576152563095
0.023899376392364502,-4.05984501412604e-05,-0.012143311090767384,0.011394885368645191,-0.000277940824162215,0.02029576152563095
0.024651886895298958,-3.866963743348606e-05,-0.01204579696059227,0.011015145108103752,-0.0002650368551257998,0.020716216415166855
0.02472095377743244,-3.7074169085826725e-05,-0.01237371377646923,0.011172509752213955,-0.0002891547919716686,0.02020302787423134
0.02434311807155609,-3.560725235729478e-05,-0.011824130080640316,0.011365527287125587,-0.00030090947984717786,0.019983289763331413
0.023834437131881714,-3.425207978580147e-05,-0.011332225985825062,0.011905530467629433,-0.00030670559499412775,0.020269306376576424
0.024342283606529236,-3.182933141943067e-05,-0.011750319041311741,0.012147135101258755,-0.0004962856764905155,0.021035488694906235
0.024934867396950722,-3.074206688324921e-05,-0.012464825063943863,0.011953233741223812,-0.0004661123675759882,0.020872291177511215
0.024845028296113014,-3.5010116334888153e-06,-0.011845584027469158,0.011858670972287655,-0.0004916144534945488,0.020096663385629654
0.025262676179409027,-4.697053412883179e-08,-0.011909384280443192,0.011688796803355217,-0.0004638667160179466,0.019786974415183067
0.025159617885947227,-6.301696386934452e-10,-0.012393434531986713,0.011778192594647408,-0.00048593408428132534,0.02106449007987976
0.025006664916872978,-8.454530478485545e-12,-0.012064138427376747,0.01183787640184164,-0.00046522446791641414,0.020638050511479378
0.024913335219025612,-1.1342830971358686e-13,-0.013214371167123318,0.012499744072556496,-0.0006524365744553506,0.021010825410485268
0.025044526904821396,-1.5217855340259436e-15,-0.01263662613928318,0.012021184898912907,-0.000639243284240365,0.020577741786837578
0.024597615003585815,-2.0416695217799218e-17,-0.012722818180918694,0.0116922277957201,-0.0005752689321525395,0.021170899271965027
0.025132786482572556,-2.7391605185962465e-19,-0.012340061366558075,0.012184880673885345,-0.0006004755850881338,0.021550141274929047
0.025250932201743126,-3.674933240406522e-21,-0.012700877152383327,0.01221731398254633,-0.0006109119858592749,0.021708158776164055
0.02532198466360569,-4.930392332772721e-23,-0.013264065608382225,0.012903179042041302,-0.0005799318896606565,0.02110796421766281
0.025476738810539246,-6.614750052964373e-25,-0.012601630762219429,0.012215327471494675,-0.0006284042610786855,0.02120581641793251
0.025719966739416122,-8.874531109340832e-27,-0.013293897733092308,0.012595643289387226,-0.0006622635410167277,0.020834511145949364
0.025421788915991783,-1.1906315583320636e-28,-0.012568787671625614,0.013084819540381432,-0.0006888483185321093,0.02081282250583172
0.025391310453414917,-1.597384351468002e-30,-0.013264656998217106,0.012777184136211872,-0.0006983947241678834,0.02134820818901062
0.025115156546235085,-2.143095031925167e-32,-0.012667845003306866,0.01239543966948986,-0.0006590265547856688,0.022279242053627968
0.025404037907719612,-2.875235304882314e-34,-0.013389062136411667,0.012395411729812622,-0.0007745012990199029,0.02239527367055416
0.025672322139143944,-3.85749513005817e-36,-0.01305971760302782,0.013137743808329105,-0.0007888505351729691,0.02224183827638626
0.025951644405722618,-5.17532201155343e-38,-0.012997976504266262,0.013103273697197437,-0.0007025417871773243,0.021703682839870453
0.026122568175196648,-6.943349812821609e-40,-0.01296974252909422,0.013639886863529682,-0.0006224730750545859,0.021979553624987602
0.026301560923457146,-9.315832190831384e-42,-0.01244104839861393,0.01341926958411932,-0.0006380798877216876,0.022644950076937675
0.026637185364961624,-1.2471556332490872e-43,-0.013460658490657806,0.013574027456343174,-0.0006298408261500299,0.022474808618426323
0.026637185364961624,-1.2471556332490872e-43,-0.013460658490657806,0.013574027456343174,-0.0006298408261500299,0.022474808618426323
0.025309719145298004,-1.401298464324817e-45,-0.013369444757699966,0.013212168589234352,-0.0006136221927590668,0.021843140944838524
0.026078544557094574,-0.0,-0.013930747285485268,0.013185493648052216,-0.0005689735407941043,0.0218631774187088
0.02628529816865921,0.0,-0.013844168744981289,0.012471151538193226,-0.0004573966143652797,0.02195727452635765
0.026728516444563866,0.0,-0.013492132537066936,0.012546622194349766,-0.0004552143800538033,0.023005641996860504
0.024769436568021774,0.0,-0.014173200353980064,0.012373100034892559,-0.00045326160034164786,0.021958861500024796
0.026560641825199127,0.0,-0.013820555992424488,0.012525920756161213,-0.0004203358548693359,0.021609727293252945
0.0271323099732399,0.0,-0.013987281359732151,0.012465715408325195,-0.00045054711517877877,0.02200118638575077
0.02664518915116787,0.0,-0.013603370636701584,0.012944849207997322,-0.00042414944618940353,0.022327713668346405
0.02690584771335125,0.0,-0.01445737760514021,0.012971256859600544,-0.000446724850917235,0.02258346602320671
0.027063781395554543,0.0,-0.014167570509016514,0.012447944842278957,-0.00045201487955637276,0.022639354690909386
0.027285117655992508,0.0,-0.014794415794312954,0.012680592015385628,-0.0004982348182238638,0.022655954584479332
0.027429120615124702,0.0,-0.014255891554057598,0.011726795695722103,-0.0005339946364983916,0.02270513027906418
0.02661471627652645,0.0,-0.014903455972671509,0.012353452853858471,-0.0005637782160192728,0.022685976698994637
0.02617262303829193,0.0002458699746057391,-0.014241086319088936,0.01206201035529375,-0.0005394814070314169,0.022513404488563538
0.027255984023213387,0.00023941887775436044,-0.01503407396376133,0.01239409577101469,-0.0008442015387117863,0.02281818725168705
0.027286089956760406,0.00027224660152569413,-0.01423230953514576,0.011651569977402687,-0.0007334070978686213,0.022831901907920837
0.02714919112622738,0.00025975346216000617,-0.014548269100487232,0.011105475947260857,-0.0007235324010252953,0.022642550989985466
0.026858532801270485,0.0002874587953556329,-0.014076550491154194,0.012024189345538616,-0.0006625203532166779,0.022957367822527885
0.026909004896879196,0.0002764336240943521,-0.014858406037092209,0.013595878146588802,-0.0006763866986148059,0.023195361718535423
0.02764596976339817,0.0002648342924658209,-0.014296543784439564,0.015115221031010151,-0.0007070907740853727,0.023362504318356514
0.027392808347940445,0.00025415001437067986,-0.01446686964482069,0.014480373822152615,-0.0006640606443397701,0.023479022085666656
0.027180355042219162,0.00026719688321463764,-0.014101159758865833,0.013837117701768875,-0.0005820345832034945,0.02342439442873001
0.027430063113570213,0.0002686100488062948,-0.014981357380747795,0.013066472485661507,-0.0005154836690053344,0.023050399497151375
0.02765805833041668,0.00026055247872136533,-0.014786818996071815,0.01240549422800541,-0.0005481893895193934,0.023368598893284798
0.02821310982108116,0.00042687359382398427,-0.01508717518299818,0.01175747811794281,-0.0005027017323300242,0.023456068709492683
0.02821310982108116,0.00042687359382398427,-0.01508717518299818,0.01175747811794281,-0.0005027017323300242,0.023456068709492683
0.028473904356360435,0.0004195327637717128,-0.01395970769226551,0.012005855329334736,-0.0005262978957034647,0.023511065170168877
0.028451548889279366,0.0003896050911862403,-0.014638074673712254,0.012798958458006382,-0.0004940179060213268,0.02353530190885067
0.028116879984736443,0.00036338483914732933,-0.014016852714121342,0.014245663769543171,-0.0005151866935193539,0.024961169809103012
0.028317531570792198,0.00036728111444972456,-0.014394255355000496,0.014323785901069641,-0.000457487883977592,0.023029716685414314
0.02828398160636425,0.00035264415782876313,-0.014707475900650024,0.013135593384504318,-0.00041810510447248816,0.023211771622300148
0.028868060559034348,0.0003810676862485707,-0.014540895819664001,0.012321203015744686,-0.0003804289735853672,0.023876551538705826
0.028755631297826767,0.0005524508887901902,-0.015606462024152279,0.01307197567075491,-0.00041576154762879014,0.02438351884484291
0.029031876474618912,0.0005920211551710963,-0.014622744172811508,0.0133692417293787,-0.0004215158987790346,0.024413662031292915
0.029250800609588623,0.000567055307328701,-0.015108349733054638,0.013867492787539959,-0.00042241509072482586,0.024391472339630127
0.028432141989469528,0.0005205677589401603,-0.014663754031062126,0.013273418880999088,-0.0003976497973781079,0.023280229419469833
0.02900886721909046,0.0005256736767478287,-0.015521508641541004,0.013456102460622787,-0.00042388876318000257,0.02338995411992073
0.029436055570840836,0.0005102225113660097,-0.01580914668738842,0.013198962435126305,-0.0004968036664649844,0.023982223123311996
0.029232941567897797,0.00047946168342605233,-0.015897279605269432,0.013456710614264011,-0.0006043522735126317,0.024564266204833984
0.028150681406259537,0.0006443344755098224,-0.016174623742699623,0.013341719284653664,-0.0006520947208628058,0.024147147312760353
0.028926096856594086,0.0006747934967279434,-0.015810471028089523,0.013460895977914333,-0.0006769613828510046,0.024475468322634697
0.029396243393421173,0.0006383387371897697,-0.01571938395500183,0.01341373659670353,-0.0006287376745603979,0.024825137108564377
0.02999849058687687,0.0006593199213966727,-0.015388713218271732,0.013154488056898117,-0.0005788579001091421,0.025004863739013672
0.03017684444785118,0.0006118554738350213,-0.016432208940386772,0.013776792213320732,-0.0006198621122166514,0.024496687576174736
0.029302561655640602,0.0008437680080533028,-0.01623247191309929,0.013761269859969616,-0.0006770957843400538,0.023946531116962433
0.028651265427470207,0.0007712804363109171,-0.016950026154518127,0.013409004546701908,-0.00073296541813761,0.023920949548482895
0.02971404418349266,0.0007862094789743423,-0.01673395000398159,0.012438914738595486,-0.0006817695684731007,0.024018744006752968
0.029412589967250824,0.0007988062570802867,-0.01615508459508419,0.0132903466001153,-0.0006167861865833402,0.024887125939130783
0.02956518344581127,0.0010034772567451,-0.016653146594762802,0.013388504274189472,-0.0005618334398604929,0.025076989084482193
0.030764561146497726,0.0010406571673229337,-0.016840510070323944,0.014197382144629955,-0.0005698429886251688,0.025228509679436684
0.030764561146497726,0.0010406571673229337,-0.016840510070323944,0.014197382144629955,-0.0005698429886251688,0.025228509679436684
0.029971150681376457,0.0013604110572487116,-0.017212238162755966,0.01367986761033535,-0.0005449305754154921,0.025111939758062363
0.02977651171386242,0.0013945595128461719,-0.015874696895480156,0.014546055346727371,-0.0006071245297789574,0.02591582015156746
0.029316769912838936,0.0012995356228202581,-0.016162902116775513,0.014777391217648983,-0.0006656688055954874,0.025155246257781982
0.02899700403213501,0.0010791587410494685,-0.016330499202013016,0.01544519979506731,-0.0006252891616895795,0.024458445608615875
0.029896453022956848,0.0009191941353492439,-0.01660829782485962,0.014078664593398571,-0.0005963189760223031,0.025011077523231506
0.029626216739416122,0.0008536088862456381,-0.016154106706380844,0.012511289678514004,-0.0005517957033589482,0.025663286447525024
0.03009098209440708,0.0009822857100516558,-0.017040282487869263,0.01277011539787054,-0.0005125646712258458,0.025914480909705162
0.030186600983142853,0.0020171557553112507,-0.01690416969358921,0.013960269279778004,-0.0005471857730299234,0.02545686811208725
0.030171943828463554,0.0021820932161062956,-0.016978129744529724,0.01533697172999382,-0.0005095991073176265,0.025585906580090523
0.03058210015296936,0.0018911523511633277,-0.016810042783617973,0.015561908483505249,-0.0005262517370283604,0.025469619780778885
0.03077642433345318,0.0016334077809005976,-0.01620495691895485,0.015730595216155052,-0.0004983911057934165,0.025435995310544968
0.030533824115991592,0.0012988668167963624,-0.016945822164416313,0.01527376938611269,-0.0005283104255795479,0.025504035875201225
0.030752630904316902,0.0012351629557088017,-0.016749778762459755,0.015298781916499138,-0.0004917557816952467,0.025757543742656708
0.030766479671001434,0.0011235987767577171,-0.0177635308355093,0.014049520716071129,-0.0005127076292410493,0.02563525177538395
0.03103560209274292,0.0021448528859764338,-0.01754126138985157,0.014037576504051685,-0.00048579490976408124,0.02608117088675499
0.029217815026640892,0.0033523007296025753,-0.0170021690428257,0.013319183140993118,-0.00045554671669378877,0.027228469029068947
0.032014090567827225,0.0031729168258607388,-0.017270227894186974,0.014373548328876495,-0.0004492404987104237,0.02702515758574009
0.031590793281793594,0.0022981776855885983,-0.01638183929026127,0.015225833281874657,-0.00042793495231308043,0.025946328416466713
0.030687352642416954,0.0016368415672332048,-0.017271777614951134,0.01685243286192417,-0.0004596139187924564,0.02524467557668686
0.031185682862997055,0.0014543067663908005,-0.01705247536301613,0.016205357387661934,-0.00049431505613029,0.02567969635128975
0.031001586467027664,0.0012071767123416066,-0.017428673803806305,0.01572294719517231,-0.0005288231768645346,0.027057114988565445
0.032094888389110565,0.0013687358004972339,-0.017782777547836304,0.01463534589856863,-0.0008129806374199688,0.02663094364106655
0.03210538253188133,0.002972136251628399,-0.017318593338131905,0.014114604331552982,-0.0008651395910419524,0.026354780420660973
0.03144164755940437,0.0037789226043969393,-0.018147405236959457,0.013536054641008377,-0.0007558765937574208,0.02732721157371998
0.030771875753998756,0.0029489179141819477,-0.01789611577987671,0.014021472074091434,-0.0006635597674176097,0.027366558089852333
0.032062727957963943,0.002616540528833866,-0.017350664362311363,0.014226261526346207,-0.0006754726055078208,0.026483993977308273
0.03228355571627617,0.0021009736228734255,-0.017594963312149048,0.015482062473893166,-0.0006630798452533782,0.02637532167136669
0.032256390899419785,0.0020252999383956194,-0.01681981235742569,0.01575423777103424,-0.0006485379417426884,0.02604369819164276
0.032876450568437576,0.0023053595796227455,-0.017839979380369186,0.015907594934105873,-0.0006381392595358193,0.026528729125857353
0.03201717138290405,0.003095643362030387,-0.01770993322134018,0.01541897002607584,-0.0006354851648211479,0.0276627354323864
0.03201717138290405,0.003095643362030387,-0.01770993322134018,0.01541897002607584,-0.0006354851648211479,0.0276627354323864
0.03202725574374199,0.0029025592375546694,-0.018300313502550125,0.014500773511826992,-0.0005872195470146835,0.02763226255774498
0.032918017357587814,0.003133647609502077,-0.01805240288376808,0.01440856046974659,-0.0005940827541053295,0.02726856805384159
0.033652663230895996,0.0031074839644134045,-0.018114961683750153,0.014792694710195065,-0.0005649208906106651,0.027215585112571716
0.033520665019750595,0.002814390929415822,-0.01834224723279476,0.015455099754035473,-0.0005248596426099539,0.027237778529524803
0.0329342819750309,0.00262659159488976,-0.017067084088921547,0.016676485538482666,-0.0005246216314844787,0.02721986174583435
0.03315909951925278,0.002497443463653326,-0.0177434254437685,0.016186732798814774,-0.000575140758883208,0.027383798733353615
0.033073220402002335,0.0026104585267603397,-0.018275540322065353,0.015977893024683,-0.0005858838558197021,0.027460601180791855
0.032791998237371445,0.003086964599788189,-0.01808094047009945,0.015132168307900429,-0.0005735004087910056,0.027980847284197807
0.03455100953578949,0.0036913203075528145,-0.01840170845389366,0.015206214040517807,-0.0005931435734964907,0.02797951176762581
0.03406364470720291,0.003845147555693984,-0.018598709255456924,0.014843107201159,-0.0005563137819990516,0.028146734461188316
0.03404390066862106,0.0032870888244360685,-0.018657982349395752,0.014992260374128819,-0.00069555698428303,0.0280381478369236
0.03394825756549835,0.003237516852095723,-0.01867135427892208,0.014798923395574093,-0.0007183474954217672,0.028058741241693497
0.03449442982673645,0.003372622188180685,-0.01834980957210064,0.015344512648880482,-0.0006600103224627674,0.028434153646230698
0.034981485456228256,0.003216432873159647,-0.018390731886029243,0.01622345671057701,-0.0006614896701648831,0.02820129133760929
0.034866828471422195,0.0034422031603753567,-0.018644092604517937,0.017267033457756042,-0.0006612789584323764,0.028331609442830086
0.03437424078583717,0.0037966452073305845,-0.01795182377099991,0.01738828979432583,-0.0006422253209166229,0.028681674972176552
0.03506114333868027,0.0041050068102777,-0.01893524080514908,0.01591353677213192,-0.0006563678034581244,0.02882962115108967
0.034677840769290924,0.004110613837838173,-0.019493544474244118,0.015233724378049374,-0.0005836879136040807,0.02838985063135624
0.03546920791268349,0.003979064058512449,-0.018625866621732712,0.014335768297314644,-0.0006131143891252577,0.028405172750353813
0.035104259848594666,0.0038664431776851416,-0.018625672906637192,0.015499787405133247,-0.00060082389973104,0.028605399653315544
0.03550510108470917,0.003837974276393652,-0.019069770351052284,0.016786610707640648,-0.0006260838708840311,0.029087409377098083
0.03548036888241768,0.003830617293715477,-0.01876828260719776,0.017449771985411644,-0.0006933496333658695,0.028804613277316093
0.03619524464011192,0.003799404250457883,-0.019741365686058998,0.01725131832063198,-0.0007877087919041514,0.0289253331720829
0.035858407616615295,0.003775071119889617,-0.01994660496711731,0.016833549365401268,-0.0008066995651461184,0.028871644288301468
0.03571246564388275,0.004341271705925465,-0.019003409892320633,0.016994429752230644,-0.0007782389875501394,0.028866134583950043
0.0368531309068203,0.004558084066957235,-0.01951814442873001,0.01598512753844261,-0.0007434464641846716,0.0297838244587183
0.033859990537166595,0.004100743681192398,-0.019101418554782867,0.015488596633076668,-0.0007304630125872791,0.028326528146862984
0.03588413819670677,0.0038866542745381594,-0.019957415759563446,0.016029875725507736,-0.0007390363607555628,0.029285931959748268
0.037236135452985764,0.003865709761157632,-0.019946806132793427,0.016935814172029495,-0.0007578741060569882,0.030040821060538292
0.037236135452985764,0.003865709761157632,-0.019946806132793427,0.016935814172029495,-0.0007578741060569882,0.030040821060538292
0.03689444437623024,0.00438990443944931,-0.019580546766519547,0.017450304701924324,-0.0007733584498055279,0.02858763560652733
0.037294887006282806,0.00477824779227376,-0.02002842351794243,0.01787378452718258,-0.0008171154768206179,0.028638575226068497
0.03716577962040901,0.00472256587818265,-0.020250074565410614,0.0164868775755167,-0.0008409373112954199,0.029958993196487427
0.03618916496634483,0.004879111424088478,-0.020442523062229156,0.015565899200737476,-0.0008496416267007589,0.029551859945058823
0.036337751895189285,0.004889112431555986,-0.019778018817305565,0.015362128615379333,-0.0008556563989259303,0.029458777979016304
0.03740549832582474,0.004814871586859226,-0.020376628264784813,0.016056466847658157,-0.0009197695180773735,0.03133055195212364
0.03700776770710945,0.004636258818209171,-0.019820576533675194,0.01641547866165638,-0.0009482615278102458,0.030506139621138573
0.037299804389476776,0.004670319147408009,-0.019470715895295143,0.01599050872027874,-0.0009525056811980903,0.029090287163853645
0.03659532219171524,0.004724861588329077,-0.019613590091466904,0.01645260490477085,-0.0009491990203969181,0.028688548132777214
0.037037454545497894,0.0048326957039535046,-0.0211844090372324,0.016451360657811165,-0.0010935667669400573,0.030231324955821037
0.03750072047114372,0.00480108754709363,-0.02064325287938118,0.01698939874768257,-0.000990367727354169,0.03101280890405178
0.03742316737771034,0.004958231933414936,-0.02036120928823948,0.0162417721003294,-0.0009714412153698504,0.031146366149187088
0.03736070543527603,0.004949485883116722,-0.020962510257959366,0.01610037311911583,-0.0008490821346640587,0.031001804396510124
0.03745357692241669,0.005100906360894442,-0.020752862095832825,0.016451863572001457,-0.000847550283651799,0.030855853110551834
0.037478767335414886,0.005612678360193968,-0.020193222910165787,0.01675545424222946,-0.0007639850373379886,0.030785683542490005
0.03785443678498268,0.00528320949524641,-0.020695511251688004,0.017890198156237602,-0.0006760810501873493,0.030932124704122543
0.03766750171780586,0.004822464194148779,-0.021008286625146866,0.017807377502322197,-0.0005794970202259719,0.030682384967803955
0.037156231701374054,0.005257389973849058,-0.020434001460671425,0.01791766844689846,-0.000587443180847913,0.03069712407886982
0.03863585367798805,0.005302804056555033,-0.02044520527124405,0.017434921115636826,-0.0005503547145053744,0.0309783685952425
0.03930417448282242,0.005587499123066664,-0.02121228724718094,0.01683504693210125,-0.0005782292573712766,0.030921246856451035
0.03930417448282242,0.005587499123066664,-0.02121228724718094,0.01683504693210125,-0.0005782292573712766,0.030921246856451035
0.03792114928364754,0.0058247363194823265,-0.02126401662826538,0.016615767031908035,-0.0006001449655741453,0.031169503927230835
0.03705989569425583,0.005494381301105022,-0.020820265635848045,0.016229096800088882,-0.000566846807487309,0.03143305703997612
0.038974251598119736,0.0051336935721337795,-0.02096620202064514,0.01743716560304165,-0.0006550367688760161,0.03151533007621765
0.03933372721076012,0.004954576026648283,-0.02080174721777439,0.017537856474518776,-0.0006378459511324763,0.03128470852971077
0.03883565589785576,0.006224147044122219,-0.02082962542772293,0.0175637137144804,-0.0006181385833770037,0.030916763469576836
0.03829711303114891,0.005316475871950388,-0.02117798663675785,0.01689908467233181,-0.00064043392194435,0.031307827681303024
0.03771982714533806,0.004637662321329117,-0.02145305462181568,0.01716988906264305,-0.0008009545272216201,0.0319034568965435
0.03817235305905342,0.005937526933848858,-0.02085511013865471,0.017538664862513542,-0.0008342531509697437,0.03184513747692108
0.03913982957601547,0.005447071511298418,-0.021016649901866913,0.01714053750038147,-0.000789710960816592,0.030740242451429367
0.03877181559801102,0.00538963358849287,-0.021159350872039795,0.01756451465189457,-0.0007534606847912073,0.02988661639392376
0.0382738821208477,0.00517383823171258,-0.02134973369538784,0.017613163217902184,-0.0007214752840809524,0.030899906530976295
0.038797348737716675,0.005325961858034134,-0.02096514217555523,0.017757413908839226,-0.0007537619676440954,0.031589310616254807
0.03862164169549942,0.005550609901547432,-0.021170880645513535,0.01756804808974266,-0.000792939041275531,0.03208668902516365
0.03890814632177353,0.006009312346577644,-0.021841587498784065,0.017350591719150543,-0.0008162050507962704,0.03254415839910507
0.038903772830963135,0.005427365656942129,-0.021227367222309113,0.018253210932016373,-0.0008194043766707182,0.03204995393753052
