davideferrari95/blind_handover_controller/data/Test 48 - [2024-02-07 -- 15-09-58]/joint_states_data.csv
shoulder_pan_joint,shoulder_lift_joint,elbow_joint,wrist_1_joint,wrist_2_joint,wrist_3_joint
0.00510338693857193,-0.006988962180912495,-0.009815203957259655,0.014369523152709007,0.0,0.006690870504826307
0.005783763714134693,-0.006578006315976381,-0.010553905740380287,0.014797085896134377,0.0,0.0067403316497802734
0.005783763714134693,-0.006578006315976381,-0.010553905740380287,0.014797085896134377,0.0,0.0067403316497802734
0.005878318566828966,-0.0066812606528401375,-0.011695456691086292,0.014476613141596317,0.0,0.00722838519141078
0.005813123658299446,-0.0068743303418159485,-0.010840720497071743,0.015215476974844933,0.0,0.006632261443883181
0.005327574908733368,-0.006874768994748592,-0.01044122502207756,0.014412044547498226,0.0,0.006292453035712242
0.00564230652526021,-0.006929734721779823,-0.010488404892385006,0.01510611828416586,0.0,0.00618649460375309
0.0055061145685613155,-0.007247541099786758,-0.010775032453238964,0.015190662816166878,0.0,0.006559033878147602
0.005886453669518232,-0.007514700293540955,-0.010896912775933743,0.015493273735046387,0.0,0.0067665548995137215
0.005307239480316639,-0.006860207766294479,-0.010277457535266876,0.014561979100108147,0.0,0.006497539114207029
0.005307239480316639,-0.006860207766294479,-0.010277457535266876,0.014561979100108147,0.0,0.006497539114207029
0.005575244780629873,-0.006885991897433996,-0.010764099657535553,0.014616395346820354,0.0,0.006455061491578817
0.005764095112681389,-0.0071362098678946495,-0.01079191267490387,0.015133718028664589,0.0,0.006346170324832201
0.005764095112681389,-0.0071362098678946495,-0.01079191267490387,0.015133718028664589,0.0,0.006346170324832201
0.0057790037244558334,-0.006933013908565044,-0.010109803639352322,0.015232976526021957,0.0,0.006469050422310829
0.005648549180477858,-0.007195679470896721,-0.010546882636845112,0.015005017630755901,0.0,0.00639756815508008
0.005748013034462929,-0.007432171609252691,-0.011026961728930473,0.014765108935534954,0.0,0.0064053041860461235
0.005973699036985636,-0.007422549184411764,-0.010308508761227131,0.01471074391156435,0.0,0.006671164184808731
0.005572448950260878,-0.007494555786252022,-0.010896447114646435,0.014885036274790764,0.0,0.006541674491018057
0.00577900093048811,-0.007163996808230877,-0.010610817931592464,0.015233040787279606,0.0,0.006744728423655033
0.005880157928913832,-0.007381929084658623,-0.009733974933624268,0.01537671685218811,0.0,0.006614565383642912
0.00596613809466362,-0.0073388866148889065,-0.010586412623524666,0.015707015991210938,0.0,0.006423499900847673
0.005615511909127235,-0.006789595354348421,-0.010756051167845726,0.015010947361588478,0.0,0.00652706902474165
0.005975401494652033,-0.006872751750051975,-0.011195721104741096,0.01491563580930233,0.0,0.006620591040700674
0.00610917154699564,-0.007192234043031931,-0.011594775132834911,0.014410569332540035,0.0,0.006677175406366587
0.005574783310294151,-0.007344464305788279,-0.010434610769152641,0.014845715835690498,0.0,0.006345944944769144
0.005768979899585247,-0.006792120635509491,-0.010464548133313656,0.015246943570673466,0.0,0.0066114310175180435
0.005622948054224253,-0.007065865211188793,-0.010277912020683289,0.015597626566886902,0.0,0.006667978595942259
0.006179525051265955,-0.00831065233796835,-0.010169757530093193,0.014873247593641281,0.0,0.00675383722409606
0.005999287590384483,-0.00701400451362133,-0.011132607236504555,0.015082340687513351,0.0,0.007097152061760426
0.005819694604724646,-0.006828347686678171,-0.011191502213478088,0.014854572713375092,0.0,0.0075752390548586845
0.005540631245821714,-0.0074545410461723804,-0.010213851928710938,0.015620090067386627,-5.947293288954825e-07,0.006728184875100851
0.005594863556325436,-0.007687619887292385,-0.0110353734344244,0.01602311246097088,-3.8831579729503574e-08,0.006251894403249025
0.006077817175537348,-0.007784275803714991,-0.010563977062702179,0.016169793903827667,-2.535424759031457e-09,0.006449003238230944
0.005686649587005377,-0.0071061779744923115,-0.01040260586887598,0.015695516020059586,-1.6554513315725217e-10,0.007160590495914221
0.0057670739479362965,-0.007292837370187044,-0.010917769744992256,0.015619727782905102,-1.0808914527316027e-11,0.006559721194207668
0.005711130797863007,-0.007478285580873489,-0.010957131162285805,0.015209082514047623,-7.057449243064173e-13,0.005573648028075695
0.006073068827390671,-0.00746478047221899,-0.011431814171373844,0.01486294250935316,-4.608010004928005e-14,0.005580491852015257
0.0058464165776968,-0.007140852510929108,-0.011219140142202377,0.015446719713509083,-3.0087012627122694e-15,0.006541527342051268
0.006040012463927269,-0.0074027469381690025,-0.010039947926998138,0.015346962958574295,-1.9644670015874492e-16,0.006759457290172577
0.006615912541747093,-0.0074288807809352875,-0.010762264020740986,0.01584547385573387,-1.2826565326351442e-17,0.00679481728002429
0.005910094827413559,-0.007149079814553261,-0.010371392592787743,0.014948937110602856,-5.468165327221873e-20,0.006703332997858524
0.006176807917654514,-0.007197631523013115,-0.011070079170167446,0.014377041719853878,-3.5703215501062735e-21,0.006420939229428768
0.006098177284002304,-0.00765501381829381,-0.01041203923523426,0.015695251524448395,-2.3311647542847845e-22,0.006593282800167799
0.006098177284002304,-0.00765501381829381,-0.01041203923523426,0.015695251524448395,-2.3311647542847845e-22,0.006593282800167799
0.0061616296879947186,-0.0069363852962851524,-0.009929267689585686,0.015171407721936703,-1.5220840818855098e-23,0.0068160840310156345
0.005897901486605406,-0.0051746307872235775,-0.01090004201978445,0.01576477475464344,-9.938120959933146e-25,0.006520625203847885
0.005813040304929018,-0.00471605034545064,-0.010272852145135403,0.015250063501298428,-6.488882611674736e-26,0.006276116706430912
0.00609373627230525,-0.004969262983649969,-0.010707599110901356,0.015377618372440338,-4.2367770178316824e-27,0.0064588626846671104
0.006427498534321785,-0.0060310764238238335,-0.011033031158149242,0.015010029077529907,-2.766312605256766e-28,0.006782237906008959
0.006499390117824078,-0.005586844403296709,-0.010683642700314522,0.015381473116576672,-1.8062042084678495e-29,0.006689890753477812
0.006358022801578045,-0.005190651398152113,-0.010636894963681698,0.014703533612191677,-1.1793223246658533e-30,0.0066713690757751465
0.005999615415930748,-0.0051956092938780785,-0.010422366671264172,0.015016312710940838,-7.700131581043058e-32,0.006547033321112394
0.006091768853366375,-0.005019159521907568,-0.01017756387591362,0.015401247888803482,-5.0276363582409566e-33,0.006344834342598915
0.006510164588689804,-0.005502345971763134,-0.01097318809479475,0.015403305180370808,-3.2826873608162433e-34,0.0065684146247804165
0.006092783063650131,-0.005234025418758392,-0.010923085734248161,0.01576019451022148,-2.1433602677613394e-35,0.006446780636906624
0.005828985944390297,-0.004960653837770224,-0.010389079339802265,0.015350192785263062,-1.399461216303047e-36,0.006074896082282066
0.006101211067289114,-0.005155660677701235,-0.010652618482708931,0.01544595044106245,-9.137481088005364e-38,0.006130530033260584
0.006136640440672636,-0.005060500930994749,-0.010543745011091232,0.015073807910084724,-5.966122098860018e-39,0.006573203951120377
0.006190844811499119,-0.0050242990255355835,-0.011107251048088074,0.015720978379249573,-3.895455587991916e-40,0.00629847589880228
0.006299357395619154,-0.005188613198697567,-0.010876452550292015,0.015137768350541592,-2.5434968425959755e-41,0.006308127194643021
0.006206525955349207,-0.00534963421523571,-0.011116407811641693,0.0153533099219203,-1.6605386802249082e-42,0.006062919739633799
0.006072613410651684,-0.005534236319363117,-0.011792636476457119,0.0151995699852705,-1.0789998175301091e-43,0.0063040186651051044
0.006072613410651684,-0.005534236319363117,-0.011792636476457119,0.0151995699852705,-1.0789998175301091e-43,0.0063040186651051044
0.006716902833431959,-0.005011491943150759,-0.010347433388233185,0.015560286119580269,-7.006492321624085e-45,0.006651288829743862
0.006873434875160456,-0.004716594237834215,-0.009563125669956207,0.015147022902965546,-0.0,0.0063867345452308655
0.006673816591501236,-0.005008965265005827,-0.010382683016359806,0.015430325642228127,-0.0,0.00619765929877758
0.0060773687437176704,-0.00509360758587718,-0.010023328475654125,0.015330442227423191,-0.0,0.00659608980640769
0.006270445417612791,-0.005138500593602657,-0.010571395978331566,0.015330549329519272,-0.0,0.0067362915724515915
0.006241186987608671,-0.004986165557056665,-0.010109304450452328,0.015043281950056553,-0.0,0.006494749337434769
0.006532425992190838,-0.004825984593480825,-0.0101480633020401,0.01539791189134121,-0.0,0.006782533135265112
0.00609878683462739,-0.005262396298348904,-0.010549178346991539,0.01555739063769579,-0.0,0.006728227715939283
0.006099066697061062,-0.005437259096652269,-0.010308031924068928,0.015733426436781883,-0.0,0.006516074296087027
0.0066527798771858215,-0.005621704272925854,-0.010867604985833168,0.014992189593613148,-0.0,0.006303547415882349
0.007001440040767193,-0.005154494196176529,-0.010983946733176708,0.015103534795343876,-0.0,0.006650490220636129
0.006257765926420689,-0.004808241035789251,-0.010005572810769081,0.014759323559701443,-0.0,0.006752234883606434
0.006132444366812706,-0.005188500974327326,-0.010943395085632801,0.015094759874045849,-0.0,0.006884505972266197
0.006919891573488712,-0.0055197966285049915,-0.011070420034229755,0.014833945780992508,-0.0,0.006690045353025198
0.0064455000683665276,-0.005676616448909044,-0.0103777926415205,0.015024548396468163,-0.0,0.00629816297441721
0.006354190409183502,-0.005519175436347723,-0.011628645472228527,0.015010511502623558,-0.0,0.0062976316548883915
0.006191378924995661,-0.005529589019715786,-0.011234198696911335,0.015372196212410927,-0.0,0.006570092402398586
0.006813631858676672,-0.005119762383401394,-0.010764316655695438,0.015062592923641205,-0.0,0.006673525087535381
0.006981981452554464,-0.005059428513050079,-0.011776362545788288,0.015332338400185108,-0.0,0.006630884483456612
0.006780876778066158,-0.0057073053903877735,-0.011411445215344429,0.015171723440289497,-0.0,0.006714504677802324
0.006556187756359577,-0.005750198848545551,-0.011552886106073856,0.014866156503558159,-0.0,0.0066481721587479115
0.006804115604609251,-0.005688987206667662,-0.011055411770939827,0.015121323987841606,-0.0,0.006885705050081015
0.007100576069205999,-0.005201754160225391,-0.011141406372189522,0.015114491805434227,-0.0,0.006917865015566349
0.006702687591314316,-0.0055856239050626755,-0.011309534311294556,0.015020514838397503,-0.0,0.006533422041684389
0.006765411235392094,-0.005490216426551342,-0.01119089126586914,0.01497960090637207,-0.0,0.006456117611378431
0.006765411235392094,-0.005490216426551342,-0.01119089126586914,0.01497960090637207,-0.0,0.006456117611378431
0.006699816323816776,-0.005911176558583975,-0.010421067476272583,0.015098564326763153,-0.0,0.006435094401240349
0.007288376800715923,-0.00586767727509141,-0.011054386384785175,0.014864386059343815,-0.0,0.006606520619243383
0.007591333240270615,-0.005739970598369837,-0.010900646448135376,0.015260833315551281,-2.6221410735161044e-05,0.006459633819758892
0.00668024318292737,-0.005163502413779497,-0.011885806918144226,0.01518305018544197,-3.9792812458472326e-05,0.006408016197383404
0.006498811300843954,-0.005735686048865318,-0.011225934140384197,0.015960929915308952,-4.281830115360208e-05,0.0063913376070559025
0.0068179587833583355,-0.005893636494874954,-0.010993764735758305,0.015552924014627934,-4.238493420416489e-05,0.007052775006741285
0.007543453946709633,-0.005560996010899544,-0.011062640696763992,0.01440611481666565,-4.111060843570158e-05,0.006422122474759817
0.007073621265590191,-0.005054912529885769,-0.011281903833150864,0.014954667538404465,-4.049410199513659e-05,0.006130929104983807
0.006620075553655624,-0.004995441529899836,-0.01106496062129736,0.013515732251107693,-3.9895738154882565e-05,0.006195428315550089
0.008118076249957085,-0.0057001574896276,-0.01042194850742817,0.013810253702104092,-3.9314818423008546e-05,0.007147046737372875
0.006825245916843414,-0.005908275488764048,-0.010742442682385445,0.0138600654900074,-3.8750589737901464e-05,0.006747943349182606
0.006410540547221899,-0.006133293733000755,-0.010777427814900875,0.015098449774086475,-3.8202280848054215e-05,0.006412883754819632
0.006587833631783724,-0.005446888972073793,-0.011128009296953678,0.015519555658102036,-3.766933878068812e-05,0.00623477203771472
0.007484878413379192,-0.0054053994826972485,-0.011416695080697536,0.015618803910911083,-3.7151010474190116e-05,0.006931379437446594
0.007601473014801741,-0.005580836441367865,-0.010654304176568985,0.015436297282576561,-3.664675386971794e-05,0.0070508625358343124
0.0068906634114682674,-0.006192678119987249,-0.01088966429233551,0.015823910012841225,-3.615603054640815e-05,0.006910322699695826
0.006339481566101313,-0.0060352301225066185,-0.010706773027777672,0.01624477095901966,-3.567823296179995e-05,0.006642867345362902
0.00681569566950202,-0.0057906657457351685,-0.010782665573060513,0.016332760453224182,-3.521295002428815e-05,0.006594994105398655
0.007008715998381376,-0.00550804752856493,-0.011290894821286201,0.01629764959216118,-3.475963239907287e-05,0.006832460407167673
0.007225011941045523,-0.005787708796560764,-0.011295209638774395,0.015157012268900871,-3.4317810786888e-05,0.007319851778447628
0.00684380391612649,-0.00571020832285285,-0.010373090393841267,0.0152032021433115,-3.388709228602238e-05,0.0069730994291603565
0.006488258484750986,-0.0057264892384409904,-0.01086604967713356,0.014667805284261703,-3.346707308082841e-05,0.006434857379645109
0.007154751569032669,-0.005948160775005817,-0.01063865702599287,0.015294085256755352,-3.3057312975870445e-05,0.006729659624397755
0.007267537526786327,-0.005348056089133024,-0.01064745057374239,0.015332375653088093,-3.2657477277098224e-05,0.007043295074254274
0.0068294289521873,-0.00536116398870945,-0.010348414070904255,0.015871133655309677,-3.2267194910673425e-05,0.007283332291990519
0.0068294289521873,-0.00536116398870945,-0.010348414070904255,0.015871133655309677,-3.2267194910673425e-05,0.007283332291990519
0.006899507250636816,-0.005557079333811998,-0.010082635097205639,0.015695104375481606,-3.188612754456699e-05,0.006967559922486544
0.007265713065862656,-0.006177319213747978,-0.010708434507250786,0.016016526147723198,-3.151398050249554e-05,0.008231463842093945
0.006638571619987488,-0.0056641586124897,-0.01045286189764738,0.0152690839022398,-3.079511225223541e-05,0.006253276951611042
0.006638571619987488,-0.0056641586124897,-0.01045286189764738,0.0152690839022398,-3.079511225223541e-05,0.006253276951611042
0.0077605717815458775,-0.005971088074147701,-0.010718990117311478,0.01515958085656166,-3.01083146041492e-05,0.006661042105406523
0.006905226036906242,-0.005721027497202158,-0.010004674084484577,0.015412895940244198,-1.509357025497593e-05,0.006911942735314369
0.0070098331198096275,-0.005918160546571016,-0.01070730946958065,0.01522624958306551,-9.855024245553068e-07,0.006849050056189299
0.006822424475103617,-0.005572983529418707,-0.010187259875237942,0.015542819164693356,-6.434626698137436e-08,0.006459739059209824
0.007014869246631861,-0.0055678789503872395,-0.010384218767285347,0.015137013047933578,-4.201351266885922e-09,0.006305517628788948
0.007198238279670477,-0.005602928809821606,-0.010943664237856865,0.015140807256102562,-2.743182070386041e-10,0.006870837416499853
0.007271577138453722,-0.005669988226145506,-0.010035211220383644,0.014833374880254269,-1.7911019889460533e-11,0.006666084285825491
0.006995401810854673,-0.005637484136968851,-0.01084872055798769,0.015385323204100132,-1.1694616629254195e-12,0.0064153848215937614
0.007228151895105839,-0.005684837233275175,-0.011097734794020653,0.01467492338269949,-7.635748587239699e-14,0.0065996963530778885
0.007545799948275089,-0.0051896171644330025,-0.010137340053915977,0.014984563924372196,-4.985597811056185e-15,0.00664754630997777
0.007671730127185583,-0.0059590828604996204,-0.01088140718638897,0.014637656509876251,-3.255239466433494e-16,0.007501781452447176
0.0070873587392270565,-0.0055839624255895615,-0.0103322584182024,0.015552643686532974,-2.125438764157657e-17,0.006912009324878454
0.006593973375856876,-0.005909092258661985,-0.010116335935890675,0.015266618691384792,-1.3877595695117191e-18,0.006623363588005304
0.007220209110528231,-0.005800170358270407,-0.01058740820735693,0.015266012400388718,-9.061077955338794e-20,0.006883327383548021
0.007324058096855879,-0.005549360997974873,-0.010193281807005405,0.01470163930207491,-5.9162368673589874e-21,0.006981770507991314
0.00722523732110858,-0.005168055184185505,-0.010789179243147373,0.015121256932616234,-3.8628796918633394e-22,0.007419923320412636
0.007140912115573883,-0.005353651009500027,-0.011346334591507912,0.014887971803545952,-2.5221844248126127e-23,0.007101367227733135
0.007447571959346533,-0.005608231294900179,-0.010382496751844883,0.014907171949744225,-1.6468060083939143e-24,0.00708888191729784
0.007358039263635874,-0.006105507258325815,-0.010401972569525242,0.01511137280613184,-1.0752466263216356e-25,0.006665446795523167
0.0073142810724675655,-0.005520661361515522,-0.010226922109723091,0.015249875374138355,-7.020592426274791e-27,0.00704676378518343
0.0073142810724675655,-0.005520661361515522,-0.010226922109723091,0.015249875374138355,-7.020592426274791e-27,0.00704676378518343
0.007161896210163832,-0.005473569501191378,-0.009684707038104534,0.015176437795162201,-4.583944860717434e-28,0.006730505730956793
0.008033057674765587,-0.005713692866265774,-0.010861021466553211,0.01528734527528286,-2.992988420809446e-29,0.006823659408837557
0.0077133141458034515,-0.006196286994963884,-0.01104962732642889,0.015472528524696827,-1.9542076364906168e-30,0.006898744497448206
0.0076074120588600636,-0.005603076424449682,-0.009888588450849056,0.01517875213176012,-1.2759579755153143e-31,0.00737087894231081
0.006990917958319187,-0.005841658916324377,-0.010049642994999886,0.015605142340064049,-8.331092867526306e-33,0.006981407757848501
0.007128700613975525,-0.005352307111024857,-0.010192858055233955,0.015300195664167404,-5.43960837362479e-34,0.006665134336799383
0.00804272759705782,-0.005173817276954651,-0.010058632120490074,0.015308061614632607,-3.5516758249504035e-35,0.006683718878775835
0.007696604821830988,-0.005401788279414177,-0.010042959824204445,0.014574209228157997,-1.5141350524118286e-37,0.007204150315374136
0.007571077439934015,-0.0058790575712919235,-0.009974148124456406,0.01449735090136528,-9.88622092164555e-39,0.007233901880681515
0.0081833116710186,-0.005184581503272057,-0.010341517627239227,0.014139801263809204,-6.45499729800441e-40,0.007062344811856747
0.007782651577144861,-0.004975492600351572,-0.010564793832600117,0.014125660993158817,-4.2146853911497523e-41,0.006776731926947832
0.00710942130535841,-0.0054071019403636456,-0.009703271090984344,0.015134093351662159,-2.7521501839339407e-42,0.007513849996030331
0.007954622618854046,-0.005778925027698278,-0.010165526531636715,0.014752182178199291,-1.793662034335766e-43,0.00681150471791625
0.007950253784656525,-0.005810486618429422,-0.010076663456857204,0.015128693543374538,-1.1210387714598537e-44,0.0065964218229055405
0.007597595918923616,-0.005962959490716457,-0.010587275959551334,0.014731940813362598,-1.401298464324817e-45,0.006923227570950985
0.007597602903842926,-0.0052027627825737,-0.010311275720596313,0.015422694385051727,-0.0,0.0071114408783614635
0.00809846818447113,-0.004878315143287182,-0.010372291319072247,0.01547730527818203,-0.0,0.00730105908587575
0.008145615458488464,-0.005459710955619812,-0.01017282996326685,0.015677664428949356,-0.0,0.007287540007382631
0.007517723832279444,-0.005341167561709881,-0.010364215821027756,0.015324273146688938,-0.0,0.007328304927796125
0.008171847090125084,-0.005787603557109833,-0.010230598971247673,0.015252182260155678,-0.0,0.007566631305962801
0.007738718297332525,-0.005326164420694113,-0.011351373046636581,0.015315844677388668,-0.0,0.0077638765797019005
0.008127134293317795,-0.005357520189136267,-0.010406206361949444,0.015097453258931637,-0.0,0.007182662840932608
0.007797693368047476,-0.00552709074690938,-0.009895870462059975,0.014996619895100594,-0.0,0.007268859539180994
0.007905226200819016,-0.005363963544368744,-0.010614265687763691,0.015329094603657722,-0.0,0.006844297982752323
0.007649980951100588,-0.00572577677667141,-0.010684624314308167,0.015701379626989365,-0.0,0.0071992529556155205
0.007838957011699677,-0.0058158887550234795,-0.010067202150821686,0.015393160283565521,-0.0,0.007978558540344238
0.007685807067900896,-0.0056043402291834354,-0.011261971667408943,0.015506220050156116,-0.0,0.007933562621474266
0.007918880321085453,-0.005528728477656841,-0.010618257336318493,0.015146486461162567,-0.0,0.0076833926141262054
0.007918880321085453,-0.005528728477656841,-0.010618257336318493,0.015146486461162567,-0.0,0.0076833926141262054
0.007728234864771366,-0.005875717382878065,-0.010412795469164848,0.015503610484302044,-0.0,0.007500901818275452
0.007434824947267771,-0.005636789835989475,-0.011071639135479927,0.015388538129627705,-0.0,0.007502120453864336
0.00838502962142229,-0.005326967220753431,-0.010364631190896034,0.015229725278913975,-0.0,0.007565760985016823
0.00838502962142229,-0.005326967220753431,-0.010364631190896034,0.015229725278913975,-0.0,0.007565760985016823
0.007950403727591038,-0.005784790497273207,-0.010829789564013481,0.015095529146492481,-0.0,0.007569700013846159
0.007627254817634821,-0.00597994402050972,-0.01110872346907854,0.014741189777851105,-0.0,0.00732209300622344
0.00805925764143467,-0.005501034669578075,-0.011252133175730705,0.014545025303959846,-1.2209685337438714e-05,0.007842042483389378
0.007662391755729914,-0.00538252666592598,-0.010326460003852844,0.014717331156134605,-2.027594564424362e-05,0.007920438423752785
0.00739668495953083,-0.005043121986091137,-0.010794327594339848,0.01497559156268835,-2.0579678675858304e-05,0.00767588010057807
0.007588993292301893,-0.005411894991993904,-0.010776476934552193,0.015503454022109509,-2.0381634385557845e-05,0.007512111682444811
0.008204830810427666,-0.005766443908214569,-0.011097535490989685,0.015304026193916798,-2.0155697711743414e-05,0.007606383413076401
0.008210033178329468,-0.005006181076169014,-0.011151389218866825,0.014525767415761948,-1.9932649593101814e-05,0.007408078294247389
0.007608228363096714,-0.0040772901847958565,-0.01100937183946371,0.01453995332121849,-2.56755674854503e-06,0.0077478899620473385
0.008034811355173588,-0.0036680044140666723,-0.011350025422871113,0.014882526360452175,-1.6764310828421003e-07,0.007621217519044876
0.00805273000150919,-0.003752707736566663,-0.010988539084792137,0.015287050046026707,-1.0945895745351208e-08,0.007579021155834198
0.008226962760090828,-0.00447247177362442,-0.010913393460214138,0.015386847779154778,-7.146888081344116e-10,0.007384174969047308
0.008485719561576843,-0.0046308767050504684,-0.011269724927842617,0.015048371627926826,-4.6664071912116967e-11,0.007883871905505657
0.008273236453533173,-0.00431020138785243,-0.010984227061271667,0.01469812449067831,-3.0468305829700615e-12,0.00784896407276392
0.008461885154247284,-0.004442730452865362,-0.010893191210925579,0.015385693870484829,-1.9893627218638132e-13,0.008673271164298058
0.008355735801160336,-0.0043778507970273495,-0.011063567362725735,0.015055760741233826,-1.298911641493903e-14,0.00815449096262455
0.008550392463803291,-0.004129181616008282,-0.010808478109538555,0.015405413694679737,-8.480965029986965e-16,0.006777687463909388
0.008302420377731323,-0.003860444761812687,-0.010869895108044147,0.015025137923657894,-5.5374639960406976e-17,0.006705400533974171
0.008180733770132065,-0.0037700729444622993,-0.011080387979745865,0.015386467799544334,-3.6155684071611065e-18,0.007629001047462225
0.008342289365828037,-0.0043029263615608215,-0.010335596278309822,0.015700019896030426,-2.360708069259161e-19,0.00769686559215188
0.00846614595502615,-0.004598585888743401,-0.010991687886416912,0.016413848847150803,-1.5413736848688536e-20,0.007796669844537973
0.008633678779006004,-0.004168931394815445,-0.010631981305778027,0.015949755907058716,-1.0064067809933655e-21,0.007591635920107365
0.008633678779006004,-0.004168931394815445,-0.010631981305778027,0.015949755907058716,-1.0064067809933655e-21,0.007591635920107365
0.008533958345651627,-0.004348817281424999,-0.010942747816443443,0.01531200110912323,-6.571117308271126e-23,0.00816292967647314
0.00871902983635664,-0.004195278510451317,-0.010979066602885723,0.01528629194945097,-4.290469707520975e-24,0.008217823691666126
0.009227041155099869,-0.004022593609988689,-0.010436861775815487,0.016873419284820557,-2.801370059589484e-25,0.007941732183098793
0.008568521589040756,-0.004134160466492176,-0.010886120609939098,0.01473972387611866,-1.1942679066600611e-27,0.007759473752230406
0.008917171508073807,-0.004166797269135714,-0.010067682713270187,0.015091349370777607,-7.797716594044085e-29,0.007731593679636717
0.009048535488545895,-0.004343781620264053,-0.010856413282454014,0.0149840721860528,-5.091351537479255e-30,0.007475283928215504
0.008203122764825821,-0.004488147329539061,-0.010649808682501316,0.015295743942260742,-3.3242886201706225e-31,0.007857374846935272
0.008791857399046421,-0.004343525506556034,-0.010502695105969906,0.01496442686766386,-2.1705228416129034e-32,0.00789116695523262
0.009030760265886784,-0.0044229221530258656,-0.01092427596449852,0.015498495660722256,-1.4171962849960007e-33,0.008156419731676579
0.008127054199576378,-0.004309404641389847,-0.01069598738104105,0.014896935783326626,-9.253279160088182e-35,0.00791090913116932
0.00967988558113575,-0.004109768662601709,-0.010183586739003658,0.015372359193861485,-6.041730300962211e-36,0.008259358815848827
0.00926216784864664,-0.0039102486334741116,-0.010744736529886723,0.015457099303603172,-3.944817951903976e-37,0.008231566287577152
0.008832190185785294,-0.0041439952328801155,-0.010596288368105888,0.01573551446199417,-7.668154285056517e-05,0.008027169853448868
0.008812499232590199,-0.004559173248708248,-0.011170056648552418,0.015115565620362759,-0.00012893870007246733,0.007637617643922567
0.009006399661302567,-0.004255077801644802,-0.010823776945471764,0.0153327202424407,-0.00012880348367616534,0.008550088852643967
0.009108826518058777,-0.004425188060849905,-0.010875036008656025,0.015637630596756935,-0.00012544498895294964,0.008366301655769348
0.009381471201777458,-0.004096406511962414,-0.011179525405168533,0.01564212515950203,-0.0001220573831233196,0.008438904769718647
0.009232844226062298,-0.003896987996995449,-0.01058255136013031,0.01572602055966854,-0.00011883483966812491,0.008406502194702625
0.009942656382918358,-0.004642175044864416,-0.010550610721111298,0.015063922852277756,-0.0001157774095190689,0.008282341994345188
0.008898531086742878,-0.004706986714154482,-0.011276690289378166,0.015323393046855927,-0.00013247571769170463,0.008090649731457233
0.009875157848000526,-0.0038808106910437346,-0.010843026451766491,0.015013760887086391,-0.00013193923223298043,0.008279098197817802
0.009108992293477058,-0.003868991741910577,-0.011095653288066387,0.015228042379021645,-0.00012896442785859108,0.00848577730357647
0.008854813873767853,-0.003959840629249811,-0.0105200856924057,0.01487776543945074,-0.00012596753367688507,0.008312638849020004
0.009378843009471893,-0.0038900941144675016,-0.010422909632325172,0.01516423374414444,-0.00012309661542531103,0.00802619755268097
0.009720249101519585,-0.0038038864731788635,-0.011359268799424171,0.014855203218758106,-0.00012035305553581566,0.008224505931138992
0.00895762350410223,-0.00433149840682745,-0.011158880777657032,0.01517336443066597,-0.00011772906145779416,0.008717846125364304
0.009775527752935886,-0.004140028264373541,-0.011032422073185444,0.015116273425519466,-0.00011521706619532779,0.007935312576591969
0.009775527752935886,-0.004140028264373541,-0.011032422073185444,0.015116273425519466,-0.00011521706619532779,0.007935312576591969
0.00924223568290472,-0.0042730215936899185,-0.010500414296984673,0.015480116941034794,-0.00011281001206953079,0.007967263460159302
0.009405311197042465,-0.004276087507605553,-0.01032391656190157,0.015514050610363483,-0.0001241634599864483,0.007947681471705437
0.009258585050702095,-0.004079963080585003,-0.011002946645021439,0.01589500717818737,-0.00012602268543560058,0.00818311795592308
0.009432196617126465,-0.004306264221668243,-0.010054768063127995,0.015586895868182182,-0.00012146039080107585,0.00886464025825262
0.009466351941227913,-0.004288624972105026,-0.010672317817807198,0.015193145722150803,-0.00011916411312995479,0.008787687867879868
0.009875182062387466,-0.004265745636075735,-0.010799898765981197,0.014861308969557285,-0.00011695194552885368,0.009006168693304062
0.009458675980567932,-0.004442079458385706,-0.011033901944756508,0.014613703824579716,-0.00011482047557365149,0.008851810358464718
0.009182687848806381,-0.0041066971607506275,-0.011149141937494278,0.014573708176612854,-0.00011276522127445787,0.00896546058356762
0.009555603377521038,-0.004418608732521534,-0.011133323423564434,0.014780950732529163,-0.00011078229726990685,0.008686775341629982
0.009429167956113815,-0.004179163370281458,-0.011500301770865917,0.014612124301493168,-0.0001088678473024629,0.008711635135114193
0.009835458360612392,-0.004394613206386566,-0.011378699913620949,0.01510354783385992,-0.00010701849532779306,0.009096386842429638
0.010114896111190319,-0.004251470789313316,-0.011412065476179123,0.014790438115596771,-0.00011829736467916518,0.008748775348067284
0.010173412039875984,-0.004007075913250446,-0.01167883351445198,0.015058851800858974,-0.00011815968173323199,0.008470721542835236
0.00972211454063654,-0.004097753670066595,-0.010550085455179214,0.01451849564909935,-0.00011636774434009567,0.009014822542667389
0.010307474993169308,-0.00395525898784399,-0.010542203672230244,0.015128028579056263,-0.0001145244823419489,0.008802729658782482
0.009649379178881645,-0.0038271211087703705,-0.012178552336990833,0.014936848543584347,-0.000112731839180924,0.008582143113017082
0.00952430721372366,-0.0042812032625079155,-0.010661089792847633,0.015627887099981308,-0.0001109940349124372,0.008637269958853722
0.010652736760675907,-0.004110987298190594,-0.010830508545041084,0.015330425463616848,-0.00010930898133665323,0.009404241107404232
0.009929083287715912,-0.003926962148398161,-0.011677424423396587,0.01579153724014759,-0.00010767427738755941,0.00952962413430214
0.009720581583678722,-0.003833646886050701,-0.011355114169418812,0.014963105320930481,-0.00010608771117404103,0.009028870612382889
0.010319313034415245,-0.004402794409543276,-0.0115297120064497,0.015012702904641628,-0.00010454733273945749,0.009035554714500904
0.009873495437204838,-0.004183687269687653,-0.011158379726111889,0.015213927254080772,-0.00010305098840035498,0.00873870961368084
0.009959312155842781,-0.0039364490658044815,-0.011107965372502804,0.014727129600942135,-0.00010159681551158428,0.00890395324677229
0.010194461792707443,-0.003785045351833105,-0.011448493227362633,0.013705307617783546,-0.00011322570207994431,0.008713510818779469
0.010146494023501873,-0.003796642879024148,-0.010816914029419422,0.013959991745650768,-0.00011231704411329702,0.009878846816718578
0.010000855661928654,-0.0038120339158922434,-0.011322230100631714,0.014163389801979065,-0.00010970399307552725,0.00886659137904644
0.010341550223529339,-0.003563591744750738,-0.011287341825664043,0.015403714962303638,-0.00010710108472267166,0.00834572408348322
0.010099297389388084,-0.0034921937622129917,-0.010575256310403347,0.014663505367934704,-0.00010461164492880926,0.00884708110243082
0.01025164034217596,-0.003629762912169099,-0.011382832191884518,0.014563674107193947,-0.00010223488789051771,0.009208627045154572
0.010576564818620682,-0.0036716817412525415,-0.01147552765905857,0.014220917597413063,-9.996382868848741e-05,0.009930819272994995
0.010576564818620682,-0.0036716817412525415,-0.01147552765905857,0.014220917597413063,-9.996382868848741e-05,0.009930819272994995
0.010082683525979519,-0.0036339068319648504,-0.011679353192448616,0.014279951341450214,-0.00010512500739423558,0.008810573257505894
0.010572865605354309,-0.003783776657655835,-0.011218372732400894,0.014683142304420471,-0.00011182642629137263,0.008756517432630062
0.00982780009508133,-0.00338670052587986,-0.012037655338644981,0.014592267572879791,-0.00011012568575097248,0.009936165064573288
0.010659562423825264,-0.0034215515479445457,-0.011451072059571743,0.01497805118560791,-0.00010796178685268387,0.009012269787490368
0.011207032948732376,-0.0035490565933287144,-0.01119186356663704,0.014683917164802551,-0.00010584805568214506,0.00910272728651762
0.009990892373025417,-0.003633517539128661,-0.012189951725304127,0.014976908452808857,-0.00010381325409980491,0.008945426903665066
0.009978074580430984,-0.003674723207950592,-0.011198070831596851,0.014781364239752293,-0.00010185502469539642,0.009324993006885052
0.00998710561543703,-0.003738103434443474,-0.011424442753195763,0.015127553604543209,-9.996940207201988e-05,0.00899092759937048
0.010837717913091183,-0.004249118734151125,-0.011336348950862885,0.01511955726891756,-9.815223165787756e-05,0.009245661087334156
0.01042173057794571,-0.0036190336104482412,-0.011304928921163082,0.015041280537843704,-0.00011036319483537227,0.009332496672868729
0.010040792636573315,-0.00337249506264925,-0.011910628527402878,0.0149048687890172,-0.00011035682109650224,0.009740397334098816
0.00998095516115427,-0.0033389474265277386,-0.011818467639386654,0.015043310821056366,-0.00010858067980734631,0.009243154898285866
0.01030535064637661,-0.0036113006062805653,-0.012302261777222157,0.01521327719092369,-0.00010674905934138224,0.00949720200151205
0.009939503856003284,-0.003719653934240341,-0.012074933387339115,0.014914720319211483,-0.00010497093171579763,0.009567242115736008
0.010057174600660801,-0.0035819937475025654,-0.01213966403156519,0.015414351597428322,-0.0001032506042975001,0.009631127119064331
0.010447372682392597,-0.0035980367101728916,-0.01169982273131609,0.01473140250891447,-0.00010158560326090083,0.009796987287700176
0.009934342466294765,-0.003819406731054187,-0.011664895340800285,0.015145190991461277,-0.00011238841398153454,0.0098021375015378
0.010627022944390774,-0.003432560944929719,-0.012830951251089573,0.015058482065796852,-0.00011234879639232531,0.009359583258628845
0.010289964266121387,-0.0035512978211045265,-0.011615129187703133,0.014826049096882343,-0.00011073286441387609,0.009727686643600464
0.009912057779729366,-0.003268095199018717,-0.012233584187924862,0.014478718861937523,-0.00010906287207035348,0.009632681496441364
0.010319692082703114,-0.003477000165730715,-0.012739953584969044,0.014872265048325062,-0.00010743592429207638,0.009447122924029827
0.010422430001199245,-0.0032447613775730133,-0.012540323659777641,0.01427397970110178,-0.00010585640120552853,0.010174141265451908
0.01031077466905117,-0.0033666095696389675,-0.012756627053022385,0.01478999201208353,-0.00010432267299620435,0.009432134218513966
0.010877682827413082,-0.0034320263657718897,-0.012196479365229607,0.01430486235767603,-0.00013736785331275314,0.009527431800961494
0.011238315142691135,-0.0035490640439093113,-0.012853194028139114,0.015108217485249043,-0.0001380665198666975,0.009731834754347801
0.010300014168024063,-0.003539746394380927,-0.011483749374747276,0.01459732186049223,-0.00013426764053292572,0.009773622266948223
0.010656011290848255,-0.0035345633514225483,-0.012115344405174255,0.015136604197323322,-0.00013039766054134816,0.009916502982378006
0.010656011290848255,-0.0035345633514225483,-0.012115344405174255,0.015136604197323322,-0.00013039766054134816,0.009916502982378006
0.010329462587833405,-0.0036507975310087204,-0.01221347227692604,0.0147259421646595,-0.0001455027813790366,0.010105420835316181
0.010299090296030045,-0.0034964957740157843,-0.01238109078258276,0.014622547663748264,-0.00014393498713616282,0.009598192758858204
0.010640856809914112,-0.0036250462289899588,-0.01246381364762783,0.014872383326292038,-0.0001402226189384237,0.00948779284954071
0.010353331454098225,-0.0037450636737048626,-0.012570147402584553,0.014911222271621227,-0.00015792800695635378,0.009479453787207603
0.01055153924971819,-0.003816260490566492,-0.01231328584253788,0.015564868226647377,-0.00015541815082542598,0.009717914275825024
0.010658454149961472,-0.003426021197810769,-0.012296567671000957,0.01502801664173603,-0.00015176467422861606,0.010029170662164688
0.011022844351828098,-0.0035930383019149303,-0.012027982622385025,0.014737864956259727,-0.0001665877498453483,0.010316052474081516
0.010458644479513168,-0.0032210347708314657,-0.011631687171757221,0.014432213269174099,-0.00016529735876247287,0.00972167681902647
0.0104631083086133,-0.003310383763164282,-0.012327468022704124,0.014593319036066532,-0.00016174957272596657,0.010225217789411545
0.011185773648321629,-0.0032969946041703224,-0.012223239056766033,0.014496758580207825,-0.00015820603584870696,0.009952320717275143
0.010399796068668365,-0.003493781201541424,-0.012785266153514385,0.014686447568237782,-0.00015480520960409194,0.009714586660265923
0.010645434260368347,-0.0032712516840547323,-0.01172505971044302,0.014721154235303402,-0.00025251193437725306,0.010018102824687958
0.010515471920371056,-0.0034555031452327967,-0.011715707369148731,0.01467202603816986,-0.00025273620849475265,0.010653817094862461
0.010370382107794285,-0.0037046961952000856,-0.012279871851205826,0.015236547216773033,-0.00024018523981794715,0.010290822945535183
0.010850115679204464,-0.003378063440322876,-0.011626598425209522,0.014096158556640148,-0.0002280701301060617,0.010225998237729073
0.010959474369883537,-0.003117533400654793,-0.012153188697993755,0.014274396933615208,-0.0002170690131606534,0.010403904132544994
0.010623790323734283,-0.0031027558725327253,-0.011639225296676159,0.014523652382194996,-0.00024565806961618364,0.01100009772926569
0.011682387441396713,-0.0032361664343625307,-0.011606846936047077,0.014658628031611443,-0.00023737354786135256,0.010449527762830257
0.012472046539187431,-0.0035366187803447247,-0.012111706659197807,0.014625964686274529,-0.00022753348457626998,0.009921020828187466
0.012148702517151833,-0.0033672929275780916,-0.011802551336586475,0.014947629533708096,-0.00021834248036611825,0.01023620180785656
0.01172151230275631,-0.003229235764592886,-0.012688009068369865,0.015093722380697727,-0.00022697618987876922,0.01067541167140007
0.011677323840558529,-0.003307526698336005,-0.011586124077439308,0.015245094895362854,-0.00023450632579624653,0.010519146919250488
0.012773825787007809,-0.0030366459395736456,-0.012317875400185585,0.015047837048768997,-0.00022709646145813167,0.010610077530145645
0.011870939284563065,-0.003160185180604458,-0.012568703852593899,0.015511286444962025,-0.00021925996406935155,0.010549568571150303
0.012297246605157852,-0.0032914842013269663,-0.0118917440995574,0.015410092659294605,-0.00021188915707170963,0.010582328774034977
0.0125842010602355,-0.003129292046651244,-0.012356096878647804,0.015605000779032707,-0.000204993732040748,0.010913067497313023
0.012678575702011585,-0.0032727462239563465,-0.01267818920314312,0.015626227483153343,-0.00019246735610067844,0.009853141382336617
0.01329144835472107,-0.0029500273521989584,-0.012488381937146187,0.015009797178208828,-0.0001867612882051617,0.0107632577419281
0.01329144835472107,-0.0029500273521989584,-0.012488381937146187,0.015009797178208828,-0.0001867612882051617,0.0107632577419281
0.01290101371705532,-0.003069376340135932,-0.012174658477306366,0.015180405229330063,-0.00018138359882868826,0.010828792117536068
0.011833549477159977,-0.0033932894002646208,-0.01246622297912836,0.014540156349539757,-0.00017630725051276386,0.010876341722905636
0.012856978923082352,-0.0032562429551035166,-0.01237810030579567,0.014428464695811272,-0.00018353712221141905,0.01101184356957674
0.012884339317679405,-0.003024208126589656,-0.012704125605523586,0.01414478849619627,-0.00018999895837623626,0.01086520403623581
0.012816903181374073,-0.0028532049618661404,-0.01199102308601141,0.014512049965560436,-0.00018583342898637056,0.011025244370102882
0.013042991980910301,-0.002856739331036806,-0.012335780076682568,0.014566045254468918,-0.00018120431923307478,0.010958114638924599
0.01325724646449089,-0.00280537991784513,-0.013091028667986393,0.015161245130002499,-0.00017675882554613054,0.010759681463241577
0.013368147425353527,-0.0028856382705271244,-0.012738407589495182,0.014797781594097614,-0.0001725235051708296,0.010985620319843292
0.012515460141003132,-0.002686288906261325,-0.01246916875243187,0.01463619340211153,-0.00016848600353114307,0.011043419130146503
0.013398167677223682,-0.002936601871624589,-0.012016716413199902,0.014271382242441177,-0.0001646334567340091,0.011188047006726265
0.012498307041823864,-0.003040311159566045,-0.012515166774392128,0.014618483372032642,-0.00016095282626338303,0.011538530699908733
0.012978973798453808,-0.002975118113681674,-0.01232082862406969,0.01443017553538084,-0.00015743322728667408,0.011578623205423355
0.013127662241458893,-0.002774640219286084,-0.012438460253179073,0.015084928832948208,-0.00015406454622279853,0.01122346706688404
0.013055143877863884,-0.0028758211992681026,-0.01222873292863369,0.014856400899589062,-0.00014466674474533647,0.01099475659430027
0.013143230229616165,-0.0028938157483935356,-0.01220362726598978,0.014780852943658829,-0.00013840667088516057,0.010922693647444248
0.01290617324411869,-0.0029679324943572283,-0.012317697517573833,0.014106706716120243,-0.0001341616443824023,0.011030754074454308
0.01319780945777893,-0.0028078940231353045,-0.012183084152638912,0.014609092846512794,-0.00013026967644691467,0.010744224302470684
0.013011452741920948,-0.0030117055866867304,-0.012473649345338345,0.014104732312262058,-0.00012660387437790632,0.010933250188827515
0.013299823738634586,-0.0029660409782081842,-0.011749783530831337,0.014761018566787243,-0.00012313903425820172,0.011158742941915989
0.012882694602012634,-0.0028173276223242283,-0.012692980468273163,0.014867240563035011,-0.00011985911260126159,0.01113307848572731
0.013160953298211098,-0.002603985834866762,-0.012731295078992844,0.01543519552797079,-0.00011379662464605644,0.011431321501731873
0.013160953298211098,-0.002603985834866762,-0.012731295078992844,0.01543519552797079,-0.00011379662464605644,0.011431321501731873
0.013295854441821575,-0.002716394606977701,-0.012601505033671856,0.015426828525960445,-0.00011098969116574153,0.011325635947287083
0.013057306408882141,-0.0026989998295903206,-0.012577362358570099,0.014893614687025547,-0.00012674024037551135,0.011234640143811703
0.013057306408882141,-0.0026989998295903206,-0.012577362358570099,0.014893614687025547,-0.00012674024037551135,0.011234640143811703
0.01337880827486515,-0.002669756067916751,-0.012155122123658657,0.015175387263298035,-0.00012399909610394388,0.011187054216861725
0.012794747948646545,-0.002551464131101966,-0.012621045112609863,0.015511652454733849,-0.00012122643238399178,0.011692481115460396
0.013048374094069004,-0.0024867954198271036,-0.011969108134508133,0.015589787624776363,-0.0001282813464058563,0.011663118377327919
0.012880759313702583,-0.0024857830721884966,-0.012084025889635086,0.014701439999043941,-0.0001346983335679397,0.011595881544053555
0.01334174070507288,-0.0023962100967764854,-0.012501013465225697,0.014745955355465412,-0.0001324644108535722,0.011244525201618671
0.013175192289054394,-0.002563606947660446,-0.01199954655021429,0.014505683444440365,-0.00012977476580999792,0.011900915764272213
0.013418433256447315,-0.0025668598245829344,-0.012615694664418697,0.015258928760886192,-0.00012715786579065025,0.012405947782099247
0.013033128343522549,-0.002415700349956751,-0.01188223622739315,0.014711376279592514,-0.00012464220344554633,0.011224908754229546
0.013540769927203655,-0.0024417296517640352,-0.012292451225221157,0.015138017944991589,-0.0001385219511575997,0.0113522382453084
0.01334467250853777,-0.0022686822339892387,-0.012157353572547436,0.014405903406441212,-0.00013695024244952947,0.011471989564597607
0.01330855954438448,-0.0023974899668246508,-0.012157421559095383,0.014708242379128933,-0.0001344620977761224,0.011749782599508762
0.01344208512455225,-0.0026800192426890135,-0.012805809266865253,0.014514551497995853,-0.0001320014416705817,0.012245576828718185
0.013691557571291924,-0.0024151562247425318,-0.012050260789692402,0.014368891716003418,-0.00012962520122528076,0.012445326894521713
0.013619775883853436,-0.002489724662154913,-0.012632436119019985,0.014208170585334301,-0.0001273327216040343,0.012669469229876995
0.013467659242451191,-0.0023646210320293903,-0.0124355498701334,0.014760272577404976,-0.00015798401727806777,0.0124203497543931
0.013876874931156635,-0.002225732896476984,-0.012763962149620056,0.014478643424808979,-0.00016299616254400462,0.012558657675981522
0.01335630938410759,-0.0023554491344839334,-0.012303177267313004,0.01460281666368246,-0.00015797514060977846,0.012133952230215073
0.013828546740114689,-0.002199555980041623,-0.01246238686144352,0.014392765238881111,-0.0001526611449662596,0.012642426416277885
0.013395778834819794,-0.002343608532100916,-0.012481735087931156,0.014854736626148224,-0.0001732741657178849,0.012521685101091862
0.013815606944262981,-0.0021858462132513523,-0.012750294059515,0.014557215385138988,-0.00017130021296907216,0.012091445736587048
0.013496934436261654,-0.002160137752071023,-0.013352915644645691,0.014771225862205029,-0.00016625627176836133,0.011861086823046207
0.01400032639503479,-0.0023812924046069384,-0.01278227474540472,0.014280445873737335,-0.00017449534789193422,0.011792853474617004
0.013401683419942856,-0.00255507486872375,-0.012942543253302574,0.014442672953009605,-0.00018183667270932347,0.012255659326910973
0.013649861328303814,-0.0024483127053827047,-0.012644108384847641,0.013794591650366783,-0.0001775212149368599,0.01264244969934225
0.013649861328303814,-0.0024483127053827047,-0.012644108384847641,0.013794591650366783,-0.0001775212149368599,0.01264244969934225
0.013486793264746666,-0.0024861840065568686,-0.013139231130480766,0.014246654696762562,-0.00017270729586016387,0.01285216398537159
0.013995244167745113,-0.002105009276419878,-0.01286288071423769,0.014233910478651524,-0.00018218214972876012,0.012663689441978931
0.013995244167745113,-0.002105009276419878,-0.01286288071423769,0.014233910478651524,-0.00018218214972876012,0.012663689441978931
0.013907982967793941,-0.0022872353438287973,-0.012400773353874683,0.015015960671007633,-0.00017786417447496206,0.012501176446676254
0.013965990394353867,-0.0022317843977361917,-0.013296529650688171,0.014683477580547333,-0.00017358771583531052,0.012895402498543262
0.014243798330426216,-0.0021933747921139,-0.012722655199468136,0.015083574689924717,-0.0001695015816949308,0.01275990717113018
0.014613725244998932,-0.002348434180021286,-0.013164506293833256,0.014379332773387432,-0.00016560297808609903,0.013118753209710121
0.014204391278326511,-0.002126427600160241,-0.01239917054772377,0.01472066156566143,-0.00016203334962483495,0.01314065046608448
0.014352909289300442,-0.002161033684387803,-0.013471730053424835,0.014576947316527367,-0.0002270628174301237,0.013227353803813457
0.01423854660242796,-0.002354147145524621,-0.013262918218970299,0.014918334782123566,-0.00022071105195209384,0.012918272987008095
0.013915463350713253,-0.002286507049575448,-0.013291438110172749,0.014719052240252495,-0.00021068808564450592,0.012808441184461117
0.014010345563292503,-0.0024312979076057673,-0.013710622675716877,0.014993061311542988,-0.00020128200412727892,0.012456589378416538
0.014192558825016022,-0.002277261344715953,-0.01293103490024805,0.014811159111559391,-0.00022113400336820632,0.012050503864884377
0.014206664636731148,-0.0023682022001594305,-0.013529565185308456,0.014484086073935032,-0.00022104536765255034,0.01244431547820568
0.013949662446975708,-0.002241935580968857,-0.013267287984490395,0.014738506637513638,-0.00021291464508976787,0.012517855502665043
0.014432570897042751,-0.0021239742636680603,-0.013623805716633797,0.015006753616034985,-0.00020487357687670738,0.013064785860478878
0.014211402274668217,-0.002422101330012083,-0.012402732856571674,0.015209278091788292,-0.00019738594710361212,0.012731410562992096
0.014298566617071629,-0.002375334734097123,-0.013212648220360279,0.015811925753951073,-0.00021390605252236128,0.012985043227672577
0.014329162426292896,-0.002509691985324025,-0.012726345099508762,0.01579945720732212,-0.00021405455481726676,0.01319325901567936
0.014736467972397804,-0.0022899683099240065,-0.013152280822396278,0.015242262743413448,-0.00020748889073729515,0.01328401267528534
0.01418023556470871,-0.0021470878273248672,-0.01308019831776619,0.014962390996515751,-0.00020090298494324088,0.013487282209098339
0.015117778442800045,-0.001982288435101509,-0.013482337817549706,0.014333737082779408,-0.00019469595281407237,0.012499263510107994
0.014651056379079819,-0.0020008105784654617,-0.013173123821616173,0.014614194631576538,-0.00020209589274600148,0.01278882659971714
0.014651056379079819,-0.0020008105784654617,-0.013173123821616173,0.014614194631576538,-0.00020209589274600148,0.01278882659971714
0.014115039259195328,-0.0021320402156561613,-0.013289344497025013,0.014927536249160767,-0.00020357030734885484,0.013371432200074196
0.014115039259195328,-0.0021320402156561613,-0.013289344497025013,0.014927536249160767,-0.00020357030734885484,0.013371432200074196
0.014092644676566124,-0.002030283911153674,-0.01322247926145792,0.01585342362523079,-0.000237214335356839,0.013533690944314003
0.014897767454385757,-0.0021616853773593903,-0.013704500161111355,0.015698520466685295,-0.00021610579278785735,0.013148700818419456
0.014897767454385757,-0.0021616853773593903,-0.013704500161111355,0.015698520466685295,-0.00021610579278785735,0.013148700818419456
0.015171903185546398,-0.0021388917230069637,-0.012975079007446766,0.015044559724628925,-0.0002062071580439806,0.013087652623653412
0.01546119898557663,-0.0021473546512424946,-0.013037005439400673,0.01511397585272789,-0.00019717002578545362,0.01331463735550642
0.013453641906380653,-0.002119285985827446,-0.013255511410534382,0.014560908079147339,-0.00018889183411374688,0.013692197389900684
0.015665005892515182,-0.00217293668538332,-0.013621365651488304,0.014352666214108467,-0.0001812809205148369,0.013528438284993172
0.01549535896629095,-0.001966578420251608,-0.013342604972422123,0.014262676239013672,-0.00017425970872864127,0.013589351437985897
0.01543476339429617,-0.0019951274152845144,-0.013779590837657452,0.014319377020001411,-0.00016776194388512522,0.013437923043966293
0.015073256567120552,-0.001816091826185584,-0.013430974446237087,0.014136692509055138,-0.00019188682199455798,0.013803251087665558
0.015354640781879425,-0.001975760329514742,-0.012978469021618366,0.01466934010386467,-0.00018720074149314314,0.013346795924007893
0.015377473086118698,-0.0018551184330135584,-0.013167133554816246,0.014680296182632446,-0.00018105209164787084,0.013562393374741077
0.015739863738417625,-0.0021192440763115883,-0.012939142994582653,0.014784997329115868,-0.00018950211233459413,0.01343300100415945
0.015455048531293869,-0.0022983807139098644,-0.013442457653582096,0.014435828663408756,-0.0001969895529327914,0.01368235144764185
0.015928223729133606,-0.002217445056885481,-0.012723499909043312,0.014468148350715637,-0.0001918663620017469,0.013505714014172554
0.015828123316168785,-0.0018655414460226893,-0.013530432246625423,0.014252067543566227,-0.0001862511271610856,0.013616061769425869
0.01600365899503231,-0.0018508710199967027,-0.012970301322638988,0.014868056401610374,-0.00020004931138828397,0.013470685109496117
0.016029687598347664,-0.001798825105652213,-0.013602901250123978,0.015807803720235825,-0.00020054086053278297,0.013617206364870071
0.015953414142131805,-0.0018394079525023699,-0.013152414932847023,0.014960815198719501,-0.00019549154967535287,0.013482492417097092
0.016201335936784744,-0.0018478339770808816,-0.01325976848602295,0.01460519153624773,-0.00019034896104130894,0.013422505930066109
0.015776371583342552,-0.0013906325912103057,-0.013430321589112282,0.014730838127434254,-0.00018544749764259905,0.013493507169187069
0.0162412878125906,-0.001062406343407929,-0.013314309529960155,0.015028332360088825,-0.0001807908120099455,0.013617802411317825
0.01571946032345295,-0.0008590430952608585,-0.013153049163520336,0.015203231945633888,-0.00017669107182882726,0.013705502264201641
0.016231225803494453,-0.0008471823530271649,-0.013088468462228775,0.015076680108904839,-0.00018622707284521312,0.014353279955685139
0.01609732210636139,-0.0008542728028260171,-0.013779500499367714,0.014973443001508713,-0.00017988331092055887,0.014392165467143059
0.01609732210636139,-0.0008542728028260171,-0.013779500499367714,0.014973443001508713,-0.00017988331092055887,0.014392165467143059
0.01597459428012371,-0.0008685844950377941,-0.012784448452293873,0.014992189593613148,-0.00020529507310129702,0.014086996205151081
0.015938425436615944,-0.0007265112944878638,-0.013322838582098484,0.014719625934958458,-0.00021612760610878468,0.013921917416155338
0.015973910689353943,-0.0007557239732705057,-0.01315260399132967,0.015639130026102066,-0.00022383531904779375,0.013748722150921822
0.015864798799157143,-0.0011678814189508557,-0.013121255673468113,0.015189822763204575,-0.00024051230866461992,0.013607459142804146
0.016558945178985596,-0.0011621515732258558,-0.013741258531808853,0.014623144641518593,-0.0005440565873868763,0.015171700157225132
0.0164150670170784,-0.0009627599501982331,-0.013215833343565464,0.015101548284292221,-0.0005048744496889412,0.013793688267469406
0.016556445509195328,-0.0009049453074112535,-0.012962880544364452,0.014541481621563435,-0.0004989915760233998,0.014041729271411896
0.016475962474942207,-0.0008271326078101993,-0.013198278844356537,0.015107182785868645,-0.0004929927526973188,0.014176708646118641
0.016414403915405273,-0.0007315636030398309,-0.013287367299199104,0.014742240309715271,-0.0005096149398013949,0.014336375519633293
0.016557276248931885,-0.0007375977584160864,-0.013511870056390762,0.014925087802112103,-0.0004875208542216569,0.013998915441334248
0.016384586691856384,-0.0006782807759009302,-0.013697146438062191,0.014603075571358204,-0.0005094898515380919,0.014770692214369774
0.01688893884420395,-0.0006199874333105981,-0.01393947284668684,0.014714136719703674,-0.0004830012912862003,0.014748254790902138
0.016513720154762268,-0.00047758471919223666,-0.01320628635585308,0.01471768133342266,-0.00045309518463909626,0.014967367053031921
0.016879206523299217,-0.00042878964450210333,-0.014220479875802994,0.014986654743552208,-0.0004473684821277857,0.014879962429404259
0.01690315082669258,-0.00046023272443562746,-0.013486890122294426,0.014617306180298328,-0.0004108919820282608,0.014605838805437088
0.01643412373960018,-0.0004319866420701146,-0.013774910010397434,0.014764991588890553,-0.00043199677020311356,0.01461839210242033
0.016891472041606903,-0.0004658072139136493,-0.0132022425532341,0.014477045275270939,-0.0004495262692216784,0.014931929297745228
0.016477975994348526,-0.0004891862627118826,-0.014224805869162083,0.015096832066774368,-0.00048064449219964445,0.014481780119240284
0.017129939049482346,-0.000464494718471542,-0.013917580246925354,0.01512139942497015,-0.00047940199146978557,0.01438687089830637
0.016876747831702232,-0.0005684152129106224,-0.01420542597770691,0.015237530693411827,-0.0006378323305398226,0.014549924992024899
0.017119301483035088,-0.0005204160697758198,-0.0141172856092453,0.01524856872856617,-0.0006844429299235344,0.014785289764404297
0.017161322757601738,-0.0005585915059782565,-0.0145234614610672,0.015197180211544037,-0.0006966866203583777,0.015235746279358864
0.017188627272844315,-0.000507333199493587,-0.013602393679320812,0.015030591748654842,-0.000716922921128571,0.015526295639574528
0.017188627272844315,-0.000507333199493587,-0.013602393679320812,0.015030591748654842,-0.000716922921128571,0.015526295639574528
0.01762269251048565,-0.0005316991009749472,-0.014251585118472576,0.015116125345230103,-0.0007929854327812791,0.01508075650781393
0.01725579798221588,-0.00051975465612486,-0.014773133210837841,0.015148160047829151,-0.0008007334545254707,0.015053043141961098
0.01725579798221588,-0.00051975465612486,-0.014773133210837841,0.015148160047829151,-0.0008007334545254707,0.015053043141961098
0.017023300752043724,-0.0005024289130233228,-0.014120706357061863,0.014931757934391499,-0.0007971687591634691,0.015351815149188042
0.01763320527970791,-0.0004709922068286687,-0.0139272790402174,0.015132582746446133,-0.0008062105043791234,0.015393182635307312
0.017381975427269936,-0.0005083048599772155,-0.014681386761367321,0.014784137718379498,-0.0008175597176887095,0.015627367421984673
0.01774817891418934,-0.0004675385425798595,-0.014224263839423656,0.015111958608031273,-0.0007679459522478282,0.01565406657755375
0.0175333209335804,-0.0005009840824641287,-0.01439617294818163,0.014833688735961914,-0.000729889958165586,0.015558823943138123
0.017153702676296234,-0.0004649545007850975,-0.013848109170794487,0.015437876805663109,-0.000697230629157275,0.015068442560732365
0.018327418714761734,-0.0004939705249853432,-0.014255664311349392,0.015252210199832916,-0.0007140967063605785,0.015169410035014153
0.01810235157608986,-0.00046399692655541003,-0.014040673151612282,0.015406044200062752,-0.0007295406539924443,0.015154189430177212
0.017859691753983498,-0.0005388471763581038,-0.014419869519770145,0.015362787060439587,-0.0007596133509650826,0.015211761929094791
0.01828267239034176,-0.0004827715747524053,-0.013862335123121738,0.01583002507686615,-0.0007271998911164701,0.015172538347542286
0.017486978322267532,-0.0004359961021691561,-0.014058460481464863,0.016167404130101204,-0.0006952272378839552,0.01545333955436945
0.018015963956713676,-0.00047360488679260015,-0.013903877697885036,0.016002662479877472,-0.0007062399527058005,0.016731595620512962
0.01787668839097023,-0.0004381987382657826,-0.014253905043005943,0.016188763082027435,-0.0006528416997753084,0.0158674418926239
0.017584841698408127,-0.00044945182162337005,-0.013951019383966923,0.015398439019918442,-0.0006720622768625617,0.014732991345226765
0.018281422555446625,-0.0004395527648739517,-0.013930083252489567,0.015142870135605335,-0.0005967028555460274,0.014845388941466808
0.019096067175269127,-0.0004111524613108486,-0.014328510500490665,0.014538940042257309,-0.000527519267052412,0.015814006328582764
0.018304862082004547,-0.0004345063935033977,-0.013976700603961945,0.015006154775619507,-0.0004721286823041737,0.016013018786907196
0.018326805904507637,-0.0004155450442340225,-0.014169922098517418,0.015242055058479309,-0.0005007991567254066,0.016067788004875183
0.018395310267806053,-0.0003929459198843688,-0.01414149347692728,0.016240032389760017,-0.0004674075753428042,0.015702208504080772
0.018331507220864296,-0.0003726090071722865,-0.014338516630232334,0.015606781467795372,-0.000465500692371279,0.015681665390729904
0.018934989348053932,-0.00034838670399039984,-0.013774982653558254,0.01551178190857172,-0.0004630108014680445,0.015091466717422009
0.018654849380254745,-0.00032336427830159664,-0.014250755310058594,0.014941095374524593,-0.00043323400313965976,0.015371987596154213
0.018649954348802567,-0.0003547825326677412,-0.013923143036663532,0.015304635278880596,-0.0004054707824252546,0.01546543464064598
0.018842818215489388,-0.0003391703066881746,-0.014208512380719185,0.01515651773661375,-0.0003809476038441062,0.01620510220527649
0.01868358999490738,-0.00036605788045562804,-0.014082458801567554,0.015609409660100937,-0.00035921772359870374,0.01610451191663742
0.0186309851706028,-0.00035153780481778085,-0.014370224438607693,0.015409894287586212,-0.00033983285538852215,0.015974851325154305
0.0186309851706028,-0.00035153780481778085,-0.014370224438607693,0.015409894287586212,-0.00033983285538852215,0.015974851325154305
0.019238999113440514,-0.0003749465977307409,-0.014084943570196629,0.015390162356197834,-0.0003224336833227426,0.01610006019473076
0.01898246631026268,-0.00036142219323664904,-0.014195507392287254,0.01495174877345562,-0.000306730333250016,0.01610315404832363
0.019092148169875145,-0.00045273351133801043,-0.013613885268568993,0.014484635554254055,-0.00032333785202354193,0.01635611802339554
0.01905648224055767,-0.0004185735306236893,-0.013976147398352623,0.014210471883416176,-0.00030581626924686134,0.016510963439941406
0.019003629684448242,-0.00038294732803478837,-0.013945931568741798,0.014262150041759014,-0.0002933929208666086,0.016423320397734642
0.019414635375142097,-0.00035290655796416104,-0.013233115896582603,0.01455666497349739,-0.0002819062792696059,0.016478033736348152
0.01921653188765049,-0.0003917361027561128,-0.014225724153220654,0.015384103171527386,-0.0002712831483222544,0.016525743529200554
0.0194750614464283,-0.0003660456568468362,-0.013697337359189987,0.014776939526200294,-0.0002614313270896673,0.016215460374951363
0.019576027989387512,-0.00039311530417762697,-0.01429741457104683,0.014685352332890034,-0.00025226999423466623,0.01650066487491131
0.0196534413844347,-0.0003759810933843255,-0.013755536638200283,0.01427534781396389,-0.00024372892221435905,0.016481684520840645
0.019524747505784035,-0.0003548831446096301,-0.014581220224499702,0.01509159430861473,-0.000235747589613311,0.016671298071742058
0.019786378368735313,-0.0003782398998737335,-0.01407677959650755,0.015039663761854172,-0.0002023040287895128,0.016603272408246994
0.019676754251122475,-0.00036443467251956463,-0.014544314704835415,0.015471803024411201,-0.00017074398056138307,0.016752736642956734
0.01981123350560665,-0.0003469452203717083,-0.014034919440746307,0.015264798887073994,-0.0001629957987461239,0.01690141297876835
0.02016306109726429,-0.00033099448774009943,-0.014610095880925655,0.015634119510650635,-0.00015719892689958215,0.01662656106054783
0.019955504685640335,-0.0003164462686982006,-0.01419088151305914,0.015204709023237228,-0.00015188564429990947,0.017040278762578964
0.01974310353398323,-0.0003031228552572429,-0.014806770719587803,0.015497169457376003,-0.0001469256094424054,0.016717320308089256
0.02001224458217621,-0.0002800996298901737,-0.014185085892677307,0.015370925888419151,-0.00016881662304513156,0.016694683581590652
0.01960403099656105,-0.00026255613192915916,-0.014699985273182392,0.01555689238011837,-0.00016537662304472178,0.017414474859833717
0.01963639445602894,-0.00024806513101793826,-0.014532667584717274,0.01596195623278618,-0.00016057195898611099,0.016002966091036797
0.020072059705853462,-0.00023510295432060957,-0.014799030497670174,0.015644323080778122,-0.000155941816046834,0.01632247492671013
0.020831363275647163,-0.00022342870943248272,-0.014375440776348114,0.01562812551856041,-0.00017512879276182503,0.017083289101719856
0.02022283338010311,-0.0002128589985659346,-0.014781913720071316,0.01552290003746748,-0.00017188732454087585,0.017145950347185135
0.020572364330291748,-0.00023907593276817352,-0.014198939315974712,0.016289174556732178,-0.00018514315888751298,0.01725572533905506
0.020131656900048256,-0.00023328866518568248,-0.014949241653084755,0.015573997050523758,-0.00018598607857711613,0.017507856711745262
0.019161278381943703,-0.00019081338541582227,-0.014543929137289524,0.015147125348448753,-0.00018166079826187342,0.017943328246474266
0.019161278381943703,-0.00019081338541582227,-0.014543929137289524,0.015147125348448753,-0.00018166079826187342,0.017943328246474266
0.020945321768522263,-0.00017904939886648208,-0.015037288889288902,0.014545947313308716,-0.00026655642432160676,0.01760808937251568
0.020808158442378044,-0.0001721438457025215,-0.014343512244522572,0.015393703244626522,-0.00027896251413039863,0.017740508541464806
0.02024044096469879,-0.00015990814426913857,-0.014468432404100895,0.014761160127818584,-0.00029809726402163506,0.016786029562354088
0.020766926929354668,-0.00015442051517311484,-0.01471763662993908,0.014957524836063385,-0.00032496076892130077,0.016913369297981262
0.021098200231790543,-0.0001492971059633419,-0.014964868314564228,0.015753772109746933,-0.00031445067725144327,0.017391016706824303
0.0208580382168293,-0.00014450302114710212,-0.015318870544433594,0.015793519094586372,-0.0003397570108063519,0.017955642193555832
0.020837906748056412,-0.00014000684313941747,-0.014671320095658302,0.015879109501838684,-0.00032695234403945506,0.018258336931467056
0.02076210081577301,-0.00013578226207755506,-0.014750998467206955,0.015835000202059746,-0.00047234195517376065,0.017766905948519707
0.02037831023335457,-0.00013180519454181194,-0.014795060269534588,0.01565140299499035,-0.00047454374725930393,0.018070759251713753
0.020239263772964478,-0.00012805427832063287,-0.015447797253727913,0.015264909714460373,-0.0005125952302478254,0.018213536590337753
0.020666325464844704,-0.00012451129441615194,-0.01618943177163601,0.01478696707636118,-0.00047311282833106816,0.018500052392482758
0.021443864330649376,-0.00012115886784158647,-0.015186059288680553,0.015275461599230766,-0.0004885275266133249,0.018742073327302933
0.02129005454480648,-0.00011798228661064059,-0.015335741452872753,0.015472138300538063,-0.00046869617654010653,0.018217645585536957
0.021080605685710907,-0.00011496790830278769,-0.014979950152337551,0.015724241733551025,-0.0004911895375698805,0.018027206882834435
0.020917970687150955,-0.00011210385127924383,-0.015298440121114254,0.015211617574095726,-0.00046676589408889413,0.017474740743637085
0.02103114314377308,-0.00010937906336039305,-0.014832824468612671,0.015232015401124954,-0.00043879266013391316,0.01768341101706028
0.021078307181596756,-0.0001067834091372788,-0.015477510169148445,0.014715904369950294,-0.0004565607232507318,0.017809979617595673
0.021016715094447136,-0.00010430822294438258,-0.015023271553218365,0.015637408941984177,-0.00042869444587267935,0.017977172508835793
0.021529750898480415,-0.00010194516653427854,-0.015485492534935474,0.015543960966169834,-0.0004599386593326926,0.018251407891511917
0.021309837698936462,-9.968689846573398e-05,-0.014903327450156212,0.01629776507616043,-0.0004323545435909182,0.018370207399129868
0.021669231355190277,-9.752641199156642e-05,-0.015393909066915512,0.015593430027365685,-0.00040084306965582073,0.01800025813281536
0.021669231355190277,-9.752641199156642e-05,-0.015393909066915512,0.015593430027365685,-0.00040084306965582073,0.01800025813281536
0.021512096747756004,-9.545760985929519e-05,-0.014935323968529701,0.015316641889512539,-0.0004309944633860141,0.01845940575003624
0.02150139957666397,-9.347477316623554e-05,-0.015873868018388748,0.015436776913702488,-0.0004069184069521725,0.018565107136964798
0.021647397428750992,-9.15726413950324e-05,-0.015282869338989258,0.015185956843197346,-0.0004332906100898981,0.01801486685872078
0.021967263892292976,-8.974637603387237e-05,-0.01566474698483944,0.01512477733194828,-0.00041183040593750775,0.019384903833270073
0.02187064290046692,-8.630396769149229e-05,-0.015308580361306667,0.01540591660887003,-0.00042616730206646025,0.018044110387563705
0.02197086624801159,-8.467988664051518e-05,-0.015692442655563354,0.014848900027573109,-0.000393579772207886,0.018526803702116013
0.022034725174307823,-8.311587589560077e-05,-0.01559679489582777,0.01548000704497099,-0.0004294785321690142,0.018126603215932846
0.02184598334133625,-8.160858124028891e-05,-0.015556279569864273,0.014765213243663311,-0.000401905708713457,0.018456606194376945
0.021868424490094185,-8.015489584067836e-05,-0.01526611391454935,0.01506642997264862,-0.0003743158304132521,0.018759608268737793
0.022125225514173508,-7.875217852415517e-05,-0.015007706359028816,0.014715147204697132,-0.0003929884114768356,0.01835884153842926
0.022539306432008743,-7.739775901427492e-05,-0.015195688232779503,0.015302213840186596,-0.0003825178137049079,0.01880909502506256
0.022203905507922173,-7.608906162204221e-05,-0.016407068818807602,0.014944945462048054,-0.00036144067416898906,0.018569868057966232
0.02211456559598446,-7.482391083613038e-05,-0.01554360706359148,0.015096703544259071,-0.00037788652116432786,0.018331998959183693
0.022632138803601265,-7.360015297308564e-05,-0.015591051429510117,0.014600642956793308,-0.0003697641659528017,0.01874828338623047
0.02301805652678013,-7.241575804073364e-05,-0.015488159842789173,0.015225643292069435,-0.0003523996565490961,0.019037896767258644
0.02251480519771576,-7.126888522179797e-05,-0.01589653454720974,0.015560099855065346,-0.00036556291161105037,0.019009051844477654
0.022082151845097542,-7.015780283836648e-05,-0.015800977125763893,0.015986423939466476,-0.0003990798140875995,0.019111482426524162
0.02286921814084053,-6.908075010869652e-05,-0.015875060111284256,0.015581735409796238,-0.00038705728366039693,0.019107569009065628
0.023350492119789124,-6.803638098062947e-05,-0.016007808968424797,0.014755822718143463,-0.00041831962880678475,0.019349317997694016
0.023044385015964508,-6.70230365358293e-05,-0.015547124668955803,0.01472189836204052,-0.000423278019297868,0.019414104521274567
0.022787660360336304,-6.603948713745922e-05,-0.016103481873869896,0.015104010701179504,-0.0004239230474922806,0.019179819151759148
0.022323034703731537,-6.508435035357252e-05,-0.015585821121931076,0.015491367317736149,-0.00040322408312931657,0.019517559558153152
0.023109884932637215,-6.415644020307809e-05,-0.015945296734571457,0.015027978457510471,-0.0005844066618010402,0.020061291754245758
0.0236298069357872,-6.325465074041858e-05,-0.015433292835950851,0.015078545548021793,-0.0006221355870366096,0.019582662731409073
0.023528844118118286,-6.237783964024857e-05,-0.016453979536890984,0.014997236430644989,-0.0005697845481336117,0.019101480022072792
0.023528844118118286,-6.237783964024857e-05,-0.016453979536890984,0.014997236430644989,-0.0005697845481336117,0.019101480022072792
0.02328171208500862,-6.15250100963749e-05,-0.01594236120581627,0.01537898276001215,-0.0005901886033825576,0.01842973567545414
0.02328730747103691,-6.069518713047728e-05,-0.015857411548495293,0.014888012781739235,-0.0005488403839990497,0.018472587689757347
0.022593898698687553,-5.9887461247853935e-05,-0.016041100025177002,0.015043570660054684,-0.000505431613419205,0.01881285384297371
0.023340042680501938,-4.7751345846336335e-05,-0.015784703195095062,0.01471185963600874,-0.0005300325574353337,0.019386373460292816
0.023523598909378052,-4.6070723328739405e-05,-0.015608280897140503,0.015374046750366688,-0.00046553197898902,0.019409406930208206
0.023157987743616104,-4.5488530304282904e-05,-0.016295453533530235,0.015681592747569084,-0.0004456799360923469,0.019522473216056824
0.0235870610922575,-4.492091102292761e-05,-0.015672391280531883,0.01561466883867979,-0.00041402396163903177,0.019510194659233093
0.024655727669596672,-3.343466596561484e-05,-0.01592080481350422,0.015733160078525543,-0.00041638987022452056,0.0199457835406065
0.02397555112838745,2.6204430469078943e-05,-0.01591368392109871,0.01593540981411934,-0.00041761129978112876,0.01986023224890232
0.023943884298205376,3.9390535675920546e-05,-0.016280367970466614,0.01592978835105896,-0.00044574617641046643,0.01952364481985569
0.02351420558989048,3.934289634344168e-05,-0.01617380976676941,0.015985187143087387,-0.00042355997720733285,0.018852848559617996
0.023227684199810028,2.6032501409645192e-05,-0.015983758494257927,0.015448296442627907,-0.00045015287469141185,0.019526736810803413
0.023371128365397453,2.5492827262496576e-05,-0.016210319474339485,0.015938183292746544,-0.0005177840939722955,0.019116055220365524
0.02424546517431736,2.5134553652605973e-05,-0.015618876554071903,0.015721017494797707,-0.0005432288162410259,0.018736431375145912
0.02458759769797325,3.668888166430406e-05,-0.01629655435681343,0.016308631747961044,-0.0004898243932984769,0.019860489293932915
0.024231428280472755,3.6670866393251345e-05,-0.01574234664440155,0.0160555150359869,-0.00044201809214428067,0.020293720066547394
0.02370625175535679,3.61858619726263e-05,-0.016350986436009407,0.01610580086708069,-0.00040245926356874406,0.020099937915802002
0.024059763178229332,3.5707409551832825e-05,-0.01615278236567974,0.016231760382652283,-0.0003693900362122804,0.020151130855083466
0.024264736101031303,3.524135172483511e-05,-0.015952304005622864,0.016320563852787018,-0.00040026078931987286,0.02022285759449005
0.024050209671258926,4.2423660488566384e-05,-0.015838205814361572,0.0165804922580719,-0.00038010309799574316,0.02000301145017147
0.024030113592743874,4.5739947381662205e-05,-0.015832901000976562,0.01608097180724144,-0.0003555844887159765,0.020328892394900322
0.02461453713476658,4.521719165495597e-05,-0.016585033386945724,0.016515761613845825,-0.00036068924237042665,0.020375430583953857
0.024209419265389442,4.465698293643072e-05,-0.01620718277990818,0.015457328408956528,-0.00036472108331508934,0.02036762423813343
0.024122467264533043,4.410983819980174e-05,-0.016901250928640366,0.01597905158996582,-0.00034629879519343376,0.020186400040984154
0.024122467264533043,4.410983819980174e-05,-0.016901250928640366,0.01597905158996582,-0.00034629879519343376,0.020186400040984154
0.02448202855885029,5.381648588809185e-05,-0.016406070441007614,0.016172416508197784,-0.00035068741999566555,0.02082272246479988
0.02466416545212269,5.318241528584622e-05,-0.01626558043062687,0.01615140773355961,-0.0003396415850147605,0.020709021016955376
0.02455776557326317,0.00016614096239209175,-0.01619439572095871,0.01575358211994171,-0.00030093255918473005,0.02099386230111122
0.02335362881422043,0.0002145202161045745,-0.01644277013838291,0.015506473369896412,-0.000308411632431671,0.021032502874732018
0.02335362881422043,0.0002145202161045745,-0.01644277013838291,0.015506473369896412,-0.000308411632431671,0.021032502874732018
0.024750709533691406,0.00020548098837025464,-0.01609564945101738,0.015280340798199177,-0.00031548977131024003,0.0210411436855793
0.025051362812519073,0.00021299754735082388,-0.016556957736611366,0.016018174588680267,-0.0003296255599707365,0.021391386166214943
0.025070860981941223,0.00021670330897904932,-0.01661282405257225,0.01663435995578766,-0.000356933189323172,0.02100508287549019
0.025247368961572647,0.00020850053988397121,-0.01687525399029255,0.01646033301949501,-0.0007024336373433471,0.021304721012711525
0.024905789643526077,0.00020075100474059582,-0.01671888865530491,0.01665390096604824,-0.0006903617177158594,0.02133607119321823
0.02560715191066265,0.00022200906823854893,-0.017380086705088615,0.016659030690789223,-0.000704836449585855,0.02122359722852707
0.026687094941735268,0.00021794908388983458,-0.016473645344376564,0.016193849965929985,-0.0007122961687855422,0.02128482051193714
0.02577356807887554,0.00023047633294481784,-0.01667155511677265,0.01630406081676483,-0.0006677188794128597,0.021411513909697533
0.02609522081911564,0.0002328777773072943,-0.016854479908943176,0.015684830024838448,-0.0006856444524601102,0.021454816684126854
0.024395685642957687,0.00035213876981288195,-0.01727946475148201,0.015957754105329514,-0.0006585402879863977,0.021651895716786385
0.02554202266037464,0.00034181177034042776,-0.017065001651644707,0.01516629196703434,-0.000685644568875432,0.02182082086801529
0.026125194504857063,0.0003805403539445251,-0.016626549884676933,0.01512701716274023,-0.0006147815729491413,0.021381748840212822
0.025980817154049873,0.00035627547185868025,-0.016991589218378067,0.015498519875109196,-0.0006314482307061553,0.021594783291220665
0.026238415390253067,0.00038913910975679755,-0.01695285737514496,0.01626482978463173,-0.0005836586351506412,0.02172594703733921
0.02678247168660164,0.0003671941813081503,-0.017287256196141243,0.01708397828042507,-0.0006057218997739255,0.021734289824962616
0.026855798438191414,0.00037943493225611746,-0.017386915162205696,0.01679113321006298,-0.000567155540920794,0.021894974634051323
0.027197659015655518,0.00037561386125162244,-0.016980335116386414,0.01671808771789074,-0.0006047195056453347,0.021924901753664017
0.026341678574681282,0.00046576361637562513,-0.01708822511136532,0.01610693335533142,-0.0005895649665035307,0.022216366603970528
0.026068275794386864,0.0004708448250312358,-0.016387436538934708,0.016011830419301987,-0.000617156911175698,0.022473173215985298
0.02667214535176754,0.0005110008642077446,-0.017232906073331833,0.01570579968392849,-0.0006370097980834544,0.022177862003445625
0.026948101818561554,0.0005186970811337233,-0.01741386204957962,0.016147738322615623,-0.0007371127721853554,0.021854795515537262
0.026601038873195648,0.000501951901242137,-0.01688641682267189,0.01624525897204876,-0.0008589550270698965,0.02189086377620697
0.02703137695789337,0.0004652073257602751,-0.01763896830379963,0.016448119655251503,-0.0007771026575937867,0.022116901353001595
0.026911456137895584,0.000494210806209594,-0.016734646633267403,0.016622358933091164,-0.0007641779957339168,0.021899690851569176
0.02687150239944458,0.0005629884544759989,-0.017014535143971443,0.016107039526104927,-0.0007775793201290071,0.022214652970433235
0.02687150239944458,0.0005629884544759989,-0.017014535143971443,0.016107039526104927,-0.0007775793201290071,0.022214652970433235
0.026995684951543808,0.000615855969954282,-0.017454510554671288,0.016519559547305107,-0.0007235683733597398,0.02302730642259121
0.0274397861212492,0.0005835562478750944,-0.0173354335129261,0.01645166613161564,-0.0007032331777736545,0.023423276841640472
0.028131509199738503,0.000560134241823107,-0.016856832429766655,0.017169468104839325,-0.0006449057254940271,0.021609561517834663
0.027640068903565407,0.0005868413136340678,-0.01741253025829792,0.016303356736898422,-0.0005874991766177118,0.02208193764090538
0.02800810895860195,0.000716300739441067,-0.017387287691235542,0.016130950301885605,-0.0006066342466510832,0.023385699838399887
0.02803560346364975,0.0007344254991039634,-0.017150303348898888,0.015519159846007824,-0.0006016495754010975,0.02319270372390747
0.02824479714035988,0.0007545595872215927,-0.017295021563768387,0.015776725485920906,-0.0005894030327908695,0.02286139503121376
0.028272265568375587,0.000748137419577688,-0.01672179438173771,0.015020135790109634,-0.0006718977820128202,0.023244233801960945
0.028332047164440155,0.0007150379242375493,-0.017467493191361427,0.015643656253814697,-0.0006501132738776505,0.024332409724593163
0.02856270596385002,0.0009264043183065951,-0.017284896224737167,0.016381310299038887,-0.0006546686636283994,0.023613622412085533
0.028040438890457153,0.0009249832946807146,-0.016685813665390015,0.01665564812719822,-0.0006552611594088376,0.022481873631477356
0.028442401438951492,0.0009311873582191765,-0.01754077896475792,0.016696132719516754,-0.000639003177639097,0.02199607342481613
0.02904076687991619,0.0010626402217894793,-0.016932005062699318,0.016400780528783798,-0.0008347147959284484,0.022763412445783615
0.02887929230928421,0.0011748799588531256,-0.01728004962205887,0.016224397346377373,-0.000791517726611346,0.023751206696033478
0.028900764882564545,0.0011656848946586251,-0.01713513769209385,0.015986045822501183,-0.0008018687949515879,0.024173462763428688
0.02864857390522957,0.0011786968680098653,-0.01698645018041134,0.016556262969970703,-0.0007177160587161779,0.0239024106413126
0.029304444789886475,0.0011892413021996617,-0.017411168664693832,0.01647118479013443,-0.0006446351762861013,0.023874443024396896
0.029411712661385536,0.001247429521754384,-0.016712145879864693,0.01683555543422699,-0.0006566833471879363,0.02362106740474701
0.029490021988749504,0.001275044516660273,-0.017441023141145706,0.016608430072665215,-0.0006107092485763133,0.023540770635008812
0.02977238968014717,0.0014493740163743496,-0.017012091353535652,0.016404852271080017,-0.0005648215301334858,0.02382414974272251
0.029785869643092155,0.0014077589148655534,-0.017313428223133087,0.01682417280972004,-0.0005103293806314468,0.023850010707974434
0.029830479994416237,0.0017734336433932185,-0.017336862161755562,0.01636219024658203,-0.0005030011525377631,0.02422599121928215
0.03030330315232277,0.0016671970952302217,-0.016830917447805405,0.016691038385033607,-0.0004965364933013916,0.024213412776589394
0.03107644058763981,0.0017277279403060675,-0.017326736822724342,0.01675271801650524,-0.000522785703651607,0.024261474609375
0.03096606954932213,0.001726287417113781,-0.017164183780550957,0.017180562019348145,-0.0005517320241779089,0.024309832602739334
0.028346793726086617,0.0017913050251081586,-0.017506510019302368,0.017281347885727882,-0.0007336785783991218,0.0242763701826334
0.029830852523446083,0.0018000706331804395,-0.017530694603919983,0.016657941043376923,-0.0007829414680600166,0.024158576503396034
0.030960464850068092,0.0019787673372775316,-0.016765452921390533,0.016732744872570038,-0.0007916901377029717,0.024260327219963074
0.030122751370072365,0.0019416676368564367,-0.017111293971538544,0.016726642847061157,-0.0007156720967032015,0.02440149150788784
0.030122751370072365,0.0019416676368564367,-0.017111293971538544,0.016726642847061157,-0.0007156720967032015,0.02440149150788784
0.03041575662791729,0.0022425465285778046,-0.017010288313031197,0.016785137355327606,-0.0007286245818249881,0.02447277307510376
0.030938731506466866,0.0023799326736479998,-0.01847253553569317,0.01678266003727913,-0.0006726421997882426,0.02434905245900154
0.030131375417113304,0.002313847653567791,-0.01754036732017994,0.01726214960217476,-0.000595642370171845,0.024197187274694443
0.030164171010255814,0.002242362592369318,-0.018422624096274376,0.016087008640170097,-0.0006169977132230997,0.024387722834944725
0.03175748884677887,0.0024134700652211905,-0.018609311431646347,0.016354192048311234,-0.000564681482501328,0.023887529969215393
0.031201230362057686,0.0023258121218532324,-0.017481310293078423,0.016492869704961777,-0.0005118857370689511,0.024162204936146736
0.031678687781095505,0.002473499160259962,-0.018172115087509155,0.0165873896330595,-0.0005347231635823846,0.02493559941649437
0.0316036231815815,0.002697419375181198,-0.01844191364943981,0.0168694369494915,-0.0005012833280488849,0.0251790601760149
0.031264010816812515,0.002846991177648306,-0.018616164103150368,0.016693860292434692,-0.0005265992367640138,0.024692630395293236
0.031377386301755905,0.0027006089221686125,-0.01854672282934189,0.016911601647734642,-0.0005624823388643563,0.0240235086530447
0.031344588845968246,0.0029471339657902718,-0.017853517085313797,0.016578637063503265,-0.0005541564896702766,0.023734673857688904
0.03082967922091484,0.0029750424437224865,-0.018795814365148544,0.016969218850135803,-0.0005836926866322756,0.024691592901945114
0.030495615676045418,0.002961882157251239,-0.01903688535094261,0.016766229644417763,-0.0006105868378654122,0.0252938624471426
0.030722377821803093,0.002858879044651985,-0.018096288666129112,0.016763869673013687,-0.0010004531359300017,0.02510530687868595
0.030898695811629295,0.0029136338271200657,-0.018439210951328278,0.016850408166646957,-0.0010310205398127437,0.025168081745505333
0.0307986568659544,0.0029570425394922495,-0.018850235268473625,0.016363102942705154,-0.0009497168939560652,0.025545090436935425
0.0314793586730957,0.00292234611697495,-0.017974773421883583,0.017017986625432968,-0.0009308293811045587,0.025702275335788727
0.03136192634701729,0.0031947835814207792,-0.018317027017474174,0.016336385160684586,-0.00083651312161237,0.025523103773593903
0.03154145926237106,0.0032063641119748354,-0.018507201224565506,0.016200760379433632,-0.0007752375095151365,0.02473945915699005
0.030674654990434647,0.0032468356657773256,-0.01827363483607769,0.016370870172977448,-0.0007375959539785981,0.02481614053249359
0.03202810883522034,0.003319618757814169,-0.019167091697454453,0.01668299362063408,-0.000699165160767734,0.025776825845241547
0.03277803957462311,0.0033437826205044985,-0.018839988857507706,0.017867447808384895,-0.0006978362798690796,0.02606194093823433
0.03277803957462311,0.0033437826205044985,-0.018839988857507706,0.017867447808384895,-0.0006978362798690796,0.02606194093823433
0.03178850933909416,0.0035808889660984278,-0.018560519441962242,0.018006812781095505,-0.0006492334650829434,0.026026515290141106
0.030588621273636818,0.003975610248744488,-0.01867915317416191,0.01845131814479828,-0.0006710306624881923,0.02563568577170372
0.031227432191371918,0.003869549371302128,-0.018497508019208908,0.01830565743148327,-0.000800107722170651,0.02568403258919716
0.032355260103940964,0.0035336031578481197,-0.018762629479169846,0.01772870123386383,-0.0008943244465626776,0.025844894349575043
0.032771628350019455,0.004079373553395271,-0.01829797588288784,0.01790577732026577,-0.001323021831922233,0.02591858245432377
0.03274938464164734,0.004062366206198931,-0.018870310857892036,0.017684344202280045,-0.00111682980787009,0.025644728913903236
0.03262130916118622,0.004311447497457266,-0.018996749073266983,0.017739785835146904,-0.0010601826943457127,0.02597298100590706
0.03185853362083435,0.004180689342319965,-0.018233023583889008,0.016959305852651596,-0.0009224321693181992,0.025788724422454834
0.03203767538070679,0.004496555309742689,-0.01880798302590847,0.01720431074500084,-0.0008053660276345909,0.026243053376674652
0.03255636245012283,0.004591197241097689,-0.01903465762734413,0.017141859978437424,-0.0007883260259404778,0.026237867772579193
0.03273504599928856,0.004212677478790283,-0.018353674560785294,0.017055151984095573,-0.0007309698848985136,0.026574768126010895
0.032712746411561966,0.004329672083258629,-0.018782218918204308,0.017098065465688705,-0.0006648809649050236,0.02535759098827839
0.03282541409134865,0.004520873539149761,-0.018634604290127754,0.016840646043419838,-0.0006087061483412981,0.025425123050808907
0.03247801586985588,0.005024689715355635,-0.018642205744981766,0.017077457159757614,-0.0004772246757056564,0.026175815612077713
0.032813914120197296,0.004883693065494299,-0.018888846039772034,0.01711423322558403,-0.00040892636752687395,0.026377243921160698
0.03294826298952103,0.004924870561808348,-0.01828177645802498,0.017372341826558113,-0.0004280641151126474,0.026658672839403152
0.03261462599039078,0.004840965382754803,-0.018283050507307053,0.017516130581498146,-0.00041222202708013356,0.026460636407136917
0.032797809690237045,0.0047952705062925816,-0.018994206562638283,0.01696731708943844,-0.00038399422192014754,0.026215452700853348
0.0332857221364975,0.004730694927275181,-0.018449323251843452,0.01734331250190735,-0.0004141337994951755,0.026294369250535965
0.033959995955228806,0.00522261206060648,-0.018577491864562035,0.016769040375947952,-0.00039198482409119606,0.026463087648153305
0.03196968510746956,0.005062965676188469,-0.018899425864219666,0.01656082086265087,-0.0003949209058191627,0.026641737669706345
0.03399699926376343,0.00478966673836112,-0.0182924997061491,0.016278600320219994,-0.0003968634409829974,0.026616087183356285
0.03354327008128166,0.004965454805642366,-0.018663965165615082,0.01623554341495037,-0.0004501489456743002,0.026598570868372917
0.033026330173015594,0.005305841565132141,-0.019074831157922745,0.01703367568552494,-0.00047372584231197834,0.02626190520823002
0.03343108296394348,0.004826176445931196,-0.018673889338970184,0.017238302156329155,-0.00047175210784189403,0.026197347790002823
0.03392307087779045,0.005051946267485619,-0.018917342647910118,0.01749243773519993,-0.0004989346489310265,0.026453083381056786
0.033689193427562714,0.005475751124322414,-0.01940959133207798,0.017750639468431473,-0.0005029911990277469,0.026596754789352417
0.033689193427562714,0.005475751124322414,-0.01940959133207798,0.017750639468431473,-0.0005029911990277469,0.026596754789352417
0.033976294100284576,0.005105647258460522,-0.018646571785211563,0.017622247338294983,-0.0004985468694940209,0.02680092118680477
0.033725470304489136,0.005216115619987249,-0.019030826166272163,0.018087346106767654,-0.0006611310527659953,0.02728581242263317
0.033768489956855774,0.005076858680695295,-0.019062163308262825,0.01791863888502121,-0.0006908805225975811,0.027510670945048332
0.03436659649014473,0.005377054214477539,-0.019017469137907028,0.017875751480460167,-0.0006379060796461999,0.026609543710947037
0.034410055726766586,0.005551538895815611,-0.020157163962721825,0.017479700967669487,-0.0006661867955699563,0.026889106258749962
0.034023161977529526,0.005583558231592178,-0.019374776631593704,0.0177895650267601,-0.0006324160494841635,0.02756325528025627
0.034263305366039276,0.005164705216884613,-0.019511308521032333,0.01711539551615715,-0.0006779575487598777,0.0272681787610054
0.0353875607252121,0.005488812457770109,-0.01933242380619049,0.016999656334519386,-0.0006995665025897324,0.027532346546649933
0.0364360585808754,0.005367324687540531,-0.018639972433447838,0.017421914264559746,-0.0007225721492432058,0.02864106371998787
0.034060243517160416,0.0063455174677073956,-0.019528180360794067,0.016572648659348488,-0.00074117595795542,0.027794629335403442
0.033686697483062744,0.006081214174628258,-0.02026810124516487,0.01660580188035965,-0.0006827026954852045,0.02601088583469391
0.03524847701191902,0.005662594921886921,-0.019848037511110306,0.016434604302048683,-0.0006860679131932557,0.027099594473838806
0.035418421030044556,0.0053688227199018,-0.01924140751361847,0.017189616337418556,-0.0006476803682744503,0.027846379205584526
0.03606207296252251,0.005900819785892963,-0.019837025552988052,0.017529048025608063,-0.0006749724270775914,0.027979128062725067
0.03516964241862297,0.006405561231076717,-0.020021235570311546,0.017394185066223145,-0.000693096371833235,0.027527526021003723
0.03459787741303444,0.0059119537472724915,-0.020466398447752,0.017495105043053627,-0.0007017806638032198,0.027279995381832123
0.03450659662485123,0.005727688781917095,-0.019805334508419037,0.016848646104335785,-0.0006611176067963243,0.027831288054585457
0.03584945201873779,0.0057300059124827385,-0.019478509202599525,0.016834402456879616,-0.0007135922787711024,0.027820885181427002
0.03606067970395088,0.006088265683501959,-0.01927640102803707,0.017120469361543655,-0.0007154978229664266,0.027951793745160103
0.03558127582073212,0.006563924718648195,-0.02033168263733387,0.016866447404026985,-0.0006565950461663306,0.0278606079518795
0.03657304123044014,0.00615497725084424,-0.02011203207075596,0.01727209985256195,-0.0006776380469091237,0.02790002152323723
0.03657112643122673,0.006256976164877415,-0.019698956981301308,0.017148327082395554,-0.000617216806858778,0.028055809438228607
0.03587658703327179,0.006193107459694147,-0.020608874037861824,0.01762469857931137,-0.0006370328483171761,0.028064241632819176
0.03652985021471977,0.006422600708901882,-0.02048935741186142,0.017691556364297867,-0.0006198376067914069,0.028440067544579506
0.036140937358140945,0.006622372195124626,-0.019978180527687073,0.017550939694046974,-0.0006288006552495062,0.028297368437051773
0.03644804283976555,0.006280654575675726,-0.020255254581570625,0.018360121175646782,-0.0006834173691459,0.028429925441741943
0.03644804283976555,0.006280654575675726,-0.020255254581570625,0.018360121175646782,-0.0006834173691459,0.028429925441741943
0.036177653819322586,0.00634232722222805,-0.020486634224653244,0.018128713592886925,-0.0012122525367885828,0.028601042926311493
0.036177653819322586,0.00634232722222805,-0.020486634224653244,0.018128713592886925,-0.0012122525367885828,0.028601042926311493
0.03607964143157005,0.006249976810067892,-0.020470600575208664,0.017975641414523125,-0.0010324092581868172,0.02908940613269806
0.037435900419950485,0.0062118335627019405,-0.02072303555905819,0.018003100529313087,-0.0010052798315882683,0.028759371489286423
0.03679603338241577,0.006273975595831871,-0.02032611332833767,0.018567202612757683,-0.0008920778054744005,0.028717149049043655
0.03579302504658699,0.006262310780584812,-0.02054768241941929,0.018166912719607353,-0.0007770317606627941,0.028484245762228966
0.0373934842646122,0.006751663517206907,-0.02098994515836239,0.01803487353026867,-0.0007780939340591431,0.02896321937441826
0.036903876811265945,0.006226432975381613,-0.02089899219572544,0.01692921854555607,-0.0007775880512781441,0.030121387913823128
0.03734081611037254,0.004010982345789671,-0.020606838166713715,0.016762616112828255,-0.0007157670916058123,0.029729310423135757
0.037834398448467255,0.0027974825352430344,-0.021000782027840614,0.0174651388078928,-0.0006442194571718574,0.02878984436392784
0.03745768964290619,0.0028107159305363894,-0.020880576223134995,0.017601611092686653,-0.0006456024711951613,0.02826406992971897
0.035735808312892914,0.004745880141854286,-0.02047215774655342,0.01828658953309059,-0.0006097570876590908,0.02913234569132328
0.03763028606772423,0.005053149536252022,-0.02061632089316845,0.01826339401304722,-0.0005670766695402563,0.029191115871071815
0.037994857877492905,0.004496258683502674,-0.021131835877895355,0.017714183777570724,-0.000560185348149389,0.029303088784217834
0.03708025813102722,0.004081503953784704,-0.021281544119119644,0.018564967438578606,-0.0005478132516145706,0.030200010165572166
0.03793029114603996,0.003908452577888966,-0.02061997726559639,0.018306434154510498,-0.000577326980419457,0.030229734256863594
0.03765327110886574,0.00387376407161355,-0.020772917196154594,0.01858493871986866,-0.0005993887898512185,0.02961251698434353
0.03769966959953308,0.003811085829511285,-0.021028369665145874,0.01858406886458397,-0.0007888326072134078,0.029463395476341248
0.03826180845499039,0.0037480953615158796,-0.02126489207148552,0.017525848001241684,-0.0008451312314718962,0.02906200848519802
0.038079190999269485,0.0037378810811787844,-0.020782213658094406,0.017445527017116547,-0.0008237487054429948,0.030594103038311005
0.03824671730399132,0.0037666447460651398,-0.021073780953884125,0.016388867050409317,-0.0007779414299875498,0.03087572380900383
0.03819017484784126,0.003831836162135005,-0.02132151648402214,0.016435127705335617,-0.000743305601645261,0.02978808991611004
0.03819917514920235,0.004211091902107,-0.02092406526207924,0.01686648651957512,-0.0007126798736862838,0.029959164559841156
0.037824880331754684,0.003665114985778928,-0.02109937183558941,0.016581157222390175,-0.0006779738469049335,0.029616886749863625
0.03857224062085152,0.0034295814111828804,-0.021338853985071182,0.017195168882608414,-0.0006744967540726066,0.029675621539354324
0.03857224062085152,0.0034295814111828804,-0.021338853985071182,0.017195168882608414,-0.0006744967540726066,0.029675621539354324
0.03805851191282272,0.0036413497291505337,-0.0211425069719553,0.017806291580200195,-0.0007453265716321766,0.030800167471170425
0.03805851191282272,0.0036413497291505337,-0.0211425069719553,0.017806291580200195,-0.0007453265716321766,0.030800167471170425
0.039254676550626755,0.00374911748804152,-0.021529315039515495,0.018066290766000748,-0.0009661128278821707,0.031025612726807594
0.03895777091383934,0.0038265828043222427,-0.02167367935180664,0.016869891434907913,-0.0010237648384645581,0.031233489513397217
0.03869637846946716,0.004277682397514582,-0.022288933396339417,0.01842578500509262,-0.001008143532089889,0.031162463128566742
0.038711585104465485,0.004028951283544302,-0.021518642082810402,0.01887008734047413,-0.0009450746583752334,0.03048584796488285
0.039231330156326294,0.004225885961204767,-0.0216495580971241,0.018117893487215042,-0.0008138503762893379,0.031090278178453445
0.039286814630031586,0.004297137260437012,-0.021534312516450882,0.017770593985915184,-0.0007167820003814995,0.031096387654542923
0.038880396634340286,0.0045402683317661285,-0.021156523376703262,0.017883295193314552,-0.0007260446436703205,0.03115704283118248
0.03860652074217796,0.004512594547122717,-0.0224986020475626,0.018453463912010193,-0.0007047368562780321,0.03087112307548523
0.039095114916563034,0.005199374631047249,-0.020884711295366287,0.018122078850865364,-0.0006764288409613073,0.031230134889483452
0.040435776114463806,0.005064475815743208,-0.021540088579058647,0.01794244349002838,-0.0006949320086278021,0.03146406635642052
0.039619024842977524,0.004616530612111092,-0.021828705444931984,0.01817874237895012,-0.0007243641884997487,0.031607840210199356
0.03815140202641487,0.0050351484678685665,-0.022331148386001587,0.018310461193323135,-0.0007564008119516075,0.0301659032702446
0.03889868035912514,0.005392699036747217,-0.02132933773100376,0.018642770126461983,-0.0007746817427687347,0.03158698230981827
0.03901368007063866,0.0050796461291611195,-0.022049766033887863,0.01839859038591385,-0.0007818070007488132,0.0317721851170063
0.04053901880979538,0.005406518466770649,-0.02163843996822834,0.017646223306655884,-0.0008976919343695045,0.03177262842655182
0.040426257997751236,0.005129098892211914,-0.020618783310055733,0.01738961599767208,-0.0009519839659333229,0.032581545412540436
0.038637761026620865,0.0059479051269590855,-0.021114179864525795,0.01679452322423458,-0.0009474823600612581,0.03178562968969345
0.03838105872273445,0.0053459047339856625,-0.02202058956027031,0.01747291535139084,-0.0009412973304279149,0.030839690938591957
0.03992820158600807,0.004865087103098631,-0.02096937969326973,0.018079044297337532,-0.0009570229449309409,0.030572060495615005
0.0402098074555397,0.0055138119496405125,-0.02116583287715912,0.01817902736365795,-0.0009480452863499522,0.031722042709589005
0.039247505366802216,0.005827225279062986,-0.021545739844441414,0.018211375921964645,-0.0009057623683474958,0.031488265842199326
0.039996374398469925,0.005595962051302195,-0.02201526053249836,0.017977429553866386,-0.0008448877488262951,0.03232109546661377
0.03963936120271683,0.005158501677215099,-0.021811146289110184,0.01801018975675106,-0.0008262249175459146,0.03321841359138489
0.0400208905339241,0.005715908017009497,-0.021748894825577736,0.01865515112876892,-0.0007937391055747867,0.03277380019426346
0.03947807475924492,0.005386464297771454,-0.021812807768583298,0.01856011152267456,-0.0008095994126051664,0.031140130013227463
0.03961186856031418,0.005926275160163641,-0.02240348607301712,0.018460087478160858,-0.0008963747532106936,0.030729161575436592
0.03923529386520386,0.005471861455589533,-0.02175825834274292,0.018544098362326622,-0.0011102138087153435,0.032140348106622696
0.0395558699965477,0.005761526525020599,-0.02143687754869461,0.017739564180374146,-0.0013858857564628124,0.032373521476984024
0.040563639253377914,0.005323457065969706,-0.021836411207914352,0.018131915479898453,-0.0013566244160756469,0.03197958320379257
0.040563639253377914,0.005323457065969706,-0.021836411207914352,0.018131915479898453,-0.0013566244160756469,0.03197958320379257
0.04005400091409683,0.005963162984699011,-0.02216889150440693,0.018137942999601364,-0.0012774571077898145,0.03188763186335564
0.03874336928129196,0.005813307594507933,-0.021389342844486237,0.017901776358485222,-0.001175027689896524,0.032029859721660614
0.0396411269903183,0.005979090463370085,-0.02200780063867569,0.018291447311639786,-0.0010003920178860426,0.03257855027914047
0.040906116366386414,0.005876863840967417,-0.022159336134791374,0.018102580681443214,-0.0009688379359431565,0.03245348110795021
0.04046111926436424,0.006102185230702162,-0.02198544144630432,0.018306372687220573,-0.0008851428283378482,0.03191688284277916
0.03841226547956467,0.006455283146351576,-0.021494358777999878,0.017946874722838402,-0.0007274647941812873,0.03163519501686096
0.03968130424618721,0.006534205749630928,-0.0214983019977808,0.018148507922887802,-0.0007320598233491182,0.03236829489469528
0.04109204560518265,0.006468305364251137,-0.021894041448831558,0.018357576802372932,-0.0007512709125876427,0.03290644660592079
0.04073077440261841,0.006383376661688089,-0.021929986774921417,0.018146313726902008,-0.0007673590444028378,0.032562170177698135
0.04031218960881233,0.00619439035654068,-0.02151898667216301,0.018405834212899208,-0.0008028994780033827,0.033766161650419235
0.040522657334804535,0.006649218965321779,-0.021720658987760544,0.018427662551403046,-0.0008353453013114631,0.03339993208646774
0.04058331623673439,0.006706915330141783,-0.021991021931171417,0.018514079973101616,-0.0007835303549654782,0.033285487443208694
0.04152518883347511,0.006435765884816647,-0.022078849375247955,0.018787257373332977,-0.0007942190277390182,0.03312375396490097
0.04092834144830704,0.006351545453071594,-0.02140643820166588,0.018519045785069466,-0.0008058471139520407,0.033396318554878235
0.04114663228392601,0.006772054359316826,-0.021652059629559517,0.018509650602936745,-0.0008405348053202033,0.03293851017951965
0.04097060114145279,0.006852923426777124,-0.021956585347652435,0.01907031424343586,-0.000966336636338383,0.03310282528400421
