davideferrari95/blind_handover_controller/data/Test 184 - [2024-02-08 -- 11-25-01]/joint_states_data.csv
shoulder_pan_joint,shoulder_lift_joint,elbow_joint,wrist_1_joint,wrist_2_joint,wrist_3_joint
0.0030505561735481024,-0.008973590098321438,-0.02586911991238594,0.03587467968463898,-0.0,0.003701054258272052
0.0030505561735481024,-0.008973590098321438,-0.02586911991238594,0.03587467968463898,-0.0,0.003701054258272052
0.0034093328285962343,-0.009457413107156754,-0.025880228728055954,0.03620825335383415,-0.0,0.0033666526433080435
0.003478738246485591,-0.00951954536139965,-0.025133732706308365,0.036263857036828995,-0.0,0.003524318803101778
0.0032454505562782288,-0.009732885286211967,-0.025180242955684662,0.035804640501737595,-3.556476940502762e-06,0.0036789774894714355
0.0032758896704763174,-0.009420691058039665,-0.02568046562373638,0.03542651608586311,-2.322125283171772e-07,0.0032997517846524715
0.0031532521825283766,-0.009608899243175983,-0.02552436850965023,0.03494179993867874,-1.516181846739073e-08,0.003280350472778082
0.0035318266600370407,-0.009304827079176903,-0.025413280352950096,0.03490707278251648,-9.899583375272414e-10,0.003304047044366598
0.0033864080905914307,-0.0102198151871562,-0.025341760367155075,0.03542039543390274,-4.220348029382315e-12,0.003711435943841934
0.003425688948482275,-0.008937954902648926,-0.02536690980195999,0.036004357039928436,-2.755585744394079e-13,0.0036995750851929188
0.003420035820454359,-0.00983099639415741,-0.025810658931732178,0.03543749824166298,-1.799200640361341e-14,0.003650749335065484
0.0031628687866032124,-0.00947208609431982,-0.02577274665236473,0.035048067569732666,-1.1747494651513971e-15,0.0032786650117486715
0.0035512603353708982,-0.009376288391649723,-0.02619834616780281,0.0346023254096508,-7.670274428381305e-17,0.003056193236261606
0.003320211311802268,-0.00945128221064806,-0.025684382766485214,0.03569314628839493,-5.008141030464542e-18,0.003021716373041272
0.0034775990061461926,-0.009634260088205338,-0.025010284036397934,0.03542549908161163,-3.2699581817684616e-19,0.0030937325209379196
0.0031842105090618134,-0.009198174811899662,-0.02520700730383396,0.03377978131175041,-2.1350489653164043e-20,0.0033358880318701267
0.0031842105090618134,-0.009198174811899662,-0.02520700730383396,0.03377978131175041,-2.1350489653164043e-20,0.0033358880318701267
0.0031468833331018686,-0.009208251722157001,-0.02543049305677414,0.033341534435749054,-1.3940345010540289e-21,0.0034081703051924706
0.003263968275859952,-0.01016781385987997,-0.025329701602458954,0.0340106226503849,-9.102050042750459e-23,0.0035629391204565763
0.003159468062222004,-0.009220771491527557,-0.025192078202962875,0.033696845173835754,-5.942988153552434e-24,0.003686266951262951
0.0035337128210812807,-0.009531449526548386,-0.025052929297089577,0.034557443112134933,-3.880346395619101e-25,0.0037982817739248276
0.0034283422864973545,-0.009738534688949585,-0.02507125586271286,0.0347488708794117,-2.5335890374557946e-26,0.003649648278951645
0.003393904771655798,-0.009095869027078152,-0.025957617908716202,0.03332189470529556,-1.6542526812351336e-27,0.003471555421128869
0.003004955593496561,-0.008921167813241482,-0.025562455877661705,0.03237292915582657,-1.0801086980959994e-28,0.0031737438403069973
0.002966080792248249,-0.009270156733691692,-0.025033455342054367,0.03352790325880051,-7.05233867306903e-30,0.0029384689405560493
0.0033894055522978306,-0.009631235152482986,-0.024686096236109734,0.03462250530719757,-4.604673272312263e-31,0.0032374972943216562
0.0037618570495396852,-0.009044828824698925,-0.024932527914643288,0.03412605822086334,-3.006522815911e-32,0.0035983596462756395
0.0033972421661019325,-0.008894892409443855,-0.02575846202671528,0.0336659774184227,-1.9630445254755187e-33,0.0036733578890562057
0.0031137235928326845,-0.009263090789318085,-0.025897476822137833,0.0335894338786602,-1.2817279308622988e-34,0.0035290399100631475
0.0030069362837821245,-0.008620231412351131,-0.025556569918990135,0.033258743584156036,-8.368767874729894e-36,0.0032829605042934418
0.0031309525948017836,-0.00890671368688345,-0.026501066982746124,0.03325571119785309,-5.464207088829883e-37,0.00325256516225636
0.0034978343173861504,-0.00958386342972517,-0.026069236919283867,0.03337477147579193,-3.5677369989968923e-38,0.0031210551969707012
0.0035702998284250498,-0.009362560696899891,-0.025326652452349663,0.03380487859249115,-2.329476528139646e-39,0.0031010897364467382
0.0033412319608032703,-0.010065609589219093,-0.02500244416296482,0.03345184400677681,-1.5209833661627997e-40,0.0031276564113795757
0.0032211688812822104,-0.009349298663437366,-0.02524612657725811,0.03270597383379936,-6.488011889823903e-43,0.003406063187867403
0.003108836244791746,-0.009219315834343433,-0.02579617314040661,0.03289055451750755,-4.203895392974451e-44,0.003674514126032591
0.003108836244791746,-0.009219315834343433,-0.02579617314040661,0.03289055451750755,-4.203895392974451e-44,0.003674514126032591
0.003296149894595146,-0.009294784627854824,-0.025139478966593742,0.03276593238115311,-0.0,0.003853853326290846
0.003328411839902401,-0.00896086823195219,-0.025111524388194084,0.03232244402170181,-0.0,0.003491532988846302
0.0034213277976959944,-0.009389597922563553,-0.025212982669472694,0.03247324004769325,-0.0,0.003059156471863389
0.003338567214086652,-0.009357385337352753,-0.025201458483934402,0.03179730847477913,-0.0,0.0032341910991817713
0.003009193344041705,-0.008999254554510117,-0.02447124943137169,0.031456947326660156,-0.0,0.0031911369878798723
0.0033049448393285275,-0.009473539888858795,-0.024444790557026863,0.032168906182050705,-0.0,0.0033531589433550835
0.0037793421652168036,-0.00973373744636774,-0.02503201924264431,0.03265390917658806,-0.0,0.003472130512818694
0.0037793421652168036,-0.00973373744636774,-0.02503201924264431,0.03265390917658806,-0.0,0.003472130512818694
0.0034236335195600986,-0.009431213140487671,-0.025026921182870865,0.03154541552066803,-0.0,0.003593304893001914
0.003179445629939437,-0.009335923008620739,-0.024873171001672745,0.03062465786933899,-0.0,0.0036804983392357826
0.003139767562970519,-0.009303285740315914,-0.024853505194187164,0.031807515770196915,-0.0,0.0036034665536135435
0.0032188910990953445,-0.008896222338080406,-0.02446594648063183,0.032023247331380844,-0.0,0.0035244072787463665
0.0034313343930989504,-0.010173965245485306,-0.024413106963038445,0.03189647197723389,-0.0,0.0031729890033602715
0.0036777653731405735,-0.009874789044260979,-0.02487637661397457,0.03257916495203972,-0.0,0.0029753248672932386
0.003453013952821493,-0.00925587397068739,-0.024655189365148544,0.03218170627951622,-0.0,0.003274256829172373
0.003406316041946411,-0.009466009214520454,-0.024767426773905754,0.03141864761710167,-0.0,0.0031487753149122
0.0031860191375017166,-0.00952494889497757,-0.024486957117915154,0.031020373106002808,-0.0,0.003389015095308423
0.0034131177235394716,-0.008776944130659103,-0.024065082892775536,0.031125923618674278,-0.0,0.003490043105557561
0.0031689628958702087,-0.00882792193442583,-0.023570198565721512,0.032037556171417236,-0.0,0.0034035774879157543
0.0031891700346022844,-0.00914060790091753,-0.02350715547800064,0.032131560146808624,-0.0,0.0033682885114103556
0.0032634767703711987,-0.009178761392831802,-0.02435789257287979,0.032106779515743256,-0.0,0.0033737081103026867
0.0035151394549757242,-0.009152976796030998,-0.024000024423003197,0.03188959136605263,-0.0,0.0028738027904182673
0.0036851810291409492,-0.009498000144958496,-0.023710398003458977,0.03151402249932289,-0.0,0.0027441687416285276
0.0033295131288468838,-0.009159424342215061,-0.02370435558259487,0.031797073781490326,-0.0,0.002822520909830928
0.0034973490983247757,-0.009863046929240227,-0.023565830662846565,0.031826213002204895,-0.0,0.0035814426373690367
0.0034973490983247757,-0.009863046929240227,-0.023565830662846565,0.031826213002204895,-0.0,0.0035814426373690367
0.0032588427420705557,-0.008585133589804173,-0.023532239720225334,0.03201854228973389,-0.0,0.0030377316288650036
0.003293122397735715,-0.008881859481334686,-0.023828674107789993,0.03229038417339325,-0.0,0.003101515583693981
0.00357194640673697,-0.009110118262469769,-0.023659327998757362,0.031996652483940125,-0.0,0.0032649757340550423
0.003832763759419322,-0.008710496127605438,-0.023408738896250725,0.03207781910896301,-0.0,0.0035661645233631134
0.0035413766745477915,-0.008890208788216114,-0.023810578510165215,0.031779274344444275,-0.0,0.003753169672563672
0.0035038820933550596,-0.00942982081323862,-0.023917553946375847,0.03162785619497299,-0.0,0.003475218778476119
0.003284344682469964,-0.009050450287759304,-0.023721087723970413,0.03147232532501221,-0.0,0.003183973953127861
0.00347211305052042,-0.008843149058520794,-0.02219662256538868,0.03131189942359924,-0.0,0.00318760983645916
0.00347211305052042,-0.008843149058520794,-0.02219662256538868,0.03131189942359924,-0.0,0.00318760983645916
0.003657378489151597,-0.009302913211286068,-0.023842018097639084,0.031273484230041504,-0.0,0.0029258052818477154
0.0036479204427450895,-0.008755993098020554,-0.023979758843779564,0.031280726194381714,-0.0,0.0030403980053961277
0.0036887447349727154,-0.008873953483998775,-0.024477893486618996,0.03148579224944115,-0.0,0.0034740963019430637
0.0037225475534796715,-0.009192103520035744,-0.024048732593655586,0.0311441570520401,-0.0,0.0038260098081082106
0.0038326759822666645,-0.008814483880996704,-0.02331850863993168,0.031454507261514664,-0.0,0.0035044769756495953
0.0034390122164040804,-0.008764139376580715,-0.02288004383444786,0.031087445095181465,-0.0,0.0032593142241239548
0.0032776659354567528,-0.009236154146492481,-0.023303478956222534,0.031071335077285767,-0.0,0.00323325302451849
0.0033764324616640806,-0.00912446342408657,-0.023887766525149345,0.03245985135436058,-0.0,0.002985994331538677
0.00343579170294106,-0.008441848680377007,-0.023158032447099686,0.032437682151794434,-0.0,0.0032624180894345045
0.0035969417076557875,-0.009640565142035484,-0.023469209671020508,0.0307304747402668,-0.0,0.003409487660974264
0.0037481861654669046,-0.009247601963579655,-0.023073840886354446,0.030629238113760948,-0.0,0.003339054062962532
0.004018436651676893,-0.008944109082221985,-0.023683547973632812,0.033284105360507965,-0.0,0.0033178559970110655
0.003811657428741455,-0.008759252727031708,-0.02362627349793911,0.031012414023280144,-0.0,0.003172907279804349
0.0034203550312668085,-0.009149116463959217,-0.023451805114746094,0.03117116540670395,-0.0,0.003115468192845583
0.003289952641353011,-0.008751231245696545,-0.02316814847290516,0.0324576199054718,-0.0,0.003121853806078434
0.0035287749487906694,-0.008863691240549088,-0.02315509505569935,0.032329361885786057,-0.0,0.0031357707921415567
0.00405964907258749,-0.009354609996080399,-0.023314084857702255,0.031162843108177185,-0.0,0.0033898435067385435
0.003633638145402074,-0.008681586012244225,-0.02317064441740513,0.030731698498129845,-0.0,0.0032973873894661665
0.0036787886638194323,-0.008892656303942204,-0.02353505603969097,0.03192158788442612,-0.0,0.0036250012926757336
0.004140153992921114,-0.008868279866874218,-0.02329731546342373,0.03167623654007912,-0.0,0.003334150416776538
0.004267025273293257,-0.008808334358036518,-0.023213746026158333,0.031188149005174637,-0.0,0.003435380756855011
0.0035573113709688187,-0.00855508167296648,-0.02295590005815029,0.03076985478401184,-0.0,0.0037573541048914194
0.0035227607004344463,-0.008662345819175243,-0.022947832942008972,0.030238550156354904,-0.0,0.0034526886884123087
0.003842148929834366,-0.008423314429819584,-0.023198189213871956,0.03032601997256279,-0.0,0.0033718696795403957
0.003963027149438858,-0.008691231720149517,-0.023304376751184464,0.030485030263662338,-0.0,0.0032648546621203423
0.003963027149438858,-0.008691231720149517,-0.023304376751184464,0.030485030263662338,-0.0,0.0032648546621203423
0.003875026246532798,-0.008578971028327942,-0.022616419941186905,0.030403094366192818,-0.0,0.0032999967224895954
0.0038515410851687193,-0.008419394493103027,-0.02265559881925583,0.030744481831789017,-0.0,0.0033700820058584213
0.0034500991459935904,-0.008295265026390553,-0.022733209654688835,0.030681470409035683,-0.0,0.0035786274820566177
0.0034199387300759554,-0.008563285693526268,-0.022994298487901688,0.030620938166975975,-0.0,0.003310051979497075
0.003606996266171336,-0.008605767972767353,-0.0229165181517601,0.030352186411619186,-0.0,0.0034915017895400524
0.004260172136127949,-0.008170596323907375,-0.022673191502690315,0.030191052705049515,-0.0,0.003716827603057027
0.00403308030217886,-0.007780103944242001,-0.022609001025557518,0.030383627861738205,-0.0,0.004277834203094244
0.003396632382646203,-0.00887629110366106,-0.023093318566679955,0.030480705201625824,-0.0,0.0036538431886583567
0.003355013905093074,-0.008425291627645493,-0.023054031655192375,0.030096039175987244,-0.0,0.003277652431279421
0.003651555860415101,-0.008252850733697414,-0.0224306583404541,0.029986092820763588,-0.0,0.003141939640045166
0.0038092308677732944,-0.008491517044603825,-0.022506175562739372,0.030489085242152214,-0.0,0.0034256335347890854
0.0037745479494333267,-0.008625808171927929,-0.023259196430444717,0.03112081065773964,-0.0,0.0034639358054846525
0.004217914305627346,-0.008328300900757313,-0.023563766852021217,0.03014432080090046,-0.0,0.003580274526029825
0.004152362234890461,-0.007939024828374386,-0.023354461416602135,0.02976006269454956,-0.0,0.0033009350299835205
0.004020291846245527,-0.008791076019406319,-0.023093074560165405,0.02964528277516365,-0.0,0.0034697449300438166
0.0034761906135827303,-0.008120742626488209,-0.022341100499033928,0.030884133651852608,-0.0,0.0033071674406528473
0.0035362544003874063,-0.007652088068425655,-0.02262542024254799,0.030283944681286812,6.267316621233476e-06,0.0031577041372656822
0.004219717811793089,-0.007610131520777941,-0.0233638733625412,0.030691299587488174,4.092109975317726e-07,0.0030716548208147287
0.0040338230319321156,-0.0075932941399514675,-0.023759998381137848,0.03135615959763527,2.6718552703641762e-08,0.0031333877705037594
0.003607255406677723,-0.007400963455438614,-0.022960513830184937,0.02977985516190529,1.1390538512401349e-10,0.0034717670641839504
0.003959803842008114,-0.007807455491274595,-0.02357477881014347,0.029863324016332626,7.437207100169374e-12,0.0032934758346527815
0.004248525947332382,-0.007603025529533625,-0.023928500711917877,0.030857522040605545,4.855964805608459e-13,0.0031628767028450966
0.004110641311854124,-0.008146869018673897,-0.023982947692275047,0.030834782868623734,3.1705978039428886e-14,0.0031276708468794823
0.0034799587447196245,-0.007819571532309055,-0.022895095869898796,0.029934830963611603,2.070173722319691e-15,0.0032197318505495787
0.003571408335119486,-0.007996434345841408,-0.02237018197774887,0.02955651469528675,1.3516755895915072e-16,0.0033916784450411797
0.003771729301661253,-0.007998677901923656,-0.02289586514234543,0.029423383995890617,8.825475332639583e-18,0.0032122558914124966
0.004469400737434626,-0.007191657554358244,-0.023320358246564865,0.029280157759785652,5.762404844840408e-19,0.0030664450023323298
0.004469400737434626,-0.007191657554358244,-0.023320358246564865,0.029280157759785652,5.762404844840408e-19,0.0030664450023323298
0.004140243865549564,-0.007126367185264826,-0.023068049922585487,0.029295265674591064,3.762438771015689e-20,0.0029653646051883698
0.0043502431362867355,-0.008116134442389011,-0.022508135065436363,0.028958071023225784,2.456603836608708e-21,0.0030475244857370853
0.004241100512444973,-0.00835391879081726,-0.022793294861912727,0.029188809916377068,1.6039867134003037e-22,0.0031629083678126335
0.0040769437327980995,-0.007954592816531658,-0.02297349087893963,0.02875937521457672,1.0472886612138849e-23,0.003142852568998933
0.0040718549862504005,-0.007824238389730453,-0.023142362013459206,0.028740644454956055,6.838045513834299e-25,0.003032422624528408
0.004015084356069565,-0.007977685891091824,-0.023476673290133476,0.028848152607679367,4.4647552001758305e-26,0.003274238435551524
0.004249582998454571,-0.007827075198292732,-0.02343066781759262,0.029145533218979836,2.9151661417662512e-27,0.0031150472350418568
0.0046173944137990475,-0.007765196263790131,-0.023013629019260406,0.0289559718221426,1.9033952399610684e-28,0.003120069159194827
0.0042897420935332775,-0.007053904235363007,-0.02284894324839115,0.028973549604415894,0.00017318989557679743,0.0029508923180401325
0.004507648292928934,-0.00752495601773262,-0.02326483279466629,0.029239874333143234,0.00021104839106556028,0.003072778694331646
0.004209426697343588,-0.007705453783273697,-0.02350698597729206,0.029064225032925606,0.00020446450798772275,0.0027522577438503504
0.0044024307280778885,-0.006956943776458502,-0.02352934144437313,0.03008449263870716,0.00019576428167056292,0.003942525014281273
0.004302874207496643,-0.0066972170025110245,-0.022506503388285637,0.02854423224925995,0.0001876137830549851,0.004137494135648012
0.004319756291806698,-0.006942935287952423,-0.0228139478713274,0.02847428061068058,0.00019773055100813508,0.003926417324692011
0.004400201141834259,-0.007373026106506586,-0.02324480190873146,0.028590120375156403,0.00020660519658122212,0.0037654517218470573
0.004561845678836107,-0.007549161557108164,-0.02304910682141781,0.028718385845422745,0.00020002650853712112,0.003340513212606311
0.004644171334803104,-0.006805638317018747,-0.02273407392203808,0.02883259393274784,0.00019294819503556937,0.003433938603848219
0.004292097873985767,-0.007397855632007122,-0.022771762683987617,0.028907902538776398,0.0001862955541582778,0.0031920871697366238
0.004168367478996515,-0.007403700612485409,-0.022888174280524254,0.028433002531528473,0.0001800823083613068,0.0033716571051627398
0.004289348144084215,-0.007376881316304207,-0.02291150577366352,0.02823934704065323,0.00020135525846853852,0.003528642002493143
0.005017750430852175,-0.007067132741212845,-0.022475922480225563,0.028084641322493553,0.0001909782731672749,0.0034927118103951216
0.004436054732650518,-0.007596764247864485,-0.0228003840893507,0.028358591720461845,0.00018536670540925115,0.0036763206589967012
0.004307926166802645,-0.007139096036553383,-0.022409481927752495,0.029180772602558136,0.00018006806203629822,0.00384849077090621
0.0046454486437141895,-0.006439595483243465,-0.02233242243528366,0.028638891875743866,0.00017506426956970245,0.0039003780111670494
0.004864708986133337,-0.006660278886556625,-0.022396046668291092,0.0275570098310709,0.00017033070616889745,0.0034568996634334326
0.0048041436821222305,-0.007196055259555578,-0.021985329687595367,0.027143185958266258,0.00018794985953718424,0.003501991042867303
0.004771425388753414,-0.007147537544369698,-0.021736683323979378,0.027699215337634087,0.00018457346595823765,0.0032787092495709658
0.005117224995046854,-0.006660865154117346,-0.021925199776887894,0.028264546766877174,0.00018005164747592062,0.003491540439426899
0.0049624391831457615,-0.00699470192193985,-0.022451594471931458,0.027234243229031563,0.000175664754351601,0.0032425401732325554
0.0049624391831457615,-0.00699470192193985,-0.022451594471931458,0.027234243229031563,0.000175664754351601,0.0032425401732325554
0.004987774416804314,-0.0071458774618804455,-0.021624362096190453,0.028511198237538338,0.0001914202730404213,0.0035776840522885323
0.004987774416804314,-0.0071458774618804455,-0.021624362096190453,0.028511198237538338,0.0001914202730404213,0.0035776840522885323
0.005349854938685894,-0.007407030090689659,-0.02210109867155552,0.027557577937841415,0.0001844651560531929,0.0036316278856247663
0.005106671713292599,-0.006653466261923313,-0.022069931030273438,0.026320410892367363,0.00017725565703585744,0.0035880287177860737
0.004825337789952755,-0.006937466561794281,-0.022041955962777138,0.026617856696248055,0.00020011389278806746,0.003631548723205924
0.00475245201960206,-0.0070280940271914005,-0.021542798727750778,0.027137214317917824,0.0001968795113498345,0.0034960168413817883
0.004667888395488262,-0.0068946722894907,-0.02200658991932869,0.027847835794091225,0.0001902093063108623,0.003617299720644951
0.004633645061403513,-0.006736977491527796,-0.022569071501493454,0.027462907135486603,0.00019876330043189228,0.0037736338563263416
0.004978281911462545,-0.006705573294311762,-0.022618822753429413,0.028358502313494682,0.00020630487415473908,0.0038146181032061577
0.005053082946687937,-0.006651338189840317,-0.022058404982089996,0.026829034090042114,0.00020065187709406018,0.0038873408921062946
0.005185300018638372,-0.006876327097415924,-0.0217210091650486,0.026980966329574585,0.0002150915825041011,0.0037424578331410885
0.004995930474251509,-0.006617576815187931,-0.02193552628159523,0.02745542675256729,0.00021517892309930176,0.003553772810846567
0.004847995936870575,-0.006631298456341028,-0.022470545023679733,0.0275491364300251,0.00028515630401670933,0.0036160198505967855
0.0052282619290053844,-0.006730044260621071,-0.022261057049036026,0.027385201305150986,0.00033545566839165986,0.0037228157743811607
0.005090236198157072,-0.007429842371493578,-0.021424027159810066,0.027800805866718292,0.0003631290455814451,0.00413382425904274
0.005160002037882805,-0.006750711239874363,-0.022109633311629295,0.02746034413576126,0.00035412321449257433,0.0036628711968660355
0.005553452763706446,-0.006439266726374626,-0.022573750466108322,0.02781044878065586,0.00033322928356938064,0.0036247207317501307
0.005298013798892498,-0.007073665503412485,-0.022638903930783272,0.02791612781584263,0.0003626061079557985,0.003760610707104206
0.00497305765748024,-0.007096428889781237,-0.021755825728178024,0.02745061181485653,0.0003823251463472843,0.0038908154238015413
0.005206845700740814,-0.007209590170532465,-0.02233440801501274,0.02778960019350052,0.00037408326170407236,0.003496663412079215
0.005167926661670208,-0.007160402834415436,-0.021702591329813004,0.027654770761728287,0.000451417057774961,0.003176887519657612
0.005315958987921476,-0.007403665687888861,-0.02145965024828911,0.02654539979994297,0.0005313491565175354,0.003344748169183731
0.005326214246451855,-0.007418529596179724,-0.021837322041392326,0.026956696063280106,0.0004890089039690793,0.003373257350176573
0.005496983882039785,-0.006714363116770983,-0.022057674825191498,0.02762218937277794,0.0005132026853971183,0.003553596558049321
0.005292538553476334,-0.007852482609450817,-0.021746916696429253,0.027586231008172035,0.0004826583608519286,0.0037484392523765564
0.005343863274902105,-0.007200426422059536,-0.021351847797632217,0.026447085663676262,0.0004488266713451594,0.0037828264757990837
0.0053487373515963554,-0.006334641017019749,-0.021373499184846878,0.025580070912837982,0.0004630291659850627,0.0037911580875515938
0.005604026839137077,-0.006778517737984657,-0.021316980943083763,0.025824671611189842,0.0004479458730202168,0.00376303237862885
0.00508315023034811,-0.007032325491309166,-0.020998019725084305,0.026649251580238342,0.00042254404979757965,0.00381108489818871
0.004533273633569479,-0.00720664719119668,-0.0207230132073164,0.026235410943627357,0.00043315099901519716,0.003916626330465078
0.004533273633569479,-0.00720664719119668,-0.0207230132073164,0.026235410943627357,0.00043315099901519716,0.003916626330465078
0.005747361574321985,-0.007056874223053455,-0.020775645971298218,0.02652164176106453,0.0004407005908433348,0.00353733217343688
0.005747361574321985,-0.007056874223053455,-0.020775645971298218,0.02652164176106453,0.0004407005908433348,0.00353733217343688
0.0053040627390146255,-0.007454635109752417,-0.020603107288479805,0.027119554579257965,0.00046733341878280044,0.003618622664362192
0.005174646154046059,-0.00705982418730855,-0.020663723349571228,0.026207394897937775,0.0004733061359729618,0.0037769877817481756
0.004992030560970306,-0.006996574345976114,-0.02135678566992283,0.025622094050049782,0.0004710294015239924,0.003588835010305047
0.004837269429117441,-0.007092886604368687,-0.020965099334716797,0.02468905597925186,0.0006142099155113101,0.003401893889531493
0.005181851796805859,-0.006578450556844473,-0.020228112116456032,0.02456994168460369,0.000677830190397799,0.003127985168248415
0.0054863616824150085,-0.006689005997031927,-0.02050018310546875,0.025803083553910255,0.0006289498996920884,0.0032532524783164263
0.0056502437219023705,-0.0073233917355537415,-0.020861104130744934,0.025987667962908745,0.0006523510091938078,0.003486571367830038
0.0052580516785383224,-0.007607087027281523,-0.02055210806429386,0.025743361562490463,0.0006587535026483238,0.0036835221108049154
0.00497355917468667,-0.006875400897115469,-0.020281750708818436,0.02541232295334339,0.0006214696913957596,0.0035189155023545027
0.00527020962908864,-0.006511148996651173,-0.020702950656414032,0.02590974234044552,0.0006925047491677105,0.0036127553321421146
0.00562181556597352,-0.00681580463424325,-0.020939979702234268,0.026266545057296753,0.0006768805906176567,0.003704789327457547
0.006006896495819092,-0.007301202043890953,-0.020362017676234245,0.025996746495366096,0.0006489668157882988,0.0037932374980300665
0.00559975765645504,-0.00683349184691906,-0.020612899214029312,0.025949038565158844,0.0006658467464148998,0.0038205012679100037
0.00528549961745739,-0.006687168963253498,-0.020458422601222992,0.025878900662064552,0.0006125779473222792,0.0038355228025466204
0.005314107518643141,-0.0072710528038442135,-0.020796071738004684,0.0258751530200243,0.0006277257925830781,0.004098460543900728
0.0057792020961642265,-0.007057796232402325,-0.021631579846143723,0.025873204693198204,0.000562635192181915,0.004242657218128443
0.00602966733276844,-0.006521744187921286,-0.02156793884932995,0.025851238518953323,0.0005196348647587001,0.004175611771643162
0.00577165000140667,-0.006898087915033102,-0.020043540745973587,0.025336546823382378,0.0005069603794254363,0.003893047571182251
0.00577165000140667,-0.006898087915033102,-0.020043540745973587,0.025336546823382378,0.0005069603794254363,0.003893047571182251
0.0062902080826461315,-0.007179126143455505,-0.020699916407465935,0.024641042575240135,0.0005307364626787603,0.003857007948681712
0.005838183686137199,-0.006778433918952942,-0.021154601126909256,0.024201834574341774,0.0004978810902684927,0.003905112389475107
0.005899723153561354,-0.0066735935397446156,-0.021165503188967705,0.023985013365745544,0.0005232912371866405,0.003906436264514923
0.005941837094724178,-0.006326482631266117,-0.02043234556913376,0.02433674968779087,0.000553714984562248,0.004323787987232208
0.005941837094724178,-0.006326482631266117,-0.02043234556913376,0.02433674968779087,0.000553714984562248,0.004323787987232208
0.005872511770576239,-0.006928587798029184,-0.020843831822276115,0.02445117011666298,0.0006009364733472466,0.004130058456212282
0.005880262702703476,-0.006679903250187635,-0.02130509912967682,0.0240914449095726,0.0005868104053661227,0.004408570937812328
0.006012198980897665,-0.00677510118111968,-0.02063567563891411,0.023790830746293068,0.000608639616984874,0.004284115042537451
0.006607742514461279,-0.006945552304387093,-0.020312998443841934,0.02385338768362999,0.0005646268255077302,0.003985904157161713
0.006248821038752794,-0.006764035206288099,-0.021309932693839073,0.023642344400286674,0.0005826936103403568,0.0038603164721280336
0.005872469861060381,-0.006851388607174158,-0.020928336307406425,0.023775015026330948,0.0005513479118235409,0.003921066410839558
0.006217473186552525,-0.0065220557153224945,-0.019930418580770493,0.023653823882341385,0.0006243705283850431,0.004079613368958235
0.0063666654750704765,-0.006768740247935057,-0.02015933021903038,0.023458782583475113,0.0006525248172692955,0.004079194739460945
0.006208036094903946,-0.00670670298859477,-0.0208919458091259,0.024755874648690224,0.0006665820255875587,0.004213282838463783
0.006208036094903946,-0.00670670298859477,-0.0208919458091259,0.024755874648690224,0.0006665820255875587,0.004213282838463783
0.006174815818667412,-0.0062975287437438965,-0.020624149590730667,0.02330183796584606,0.0006442087469622493,0.004430301487445831
0.006335534621030092,-0.005981148686259985,-0.020509490743279457,0.0237156730145216,0.000666935695335269,0.003979949746280909
0.006513304077088833,-0.005948302801698446,-0.019970737397670746,0.023974748328328133,0.0006432102527469397,0.003767437767237425
0.0066525605507195,-0.006401357240974903,-0.02046668343245983,0.024048587307333946,0.0006717189680784941,0.004140255972743034
0.006217260845005512,-0.006688222289085388,-0.020546261221170425,0.02343737706542015,0.000603686785325408,0.004345967900007963
0.00633207568898797,-0.006637325510382652,-0.02022126130759716,0.02351800538599491,0.0006212216685526073,0.004126141779124737
0.006657301913946867,-0.006377910729497671,-0.019914695993065834,0.024230878800153732,0.0006147586391307414,0.0039003498386591673
0.006096589844673872,-0.006602950394153595,-0.020373733714222908,0.025054840371012688,0.0006001454312354326,0.004226940684020519
0.0063564954325556755,-0.006859597750008106,-0.02011338248848915,0.024504046887159348,0.0005908991442993283,0.004155048634856939
0.006375918164849281,-0.005976908840239048,-0.02029217593371868,0.02241813950240612,0.0005911895423196256,0.004055049270391464
0.006597831845283508,-0.00618966668844223,-0.02000264637172222,0.022722797468304634,0.000618600461166352,0.0038888908457010984
0.0066884891130030155,-0.006280531175434589,-0.019144758582115173,0.023721467703580856,0.0006383596919476986,0.0037700291723012924
0.006765460595488548,-0.0060674590058624744,-0.020003192126750946,0.023398587480187416,0.0008314144797623158,0.0038253830280154943
0.00632533710449934,-0.006060724146664143,-0.020082365721464157,0.02269001677632332,0.0010070245480164886,0.004341966938227415
0.006583215203136206,-0.005865211132913828,-0.019303180277347565,0.022765235975384712,0.00100279925391078,0.004567737225443125
0.006895014550536871,-0.00590033084154129,-0.019907956942915916,0.023321887478232384,0.0009831603383645415,0.0042022112756967545
0.006480375770479441,-0.005971554666757584,-0.02018233761191368,0.023030666634440422,0.001143269008025527,0.00437785591930151
0.006221885327249765,-0.00587243027985096,-0.01946442387998104,0.022871503606438637,0.0011317150201648474,0.004307025112211704
0.00672580162063241,-0.006074684672057629,-0.01903727278113365,0.021916717290878296,0.0010882935021072626,0.0042952848598361015
0.007207631599158049,-0.005894382018595934,-0.01924860291182995,0.021975141018629074,0.00106254150159657,0.004084910731762648
0.006908560637384653,-0.005868725478649139,-0.018885891884565353,0.022556643933057785,0.0009756615036167204,0.004373203497380018
0.006908560637384653,-0.005868725478649139,-0.018885891884565353,0.022556643933057785,0.0009756615036167204,0.004373203497380018
0.007074568420648575,-0.005937568843364716,-0.018987979739904404,0.023747671395540237,0.0009569259127601981,0.004643802531063557
0.007010315544903278,-0.005912604741752148,-0.019116844981908798,0.023252511397004128,0.0009573003044351935,0.004439412150532007
0.007623750250786543,-0.0061641596257686615,-0.018723314628005028,0.022175850346684456,0.0009567166562192142,0.004503456875681877
0.007652974221855402,-0.005362502299249172,-0.019429069012403488,0.023188160732388496,0.0010876653250306845,0.004313173703849316
0.006956308614462614,-0.006093242205679417,-0.019668294116854668,0.023330694064497948,0.0011042578844353557,0.004520740360021591
0.006648884154856205,-0.00539318798109889,-0.01886875368654728,0.022820482030510902,0.0010759688448160887,0.004882156383246183
0.0068952059373259544,-0.0054663619957864285,-0.01873459666967392,0.023178445175290108,0.0010476334718987346,0.004504702519625425
0.0069810776039958,-0.005590299144387245,-0.01908891461789608,0.023442821577191353,0.0010581975802779198,0.004447530023753643
0.00689113000407815,-0.005568956956267357,-0.018901508301496506,0.02314753644168377,0.0010338774882256985,0.004189733415842056
0.006772113963961601,-0.005320319905877113,-0.018830783665180206,0.024347906932234764,0.0010144816478714347,0.0042610131204128265
0.007163322065025568,-0.005752419121563435,-0.019105469807982445,0.02272958494722843,0.0010374652920290828,0.004174909554421902
0.007448890246450901,-0.0055818562395870686,-0.018651487305760384,0.022050073370337486,0.0010369818191975355,0.004332465585321188
0.007406981661915779,-0.005553795490413904,-0.01870710775256157,0.02206934057176113,0.0010263238800689578,0.0046158647164702415
0.006904431618750095,-0.004827596712857485,-0.018255583941936493,0.021883541718125343,0.0011143175652250648,0.004524511750787497
0.007262227591127157,-0.005061994772404432,-0.018650194630026817,0.021822582930326462,0.0010134198237210512,0.00428885268047452
0.00805145688354969,-0.005103702656924725,-0.019284028559923172,0.021579960361123085,0.000990964937955141,0.004451206885278225
0.007067092694342136,-0.005083569325506687,-0.019122909754514694,0.021633757278323174,0.0009534582495689392,0.004845230840146542
0.007132262457162142,-0.004804563242942095,-0.01939699612557888,0.021381085738539696,0.0008777802577242255,0.004515526816248894
0.008075376972556114,-0.004679664503782988,-0.01900363527238369,0.021578513085842133,0.0008609314099885523,0.004129678476601839
0.007930253632366657,-0.0046347640454769135,-0.018578432500362396,0.021806711331009865,0.0008655420388095081,0.004419651348143816
0.007137598469853401,-0.005127316806465387,-0.01902947947382927,0.02174251899123192,0.0008700392791070044,0.004552893806248903
0.007952180691063404,-0.005212141666561365,-0.019145844504237175,0.02161427214741707,0.000830965000204742,0.004654577001929283
0.007936259731650352,-0.005134538747370243,-0.018626004457473755,0.021148331463336945,0.0010206684237346053,0.004641260951757431
0.007587096653878689,-0.004718323703855276,-0.019156940281391144,0.020644476637244225,0.0010322552407160401,0.004646847024559975
0.007587096653878689,-0.004718323703855276,-0.019156940281391144,0.020644476637244225,0.0010322552407160401,0.004646847024559975
0.007332091219723225,-0.004039514809846878,-0.018675167113542557,0.021086739376187325,0.0010152747854590416,0.004394787363708019
0.0077133397571742535,-0.003220104845240712,-0.018170209601521492,0.02176368422806263,0.001070154830813408,0.004393371753394604
0.007650164887309074,-0.0026205270551145077,-0.019406775012612343,0.02181350812315941,0.0010750035289674997,0.0048507885076105595
0.007798390928655863,-0.0024910257197916508,-0.018929284065961838,0.021423332393169403,0.001047700410708785,0.005001553799957037
0.007495078723877668,-0.003400854067876935,-0.01901485025882721,0.02159980498254299,0.0010262856958433986,0.004788641817867756
0.007773608434945345,-0.0034625637345016003,-0.01873166486620903,0.022441262379288673,0.0009989954996854067,0.004718594253063202
0.008047621697187424,-0.0031084984075278044,-0.018307503312826157,0.021998796612024307,0.0010868143290281296,0.004721633158624172
0.00763632170855999,-0.0029820369090884924,-0.018693841993808746,0.021078968420624733,0.0011000173399224877,0.0048206341452896595
0.008068034425377846,-0.002828402677550912,-0.019801301881670952,0.020431727170944214,0.0012242787051945925,0.004660717211663723
0.007864079438149929,-0.002696080133318901,-0.017834750935435295,0.020174479112029076,0.0013760434230789542,0.004907947964966297
0.008196275681257248,-0.0026317115407437086,-0.017842894420027733,0.019965965300798416,0.0013301257276907563,0.004827380646020174
0.007787869777530432,-0.002794059691950679,-0.019067134708166122,0.020733341574668884,0.0015291813760995865,0.004868630785495043
0.007578191813081503,-0.002821320667862892,-0.018299441784620285,0.02154175192117691,0.0014044769341126084,0.004799698479473591
0.007821940816938877,-0.002854759804904461,-0.01832509972155094,0.021759387105703354,0.0013100625947117805,0.004991553723812103
0.008104810491204262,-0.002694441471248865,-0.018884044140577316,0.021052436903119087,0.001145718153566122,0.005034895148128271
0.00831585843116045,-0.0029099590610712767,-0.018203269690275192,0.020886950194835663,0.0009413662482984364,0.00486376928165555
0.007886269129812717,-0.0029432750307023525,-0.01814842037856579,0.021051757037639618,0.000996888498775661,0.004732944071292877
0.007940620183944702,-0.0023697547148913145,-0.017908712849020958,0.020362477749586105,0.0009208144620060921,0.004823124501854181
0.007564073894172907,-0.0023482756223529577,-0.01855364441871643,0.0204942487180233,0.0009160640765912831,0.004773834720253944
0.00907434057444334,-0.00220469874329865,-0.01816178858280182,0.020060021430253983,0.0009954009437933564,0.004819436464458704
0.008142448030412197,-0.002492878120392561,-0.018595844507217407,0.019182035699486732,0.0009238451602868736,0.0050165425054728985
0.007011985871940851,-0.0024713962338864803,-0.018666671589016914,0.01923973672091961,0.0009168105898424983,0.004940004553645849
0.008376095443964005,-0.0025985927786678076,-0.018087370321154594,0.019548237323760986,0.0010415896540507674,0.00535206962376833
0.008781054057180882,-0.002709596650674939,-0.018306914716959,0.02047724276781082,0.0010766114573925734,0.005285201594233513
0.008464641869068146,-0.002845973940566182,-0.01860157400369644,0.01898174174129963,0.001053831772878766,0.004981926642358303
0.008017522282898426,-0.002699202625080943,-0.018536755815148354,0.01865008845925331,0.0011401487281545997,0.0048078931868076324
0.00847162026911974,-0.002923685824498534,-0.018492750823497772,0.018446756526827812,0.0011505864094942808,0.004678528290241957
0.008544262498617172,-0.002691548317670822,-0.018001466989517212,0.018890008330345154,0.0011095895897597075,0.004735484253615141
0.008544262498617172,-0.002691548317670822,-0.018001466989517212,0.018890008330345154,0.0011095895897597075,0.004735484253615141
0.00859153550118208,-0.0026372503489255905,-0.018236126750707626,0.019061123952269554,0.001077811699360609,0.004883440211415291
0.00853535532951355,-0.002660139696672559,-0.018650919198989868,0.018753068521618843,0.0011193935060873628,0.005271159112453461
0.008747623302042484,-0.0024622175842523575,-0.018181463703513145,0.018662381917238235,0.0010909817647188902,0.005106332711875439
0.008660419844090939,-0.0022751744836568832,-0.018441611900925636,0.01854400895535946,0.0010615739738568664,0.004920439328998327
0.008937124162912369,-0.0023769494146108627,-0.018514400348067284,0.01815493032336235,0.0009956883732229471,0.005068890750408173
0.008653229102492332,-0.002604462206363678,-0.017916759476065636,0.01841595210134983,0.0010897364700213075,0.005032373126596212
0.008553439751267433,-0.002554563572630286,-0.01842084527015686,0.018092185258865356,0.0010849324753507972,0.004777133464813232
0.008863063529133797,-0.002532198093831539,-0.01859208568930626,0.01832454651594162,0.001075540785677731,0.004888815339654684
0.008850926533341408,-0.0024919137358665466,-0.017696671187877655,0.0184616781771183,0.001275440794415772,0.005328666884452105
0.009644761681556702,-0.0023809426929801702,-0.01775025762617588,0.018463991582393646,0.0012402711436152458,0.005509542766958475
0.00876796804368496,-0.0025369722861796618,-0.017598366364836693,0.018585357815027237,0.0011855055345222354,0.005011268891394138
0.008464084938168526,-0.002719259588047862,-0.01774626225233078,0.01848900131881237,0.0011425924021750689,0.005207176320254803
0.009012706577777863,-0.002716373186558485,-0.017646532505750656,0.01821049302816391,0.001192363677546382,0.0055480096489191055
0.00899945292621851,-0.002722312230616808,-0.01739608496427536,0.018314015120267868,0.0011873835464939475,0.005277679301798344
0.009193755686283112,-0.0023487352300435305,-0.017703136429190636,0.01835455931723118,0.0011490193428471684,0.00529902707785368
0.009581398218870163,-0.0019692599307745695,-0.017722895368933678,0.018735965713858604,0.0011196937412023544,0.005448116920888424
0.009375822730362415,-0.0019884828943759203,-0.018312877044081688,0.018283916637301445,0.0010859983740374446,0.00551501614972949
0.009285234846174717,-0.002393824979662895,-0.017973246052861214,0.017610857263207436,0.0010282930452376604,0.005211275536566973
0.009243323467671871,-0.0025436494033783674,-0.017717335373163223,0.017837023362517357,0.001103599788621068,0.005247780587524176
0.008830219507217407,-0.00245540589094162,-0.017536606639623642,0.01774556003510952,0.0011137165129184723,0.005077901296317577
0.009332636371254921,-0.0024957687128335238,-0.017125412821769714,0.018015455454587936,0.0011234956327825785,0.005563424434512854
0.009603139944374561,-0.002241622656583786,-0.01798720471560955,0.018035652115941048,0.0012786246370524168,0.00533366808667779
0.009302239865064621,-0.002260292647406459,-0.018126878887414932,0.01774066500365734,0.0012642034562304616,0.004997406154870987
0.008942481130361557,-0.0023376105818897486,-0.01781843602657318,0.01786835677921772,0.001463533379137516,0.005113610066473484
0.009695293381810188,-0.0022185873240232468,-0.01803404651582241,0.017437990754842758,0.0014255326241254807,0.005137742031365633
0.009695293381810188,-0.0022185873240232468,-0.01803404651582241,0.017437990754842758,0.0014255326241254807,0.005137742031365633
0.009391361847519875,-0.0022331031505018473,-0.01748128980398178,0.01723339781165123,0.0013306069886311889,0.005086628720164299
0.009835717268288136,-0.002227844437584281,-0.018593065440654755,0.017348362132906914,0.001357664237730205,0.005400156602263451
0.009308280423283577,-0.0025621906388550997,-0.01807299628853798,0.017043013125658035,0.0013401827309280634,0.005345173180103302
0.009418153204023838,-0.002390281530097127,-0.017495891079306602,0.017583081498742104,0.0012955688871443272,0.005432864185422659
0.00937745627015829,-0.0022189212031662464,-0.018607493489980698,0.01687445119023323,0.00161271751858294,0.0052432953380048275
0.00974368117749691,-0.0020389340352267027,-0.01735183596611023,0.016644489020109177,0.0015799541724845767,0.005002330988645554
0.009632672183215618,-0.0020337477326393127,-0.017554961144924164,0.016760386526584625,0.001791926915757358,0.0052475458942353725
0.009295378811657429,-0.00228903628885746,-0.017903974279761314,0.016590207815170288,0.0016356727574020624,0.005293713882565498
0.009644819423556328,-0.0021025342866778374,-0.017933525145053864,0.017091797664761543,0.0015014742966741323,0.005490641575306654
0.010092895478010178,-0.002491685329005122,-0.018644914031028748,0.01693459413945675,0.001305124256759882,0.005337613169103861
0.009256972000002861,-0.002396984491497278,-0.017883779481053352,0.017206605523824692,0.0012168250977993011,0.005859259516000748
0.010141672566533089,-0.0022945147939026356,-0.01755082979798317,0.016672128811478615,0.0012003816664218903,0.005503240041434765
0.010224695317447186,-0.002086871536448598,-0.01769479736685753,0.01602812483906746,0.0012500359443947673,0.006005952134728432
0.009135088883340359,-0.0020879609510302544,-0.016841236501932144,0.01615934446454048,0.0013540171785280108,0.0055574048310518265
0.009721490554511547,-0.0024979806039482355,-0.017707906663417816,0.01651999168097973,0.0014604720054194331,0.005334288813173771
0.009713154286146164,-0.0028646434657275677,-0.017953496426343918,0.01764213852584362,0.0016958154737949371,0.005545793101191521
0.009273374453186989,-0.0025712954811751842,-0.017024239525198936,0.01716064289212227,0.001620471477508545,0.005169610492885113
0.01058804988861084,-0.002001492539420724,-0.016840292140841484,0.016459105536341667,0.001587421866133809,0.005391196347773075
0.008912969380617142,-0.0018592774868011475,-0.01717476174235344,0.016457779332995415,0.0014596781693398952,0.005632038693875074
0.009972178377211094,-0.0019117051269859076,-0.017646269872784615,0.017008153721690178,0.0014593960950151086,0.005723707377910614
0.009820645675063133,-0.002138506155461073,-0.017169147729873657,0.016490429639816284,0.001400525332428515,0.0059813992120325565
0.009228328242897987,-0.002636556513607502,-0.017598014324903488,0.016672426834702492,0.0014524190919473767,0.005579947028309107
0.009596247225999832,-0.0023557115346193314,-0.016647925600409508,0.016106197610497475,0.0014309475664049387,0.005397878121584654
0.009868343360722065,-0.0023653609678149223,-0.017014142125844955,0.015590538270771503,0.0015185280935838819,0.005400566849857569
0.009709286503493786,-0.002095322823151946,-0.01689857803285122,0.01605072058737278,0.0016197029035538435,0.005605591926723719
0.009793281555175781,-0.0020219229627400637,-0.016891242936253548,0.015208685770630836,0.0015420509735122323,0.005701886955648661
0.009793281555175781,-0.0020219229627400637,-0.016891242936253548,0.015208685770630836,0.0015420509735122323,0.005701886955648661
0.010011102072894573,-0.0018128950614482164,-0.017191207036376,0.015034569427371025,0.0016532992012798786,0.0057057710364460945
0.009453650563955307,-0.0018382432172074914,-0.016266876831650734,0.015002081170678139,0.0015309893060475588,0.0055998326279222965
0.009578149765729904,-0.001994263380765915,-0.016685979440808296,0.016015684232115746,0.0014467673609033227,0.005523697007447481
0.009854309260845184,-0.0022533813025802374,-0.01660255528986454,0.015585849061608315,0.0014585111057385802,0.005651052575558424
0.009668011218309402,-0.0022342249285429716,-0.016791243106126785,0.014987204223871231,0.0014520938275381923,0.00608245050534606
0.010587752796709538,-0.0019482473144307733,-0.016835147514939308,0.01434245239943266,0.001379545428790152,0.005823589861392975
0.01155382115393877,-0.0017408325802534819,-0.016232289373874664,0.01493771467357874,0.0014433813048526645,0.00603565014898777
0.01165434904396534,-0.0015260193031281233,-0.01666882447898388,0.014899266883730888,0.0014040168607607484,0.005719045642763376
0.011454961262643337,-0.001537472358904779,-0.015952395275235176,0.015347556211054325,0.0015285491244867444,0.005859781056642532
0.010973691940307617,-0.001656274893321097,-0.016324209049344063,0.014970848336815834,0.0015986922662705183,0.006421204656362534
0.011091073974967003,-0.001566134742461145,-0.016006318852305412,0.015203322283923626,0.0018040414433926344,0.006661744322627783
0.011534533463418484,-0.0016749254427850246,-0.01655840128660202,0.014830498024821281,0.0017480592941865325,0.006431765854358673
0.011158138513565063,-0.001790344133041799,-0.01650731824338436,0.014996171928942204,0.001698812353424728,0.006064028944820166
0.011578921228647232,-0.0016266288002952933,-0.016126537695527077,0.014974082820117474,0.0016982794040814042,0.005737410392612219
0.012002451345324516,-0.001604233286343515,-0.01642153225839138,0.014868068508803844,0.0016237095696851611,0.006004844792187214
0.011808926239609718,-0.001461253734305501,-0.016306396573781967,0.014487216249108315,0.001644162810407579,0.006435112562030554
0.011322555132210255,-0.0013641940895467997,-0.01591983437538147,0.014065389521420002,0.00185530842281878,0.006079163867980242
0.012707935646176338,-0.001392687438055873,-0.015950066968798637,0.014248092658817768,0.0018731614109128714,0.006177213508635759
0.011503483168780804,-0.0013527635019272566,-0.015924958512187004,0.014484529383480549,0.001991990255191922,0.006309798453003168
0.01158774271607399,-0.0012627377873286605,-0.016381680965423584,0.01467010099440813,0.0019668256863951683,0.00654522143304348
0.011868534609675407,-0.0013087628176435828,-0.016556022688746452,0.014003262855112553,0.0021175940055400133,0.00624339934438467
0.011532016098499298,-0.001258969772607088,-0.015956010669469833,0.01391536183655262,0.0019575043115764856,0.006380839738994837
0.011893097311258316,-0.0012281995732337236,-0.01619732938706875,0.01372257899492979,0.0019290001364424825,0.006530154030770063
0.011893097311258316,-0.0012281995732337236,-0.01619732938706875,0.01372257899492979,0.0019290001364424825,0.006530154030770063
0.011509655974805355,-0.0011674175038933754,-0.015783360227942467,0.013705940917134285,0.0018005138263106346,0.0064018648117780685
0.011982609517872334,-0.001113783335313201,-0.016377674415707588,0.012925537303090096,0.00155337480828166,0.006563756614923477
0.012535753659904003,-0.0010341553715988994,-0.01664150133728981,0.012890664860606194,0.0015141667099669576,0.006489347666501999
0.011573097668588161,-0.0010192332556471229,-0.01645960845053196,0.01286165788769722,0.0014659600565209985,0.006054019555449486
0.01173044927418232,-0.0010001366026699543,-0.016744399443268776,0.013662954792380333,0.0014974718214944005,0.00605033291503787
0.011609294451773167,-0.0009576229494996369,-0.016270307824015617,0.013101251795887947,0.0015627316897735,0.006608509924262762
0.01231580413877964,-0.0008789585554040968,-0.016489600762724876,0.013570117764174938,0.0017262574983760715,0.006655074656009674
0.012282785959541798,-0.0008574749808758497,-0.01531496737152338,0.01310025341808796,0.0017938963137567043,0.006295626517385244
0.01215990912169218,-0.000850760901812464,-0.01603885553777218,0.01250436156988144,0.0019251290941610932,0.006208331324160099
0.012262362986803055,-0.0008289676625281572,-0.015925971791148186,0.012648001313209534,0.0019424796337261796,0.006587553769350052
0.01202545315027237,-0.0007662452408112586,-0.016343766823410988,0.012615739367902279,0.0020696071442216635,0.006899496540427208
0.012848407961428165,-0.0007797513389959931,-0.01606719382107258,0.012579493224620819,0.002023888984695077,0.006512613967061043
0.012407174333930016,-0.0007787909125909209,-0.015774963423609734,0.012322510592639446,0.0020123175345361233,0.006232164800167084
0.012225319631397724,-0.0006742005934938788,-0.016461091116070747,0.012532449327409267,0.001971733756363392,0.00640391418710351
0.012256751768290997,-0.0007018835167400539,-0.015857726335525513,0.0123505974188447,0.001959890127182007,0.006263318471610546
0.012108790688216686,-0.0006224869284778833,-0.016387978568673134,0.012353000231087208,0.0019330049399286509,0.00659079710021615
0.012393244542181492,-0.000647173379547894,-0.015627704560756683,0.012623871676623821,0.001844735466875136,0.006372378207743168
0.012075473554432392,-0.0005900707328692079,-0.016137167811393738,0.01227454375475645,0.001698141684755683,0.0061941021122038364
0.012192570604383945,-0.0005650059320032597,-0.016725171357393265,0.011568527668714523,0.0017008465947583318,0.0066269198432564735
0.012794471345841885,-0.000529664452187717,-0.016055405139923096,0.011997588910162449,0.0016118601197376847,0.007361420430243015
0.0120577123016119,-0.0004777798894792795,-0.01595347374677658,0.011839845217764378,0.00163042894564569,0.007004064042121172
0.012040287256240845,-0.0005146728944964707,-0.01657819002866745,0.011701826937496662,0.0016776389675214887,0.006429586093872786
0.012879684567451477,-0.0004728795029222965,-0.01610501855611801,0.012612462975084782,0.0019768322817981243,0.006548985373228788
0.012832925654947758,-0.0005062474519945681,-0.01676022820174694,0.011553384363651276,0.0019259933615103364,0.00697914557531476
0.01320717204362154,-0.0004694747331086546,-0.01580812968313694,0.011748176999390125,0.0023651611991226673,0.006847076117992401
0.01320717204362154,-0.0004694747331086546,-0.01580812968313694,0.011748176999390125,0.0023651611991226673,0.006847076117992401
0.012650882825255394,-0.0004369195376057178,-0.016228491440415382,0.011626866646111012,0.002523605478927493,0.006732167676091194
0.013088187202811241,-0.0004085788386873901,-0.015646670013666153,0.011294341646134853,0.002472873078659177,0.006699701305478811
0.013222906738519669,-0.00038369029061868787,-0.016109086573123932,0.012055838480591774,0.0023141868878155947,0.006876762490719557
0.013292605057358742,-0.0003616613685153425,-0.016577018424868584,0.011138667352497578,0.002380548743531108,0.0069770305417478085
0.01298739854246378,-0.00034202306414954364,-0.015952862799167633,0.011348335072398186,0.0023542793933302164,0.0068930103443562984
0.01332138292491436,-0.00035477030905894935,-0.01630594953894615,0.010844653472304344,0.002560631139203906,0.006664082407951355
0.01370116975158453,-0.0003523810300976038,-0.015617984347045422,0.010595055297017097,0.002377874683588743,0.007023361511528492
0.013452623970806599,-0.0003361298586241901,-0.015930840745568275,0.010676219128072262,0.0024242717772722244,0.007485926616936922
0.013555635698139668,-0.000321139203151688,-0.01552534569054842,0.010697116144001484,0.0022962207440286875,0.006779178511351347
0.013413505628705025,-0.00030742594390176237,-0.016188515350222588,0.011320723220705986,0.0022643995471298695,0.00664190948009491
0.013790351338684559,-0.0002948366163764149,-0.01588551141321659,0.01137558463960886,0.0023041856475174427,0.0068328543566167355
0.013313337229192257,-0.0002832379250321537,-0.015729350969195366,0.01032192725688219,0.002143019111827016,0.006264660507440567
0.013484959490597248,-0.00027251653955318034,-0.016092346981167793,0.010790366679430008,0.0022112680599093437,0.007243606261909008
0.013397295959293842,-0.00026257793069817126,-0.01571325957775116,0.010743280872702599,0.002096277428790927,0.00711278198286891
0.013848930597305298,-0.0002533386868890375,-0.01595732569694519,0.009935811161994934,0.0020593577064573765,0.007077685557305813
0.013372905552387238,-0.0002447273291181773,-0.01534717995673418,0.010425529442727566,0.0018751757452264428,0.006750745233148336
0.013766169548034668,-0.00023668190988246351,-0.015760265290737152,0.01054900698363781,0.0018003719160333276,0.006803635507822037
0.013608597218990326,-0.00022914896544534713,-0.015257748775184155,0.010498063638806343,0.0017083833226934075,0.006704235915094614
0.013920038007199764,-0.00022208110021892935,-0.015607805922627449,0.011081941425800323,0.0019113111775368452,0.006895977538079023
0.013704570010304451,-0.00021543583716265857,-0.015073894523084164,0.01032950822263956,0.001843300648033619,0.006896282080560923
0.013946508057415485,-0.00020327135280240327,-0.015168529935181141,0.009563346393406391,0.002745791571214795,0.007376103196293116
0.01412745751440525,-0.0001976899366127327,-0.015270892530679703,0.009388528764247894,0.002513413317501545,0.006851820275187492
0.014275624416768551,-0.00019240708206780255,-0.014969459734857082,0.00901331938803196,0.0022930947598069906,0.007055772468447685
0.014464379288256168,-0.0001649159676162526,-0.01515153143554926,0.008621469140052795,0.0020094348583370447,0.0075243134051561356
0.014177456498146057,-0.0001598271628608927,-0.015185466967523098,0.008233744651079178,0.0020708353258669376,0.006986675783991814
0.014163143932819366,-0.00015586103836540133,-0.01473077479749918,0.008271804079413414,0.0022085816599428654,0.006941423751413822
0.014433026313781738,-0.00015209789853543043,-0.014974652789533138,0.008768390864133835,0.00216468027792871,0.007016689516603947
0.014642186462879181,-0.00014851237938273698,-0.015283633023500443,0.008600637316703796,0.0023130939807742834,0.007404438219964504
0.01452763844281435,-0.00014509209722746164,-0.015558144077658653,0.008315952494740486,0.0020617209374904633,0.007505882065743208
0.01452763844281435,-0.00014509209722746164,-0.015558144077658653,0.008315952494740486,0.0020617209374904633,0.007505882065743208
0.014783153310418129,-0.00014182580343913287,-0.015242144465446472,0.0082935132086277,0.0020026317797601223,0.007432856131345034
0.014632017351686954,-0.0001387033553328365,-0.015505971387028694,0.008981175720691681,0.0019157098140567541,0.007382581010460854
0.014901815913617611,-3.6764908145414665e-05,-0.014824679121375084,0.008982712402939796,0.002149000996723771,0.0074059669859707355
0.01514810137450695,-4.932481374453346e-07,-0.015487057156860828,0.008416303433477879,0.002358816098421812,0.007363188546150923
0.01537312101572752,0.0019221161492168903,-0.014922885224223137,0.007831047289073467,0.0027260459028184414,0.006996271666139364
0.014800249598920345,0.00279628555290401,-0.015533817932009697,0.007870270870625973,0.0029639494605362415,0.006814992055296898
0.015152336098253727,0.0020290606189519167,-0.014618653804063797,0.007455532904714346,0.0029008553829044104,0.007139725144952536
0.015278245322406292,0.00013980409130454063,-0.015322946943342686,0.0071757277473807335,0.0024091205559670925,0.007990320213139057
0.015409325249493122,1.8756503550321213e-06,-0.015075376257300377,0.007839933037757874,0.002175245899707079,0.007803493645042181
0.01536509208381176,2.516424579823706e-08,-0.015172925777733326,0.008375248871743679,0.0021768633741885424,0.007057652808725834
0.015970295295119286,3.376104673602498e-10,-0.01553232129663229,0.007975283078849316,0.0021941803861409426,0.0069276802241802216
0.015497799031436443,4.529475319120513e-12,-0.01587619259953499,0.008058247156441212,0.0025111655704677105,0.006966473069041967
0.01583942584693432,6.076869151112885e-14,-0.015827611088752747,0.0079795615747571,0.002616861602291465,0.006992190144956112
0.015446843579411507,0.0015889659989625216,-0.015357011929154396,0.007772432640194893,0.0024442507419735193,0.007160610053688288
0.015410126186907291,0.0013251883210614324,-0.015415137633681297,0.008076217025518417,0.0022776052355766296,0.007403986062854528
0.015573478303849697,0.0008297540480270982,-0.01512700691819191,0.008071566931903362,0.0021513549145311117,0.007488204166293144
0.016335176303982735,0.0006677058408968151,-0.015558229759335518,0.008173086680471897,0.002228386700153351,0.0073542301543056965
0.015859248116612434,0.0005630005616694689,-0.015045205131173134,0.007820455357432365,0.002668362343683839,0.007087807636708021
0.015686428174376488,0.0002837236679624766,-0.015667051076889038,0.007962978444993496,0.003080591093748808,0.00725188385695219
0.015476182103157043,0.00047756428830325603,-0.015384560450911522,0.007902528159320354,0.002719527343288064,0.008423681370913982
0.016286851838231087,0.0014889227459207177,-0.014587346464395523,0.007509282324463129,0.0023728283122181892,0.007681424263864756
0.015810439363121986,0.0012552400585263968,-0.015742048621177673,0.007044379133731127,0.002036298858001828,0.007318534422665834
0.01650334522128105,0.0011813424061983824,-0.015513273887336254,0.006970299873501062,0.0018934892723336816,0.007519883569329977
0.01609342359006405,0.0009999694302678108,-0.015748772770166397,0.007321622222661972,0.002154829679057002,0.008098090998828411
0.01615540124475956,0.0008629228686913848,-0.014905457384884357,0.007438443135470152,0.002666155342012644,0.008340721018612385
0.01610361412167549,0.0008656377904117107,-0.01490649301558733,0.006764148827642202,0.0029116696678102016,0.008017306216061115
0.015364781022071838,0.0006885109469294548,-0.015221362002193928,0.007061098702251911,0.0029541263356804848,0.0077131218276917934
0.015931615605950356,0.000702209013979882,-0.01490127481520176,0.007279778830707073,0.002922851825132966,0.007638145238161087
0.01571451872587204,0.000795495230704546,-0.01539647951722145,0.00662068510428071,0.0026277743745595217,0.007608947344124317
0.01571451872587204,0.000795495230704546,-0.01539647951722145,0.00662068510428071,0.0026277743745595217,0.007608947344124317
0.01623275876045227,0.0012276404304429889,-0.015047294087707996,0.006256904918700457,0.0025078807957470417,0.007576455362141132
0.016262274235486984,0.0013454281724989414,-0.01499982364475727,0.00685486476868391,0.0026944875717163086,0.007512184791266918
0.016599828377366066,0.0013042328646406531,-0.01513613574206829,0.00673350365832448,0.002822378883138299,0.007904201745986938
0.0163893885910511,0.0012993629788979888,-0.015814222395420074,0.006557478569447994,0.0027857664972543716,0.007593123242259026
0.01640952005982399,0.0013634181814268231,-0.015187612734735012,0.006558586843311787,0.002735741436481476,0.008031008765101433
0.016420798376202583,0.0013178958324715495,-0.015372436493635178,0.007108971476554871,0.0027777759823948145,0.008102227933704853
0.016118420287966728,0.0012272042222321033,-0.015069101937115192,0.007641741074621677,0.0024505923502147198,0.008232133463025093
0.016638023778796196,0.0013426875229924917,-0.01542139332741499,0.0076293544843792915,0.002318453975021839,0.008240927942097187
0.016550874337553978,0.0016401689499616623,-0.014566699974238873,0.00695829326286912,0.002279881155118346,0.007900751195847988
0.01690615713596344,0.00199214369058609,-0.015448945574462414,0.006319676525890827,0.0023230325896292925,0.00788432452827692
0.016771115362644196,0.0022018649615347385,-0.014916894026100636,0.00669964961707592,0.002610186580568552,0.00764192920178175
0.01681346446275711,0.0021910744253546,-0.015248092822730541,0.006962476298213005,0.0028205616399645805,0.008008538745343685
0.01693880744278431,0.002114610280841589,-0.01511588878929615,0.0065423487685620785,0.0028698411770164967,0.00814733188599348
0.016700636595487595,0.0020314883440732956,-0.01524087693542242,0.006063463632017374,0.0030971216037869453,0.008211763575673103
0.017079293727874756,0.0019944263622164726,-0.014969948679208755,0.0058370716869831085,0.0029683378525078297,0.008235631510615349
0.016989590600132942,0.0019550907891243696,-0.015314005315303802,0.005773926619440317,0.002789132995530963,0.008377312682569027
0.01698606088757515,0.002010102616623044,-0.015212536789476871,0.006232605315744877,0.0025716524105519056,0.008219895884394646
0.017087429761886597,0.0020004415418952703,-0.015239566564559937,0.00630748737603426,0.002410631626844406,0.007701986934989691
0.017013780772686005,0.002174008870497346,-0.015471871942281723,0.006042098626494408,0.0026240248698741198,0.00791745726019144
0.017231356352567673,0.001985993469133973,-0.015211503952741623,0.005777050741016865,0.0027972643729299307,0.008241219446063042
0.017075927928090096,0.002113952999934554,-0.015132727101445198,0.00572214974090457,0.002769333776086569,0.008355934172868729
0.017101138830184937,0.0027740185614675283,-0.014985362999141216,0.00604440039023757,0.002766780322417617,0.008405989035964012
0.017115533351898193,0.003933879546821117,-0.014698377810418606,0.005369619000703096,0.0024345957208424807,0.007930696941912174
0.01740865968167782,0.0038299248553812504,-0.0152288181707263,0.005001692567020655,0.0024520689621567726,0.007794208824634552
0.017045289278030396,0.0035240736324340105,-0.015130949206650257,0.005000237841159105,0.0027370168827474117,0.007900665514171124
0.01732095517218113,0.00297455582767725,-0.015175153501331806,0.00581090385094285,0.0028664967976510525,0.007758380379527807
0.017548726871609688,0.002995701041072607,-0.014227116480469704,0.005355028435587883,0.0027458483818918467,0.008178690448403358
0.0172211155295372,0.0035289821680635214,-0.01486366055905819,0.004650356713682413,0.0027036690153181553,0.009208527393639088
0.017365412786602974,0.004179877694696188,-0.014468011446297169,0.004387626424431801,0.00258907163515687,0.00941587332636118
0.017220648005604744,0.004566746298223734,-0.015206947922706604,0.0044107455760240555,0.002438566880300641,0.008764107711613178
0.017465941607952118,0.004586759023368359,-0.01440066285431385,0.004631254356354475,0.0025333829689770937,0.008670132607221603
0.017465941607952118,0.004586759023368359,-0.01440066285431385,0.004631254356354475,0.0025333829689770937,0.008670132607221603
0.017730746418237686,0.004741625394672155,-0.014661939814686775,0.004639126360416412,0.0030083998572081327,0.008364523760974407
0.017604224383831024,0.004441113211214542,-0.014436747878789902,0.004954356234520674,0.003099277848377824,0.008792120032012463
0.017975347116589546,0.00430305115878582,-0.014982946217060089,0.004829727113246918,0.0029515635687857866,0.008904377929866314
0.0174667127430439,0.004620268940925598,-0.014140131883323193,0.004465071950107813,0.0028908983804285526,0.008314852602779865
0.017705019563436508,0.004893532954156399,-0.014667474664747715,0.004460361786186695,0.003142542438581586,0.008592377416789532
0.017863677814602852,0.0050024110823869705,-0.014289029873907566,0.004192980006337166,0.0033558157738298178,0.008809264749288559
0.017506543546915054,0.005678558722138405,-0.014646239578723907,0.003965133335441351,0.0031721615232527256,0.00857502780854702
0.018344826996326447,0.005623186472803354,-0.014219301752746105,0.004583210218697786,0.0029962360858917236,0.008667589165270329
0.01818505860865116,0.005627842154353857,-0.014371209777891636,0.00456250598654151,0.002979104407131672,0.00876552052795887
0.017772814258933067,0.0052438778802752495,-0.014292804524302483,0.0035658827982842922,0.0031541455537080765,0.008887560106813908
0.016779998317360878,0.005385900381952524,-0.014664090238511562,0.0034490900579839945,0.0031047475058585405,0.008548679761588573
0.018192213028669357,0.005852997303009033,-0.01404340285807848,0.0037665236741304398,0.003012071829289198,0.008738570846617222
0.018684513866901398,0.006125523243099451,-0.014358339831233025,0.003796767443418503,0.0028620343655347824,0.00882059708237648
0.01858527585864067,0.005902167409658432,-0.013879011385142803,0.003567078383639455,0.002950218040496111,0.009466652758419514
0.018385162577033043,0.0059481533244252205,-0.014518709853291512,0.0033809866290539503,0.0029261803720146418,0.009139318019151688
0.018548039719462395,0.0059827412478625774,-0.013842848129570484,0.0033150811213999987,0.0029318721499294043,0.009030784480273724
0.01902291178703308,0.006519329268485308,-0.014414770528674126,0.0029898977372795343,0.0029993222560733557,0.00928062479943037
0.01869836635887623,0.006793468724936247,-0.013898245058953762,0.0029772589914500713,0.003044874407351017,0.009481703862547874
0.018167300149798393,0.006612525321543217,-0.014589057303965092,0.0029562930576503277,0.003118781838566065,0.009133455343544483
0.01807122491300106,0.006545637734234333,-0.01440964825451374,0.0029835912864655256,0.0030296563636511564,0.008903168141841888
0.01840486004948616,0.006327482871711254,-0.014730204828083515,0.0029254320543259382,0.0034533704165369272,0.008519355207681656
0.019299928098917007,0.006944611668586731,-0.01496044360101223,0.0024833413772284985,0.003422293346375227,0.008908132091164589
0.01854146271944046,0.006904099136590958,-0.014842184260487556,0.002261106390506029,0.003042621072381735,0.009733033366501331
0.019478406757116318,0.007247926201671362,-0.01458696834743023,0.002146066166460514,0.0029323059134185314,0.00936150923371315
0.01976756937801838,0.007636215537786484,-0.014069963246583939,0.002070046029984951,0.0026832909788936377,0.00953205581754446
0.01952407881617546,0.007240602280944586,-0.014579548500478268,0.0022256372030824423,0.0026206939946860075,0.009032939560711384
0.019438406452536583,0.0069756535813212395,-0.014168822206556797,0.002423439873382449,0.0027841650880873203,0.009690002538263798
0.019438406452536583,0.0069756535813212395,-0.014168822206556797,0.002423439873382449,0.0027841650880873203,0.009690002538263798
0.019579634070396423,0.008066345937550068,-0.01369953528046608,0.0026351562701165676,0.0033722883090376854,0.008965030312538147
0.01964825764298439,0.008122262544929981,-0.013962377794086933,0.002292134566232562,0.0031882456969469786,0.00934265460819006
0.01974216289818287,0.007847407832741737,-0.013906611129641533,0.0020465829875320196,0.003529195673763752,0.009591788053512573
0.01974216289818287,0.007847407832741737,-0.013906611129641533,0.0020465829875320196,0.003529195673763752,0.009591788053512573
0.019690370187163353,0.008208618499338627,-0.014522873796522617,0.0017581210704520345,0.003689968027174473,0.009094120934605598
0.020026536658406258,0.008483272977173328,-0.013818025588989258,0.001518351025879383,0.0040922448970377445,0.009361648000776768
0.0202223751693964,0.007909568026661873,-0.014794361777603626,0.0012629199773073196,0.0036144021432846785,0.009634074755012989
0.019989455118775368,0.007709006313234568,-0.014169568195939064,0.0013464860385283828,0.0035373917780816555,0.009699627757072449
0.020062319934368134,0.007846741005778313,-0.01426265761256218,0.0015501556918025017,0.0036391690373420715,0.010026054456830025
0.020408425480127335,0.008778747171163559,-0.013811936601996422,0.0015302251558750868,0.0037178604397922754,0.009659781120717525
0.020020265132188797,0.008579344488680363,-0.015159280970692635,0.0014353704173117876,0.003283641068264842,0.00928219873458147
0.019671713933348656,0.008190901018679142,-0.01398545317351818,0.0012725035194307566,0.003301297314465046,0.009401586838066578
0.020504692569375038,0.00845763087272644,-0.014072045683860779,0.0011645209742709994,0.003458223771303892,0.009487605653703213
0.020360611379146576,0.008233311586081982,-0.013475054875016212,0.0009943668264895678,0.003487872425466776,0.009355827234685421
0.019788818433880806,0.008321034722030163,-0.014621173962950706,0.0009431121870875359,0.0031945067457854748,0.00941154733300209
0.020449362695217133,0.008881432935595512,-0.014530571177601814,0.0008468334563076496,0.003443988272920251,0.009546992368996143
0.020290566608309746,0.009222088381648064,-0.01475750096142292,0.0007992741884663701,0.0037700426764786243,0.009631303139030933
0.01995549537241459,0.008794506080448627,-0.013536781072616577,0.0007605559076182544,0.0038768199738115072,0.009797008708119392
0.020095499232411385,0.009644539095461369,-0.014217606745660305,0.0006905324989929795,0.003419337561354041,0.010223272256553173
0.02036980353295803,0.00918165035545826,-0.01382546965032816,0.0005834589246660471,0.0033841761760413647,0.010202724486589432
0.020187415182590485,0.008812774904072285,-0.014151201583445072,0.00048196871648542583,0.003116938751190901,0.010051481425762177
0.020273104310035706,0.008540193550288677,-0.013512186706066132,0.0004329522780608386,0.003256203606724739,0.009726595133543015
0.019246716052293777,0.009078573435544968,-0.013503972440958023,0.0004340756859164685,0.0035625938326120377,0.009933256544172764
0.02137855999171734,0.008917158469557762,-0.013772210106253624,0.0004028441908303648,0.003744743764400482,0.009279374964535236
0.02114899829030037,0.009386055171489716,-0.013354163616895676,0.00037493277341127396,0.003908040467649698,0.009947532787919044
0.021055692806839943,0.009210661053657532,-0.013954142108559608,0.00035058020148426294,0.003475464880466461,0.010293960571289062
0.0209139883518219,0.009241034276783466,-0.013299611397087574,0.00032919866498559713,0.0031424614135175943,0.010275817476212978
0.020990528166294098,0.009756436571478844,-0.013286556117236614,0.0003102741320617497,0.002948779845610261,0.009661136195063591
0.021527044475078583,0.009566540829837322,-0.013042887672781944,0.0002934084623120725,0.0031663249246776104,0.009682024829089642
0.021314172074198723,0.009042385034263134,-0.013318630866706371,0.0002782832598313689,0.004094181582331657,0.010030985809862614
0.021160142496228218,0.008428864181041718,-0.013634958304464817,0.0002971930371131748,0.004064562730491161,0.00931529514491558
0.021671127527952194,0.007351308595389128,-0.012916669249534607,0.00029356477898545563,0.0034992145374417305,0.009590951725840569
0.022262105718255043,0.006940711755305529,-0.013389155268669128,0.0002811314188875258,0.0033820439130067825,0.009939401410520077
0.022262105718255043,0.006940711755305529,-0.013389155268669128,0.0002811314188875258,0.0033820439130067825,0.009939401410520077
0.022583119571208954,0.007799641229212284,-0.012980693951249123,0.0002691619156394154,0.0035371596459299326,0.010323593392968178
0.021688418462872505,0.008602972142398357,-0.013071573339402676,0.00025813354295678437,0.0034326789900660515,0.01044398732483387
0.02096397615969181,0.008557894267141819,-0.012700813822448254,0.00024797150399535894,0.003529974026605487,0.010009349323809147
0.02205207571387291,0.0077814157120883465,-0.013209170661866665,0.0002385797561146319,0.00338578294031322,0.010216020978987217
0.022363565862178802,0.007840637117624283,-0.012827616184949875,0.0002298732433700934,0.004016668535768986,0.010090584866702557
0.022205179557204247,0.00822804681956768,-0.013196843676269054,0.00022177970095071942,0.004156169481575489,0.009911272674798965
0.02192610874772072,0.008271967992186546,-0.013020467944443226,0.00021423738508019596,0.003719485132023692,0.009922575205564499
0.02227533422410488,0.007796636316925287,-0.0131123848259449,0.00020719070744235069,0.003983528818935156,0.010760805569589138
0.02295432612299919,0.008115808479487896,-0.013052294962108135,0.0001097657805075869,0.004144752863794565,0.011204604059457779
0.022750604897737503,0.00823320634663105,-0.012712566182017326,7.687996549066156e-05,0.0037948687095195055,0.010234629735350609
0.022498298436403275,0.008050129748880863,-0.013267292641103268,7.19589734217152e-05,0.0034835042897611856,0.009762626141309738
0.022104483097791672,0.007744992151856422,-0.01237841323018074,6.907639181008562e-05,0.0032036537304520607,0.009980959817767143
0.022421222180128098,0.008107843808829784,-0.013207758776843548,6.651541480096057e-05,0.0033763989340513945,0.009931339882314205
0.02287883497774601,0.008222664706408978,-0.012426416389644146,6.414430390577763e-05,0.0036056218668818474,0.010460272431373596
0.023611854761838913,0.007828322239220142,-0.013354280032217503,3.5074379411526024e-05,0.004041812848299742,0.01024931762367487
0.023012323305010796,0.008898255415260792,-0.013101942837238312,2.8991753424634226e-05,0.0045199524611234665,0.010351110249757767
0.023523444309830666,0.008532628417015076,-0.012881774455308914,1.4301951523520984e-05,0.004146944265812635,0.010518624447286129
0.023667778819799423,0.00824138056486845,-0.01254474837332964,9.338152722193627e-07,0.0037986754905432463,0.010293285362422466
0.023480573669075966,0.008489148691296577,-0.013022629544138908,6.097145899275347e-08,0.0033955213148146868,0.010280736722052097
0.02372012659907341,0.008959445171058178,-0.01241392083466053,3.981000862296469e-09,0.0035923277027904987,0.010207447223365307
0.023877592757344246,0.008444012142717838,-0.013083170168101788,2.5993091012921354e-10,0.00418500741943717,0.01055371854454279
0.022507792338728905,0.008358214981853962,-0.012477423064410686,1.6971630698026097e-11,0.004216049797832966,0.009981919080018997
0.024446547031402588,0.009007380343973637,-0.012953055091202259,1.1081261776235696e-12,0.004263449925929308,0.009690371342003345
0.02487797848880291,0.0085830083116889,-0.012739649973809719,7.235272087404224e-14,0.004147625993937254,0.010709134861826897
0.024650774896144867,0.00893443450331688,-0.013561897911131382,4.7241157756234674e-15,0.004006345756351948,0.01036121603101492
0.024675222113728523,0.009021560661494732,-0.013748734258115292,3.084509917398141e-16,0.0042364150285720825,0.010150871239602566
0.02440469339489937,0.008875900879502296,-0.0133268553763628,-0.0006966579821892083,0.004097772296518087,0.010279702953994274
0.02473139949142933,0.009200755506753922,-0.01341785304248333,-0.0009502531029284,0.003913091495633125,0.010089158080518246
0.024753844365477562,0.008869640529155731,-0.013819141313433647,-0.0009900336153805256,0.0038713214453309774,0.010321938432753086
0.024753844365477562,0.008869640529155731,-0.013819141313433647,-0.0009900336153805256,0.0038713214453309774,0.010321938432753086
0.024830400943756104,0.009151947684586048,-0.013956788927316666,-0.0013508354313671589,0.0039278254844248295,0.010346764698624611
0.02536158822476864,0.008806047961115837,-0.013419204391539097,-0.0015886512119323015,0.00393668981269002,0.01030814554542303
0.02552693523466587,0.009767159819602966,-0.014058453030884266,-0.0022087800316512585,0.0038896205369383097,0.010411293245851994
0.025199662894010544,0.009313507005572319,-0.013222752138972282,-0.0030143337789922953,0.0041296398267149925,0.010744609870016575
0.0251556858420372,0.009425339289009571,-0.013771177269518375,-0.0031402246095240116,0.0042804814875125885,0.010639919899404049
0.02514912374317646,0.009178928099572659,-0.013733802363276482,-0.003115713596343994,0.004099615849554539,0.010995021089911461
0.025012271478772163,0.00995433796197176,-0.014423791319131851,-0.003184207482263446,0.004003408830612898,0.01053374633193016
0.025379616767168045,0.010265219025313854,-0.013854031451046467,-0.003527960507199168,0.004056255798786879,0.010196994990110397
0.02570844255387783,0.009442886337637901,-0.01422450877726078,-0.00435139425098896,0.004088312387466431,0.010823143646121025
0.025373227894306183,0.009980626404285431,-0.014070961624383926,-0.005060159135609865,0.003992953337728977,0.011308591812849045
0.026040786877274513,0.010147564113140106,-0.01424101460725069,-0.0046417852863669395,0.004175113048404455,0.010545250959694386
0.025694962590932846,0.009004808962345123,-0.013525962829589844,-0.0045375823974609375,0.004300267901271582,0.010146825574338436
0.026013553142547607,0.009783877991139889,-0.014092705212533474,-0.004129720851778984,0.004068881738930941,0.011672413907945156
0.025898052379488945,0.009197738021612167,-0.01429264061152935,-0.005177133716642857,0.00389436399564147,0.01156854908913374
0.026074130088090897,0.01057092659175396,-0.013862348161637783,-0.00585257587954402,0.004647832829505205,0.010741908103227615
0.026251554489135742,0.009857244789600372,-0.013562717474997044,-0.005992654711008072,0.004783520940691233,0.011549561284482479
0.026251554489135742,0.009857244789600372,-0.013562717474997044,-0.005992654711008072,0.004783520940691233,0.011549561284482479
0.02725788578391075,0.010560843162238598,-0.01368820108473301,-0.00609474116936326,0.003960424568504095,0.011382500641047955
0.026868786662817,0.010036260820925236,-0.01360557321459055,-0.005266300402581692,0.003599658375605941,0.01143514271825552
0.024533472955226898,0.009700539521872997,-0.013170726597309113,-0.005747808609157801,0.003741366323083639,0.011455589905381203
0.02690981887280941,0.01026217546314001,-0.013494896702468395,-0.006834342144429684,0.003942165523767471,0.011504231952130795
0.027365434914827347,0.010417687706649303,-0.013238667510449886,-0.0065579661168158054,0.004348616115748882,0.011337311007082462
0.026947833597660065,0.009923906996846199,-0.013415627181529999,-0.006272974424064159,0.004460311960428953,0.011348027735948563
0.026612505316734314,0.010192214511334896,-0.012951457872986794,-0.005728290881961584,0.004790802951902151,0.011544255539774895
0.026612505316734314,0.010192214511334896,-0.012951457872986794,-0.005728290881961584,0.004790802951902151,0.011544255539774895
0.0273019727319479,0.010224811732769012,-0.013667084276676178,-0.0063905236311256886,0.004664161242544651,0.011440960690379143
0.02743692696094513,0.010309352539479733,-0.012888100929558277,-0.006091428454965353,0.004386200103908777,0.011184031143784523
0.027125876396894455,0.011076672002673149,-0.01338069885969162,-0.005925796926021576,0.00407192250713706,0.011178052052855492
0.026090286672115326,0.01115663256496191,-0.012952449731528759,-0.005977453663945198,0.003538456279784441,0.011297191493213177
0.02561168372631073,0.010297290980815887,-0.013399436138570309,-0.00601228279992938,0.0038257648702710867,0.011389709077775478
0.026587724685668945,0.009973159991204739,-0.013164535164833069,-0.006282558664679527,0.00449869642034173,0.011239859275519848
0.02669551596045494,0.009923430159687996,-0.013272639364004135,-0.006729344837367535,0.004988638684153557,0.011507145129144192
0.026447320356965065,0.010425001382827759,-0.013130417093634605,-0.0064230626448988914,0.004905644804239273,0.011400272138416767
0.026508620008826256,0.011025081388652325,-0.012899557128548622,-0.005890521686524153,0.004674113821238279,0.011078838258981705
0.026716500520706177,0.01018185168504715,-0.013364749029278755,-0.0065835993736982346,0.004165631718933582,0.011682350188493729
0.026556093245744705,0.01006463821977377,-0.012929418124258518,-0.006972589064389467,0.003912417683750391,0.011581930331885815
0.0264875628054142,0.010204766876995564,-0.013325465843081474,-0.007007651962339878,0.003960032947361469,0.011458353139460087
0.026785869151353836,0.010248413309454918,-0.013226914219558239,-0.006550038233399391,0.004494447726756334,0.011689003556966782
0.026795759797096252,0.011050736531615257,-0.013365454971790314,-0.006315160542726517,0.004177203867584467,0.011636693961918354
0.02663971669971943,0.010141434147953987,-0.012952180579304695,-0.007047357503324747,0.00455330079421401,0.01185170840471983
0.026464788243174553,0.00987938977777958,-0.013391314074397087,-0.007239806931465864,0.004552748054265976,0.011495205573737621
0.02670067362487316,0.01074613444507122,-0.012719652615487576,-0.0070974258705973625,0.0039503974840044975,0.01159815862774849
0.02656274288892746,0.010453684255480766,-0.013270302675664425,-0.0072592636570334435,0.004427187144756317,0.011562567204236984
0.026406023651361465,0.011186660267412663,-0.012626003473997116,-0.00738860247656703,0.004376451019197702,0.011777653358876705
0.026863859966397285,0.010183902457356453,-0.012698172591626644,-0.007643631659448147,0.00456664664670825,0.011470301076769829
0.026907913386821747,0.010647786781191826,-0.012113717384636402,-0.0075944229029119015,0.00464188028126955,0.011289152316749096
0.026963064447045326,0.010027346201241016,-0.01270644273608923,-0.00818942952901125,0.004975224379450083,0.011432003229856491
0.02667689509689808,0.009843751788139343,-0.012362523004412651,-0.008508183062076569,0.004586874973028898,0.011624719016253948
0.027460748329758644,0.010457733646035194,-0.012827320955693722,-0.00797222275286913,0.00407386664301157,0.011754998937249184
0.027460748329758644,0.010457733646035194,-0.012827320955693722,-0.00797222275286913,0.00407386664301157,0.011754998937249184
0.0282418392598629,0.010220518335700035,-0.01251548808068037,-0.00827487651258707,0.0038926980923861265,0.012042704969644547
0.02796248346567154,0.010278718546032906,-0.0122316163033247,-0.008404833264648914,0.004350011236965656,0.01212733332067728
0.02648821286857128,0.010987058281898499,-0.012786048464477062,-0.00912988930940628,0.004556332714855671,0.01244968082755804
0.026948608458042145,0.010037403553724289,-0.012066306546330452,-0.00868410523980856,0.004515625536441803,0.011722729541361332
0.02784358151257038,0.009981733746826649,-0.012690216302871704,-0.008554753847420216,0.00436771335080266,0.012164760380983353
0.028082281351089478,0.010751169174909592,-0.012259398587048054,-0.009263524785637856,0.00454032002016902,0.012446766719222069
0.02748456969857216,0.01073506660759449,-0.013037976808845997,-0.00885048322379589,0.00458920281380415,0.012685367837548256
0.027929453179240227,0.01042880117893219,-0.012759223580360413,-0.008965739980340004,0.004258171189576387,0.012791996821761131
0.027709221467375755,0.010688337497413158,-0.012750741094350815,-0.009138742461800575,0.004247745499014854,0.012166991829872131
0.027908746153116226,0.010415343567728996,-0.012678676284849644,-0.009036099538207054,0.0041482760570943356,0.01213676668703556
0.027048273012042046,0.010390444658696651,-0.01241302490234375,-0.008597366511821747,0.004339264705777168,0.012023050338029861
0.027135983109474182,0.010678905993700027,-0.012828446924686432,-0.008867328055202961,0.004552897997200489,0.012845627032220364
0.027718596160411835,0.010439074598252773,-0.012585356831550598,-0.00844902079552412,0.004690990317612886,0.01244400069117546
0.027679476886987686,0.010625919327139854,-0.01323228795081377,-0.008314527571201324,0.004499028902500868,0.011895030736923218
0.02726716548204422,0.010488854721188545,-0.012479900382459164,-0.008688384667038918,0.00414831330999732,0.012033221311867237
0.02759128250181675,0.01048625074326992,-0.013039452955126762,-0.009219341911375523,0.0043946364894509315,0.012287536635994911
0.027683794498443604,0.010916103608906269,-0.01292887981981039,-0.008453474380075932,0.004830628167837858,0.012238231487572193
0.027142923325300217,0.010734436102211475,-0.01280211377888918,-0.008542018942534924,0.004786795005202293,0.012025734409689903
0.02721521258354187,0.011454613879323006,-0.013101589865982533,-0.00907121878117323,0.00448676897212863,0.01238646823912859
0.027589410543441772,0.010627449490129948,-0.012982377782464027,-0.008469246327877045,0.004334151279181242,0.012653638608753681
0.02784598059952259,0.01100715808570385,-0.012470648624002934,-0.009132342413067818,0.004231256898492575,0.012591696344316006
0.028066324070096016,0.011038792319595814,-0.012837176211178303,-0.008652003481984138,0.0044571817852556705,0.012498944997787476
0.02821579948067665,0.010846350342035294,-0.012447847984731197,-0.008620889857411385,0.004570373333990574,0.012588548474013805
0.028489157557487488,0.01124449260532856,-0.012997631914913654,-0.008938783779740334,0.00428831297904253,0.01270666066557169
0.02860739454627037,0.011012858711183071,-0.012879242189228535,-0.008959530852735043,0.004336876329034567,0.012565463781356812
0.02693599835038185,0.01112613920122385,-0.01281044539064169,-0.008616284467279911,0.0046194386668503284,0.01307365670800209
0.028881574049592018,0.011761538684368134,-0.013042834587395191,-0.008992759510874748,0.0048796008341014385,0.012833600863814354
0.028765905648469925,0.011275261640548706,-0.012500383891165257,-0.009789396077394485,0.004282705951482058,0.012705088593065739
0.028485698625445366,0.01171103771775961,-0.01283787377178669,-0.009637893177568913,0.004321779124438763,0.01220290269702673
0.028410976752638817,0.011407223530113697,-0.012432106770575047,-0.009351246058940887,0.004272560589015484,0.012533813714981079
0.028752246871590614,0.011480016633868217,-0.013016962446272373,-0.010509573854506016,0.004821460228413343,0.012507903389632702
0.028752246871590614,0.011480016633868217,-0.013016962446272373,-0.010509573854506016,0.004821460228413343,0.012507903389632702
0.028929438441991806,0.011726230382919312,-0.012682262808084488,-0.010285417549312115,0.0049599879421293736,0.012799170799553394
0.028745874762535095,0.01142310630530119,-0.013020693324506283,-0.00953513290733099,0.004880452994257212,0.012407934293150902
0.028919942677021027,0.011956758797168732,-0.012654829770326614,-0.009556181728839874,0.0051109506748616695,0.012259607203304768
0.02920977957546711,0.011948570609092712,-0.013072188943624496,-0.010094418190419674,0.0048956433311104774,0.012546805664896965
0.029193999245762825,0.011876432225108147,-0.013342616148293018,-0.010118195787072182,0.004774697124958038,0.01244673877954483
0.029382459819316864,0.012043803930282593,-0.012828490696847439,-0.010297867469489574,0.004373632837086916,0.012631790712475777
0.029259581118822098,0.011581824161112309,-0.013583170250058174,-0.010390251874923706,0.00472659757360816,0.012695074081420898
0.029261671006679535,0.012402338907122612,-0.012648033909499645,-0.009924330748617649,0.004801464732736349,0.013142555952072144
0.029323244467377663,0.011949694715440273,-0.013025919906795025,-0.010069847106933594,0.004921200685203075,0.013154251500964165
0.02933543361723423,0.012400129809975624,-0.012559282593429089,-0.010013255290687084,0.004799430258572102,0.013164754025638103
0.02916760742664337,0.012520263902842999,-0.013338133692741394,-0.01054287701845169,0.004722096491605043,0.013309040106832981
0.029584789648652077,0.012313520535826683,-0.012986444868147373,-0.01079506054520607,0.004629303701221943,0.013501377776265144
0.030301207676529884,0.012736176140606403,-0.013047243468463421,-0.009873991832137108,0.004379250109195709,0.01192412432283163
0.030238613486289978,0.012229257263243198,-0.013221272267401218,-0.00997600331902504,0.004512615501880646,0.013198274187743664
0.028781041502952576,0.012572319246828556,-0.012658084742724895,-0.010052036494016647,0.004558946006000042,0.01374090276658535
0.029358675703406334,0.012431744486093521,-0.012736797332763672,-0.010421285405755043,0.00443051615729928,0.01344296708703041
0.02968393638730049,0.012677858583629131,-0.013327447697520256,-0.011697436682879925,0.004426938947290182,0.012820271775126457
0.02968393638730049,0.012677858583629131,-0.013327447697520256,-0.011697436682879925,0.004426938947290182,0.012820271775126457
0.03103007934987545,0.012776565738022327,-0.013182267546653748,-0.011457073502242565,0.004504298325628042,0.012664511799812317
0.030087221413850784,0.012617805041372776,-0.013099701143801212,-0.011025218293070793,0.004642337094992399,0.013101539574563503
0.02986738458275795,0.013238356448709965,-0.013102390803396702,-0.010806621983647346,0.004341968335211277,0.012905526906251907
0.029796160757541656,0.012634855695068836,-0.013054605573415756,-0.010748672299087048,0.004315018653869629,0.013017884455621243
0.030885737389326096,0.013210796751081944,-0.013147886842489243,-0.01063116081058979,0.004558749496936798,0.013312172144651413
0.03132961317896843,0.012750877067446709,-0.013560038059949875,-0.011198965832591057,0.004783421289175749,0.013214392587542534
0.02963867224752903,0.013209196738898754,-0.012750977650284767,-0.011377559043467045,0.004575008060783148,0.013220438733696938
0.031496789306402206,0.012845607474446297,-0.013357683084905148,-0.010232078842818737,0.004663082771003246,0.013086149469017982
0.03154342994093895,0.012987070716917515,-0.012624227441847324,-0.01026755291968584,0.004834781866520643,0.01321656908839941
0.03154342994093895,0.012987070716917515,-0.012624227441847324,-0.01026755291968584,0.004834781866520643,0.01321656908839941
0.030820803716778755,0.01340545155107975,-0.013563685119152069,-0.010183422826230526,0.004804624710232019,0.013186988420784473
0.031107349321246147,0.013197394087910652,-0.013428029604256153,-0.010107986629009247,0.0047422004863619804,0.013592847622931004
0.03145230561494827,0.013971369713544846,-0.013505449518561363,-0.010759471915662289,0.00465353112667799,0.013187157921493053
0.031123347580432892,0.01352454163134098,-0.012513742782175541,-0.010863285511732101,0.0045832302421331406,0.01344980113208294
0.031183738261461258,0.013712703250348568,-0.012962720356881618,-0.011143597774207592,0.00468421122059226,0.013561179861426353
0.03156197443604469,0.01323927752673626,-0.013227744959294796,-0.011338543146848679,0.004569438751786947,0.013927183113992214
0.031896550208330154,0.01411597803235054,-0.013508226722478867,-0.011075383052229881,0.004936816170811653,0.013766572810709476
0.03158756345510483,0.013346381485462189,-0.013106632977724075,-0.01116462703794241,0.005318952724337578,0.013763881288468838
0.03137602657079697,0.013405861333012581,-0.0128699392080307,-0.011095991358160973,0.005078123416751623,0.013611074537038803
0.03153344243764877,0.013434836640954018,-0.013218216598033905,-0.010977692902088165,0.004876393359154463,0.01399535033851862
0.03305033594369888,0.01374947652220726,-0.012663081288337708,-0.0114772729575634,0.004824490752071142,0.014083805494010448
0.03297576308250427,0.013532250188291073,-0.013367291539907455,-0.011318919248878956,0.004805233329534531,0.013862723484635353
0.03102157637476921,0.013964561745524406,-0.012440766207873821,-0.011620072647929192,0.004748368635773659,0.013539101928472519
0.03130193427205086,0.01369100995361805,-0.013472521677613258,-0.011805862188339233,0.0047742826864123344,0.013744346797466278
0.0327579565346241,0.013667021878063679,-0.013239212334156036,-0.011810959316790104,0.004794751293957233,0.014042338356375694
0.032156478613615036,0.013290006667375565,-0.013315831311047077,-0.012527838349342346,0.004721886944025755,0.01424312312155962
0.03359578177332878,0.013865017332136631,-0.013128277845680714,-0.012184749357402325,0.005321684293448925,0.013922268524765968
0.03347949683666229,0.01350228488445282,-0.01344682089984417,-0.012118508107960224,0.004956885240972042,0.013947417959570885
0.031862836331129074,0.014399346895515919,-0.01260994840413332,-0.011391379870474339,0.004901077598333359,0.014052055776119232
0.032414376735687256,0.014144361950457096,-0.012834610417485237,-0.012123946100473404,0.004792599473148584,0.014298771508038044
0.03340071439743042,0.014446387998759747,-0.01255856268107891,-0.01229274645447731,0.004874751903116703,0.013438212685286999
0.033035654574632645,0.013885561376810074,-0.013668241910636425,-0.012863891199231148,0.005229420959949493,0.014979996718466282
0.033062685281038284,0.014528410509228706,-0.0129108726978302,-0.01328236237168312,0.0056842900812625885,0.014561906456947327
0.03361363336443901,0.014068778604269028,-0.013070384040474892,-0.013494220562279224,0.006058812141418457,0.014318615198135376
0.03296153247356415,0.014541779644787312,-0.012739001773297787,-0.01300705038011074,0.0055170501582324505,0.01389065571129322
0.03296153247356415,0.014541779644787312,-0.012739001773297787,-0.01300705038011074,0.0055170501582324505,0.01389065571129322
0.03334503248333931,0.014011921361088753,-0.01299916859716177,-0.013239440508186817,0.0051028006710112095,0.01415226049721241
0.032814763486385345,0.014531674794852734,-0.012972420081496239,-0.01347382739186287,0.005233993753790855,0.013926003128290176
0.033020712435245514,0.01436550822108984,-0.012688882648944855,-0.013598120771348476,0.005307062063366175,0.014155212789773941
0.03295021131634712,0.014697641134262085,-0.013148220255970955,-0.013533066026866436,0.005035618785768747,0.014064563438296318
0.03321355953812599,0.015695372596383095,-0.012428389862179756,-0.013406302779912949,0.0048484355211257935,0.014902506954967976
0.0338362418115139,0.014305069111287594,-0.012797520495951176,-0.013883620500564575,0.004786018747836351,0.014720982871949673
0.0334811769425869,0.013939999975264072,-0.012740370817482471,-0.0137429004535079,0.005149249918758869,0.014417549595236778
0.033246833831071854,0.015424211509525776,-0.013373064808547497,-0.014072134159505367,0.004954103380441666,0.013853227719664574
0.033301182091236115,0.0151433777064085,-0.013073878362774849,-0.013859241269528866,0.004944925662130117,0.014506257139146328
0.03292388468980789,0.014881523326039314,-0.012830696068704128,-0.013613457791507244,0.005660695023834705,0.014496583491563797
0.032193414866924286,0.01479981280863285,-0.012550919316709042,-0.013468620367348194,0.005502451676875353,0.015417261980473995
0.033906128257513046,0.015082236379384995,-0.012578166089951992,-0.014241672120988369,0.005121109075844288,0.015250833705067635
0.03379754349589348,0.015051821246743202,-0.013257347978651524,-0.014006439596414566,0.005009430460631847,0.01469063013792038
0.032861582934856415,0.014889637008309364,-0.012714340351521969,-0.014333385042846203,0.004919269122183323,0.014331699348986149
0.03295758366584778,0.01540384627878666,-0.012743642553687096,-0.01382501982152462,0.005261419806629419,0.014444096013903618
0.03285744786262512,0.015371231362223625,-0.012062020599842072,-0.014397545717656612,0.0055920518934726715,0.014438187703490257
0.033299386501312256,0.015563372522592545,-0.012972267344594002,-0.014229807071387768,0.005188377574086189,0.01453905925154686
0.033328827470541,0.014841594733297825,-0.012455168180167675,-0.014741620980203152,0.0051881419494748116,0.014570082537829876
0.03370236977934837,0.015187492594122887,-0.01280955784022808,-0.014105654321610928,0.005234569776803255,0.014803634025156498
0.03326842933893204,0.014890497550368309,-0.012704447843134403,-0.014968465082347393,0.005670277401804924,0.015084322541952133
0.032815586775541306,0.015076806768774986,-0.01220944244414568,-0.014763770624995232,0.00569420401006937,0.0150382611900568
0.03281017392873764,0.01484146248549223,-0.012911928817629814,-0.015169567428529263,0.005601544864475727,0.01495879516005516
0.03422161564230919,0.01450177188962698,-0.013718482106924057,-0.014889729209244251,0.0053006671369075775,0.01465383730828762
0.03443875163793564,0.015213347971439362,-0.012580069713294506,-0.014958192594349384,0.005304865539073944,0.01468723826110363
0.032714053988456726,0.015080726705491543,-0.012960711494088173,-0.015824036672711372,0.0048369006253778934,0.015190782025456429
0.032265905290842056,0.015354856848716736,-0.012956338003277779,-0.014118119142949581,0.005025481339544058,0.015309449285268784
0.03309227526187897,0.015092197805643082,-0.013299381360411644,-0.014905313029885292,0.004876466002315283,0.015303130261600018
0.03278291970491409,0.015582958236336708,-0.013346702791750431,-0.014909878373146057,0.005024783778935671,0.014939900487661362
0.0337667241692543,0.015408676117658615,-0.013033105991780758,-0.015005814842879772,0.005212864838540554,0.013695303350687027
0.0337667241692543,0.015408676117658615,-0.013033105991780758,-0.015005814842879772,0.005212864838540554,0.013695303350687027
0.0348498597741127,0.015196315012872219,-0.01307082548737526,-0.014478273689746857,0.0054427399300038815,0.015131567604839802
0.034140605479478836,0.015497238375246525,-0.012581062503159046,-0.014977363869547844,0.0051699308678507805,0.015740996226668358
0.0323474295437336,0.01545217726379633,-0.013354460708796978,-0.015187570825219154,0.005240073427557945,0.01527286134660244
0.03286657854914665,0.015593359246850014,-0.013078520074486732,-0.015790164470672607,0.005214653443545103,0.015141629613935947
0.034151725471019745,0.015124988742172718,-0.013822766952216625,-0.01615944318473339,0.005926103796809912,0.014882758259773254
0.03391123190522194,0.015582077205181122,-0.012949138879776001,-0.016142498701810837,0.005543649196624756,0.01515677198767662
0.033917564898729324,0.015241113491356373,-0.013498247601091862,-0.016542935743927956,0.005969526711851358,0.01532029826194048
0.034149546176195145,0.015725940465927124,-0.0135935228317976,-0.015766799449920654,0.005532329436391592,0.015433559194207191
0.033698756247758865,0.015191784128546715,-0.013850446790456772,-0.016523046419024467,0.005398718640208244,0.015260540880262852
0.03387948125600815,0.01566535420715809,-0.013711237348616123,-0.01667650416493416,0.005696202162653208,0.015330580994486809
0.03404644876718521,0.015159222297370434,-0.013845748268067837,-0.01684470660984516,0.005640726070851088,0.015880445018410683
0.03412279114127159,0.015871599316596985,-0.013429260812699795,-0.016933120787143707,0.005611248314380646,0.015919985249638557
0.03474661335349083,0.01563481241464615,-0.012902189046144485,-0.016267580911517143,0.005152888596057892,0.01576565019786358
0.034381769597530365,0.01567385531961918,-0.013587048277258873,-0.01632813736796379,0.005020958371460438,0.015495004132390022
0.03428803011775017,0.01558996457606554,-0.01347423531115055,-0.016334455460309982,0.005524355452507734,0.01562061719596386
0.034903403371572495,0.015588387846946716,-0.013727542944252491,-0.016593502834439278,0.006069339346140623,0.015390013344585896
0.03559161350131035,0.015664054080843925,-0.01258742343634367,-0.01589449867606163,0.005549653898924589,0.015021012164652348
0.03455023095011711,0.01550047006458044,-0.013362577185034752,-0.01614285260438919,0.005211364943534136,0.014954200945794582
0.03403642401099205,0.015765240415930748,-0.01309589110314846,-0.016751151531934738,0.0050551677122712135,0.015394865535199642
0.03504400700330734,0.015532818622887135,-0.013652104884386063,-0.016461806371808052,0.005244082305580378,0.015484234318137169
0.03460131585597992,0.016595937311649323,-0.012899938970804214,-0.01654481142759323,0.005667820572853088,0.01566743105649948
0.035981278866529465,0.015905946493148804,-0.013105831108987331,-0.016307789832353592,0.005575972609221935,0.015787377953529358
0.03669892996549606,0.01600450836122036,-0.012647882103919983,-0.016797181218862534,0.0057221888564527035,0.015846988186240196
0.034758102148771286,0.015568473376333714,-0.012760059908032417,-0.01664998196065426,0.0053292871452867985,0.015681114047765732
0.034249983727931976,0.01555228978395462,-0.013049590401351452,-0.017018863931298256,0.005162493325769901,0.01546224020421505
0.036112867295742035,0.016066376119852066,-0.013170343823730946,-0.016738323494791985,0.00620695436373353,0.015764756128191948
0.03586985170841217,0.016287166625261307,-0.012395263649523258,-0.016989635303616524,0.00647597573697567,0.015960322692990303
0.035710640251636505,0.01604195311665535,-0.013089366257190704,-0.01695767231285572,0.005949191749095917,0.015701057389378548
0.03609117120504379,0.015982653945684433,-0.01254893746227026,-0.017357628792524338,0.00588143290951848,0.015837008133530617
0.03614998236298561,0.015653450042009354,-0.012916524894535542,-0.017537731677293777,0.005767909809947014,0.01572226546704769
0.03651222586631775,0.01646796613931656,-0.012686362490057945,-0.01706700026988983,0.006047196686267853,0.01591496355831623
0.03641139343380928,0.01626494526863098,-0.012801213189959526,-0.016956506296992302,0.0056665996089577675,0.016010481864213943
0.036360569298267365,0.017054853960871696,-0.012540566734969616,-0.016559241339564323,0.005769821815192699,0.016017111018300056
0.03629062697291374,0.016947977244853973,-0.012111237272620201,-0.01720811426639557,0.005505681037902832,0.017003415152430534
0.03629062697291374,0.016947977244853973,-0.012111237272620201,-0.01720811426639557,0.005505681037902832,0.017003415152430534
0.03645087406039238,0.015958942472934723,-0.01304604485630989,-0.01724640280008316,0.0052666133269667625,0.01618337444961071
0.036775197833776474,0.016796255484223366,-0.013049366883933544,-0.01745614968240261,0.005248997360467911,0.01590963639318943
0.03686542436480522,0.015758369117975235,-0.012725203298032284,-0.017140088602900505,0.005687455181032419,0.01564781740307808
