davideferrari95/blind_handover_controller/data/Test 11 - [2024-02-07 -- 13-12-40]/joint_states_data.csv
shoulder_pan_joint,shoulder_lift_joint,elbow_joint,wrist_1_joint,wrist_2_joint,wrist_3_joint
0.00617461372166872,0.0059901392087340355,-0.007027061656117439,0.0014668465591967106,-0.00011299956531729549,0.006247833836823702
0.006242958828806877,0.005170863587409258,-0.007085641846060753,0.0013650499749928713,-0.00012277979112695903,0.0057891542091965675
0.006242958828806877,0.005170863587409258,-0.007085641846060753,0.0013650499749928713,-0.00012277979112695903,0.0057891542091965675
0.0063407812267541885,0.004810200072824955,-0.00805802084505558,0.0013139822985976934,-0.00012440438149496913,0.005973268765956163
0.006596523802727461,0.00543657410889864,-0.008266547694802284,0.0015702634118497372,-0.0001225319574587047,0.0056610857136547565
0.006601786706596613,0.005259292665868998,-0.006869182921946049,0.002082854276522994,-0.0001204972286359407,0.005734752863645554
0.006271792575716972,0.005570764187723398,-0.006734451279044151,0.0023676662240177393,-0.00011851491581182927,0.005960116162896156
0.006271792575716972,0.005570764187723398,-0.006734451279044151,0.0023676662240177393,-0.00011851491581182927,0.005960116162896156
0.006575829349458218,0.005638438742607832,-0.007219262421131134,0.0022536537144333124,-0.00011659582378342748,0.005523134488612413
0.006770249456167221,0.005051988642662764,-0.007777450140565634,0.002133225556463003,-0.00018213153816759586,0.0057564289309084415
0.00645314808934927,0.005151628982275724,-0.007142940536141396,0.0018639271147549152,-0.00018421905406285077,0.005305212922394276
0.006026444956660271,0.005180247128009796,-0.006835106760263443,0.0018237961921840906,-0.00017757290333975106,0.005187548231333494
0.006250034086406231,0.005011298228055239,-0.006726755294948816,0.0018746216082945466,-0.0001708695199340582,0.00545844528824091
0.006332991179078817,0.005905956495553255,-0.008045638911426067,0.0017722948687151074,-0.0001953136525116861,0.0052843885496258736
0.006052536424249411,0.0053419433534145355,-0.007741457782685757,0.0017212136881425977,-0.00019042656640522182,0.005436010658740997
0.006096493918448687,0.004919667262583971,-0.007065682206302881,0.0017293482087552547,-0.00018406580784358084,0.005173883400857449
0.006498291157186031,0.0053155021741986275,-0.006571722682565451,0.0016546131810173392,-0.0001780060847522691,0.0050004106014966965
0.006227183621376753,0.005077099893242121,-0.007224879693239927,0.0018045241013169289,-0.00019724552112165838,0.005165914073586464
0.006295415572822094,0.005253855604678392,-0.007305394392460585,0.0016807174542918801,-0.00019458058523014188,0.005337302107363939
0.0059524462558329105,0.0055021862499415874,-0.007122748997062445,0.0016734051750972867,-0.00018896744586527348,0.005471984390169382
0.005872005131095648,0.005452259909361601,-0.0065248506143689156,0.0015613667201250792,-0.0001834779541241005,0.0052293092012405396
0.005993123631924391,0.004829378332942724,-0.007049396634101868,0.00157776044216007,-0.00019730151689145714,0.005967582575976849
0.0058855218812823296,0.005174208898097277,-0.007294359616935253,0.0015736764762550592,-0.0001927850244101137,0.0056890142150223255
0.006445268634706736,0.005505638662725687,-0.007424360606819391,0.001971844118088484,-0.00018780643586069345,0.004960332065820694
0.005807264242321253,0.005627275910228491,-0.007123368792235851,0.001958359032869339,-0.00024614992435090244,0.004935767501592636
0.0058764442801475525,0.004994558170437813,-0.0072348895482718945,0.002139866817742586,-0.0002529590274207294,0.005792567040771246
0.006085078231990337,0.0045087905600667,-0.0066573238000273705,0.002180937211960554,-0.00024077163834590465,0.005757336970418692
0.0059424107894301414,0.004991517402231693,-0.006343374028801918,0.0022078731562942266,-0.00022862423793412745,0.005544781684875488
0.006165698636323214,0.005346819758415222,-0.00678281718865037,0.002133619040250778,-0.0002175720437662676,0.00529197184368968
0.005623704753816128,0.005349450744688511,-0.007094813045114279,0.0020548123866319656,-0.00020753577700816095,0.005351805593818426
0.005828565452247858,0.00568431569263339,-0.006197370123118162,0.001983045833185315,-0.00019838432490359992,0.005725968163460493
0.00593734672293067,0.005023579578846693,-0.005793578922748566,0.0019417173461988568,-0.00022541584621649235,0.005512343253940344
0.0059463707730174065,0.004911729134619236,-0.006212728563696146,0.0018898040289059281,-0.00021859878324903548,0.005229370202869177
0.005762426648288965,0.0053432234562933445,-0.007506185211241245,0.0018730246229097247,-0.00021023822773713619,0.004715757444500923
0.005762426648288965,0.0053432234562933445,-0.007506185211241245,0.0018730246229097247,-0.00021023822773713619,0.004715757444500923
0.005715262610465288,0.00511052506044507,-0.006784901954233646,0.0017857294296845794,-0.0002023674314841628,0.004967093467712402
0.0056304000318050385,0.005486804526299238,-0.006200382020324469,0.0017815213650465012,-0.00019505718955770135,0.005554516799747944
0.005906670354306698,0.005140573717653751,-0.005587309133261442,0.0018479969585314393,-0.00018825662846211344,0.0056618028320372105
0.006053015124052763,0.00490392092615366,-0.005837069358676672,0.0018685630057007074,-0.00020435184706002474,0.005538376048207283
0.005749220959842205,0.00510278157889843,-0.0070726037956774235,0.0020445305854082108,-0.0002048002352239564,0.005102398805320263
0.005602388177067041,0.00523453950881958,-0.0067383828572928905,0.00200901017524302,-0.00019880052423104644,0.005012494511902332
0.0055402363650500774,0.005598428193479776,-0.0064601656049489975,0.0021408521570265293,-0.0001927481935126707,0.004897417034953833
0.006183983292430639,0.005324298050254583,-0.006017755717039108,0.002223314018920064,-0.000187027282663621,0.005048704799264669
0.005751048214733601,0.005427177995443344,-0.006386430934071541,0.0024089356884360313,-0.000181635346962139,0.005571919959038496
0.005711354780942202,0.0051110549829900265,-0.006701281294226646,0.0023221299052238464,-0.00019522914953995496,0.00528255058452487
0.005784295964986086,0.004768257029354572,-0.00640661409124732,0.002194396685808897,-0.00019583846733439714,0.005198941566050053
0.005808891262859106,0.004713967442512512,-0.006171439774334431,0.002033758210018277,-0.00019102872465737164,0.0053762104362249374
0.005747175309807062,0.0050744605250656605,-0.006139848381280899,0.00191879749763757,-0.00018142764747608453,0.005448433570563793
0.005747175309807062,0.0050744605250656605,-0.006139848381280899,0.00191879749763757,-0.00018142764747608453,0.005448433570563793
0.005683470517396927,0.004424589220434427,-0.006609490141272545,0.0020683431066572666,-0.00017690581444185227,0.00556004885584116
0.005809442605823278,0.004072749521583319,-0.006189441774040461,0.002057831734418869,-0.00017063762061297894,0.005070960149168968
0.0057648466899991035,0.004459642339497805,-0.0058615002781152725,0.0020472989417612553,-0.0001644305739318952,0.004836220759898424
0.006159820128232241,0.004613943863660097,-0.006224323995411396,0.001994914375245571,-0.00015863488079048693,0.005036338232457638
0.005541677586734295,0.004633245058357716,-0.006111880298703909,0.001900595729239285,-0.0001818075979826972,0.005484327208250761
0.00575193390250206,0.004715903662145138,-0.00630610715597868,0.0018884168239310384,-0.00017768774705473334,0.0055192275904119015
0.005512533709406853,0.00426000589504838,-0.006328705698251724,0.0021525160409510136,-0.00018621607159730047,0.0054257092997431755
0.00581738306209445,0.004479970317333937,-0.00599938677623868,0.0020134265068918467,-0.00019368474022485316,0.005466029979288578
0.005989418365061283,0.004147256724536419,-0.0063176085241138935,0.0021166896913200617,-0.00018874382658395916,0.00528500834479928
0.005841655191034079,0.0043365065939724445,-0.006325368769466877,0.0020304841455072165,-0.00018330808961763978,0.005332484841346741
0.0059982300736010075,0.004144920036196709,-0.006044045556336641,0.002027065958827734,-0.00019697942479979247,0.005646789446473122
0.005415895953774452,0.00398903526365757,-0.006500259507447481,0.0019306364702060819,-0.00019754687673412263,0.005276825744658709
0.005497391801327467,0.004174727015197277,-0.006422603968530893,0.0020649651996791363,-0.00019265076844021678,0.005144988652318716
0.005872073583304882,0.004149372689425945,-0.006268505472689867,0.0021126409992575645,-0.00018765480490401387,0.004998201038688421
0.005947172176092863,0.0043216063641011715,-0.006056839134544134,0.002070596907287836,-0.0002408530708635226,0.004999016411602497
0.005947172176092863,0.0043216063641011715,-0.006056839134544134,0.002070596907287836,-0.0002408530708635226,0.004999016411602497
0.005721893161535263,0.004027567803859711,-0.005741174332797527,0.0020581602584570646,-0.0002805372350849211,0.005267024505883455
0.006036979611963034,0.004383901599794626,-0.005939695984125137,0.002022183034569025,-0.00026744065689854324,0.005337303038686514
0.005583195015788078,0.004068306181579828,-0.006677662022411823,0.0020120427943766117,-0.00025265311705879867,0.005372552666813135
0.005805768072605133,0.004267610609531403,-0.006863870657980442,0.0018251697765663266,-0.00028377826674841344,0.005330380983650684
0.006407780107110739,0.004401601850986481,-0.006026602815836668,0.0019433515844866633,-0.0002723681682255119,0.005527582485228777
0.0057666609063744545,0.004525546915829182,-0.005566034000366926,0.0019793894607573748,-0.00025946705136448145,0.005269304849207401
0.005832944996654987,0.004427407868206501,-0.005661971401423216,0.0023888570722192526,-0.0002475801738910377,0.004996645729988813
0.005606553517282009,0.00445957574993372,-0.006502747535705566,0.0024022094439715147,-0.0002658710291143507,0.004840239882469177
0.005729678086936474,0.00464622862637043,-0.0068708970211446285,0.0023070015013217926,-0.00026390483253635466,0.004703831393271685
0.005949102807790041,0.004410746041685343,-0.0059535386972129345,0.0020353947766125202,-0.0002538689295761287,0.004683685954660177
0.005574693903326988,0.00465512415394187,-0.006348696071654558,0.0018602801719680429,-0.0002640756138134748,0.005035196430981159
0.005611461121588945,0.004245147109031677,-0.006530099082738161,0.0020570389460772276,-0.0002585880283731967,0.005009458865970373
0.006047517992556095,0.004435304086655378,-0.006799978669732809,0.0022388582583516836,-0.000249874428845942,0.0051567815244197845
0.006238978821784258,0.004635343328118324,-0.006295232567936182,0.00218539428897202,-0.0002415088383713737,0.004932810552418232
0.005999177228659391,0.004560363013297319,-0.00590446637943387,0.0022750108037143946,-0.0002336711186217144,0.004738581832498312
0.005530641879886389,0.0047989580780267715,-0.005849740467965603,0.002006462076678872,-0.00022691786580253392,0.004685313906520605
0.005623106844723225,0.004855520091950893,-0.006744688842445612,0.00187108654063195,-0.00024578350712545216,0.0048189363442361355
0.006076951511204243,0.004908077884465456,-0.006653149146586657,0.0018984652124345303,-0.000234990831813775,0.005349589046090841
0.006076951511204243,0.004908077884465456,-0.006653149146586657,0.0018984652124345303,-0.000234990831813775,0.005349589046090841
0.005991222802549601,0.005130496341735125,-0.006290016230195761,0.001960809575393796,-0.0002128869527950883,0.004708277527242899
0.005552835762500763,0.0051117343828082085,-0.006372133269906044,0.0021194741129875183,-0.00020326896628830582,0.004615554120391607
0.0056182583793997765,0.004804162308573723,-0.00636884244158864,0.0022954531013965607,-0.00022818542493041605,0.004691182170063257
0.006234963424503803,0.004741474986076355,-0.00613801134750247,0.002206510864198208,-0.0002233687264379114,0.004730414133518934
0.006059927400201559,0.004736042115837336,-0.006151104811578989,0.0021749616134911776,-0.00021478504640981555,0.005015682429075241
0.006293182726949453,0.004685390740633011,-0.0060710362158715725,0.002098774304613471,-0.00020658659923356026,0.005082717165350914
0.005988725461065769,0.004607037641108036,-0.0062858546152710915,0.0019349261419847608,-0.0001989740994758904,0.005013587884604931
0.005792129319161177,0.0046441867016255856,-0.0066334959119558334,0.0018879850395023823,-0.0001919025817187503,0.004445571918040514
0.005792129319161177,0.0046441867016255856,-0.0066334959119558334,0.0018879850395023823,-0.0001919025817187503,0.004445571918040514
0.0062194992788136005,0.0046587917022407055,-0.005997624713927507,0.0020005162805318832,-0.00021411308262031525,0.004472905769944191
0.006120878737419844,0.004614661447703838,-0.0062120454385876656,0.002029009396210313,-0.00020889144798275083,0.004566193092614412
0.006321730092167854,0.004415337461978197,-0.0064290412701666355,0.002234069164842367,-0.00020230557129252702,0.00466374633833766
0.005716780666261911,0.00440542958676815,-0.006619478575885296,0.002021309221163392,-0.00019601848907768726,0.004795159213244915
0.005803565960377455,0.004705026280134916,-0.006183948367834091,0.0018170339753851295,-0.00019010355754289776,0.004790597129613161
0.005506656598299742,0.004753445740789175,-0.006230921484529972,0.0018192748539149761,-0.00018453472875989974,0.0047074537724256516
0.006667771376669407,0.0045616477727890015,-0.00631403923034668,0.0024389331229031086,-0.00018654805899132043,0.004338924307376146
0.0060599204152822495,0.00491083599627018,-0.00632070004940033,0.0024356089998036623,-0.00019303247972857207,0.004597940482199192
0.0057646543718874454,0.004967637360095978,-0.006471904926002026,0.0024116274435073137,-0.00018872313376050442,0.005153929814696312
0.005643502809107304,0.004810372833162546,-0.005849803797900677,0.0021971426904201508,-0.00018395039660390466,0.004754149820655584
0.005932681728154421,0.004311300348490477,-0.005547882989048958,0.0021276725456118584,-0.00017937050142791122,0.004090841393917799
0.006522600073367357,0.004312289413064718,-0.006978337652981281,0.002097015967592597,-0.00017501064576208591,0.003991914447396994
0.005914228968322277,0.004699752666056156,-0.007235072553157806,0.0020926769357174635,-0.0001708572672214359,0.00401565944775939
0.005914228968322277,0.004699752666056156,-0.007235072553157806,0.0020926769357174635,-0.0001708572672214359,0.00401565944775939
0.005914228968322277,0.004699752666056156,-0.007235072553157806,0.0020926769357174635,-0.0001708572672214359,0.00401565944775939
0.005937747657299042,0.0043877665884792805,-0.0062429714016616344,0.0023022873792797327,-0.0001610935723874718,0.004783232696354389
0.005937017034739256,0.004069711547344923,-0.007265609223395586,0.00222708354704082,-0.0001556484930915758,0.004509515594691038
0.006034518126398325,0.004463005345314741,-0.006795748136937618,0.0020635072141885757,-0.00015045238251332194,0.004314179997891188
0.005990833509713411,0.004760408308357,-0.005871827248483896,0.0019916195888072252,-0.0001455850142519921,0.003984137438237667
0.0056301867589354515,0.004443528596311808,-0.006067524664103985,0.0020724746864289045,-0.0001410224213032052,0.0038627132307738066
0.005885476712137461,0.004588245879858732,-0.006839375011622906,0.002173266839236021,-0.00013673673674929887,0.0038371924310922623
0.006491875741630793,0.0042819008231163025,-0.0068525513634085655,0.0024407156743109226,-0.00015236108447425067,0.0038293921388685703
0.00582867581397295,0.004214268643409014,-0.00674971891567111,0.002437037881463766,-0.0001542334648547694,0.004296515136957169
0.005839690566062927,0.004124526400119066,-0.006334052886813879,0.0023095563519746065,-0.0001503455569036305,0.004602949135005474
0.005935324355959892,0.004448408726602793,-0.0058746905997395515,0.0020147673785686493,-0.00014629871293436736,0.004568067844957113
0.00599033385515213,0.004588522017002106,-0.006111457943916321,0.0019440922187641263,-0.00014244123303797096,0.004235879052430391
0.005925572942942381,0.004722229670733213,-0.0071433428674936295,0.002045075874775648,-0.00013878039317205548,0.004007176961749792
0.006037402898073196,0.004749885760247707,-0.0071119265630841255,0.001941076247021556,-0.0001463818916818127,0.004014953039586544
0.0059969425201416016,0.004919744562357664,-0.006573277059942484,0.0023307674564421177,-0.00015324562264140695,0.004033861681818962
0.0059969425201416016,0.004919744562357664,-0.006573277059942484,0.0023307674564421177,-0.00015324562264140695,0.004033861681818962
0.006246737204492092,0.0043584140948951244,-0.00656511913985014,0.0023207112681120634,-0.00015027135668788105,0.004055866040289402
0.006118736695498228,0.004410873167216778,-0.006612139288336039,0.002321974141523242,-0.00014681370521429926,0.00402236869558692
0.0063163526356220245,0.004587418865412474,-0.006447513587772846,0.0024310299195349216,-0.00014347305113915354,0.004258446395397186
0.006416969932615757,0.00447509903460741,-0.006547971162945032,0.002199093345552683,-0.0001402784837409854,0.004017658531665802
0.005756525322794914,0.004370349459350109,-0.006733267568051815,0.002042419044300914,-0.0001542518730275333,0.0035769373644143343
0.006721717305481434,0.004515312612056732,-0.00663167517632246,0.002157367067411542,-0.00015026863547973335,0.003304228885099292
0.0061492412351071835,0.004117749631404877,-0.006117004435509443,0.0022995283361524343,-0.00014720618491992354,0.003879060735926032
0.006309568881988525,0.0042074499651789665,-0.006559393368661404,0.002321352483704686,-0.0001442573993699625,0.004188204649835825
0.005743811838328838,0.004282670095562935,-0.0065524945966899395,0.002386164152994752,-0.00017954048234969378,0.0040383124724030495
0.0060805147513747215,0.004104227293282747,-0.007409864105284214,0.0021055918186903,-0.00017795655003283173,0.003886959282681346
0.006335521582514048,0.00428584311157465,-0.006917817983776331,0.0018634044099599123,-0.00017153281078208238,0.0037487633526325226
0.0059886290691792965,0.005003068596124649,-0.006314410362392664,0.0018370422767475247,-0.0001652558275964111,0.003918753005564213
0.0062247468158602715,0.004518691450357437,-0.006030014716088772,0.002072141272947192,-0.00018912539235316217,0.0038706667255610228
0.006100841797888279,0.00403026957064867,-0.006663741543889046,0.0021817495580762625,-0.00018459808779880404,0.0035548333544284105
0.006797587964683771,0.004299057647585869,-0.007261605467647314,0.0024414968211203814,-0.0001786180364433676,0.0035410351119935513
0.006218065042048693,0.00442520109936595,-0.006570972967892885,0.0022840802557766438,-0.000172906307852827,0.003367737866938114
0.005320474039763212,0.004363144747912884,-0.006220183800905943,0.002249928656965494,-0.00016754164244048297,0.003540769685059786
0.005753673147410154,0.004426479339599609,-0.007132283411920071,0.0023117668461054564,-0.0001624994183657691,0.004251006059348583
0.006016168277710676,0.004092416726052761,-0.00785205326974392,0.002585748676210642,-0.00018057171837426722,0.004144004546105862
0.006362513639032841,0.004406401887536049,-0.006781348958611488,0.002617060439661145,-0.00017859281797427684,0.00368086458183825
0.0065741511061787605,0.004627289716154337,-0.00646961247548461,0.002594118006527424,-0.0001738690334605053,0.0031737107783555984
0.0065741511061787605,0.004627289716154337,-0.00646961247548461,0.002594118006527424,-0.0001738690334605053,0.0031737107783555984
0.0061715650372207165,0.004347431939095259,-0.006823544390499592,0.0022802765015512705,-0.00017634895630180836,0.0030895264353603125
0.0061715650372207165,0.004347431939095259,-0.006823544390499592,0.0022802765015512705,-0.00017634895630180836,0.0030895264353603125
0.006297094281762838,0.004478510469198227,-0.00739547424018383,0.0021800855174660683,-0.00018274482863489538,0.0032025433611124754
0.006832458544522524,0.0046285707503557205,-0.007000384386628866,0.0021800845861434937,-0.0001789140806067735,0.0032586632296442986
0.006366884335875511,0.004804442636668682,-0.006672726012766361,0.0022700452245771885,-0.00017462098912801594,0.0034687838051468134
0.006284254603087902,0.004488153848797083,-0.006488337181508541,0.0022537964396178722,-0.00017048890003934503,0.0035046839620918036
0.006575967185199261,0.0040569365955889225,-0.00693041505292058,0.0024411247577518225,-0.00021192988788243383,0.003406028263270855
0.006217469461262226,0.0038115286733955145,-0.006781242322176695,0.0024006329476833344,-0.00021663839288521558,0.003126644529402256
0.00665046414360404,0.0040735346265137196,-0.007354272995144129,0.002341859508305788,-0.00020761677296832204,0.002915499731898308
0.006148841232061386,0.004329451359808445,-0.006928553804755211,0.0027436725795269012,-0.00022308778716251254,0.0030958340503275394
0.006312234792858362,0.004230734892189503,-0.006604368798434734,0.0028771241195499897,-0.00021857845422346145,0.0028788885101675987
0.006734014023095369,0.003927541431039572,-0.006479237228631973,0.0027457859832793474,-0.00021035788813605905,0.002830679062753916
0.006776093039661646,0.0037523021455854177,-0.007286174688488245,0.0026014745235443115,-0.00022744708985555917,0.002870287047699094
0.006762470118701458,0.003725632093846798,-0.006769861094653606,0.0023714080452919006,-0.00022712416830472648,0.0027895516250282526
0.0065660616382956505,0.0037516325246542692,-0.006495663430541754,0.0022201992105692625,-0.00021971666137687862,0.0031406909693032503
0.00661999499425292,0.00412595784291625,-0.006560864858329296,0.0022193153854459524,-0.00021234394807834178,0.0028331978246569633
0.007090325467288494,0.004243409261107445,-0.006763899233192205,0.0021962046157568693,-0.0002198103175032884,0.002856862498447299
0.007248796988278627,0.004130831453949213,-0.007354832720011473,0.002451689448207617,-0.00022637748043052852,0.0026991323102265596
0.006843503098934889,0.004109913017600775,-0.006849787198007107,0.002586368238553405,-0.00022032996639609337,0.0026586689054965973
0.006464934442192316,0.0040731183253228664,-0.0063659376464784145,0.00245012529194355,-0.0002138429699698463,0.002539691049605608
0.007016608491539955,0.004079530946910381,-0.006595934741199017,0.0025121704675257206,-0.00020767818205058575,0.002902023959904909
0.007050184532999992,0.003993268124759197,-0.0068052238784730434,0.0023119659163057804,-0.00026471889577805996,0.00278445309959352
0.0067030624486505985,0.003929217346012592,-0.008052314631640911,0.0024812761694192886,-0.0002587485942058265,0.0025539787020534277
0.0069076623767614365,0.0038540505338460207,-0.0072365873493254185,0.00271361181512475,-0.0002452480548527092,0.0024742516689002514
0.006952378898859024,0.0037733546923846006,-0.006416336167603731,0.002842704299837351,-0.0002759260532911867,0.002211987040936947
0.00731444638222456,0.0041989898309111595,-0.0060996683314442635,0.0027078345883637667,-0.0002651986142154783,0.0022938004694879055
0.007324989885091782,0.004167243372648954,-0.0070872921496629715,0.0026060454547405243,-0.00027355251950211823,0.002336133737117052
0.007324989885091782,0.004167243372648954,-0.0070872921496629715,0.0026060454547405243,-0.00027355251950211823,0.002336133737117052
0.006673572119325399,0.003935735672712326,-0.00731656001880765,0.002361713908612728,-0.0002805131662171334,0.0023311893455684185
0.006617054343223572,0.0038512793835252523,-0.006506766192615032,0.002393529051914811,-0.0002697520249057561,0.0024091703817248344
0.0072398316115140915,0.003401648486033082,-0.006028539966791868,0.0023353153374046087,-0.0002907911839429289,0.0023766879457980394
0.006959143094718456,0.0035318818408995867,-0.00614543491974473,0.0022414489649236202,-0.00028373327222652733,0.002255980856716633
0.007063664961606264,0.0038896247278898954,-0.0074330964125692844,0.0025123488157987595,-0.00038586408481933177,0.002250916790217161
0.007081280928105116,0.003503133775666356,-0.006769123487174511,0.0025486908853054047,-0.0004192645428702235,0.002284690970554948
0.007254139054566622,0.003576564835384488,-0.006250546779483557,0.0027113137766718864,-0.0003969852696172893,0.002086775843054056
0.007574366871267557,0.003623743774369359,-0.006315652281045914,0.0030175819993019104,-0.0004002810746897012,0.0018005187157541513
0.0067077684216201305,0.003661814844235778,-0.006895552854984999,0.0032504259143024683,-0.0004022502398584038,0.0017277559963986278
0.007127011194825172,0.0037420776207000017,-0.007086349185556173,0.0031173890456557274,-0.0003797943645622581,0.0015040814178064466
0.006970628630369902,0.003262458136305213,-0.006928847171366215,0.002818540669977665,-0.00035830328124575317,0.001530776615254581
0.006978563033044338,0.003166948212310672,-0.005895506590604782,0.002591474214568734,-0.0003390219353605062,0.0019684857688844204
0.0070180934853851795,0.003053145483136177,-0.006466962397098541,0.002595645608380437,-0.0003217045741621405,0.002092043636366725
0.00706147076562047,0.0032549328170716763,-0.006679099518805742,0.0025077315513044596,-0.00034393297391943634,0.0024446083698421717
0.007432131562381983,0.003731471486389637,-0.006430190522223711,0.0026948333252221346,-0.0003332007327117026,0.002193252556025982
0.007642182521522045,0.003546762280166149,-0.006769348867237568,0.003017756622284651,-0.0003187848487868905,0.001922330935485661
0.007035889197140932,0.0035501974634826183,-0.006678048986941576,0.003081564325839281,-0.00030528666684404016,0.0018167337402701378
0.007035889197140932,0.0035501974634826183,-0.006678048986941576,0.003081564325839281,-0.00030528666684404016,0.0018167337402701378
0.007587069179862738,0.0032546825241297483,-0.006919280160218477,0.0034022738691419363,-0.00029289667145349085,0.0015728831058368087
0.007057282142341137,0.0032328509259968996,-0.0060940757393836975,0.0036327107809484005,-0.0002909617614932358,0.00136119918897748
0.0070271119475364685,0.0032976223155856133,-0.006315536797046661,0.003217061748728156,-0.0002743297955021262,0.0012865294702351093
0.0070693520829081535,0.0033468850888311863,-0.0065746065229177475,0.002890674863010645,-0.00025863051996566355,0.0013379761949181557
0.006823108997195959,0.0035336429718881845,-0.007023151498287916,0.0026288481894880533,-0.00024457232211716473,0.0014339381596073508
0.0072621796280145645,0.0032886166591197252,-0.006785283796489239,0.0024724460672587156,-0.00027516012778505683,0.0014390447176992893
0.007246529683470726,0.003519846126437187,-0.006116253789514303,0.0025279822293668985,-0.00026449625147506595,0.0018459833227097988
0.007213283330202103,0.0037555163726210594,-0.006223270203918219,0.0026032580062747,-0.00025231807376258075,0.0017221139278262854
0.007135492749512196,0.0037520762998610735,-0.006895190570503473,0.002769167535007,-0.00026070111198350787,0.001483962987549603
0.00764513248577714,0.003701197449117899,-0.007411742117255926,0.0029041555244475603,-0.0002678793971426785,0.0011691985419020057
0.007720598950982094,0.0037264886777848005,-0.00668705441057682,0.003115994855761528,-0.0002580977452453226,0.001101052388548851
0.0076896329410374165,0.003743896959349513,-0.006202423945069313,0.003172503551468253,-0.0002742084034252912,0.0009960386669263244
0.008059859275817871,0.0038048038259148598,-0.007159287575632334,0.003281995188444853,-0.00030552074895240366,0.0009005795582197607
0.007965329103171825,0.0039732190780341625,-0.00723514799028635,0.0030633630231022835,-0.00032440858194604516,0.0007736316765658557
0.007142266258597374,0.003727775067090988,-0.006821922957897186,0.0029697471763938665,-0.00036186916986480355,0.000635100353974849
0.007303841412067413,0.003567910986021161,-0.006599432323127985,0.0030540116131305695,-0.0003848529595416039,0.0006572910933755338
0.006959795951843262,0.004121837671846151,-0.006517765577882528,0.0027303271926939487,-0.00037974872975610197,0.0006644635577686131
0.007164797745645046,0.004228958860039711,-0.006490875966846943,0.0028087173122912645,-0.0003824617597274482,0.0006467363564297557
0.007164797745645046,0.004228958860039711,-0.006490875966846943,0.0028087173122912645,-0.0003824617597274482,0.0006467363564297557
0.007114951033145189,0.004011745564639568,-0.006525545381009579,0.003042033640667796,-0.0003657554916571826,0.0007904514786787331
0.007324874866753817,0.003862922778353095,-0.007154199294745922,0.003446311689913273,-0.0005353994783945382,0.0007527145789936185
0.007173964288085699,0.003909208811819553,-0.006961138918995857,0.0032715867273509502,-0.0005382433882914484,0.0007672555511817336
0.00721255736425519,0.0039473422802984715,-0.006485757417976856,0.0031341181602329016,-0.000528820208273828,0.0007620880496688187
0.007066186051815748,0.00389653816819191,-0.006434740498661995,0.003384524257853627,-0.000484204530948773,0.0007094649481587112
0.007132675498723984,0.003806082298979163,-0.006684170104563236,0.0032769180834293365,-0.0005133036756888032,0.0007508237613365054
0.007650135550647974,0.003789007430896163,-0.007541379891335964,0.0031298764515668154,-0.00047877096221782267,0.0006595280719920993
0.007356833666563034,0.0034063952043652534,-0.007585596293210983,0.002602873370051384,-0.0005043430719524622,0.000576120219193399
0.007356833666563034,0.0034063952043652534,-0.007585596293210983,0.002602873370051384,-0.0005043430719524622,0.000576120219193399
0.006928653921931982,0.0035275090485811234,-0.006489824969321489,0.0024652518332004547,-0.0004763471079058945,0.0005106768221594393
0.007562980987131596,0.003715618047863245,-0.006270310841500759,0.0027169266249984503,-0.0005016654613427818,0.0005374282482080162
0.007611020468175411,0.0038947679568082094,-0.0071707372553646564,0.0034185152035206556,-0.000534459191840142,0.0004984737024642527
0.00741124153137207,0.0034538283944129944,-0.0076682991348207,0.003712719539180398,-0.000567641225643456,0.0004569476586766541
0.007169957272708416,0.0034162751398980618,-0.0068655419163405895,0.003498688107356429,-0.0005669321399182081,0.0004213124921079725
0.0073629701510071754,0.0035254028625786304,-0.0061408220790326595,0.0031365894246846437,-0.000557084393221885,0.00039080146234482527
0.007349807303398848,0.0036859135143458843,-0.006239939481019974,0.002984266262501478,-0.0006339883548207581,0.00036441077827475965
0.007553259842097759,0.0037046947982162237,-0.007270066067576408,0.003111792728304863,-0.000650999543722719,0.00034136089379899204
0.007483844645321369,0.0035651635844260454,-0.007122693583369255,0.0031838910654187202,-0.0006109983078204095,0.00030303141102194786
0.008103291504085064,0.0035770500544458628,-0.006261313799768686,0.002965695457533002,-0.0005496173398569226,0.0002869238960556686
0.00763237290084362,0.0037079991307109594,-0.006398932542651892,0.003423226997256279,-0.0005759933847002685,0.000272442790446803
0.007628296967595816,0.0037088803946971893,-0.007167634554207325,0.0033479533158242702,-0.0005323215737007558,0.00025935357552953064
0.007800981402397156,0.0034754599910229445,-0.007476698607206345,0.0035344066563993692,-0.0005426235147751868,0.00024746620329096913
0.008201869204640388,0.003526410786435008,-0.006960249971598387,0.0036221796181052923,-0.000519461405929178,0.00020244947518222034
0.007953304797410965,0.0038233245722949505,-0.006665731780230999,0.0033859065733850002,-0.0004854671424254775,0.00018924773030448705
0.007598510477691889,0.004025342408567667,-0.007051162421703339,0.003287402680143714,-0.0004481009964365512,0.00018131449178326875
0.00814458541572094,0.0035434518940746784,-0.006834153085947037,0.003286395687609911,-0.000403763260692358,0.00017427120474167168
0.008162591606378555,0.003573696594685316,-0.006405101157724857,0.0031941512133926153,-0.00043408956844359636,0.00016777191194705665
0.0075470563024282455,0.0037534411530941725,-0.007158726919442415,0.003221037331968546,-0.0004098006756976247,0.0001617409725440666
0.007412698119878769,0.003905442077666521,-0.007901827804744244,0.0033820655662566423,-0.000440511415945366,0.00012904366303700954
0.008239498361945152,0.003912206739187241,-0.007122887298464775,0.0034034759737551212,-0.00041534981573931873,0.00012098439037799835
0.008176576346158981,0.0035413838922977448,-0.006534562446177006,0.003595311427488923,-0.00044170854380354285,0.00011681490286719054
0.0076807583682239056,0.0034272936172783375,-0.006306828465312719,0.0037661113310605288,-0.0004193686763755977,8.858742512529716e-05
0.007611268665641546,0.0036452023778110743,-0.006621090695261955,0.003858804004266858,-0.0005083700525574386,8.250424434663728e-05
0.007984082214534283,0.0034372457303106785,-0.007261128630489111,0.00354004860855639,-0.0005382690578699112,7.984360854607075e-05
0.007984082214534283,0.0034372457303106785,-0.007261128630489111,0.00354004860855639,-0.0005382690578699112,7.984360854607075e-05
0.008062888868153095,0.0034039770253002644,-0.00724260276183486,0.003005377249792218,-0.0005304049700498581,-4.2319970816606656e-05
0.0075218770653009415,0.003495932323858142,-0.007192475255578756,0.002796759130433202,-0.00048562302254140377,-5.7440647651674226e-05
0.008176783099770546,0.00368093466386199,-0.006767910439521074,0.003517038654536009,-0.0005001754616387188,-7.772797835059464e-05
0.008434843271970749,0.003741627326235175,-0.0071410248056054115,0.0039748200215399265,-0.00047901892685331404,-8.208553481381387e-05
0.007640074007213116,0.00419431971386075,-0.007524123415350914,0.003967009484767914,-0.0005012308829464018,-0.00010499981726752594
0.007397793233394623,0.003561513964086771,-0.006136892829090357,0.003839415730908513,-0.00047568645095452666,-0.00011636105045909062
0.008734370581805706,0.003417796455323696,-0.007016747258603573,0.0034328068140894175,-0.0004880873893853277,-0.00012538477312773466
0.009082584641873837,0.0035213748924434185,-0.008164108730852604,0.0031451755203306675,-0.0005228221998549998,-0.0006403473089449108
0.008008958771824837,0.0036383767146617174,-0.006616625469177961,0.0036799872759729624,-0.0005424593109637499,-0.0007192535558715463
0.008471825160086155,0.0037055686116218567,-0.006821784190833569,0.003805952612310648,-0.0005433150799944997,-0.001012361841276288
0.008310730569064617,0.003713340498507023,-0.007695151027292013,0.003735143458470702,-0.0005355615867301822,-0.0012258087517693639
0.008283892646431923,0.00351895485073328,-0.007411458529531956,0.0033951951190829277,-0.0006901690503582358,-0.0012193740112707019
0.008122950792312622,0.003635737346485257,-0.0071995616890490055,0.0032327771186828613,-0.0006245016702450812,-0.0016814519185572863
0.008489233441650867,0.0033776112832129,-0.007033409085124731,0.003196306759491563,-0.000549997785128653,-0.0021366188302636147
0.008477750234305859,0.0035773483105003834,-0.007475706748664379,0.0034515943843871355,-0.0005371830775402486,-0.0022688042372465134
0.00868117343634367,0.003815909381955862,-0.008122090250253677,0.0036798175424337387,-0.0005269655375741422,-0.0021753155160695314
0.008267966099083424,0.00391062255948782,-0.007065373007208109,0.003948245197534561,-0.0004825987562071532,-0.0019562088418751955
0.00876791775226593,0.0034510160330682993,-0.007087508216500282,0.0036558709107339382,-0.0004431366396602243,-0.0017491880571469665
0.008297434076666832,0.0035977144725620747,-0.008268511854112148,0.0033816753420978785,-0.00044259370770305395,-0.001664949581027031
0.008469094522297382,0.0037724128924310207,-0.007586320862174034,0.003338221227750182,-0.00044177076779305935,-0.0018148258095607162
0.008708130568265915,0.0034235299099236727,-0.007502520456910133,0.0036719737108796835,-0.00041465755202807486,-0.001974634826183319
0.009009258821606636,0.003340564202517271,-0.007771330885589123,0.0038335095159709454,-0.00038916137418709695,-0.002239479683339596
0.009009258821606636,0.003340564202517271,-0.007771330885589123,0.0038335095159709454,-0.00038916137418709695,-0.002239479683339596
0.008092380128800869,0.003324301214888692,-0.007853330112993717,0.0038377896416932344,-0.00041524821426719427,-0.002955092117190361
0.008341553620994091,0.003335205838084221,-0.0076090386137366295,0.0039009330794215202,-0.00039560385630466044,-0.003947973717004061
0.008668732829391956,0.0035153089556843042,-0.006906423252075911,0.0036624805070459843,-0.0003355982480570674,-0.004318741150200367
0.008365735411643982,0.0034182844683527946,-0.007190123200416565,0.0036073073279112577,-0.0003078870940953493,-0.004084931220859289
0.00867420993745327,0.0034477810841053724,-0.008157772943377495,0.004039020277559757,-0.0003414201200939715,-0.0034224072005599737
0.008859554305672646,0.0036418670788407326,-0.007454414386302233,0.004153959918767214,-0.00036422754055820405,-0.0033792045433074236
0.008471483364701271,0.0037368859630078077,-0.007455745711922646,0.004086776170879602,-0.00038117257645353675,-0.003227445064112544
0.008886712603271008,0.0036737252958118916,-0.006980381440371275,0.0039964355528354645,-0.00038460339419543743,-0.003936282359063625
0.009112736210227013,0.003631908679381013,-0.008075819350779057,0.003888287814334035,-0.0005881877732463181,-0.004121208097785711
0.00851286482065916,0.0037300740368664265,-0.007580980658531189,0.003810851601883769,-0.000693411217071116,-0.004375888966023922
0.00862012431025505,0.003361134324222803,-0.007330968976020813,0.0038542915135622025,-0.0007216068916022778,-0.004316989332437515
0.009108539670705795,0.0029134030919522047,-0.007455863524228334,0.003964034840464592,-0.000742762116715312,-0.004527329001575708
0.009405212476849556,0.0030227885581552982,-0.007705580443143845,0.004127140622586012,-0.0009862270671874285,-0.004265413619577885
0.009162581525743008,0.0032609724439680576,-0.007612784393131733,0.004273485857993364,-0.0009734220220707357,-0.004891116637736559
0.009220718406140804,0.003404818009585142,-0.007713287137448788,0.0044008418917655945,-0.0009550655377097428,-0.005171556491404772
0.008864755742251873,0.003244889434427023,-0.008070406503975391,0.004103008657693863,-0.0008666907669976354,-0.0048619345761835575
0.009426137432456017,0.0031825145706534386,-0.008186719380319118,0.003900294890627265,-0.0007731823134236038,-0.004914388060569763
0.009685417637228966,0.0031383326277136803,-0.007896573282778263,0.00383526599034667,-0.0007759666768833995,-0.0051887426525354385
0.009328722953796387,0.003141526598483324,-0.008509940467774868,0.004135603550821543,-0.0007470211712643504,-0.005320154596120119
0.01095584500581026,0.0029996123630553484,-0.008013729006052017,0.00474144984036684,-0.0007124425028450787,-0.005389365833252668
0.009390028193593025,0.0032075189519673586,-0.007756319362670183,0.00444331718608737,-0.000728125567547977,-0.005046133883297443
0.009126672521233559,0.002963495207950473,-0.007449036929756403,0.003973112441599369,-0.0007387108053080738,-0.0057529062032699585
0.009657779708504677,0.0031863597687333822,-0.00822446495294571,0.003787609515711665,-0.0007665285957045853,-0.005980203859508038
0.010075985454022884,0.0030529433861374855,-0.008325456641614437,0.004058880731463432,-0.0007758673164062202,-0.005713703576475382
0.009544667787849903,0.002881825901567936,-0.007680950686335564,0.004072657320648432,-0.0007511282456107438,-0.005762218032032251
0.00988911371678114,0.0028018420562148094,-0.007997279986739159,0.003903669770807028,-0.0007200657855719328,-0.0058656069450080395
0.00988911371678114,0.0028018420562148094,-0.007997279986739159,0.003903669770807028,-0.0007200657855719328,-0.0058656069450080395
0.01027468778192997,0.002863120287656784,-0.00818884838372469,0.004287423100322485,-0.0007151232566684484,-0.0063988883048295975
0.009487170726060867,0.002887733979150653,-0.00830671563744545,0.004257323686033487,-0.0007625965517945588,-0.006213733460754156
0.010412994772195816,0.003136869752779603,-0.007653125561773777,0.004003946669399738,-0.0007818546146154404,-0.006039479747414589
0.010119429789483547,0.0031042287591844797,-0.007551755756139755,0.00432688370347023,-0.0007955676992423832,-0.006437736097723246
0.0097087062895298,0.002797237131744623,-0.008745488710701466,0.004115527495741844,-0.0007387349614873528,-0.006155431270599365
0.01083792932331562,0.002699037082493305,-0.008098053745925426,0.0039430842734873295,-0.0008264134521596134,-0.006136830430477858
0.010786443948745728,0.0027518137358129025,-0.007977553643286228,0.0038509464357048273,-0.0008258912712335587,-0.006594461854547262
0.009757847525179386,0.0027600727044045925,-0.008588949218392372,0.004236555192619562,-0.0007450468256138265,-0.006501204799860716
0.009792827069759369,0.0028368833009153605,-0.008160351775586605,0.004292286932468414,-0.0007503389497287571,-0.006662054918706417
0.010447606444358826,0.0028197579085826874,-0.00758260115981102,0.004454299807548523,-0.0007656770758330822,-0.006526975426822901
0.00963269267231226,0.002843450289219618,-0.008129827678203583,0.004524738993495703,-0.0007743596215732396,-0.006518499460071325
0.010483470745384693,0.0028638190124183893,-0.0075792367570102215,0.004334663040935993,-0.0008025224087759852,-0.006947051268070936
0.009934213012456894,0.003008938627317548,-0.007435884326696396,0.004303718917071819,-0.000736184068955481,-0.007087319158017635
0.010232395492494106,0.00299100112169981,-0.007981703616678715,0.004326351452618837,-0.0007481912616640329,-0.007072682958096266
0.010339483618736267,0.002995570655912161,-0.008300021290779114,0.004113732371479273,-0.0006829695194028318,-0.00723551819100976
0.00991774071007967,0.002790398197248578,-0.007849306799471378,0.004344867076724768,-0.0007014894508756697,-0.007422358263283968
0.010844468139111996,0.00298708607442677,-0.0076185185462236404,0.004929454997181892,-0.0007255201344378293,-0.007471451535820961
0.010124311782419682,0.0029652395751327276,-0.008389352820813656,0.004864508286118507,-0.0007464658701792359,-0.007055468857288361
0.009806049056351185,0.002563547110185027,-0.00802526529878378,0.004530753940343857,-0.0006794985383749008,-0.007236522156745195
0.010346409864723682,0.0026542767882347107,-0.007603210862725973,0.004430219065397978,-0.0006954537238925695,-0.008049997501075268
0.010212081484496593,0.003062824485823512,-0.007518995087593794,0.004599247593432665,-0.0006424130988307297,-0.007838541641831398
0.010866256430745125,0.003227895824238658,-0.0077411397360265255,0.004753925837576389,-0.0006622751243412495,-0.007088685408234596
0.010317965410649776,0.002989439759403467,-0.007662092801183462,0.00445752777159214,-0.0006395685486495495,-0.007643481250852346
0.010108199901878834,0.0027303267270326614,-0.007795799057930708,0.004560278728604317,-0.0006164785590954125,-0.007778340019285679
0.01024338323622942,0.0027959016151726246,-0.007693676743656397,0.004541916307061911,-0.000623938743956387,-0.008174763061106205
0.010186676867306232,0.002919676247984171,-0.008123415522277355,0.00461344001814723,-0.0005868148291483521,-0.007985799573361874
0.010665611363947392,0.0029958942905068398,-0.0075375656597316265,0.004661200568079948,-0.0006094214040786028,-0.008150365203619003
0.01028159074485302,0.0027545879129320383,-0.0073629640974104404,0.004422868601977825,-0.0006266860291361809,-0.008071639575064182
0.010263955220580101,0.0027571110986173153,-0.00810998771339655,0.004491766914725304,-0.0006545459036715329,-0.007945395074784756
0.010263955220580101,0.0027571110986173153,-0.00810998771339655,0.004491766914725304,-0.0006545459036715329,-0.007945395074784756
0.01017589122056961,0.0026437100023031235,-0.008351709693670273,0.004243298899382353,-0.0006819015252403915,-0.007980083115398884
0.010311145335435867,0.002582983812317252,-0.007724145893007517,0.004331666510552168,-0.0007158956141211092,-0.008214040659368038
0.010394717566668987,0.002742642303928733,-0.007582995109260082,0.004616457037627697,-0.0009263042011298239,-0.00858643651008606
0.009756887331604958,0.0028862780891358852,-0.007647095248103142,0.004760936833918095,-0.0010802214965224266,-0.00851033441722393
0.010701153427362442,0.002894145669415593,-0.008659355342388153,0.004751448053866625,-0.0010623892303556204,-0.0085208211094141
0.010176531039178371,0.002623934531584382,-0.008455188944935799,0.004787725862115622,-0.0009820788400247693,-0.008662620559334755
0.010053727775812149,0.0025020430330187082,-0.007923809811472893,0.004727191757410765,-0.0009824963053688407,-0.008563987910747528
0.010250821709632874,0.00226062024012208,-0.008042254485189915,0.004507766105234623,-0.0009667823323979974,-0.008897479623556137
0.01073430199176073,0.0023500346578657627,-0.008288289420306683,0.004290048032999039,-0.00093799305614084,-0.008674693293869495
0.009898255579173565,0.0026725896168500185,-0.00775920320302248,0.004508024547249079,-0.0008439206285402179,-0.008366650901734829
0.010071150958538055,0.0025929464027285576,-0.00818299874663353,0.004344834480434656,-0.000782851071562618,-0.008749197237193584
0.01060326024889946,0.002306724665686488,-0.00799423735588789,0.004885247442871332,-0.0007431358098983765,-0.009365621022880077
0.010405310429632664,0.0021555765997618437,-0.007308933883905411,0.004544820636510849,-0.0007600240060128272,-0.009198535233736038
0.01040567271411419,0.0022335988469421864,-0.007178368046879768,0.004506540950387716,-0.0007761103333905339,-0.009527629241347313
0.010320402681827545,0.0026663560420274734,-0.008777681738138199,0.004621169064193964,-0.0007443453650921583,-0.010330774821341038
0.010691635310649872,0.0026715665590018034,-0.008532422594726086,0.004561910405755043,-0.000825745053589344,-0.009801054373383522
0.010236809030175209,0.0028833711985498667,-0.007180353626608849,0.0048902626149356365,-0.0009081840398721397,-0.01026691310107708
0.010457468219101429,0.002778947353363037,-0.007169458083808422,0.004996441304683685,-0.0009119094465859234,-0.010291027836501598
0.010754486545920372,0.0024211208801716566,-0.008154494687914848,0.005396486725658178,-0.0008655803976580501,-0.01011891383677721
0.010550891049206257,0.00248152669519186,-0.007961808703839779,0.005123504437506199,-0.0010671507334336638,-0.010267737321555614
0.010196848772466183,0.002486345125362277,-0.007472129538655281,0.004722943063825369,-0.0010512687731534243,-0.010183246806263924
0.010513274930417538,0.002417539246380329,-0.008030903525650501,0.004784281365573406,-0.0010296957334503531,-0.01039908453822136
0.00989559292793274,0.002692163921892643,-0.00900130532681942,0.004709603264927864,-0.00102912203874439,-0.010120974853634834
0.010274093598127365,0.0028209825977683067,-0.008136816322803497,0.0048788744024932384,-0.0010064077796414495,-0.010743348859250546
0.010238010436296463,0.0024540917947888374,-0.0075552016496658325,0.005235115997493267,-0.000916017743293196,-0.010901088826358318
0.011357644572854042,0.002566336886957288,-0.008255304768681526,0.005033981520682573,-0.0009086346253752708,-0.010923323221504688
0.012177101336419582,0.002765079028904438,-0.008770343847572803,0.004797043278813362,-0.0008843954419717193,-0.010482221841812134
0.012555330991744995,0.002948814770206809,-0.00853514950722456,0.004577905870974064,-0.0008120755082927644,-0.010687421075999737
0.011469430290162563,0.0027625735383480787,-0.008026708848774433,0.004575238563120365,-0.0007237562676891685,-0.01112260203808546
0.011469430290162563,0.0027625735383480787,-0.008026708848774433,0.004575238563120365,-0.0007237562676891685,-0.01112260203808546
0.011130005121231079,0.0027235904708504677,-0.008252570405602455,0.004909785930067301,-0.0008009150042198598,-0.011225864291191101
0.011502265930175781,0.0025989050045609474,-0.008065417408943176,0.005128805059939623,-0.0008440177189186215,-0.010535642504692078
0.012066288851201534,0.0024579144082963467,-0.007593569345772266,0.00497577665373683,-0.0012278723297640681,-0.010927870869636536
0.012237358838319778,0.0025108824484050274,-0.007679303176701069,0.00469065411016345,-0.0012590356636792421,-0.011668665334582329
0.011903038248419762,0.002567834220826626,-0.008859924972057343,0.004820955451577902,-0.0012032848317176104,-0.01208218839019537
0.012203571386635303,0.002411414170637727,-0.008725786581635475,0.004920260049402714,-0.001150313182733953,-0.011318642646074295
0.0126234395429492,0.002478367881849408,-0.00876527652144432,0.005190890748053789,-0.0010892261052504182,-0.011333191767334938
0.0120929554104805,0.002316436730325222,-0.008940077386796474,0.005203262437134981,-0.0009772349148988724,-0.01183707918971777
0.011598566547036171,0.0024210475385189056,-0.00770441023632884,0.005677258130162954,-0.0009502801112830639,-0.011699089780449867
0.01192510686814785,0.0029161465354263783,-0.00949395727366209,0.005317677278071642,-0.0008487525628879666,-0.01191173680126667
0.01212109625339508,0.0027470411732792854,-0.008563735522329807,0.0054190936498343945,-0.0008113038493320346,-0.011421333067119122
0.01216138806194067,0.0026002218946814537,-0.007876652292907238,0.0053752874955534935,-0.0008527360623702407,-0.01147688739001751
0.011794029735028744,0.0022728450130671263,-0.00862167403101921,0.005324398633092642,-0.0008757602772675455,-0.01125764288008213
0.011992012150585651,0.0023221606388688087,-0.009111377410590649,0.0049783107824623585,-0.0013120947405695915,-0.01169731467962265
0.011692431755363941,0.002610990311950445,-0.00866003893315792,0.00453283591195941,-0.001428337418474257,-0.012261418625712395
0.012135243974626064,0.0025574711617082357,-0.008783724159002304,0.0047899456694722176,-0.0014905381249263883,-0.012133258394896984
0.012056979350745678,0.002645862055942416,-0.00912622082978487,0.005479919258505106,-0.0014038727385923266,-0.012318690307438374
0.011969172395765781,0.002415245398879051,-0.009103928692638874,0.005559543613344431,-0.0012759262463077903,-0.01198241300880909
0.011758167296648026,0.0022283000871539116,-0.008482257835566998,0.005454349797219038,-0.001208649598993361,-0.01179568376392126
0.011713040061295033,0.00201635854318738,-0.0090855173766613,0.005266733467578888,-0.0010690480703487992,-0.011840958148241043
0.01210064347833395,0.0019679658580571413,-0.008981211110949516,0.005268417298793793,-0.000854015932418406,-0.012351333163678646
0.01198951993137598,0.002236772794276476,-0.008530154824256897,0.005155547056347132,-0.000848717347253114,-0.012170465663075447
0.012339961715042591,0.0025839819572865963,-0.009151297621428967,0.005638952367007732,-0.0008463608683086932,-0.012339919805526733
0.012217579409480095,0.0025218301452696323,-0.008734971284866333,0.0058677950873970985,-0.0008521988638676703,-0.012389895506203175
0.012052689678966999,0.00260471785441041,-0.008181799203157425,0.005671527702361345,-0.000885430839844048,-0.012462508864700794
0.012491384521126747,0.0024881968274712563,-0.008151800371706486,0.005584138445556164,-0.000994564383290708,-0.012356201186776161
0.012412060983479023,0.0022782287560403347,-0.008896677754819393,0.005566106643527746,-0.0009878567652776837,-0.011397307738661766
0.012459931895136833,0.0022104952950030565,-0.008725443854928017,0.0055565303191542625,-0.001097886124625802,-0.011467387899756432
0.012138811871409416,0.00218009389936924,-0.009141247719526291,0.005994558800011873,-0.001172814518213272,-0.011832029558718204
0.012138811871409416,0.00218009389936924,-0.009141247719526291,0.005994558800011873,-0.001172814518213272,-0.011832029558718204
0.012217741459608078,0.0023411542642861605,-0.009371714666485786,0.0059088473208248615,-0.001087839831598103,-0.01192446704953909
0.01236006524413824,0.0024501271545886993,-0.009506960399448872,0.005774164106696844,-0.0010559256188571453,-0.012084970250725746
0.012478049844503403,0.002267500851303339,-0.008732279762625694,0.006074278615415096,-0.0009761101682670414,-0.01195831224322319
0.012471565045416355,0.0022092347498983145,-0.01022785808891058,0.005683621391654015,-0.0008783469093032181,-0.011984988115727901
0.012279135175049305,0.0020957530941814184,-0.009115838445723057,0.006312774959951639,-0.000949327542912215,-0.012136138044297695
0.012562217190861702,0.0022146592382341623,-0.00842692144215107,0.006061958614736795,-0.000978713040240109,-0.012165549211204052
0.012422344647347927,0.002028245944529772,-0.008938219398260117,0.005842312704771757,-0.0013114787871018052,-0.012480944395065308
0.012331627309322357,0.002184106968343258,-0.009314016439020634,0.0059793489053845406,-0.001346452278085053,-0.01236451230943203
0.012706544250249863,0.002329698298126459,-0.008429559879004955,0.0065412865951657295,-0.0014718363527208567,-0.012365310452878475
0.01316438615322113,0.002182628959417343,-0.009290539659559727,0.006337371189147234,-0.0014622397720813751,-0.012286743149161339
0.012461420148611069,0.00207538646645844,-0.008959714323282242,0.0058764927089214325,-0.0013074500020593405,-0.01229191292077303
0.012897703796625137,0.0021449371706694365,-0.009120975621044636,0.005745621398091316,-0.0010976690100505948,-0.012083837762475014
0.012590792030096054,0.0019523047376424074,-0.009156645275652409,0.0057157608680427074,-0.001050249906256795,-0.012764066457748413
0.013021359220147133,0.0020899565424770117,-0.010161248967051506,0.0062746754847466946,-0.0010243081487715244,-0.012417911551892757
0.012904885224997997,0.0020974487997591496,-0.0091014439240098,0.0063926358707249165,-0.001008473802357912,-0.012705736793577671
0.013157888315618038,0.002093343064188957,-0.009835570119321346,0.005965756252408028,-0.0010028347605839372,-0.012912021018564701
0.013334416784346104,0.001982049085199833,-0.009612581692636013,0.00619624275714159,-0.0010446402011439204,-0.013423834927380085
0.012796957045793533,0.001970890210941434,-0.009149852208793163,0.006113269366323948,-0.001046390039846301,-0.013363011181354523
0.013363567180931568,0.0018859726842492819,-0.009396491572260857,0.006225195713341236,-0.0013364983024075627,-0.01336398720741272
0.012766286730766296,0.0019035382429137826,-0.009471802040934563,0.006761437747627497,-0.0013945054961368442,-0.012771611101925373
0.0128723019734025,0.0018839455442503095,-0.009485223330557346,0.005879709031432867,-0.0014426481211557984,-0.012689793482422829
0.012664628215134144,0.002120008459314704,-0.009405611082911491,0.005673578474670649,-0.0014828930143266916,-0.012735039927065372
0.013395489193499088,0.002587317256256938,-0.010515491478145123,0.006074406206607819,-0.0014209450455382466,-0.012448558583855629
0.013247841969132423,0.0024617232847958803,-0.00997738167643547,0.006353344768285751,-0.0013152493629604578,-0.012882540002465248
0.013606357388198376,0.0023244821932166815,-0.009265212342143059,0.006844822317361832,-0.0012477848213165998,-0.013251538388431072
0.013409503735601902,0.0020542799029499292,-0.010200132615864277,0.006306285969913006,-0.0012634379090741277,-0.01366545632481575
0.013409503735601902,0.0020542799029499292,-0.010200132615864277,0.006306285969913006,-0.0012634379090741277,-0.01366545632481575
0.01338101364672184,0.001980168279260397,-0.01000044122338295,0.005886856932193041,-0.0012091367971152067,-0.013804081827402115
0.013509225100278854,0.0018662704387679696,-0.01067518349736929,0.006160308141261339,-0.0011891307076439261,-0.014040982350707054
0.013395392335951328,0.0018819827819243073,-0.010227733291685581,0.00676450040191412,-0.001150605734437704,-0.013887799344956875
0.013819040730595589,0.0018978278385475278,-0.009478983469307423,0.006480949930846691,-0.0011255089193582535,-0.01344092283397913
0.013583129271864891,0.0019343610620126128,-0.010315916500985622,0.006221279036253691,-0.0012311798054724932,-0.013450594618916512
0.01394196879118681,0.0021516121923923492,-0.010300072841346264,0.006298569031059742,-0.0012008703779429197,-0.01388882752507925
0.013745618052780628,0.001901474897749722,-0.009563349187374115,0.0070415157824754715,-0.0011725195217877626,-0.013984118588268757
0.014287635684013367,0.0017952468479052186,-0.0106064947322011,0.007002216763794422,-0.0013021358754485846,-0.014312648214399815
0.014311853796243668,0.0018217678880319,-0.010060739703476429,0.006336716003715992,-0.0011993803782388568,-0.014695887453854084
0.014139185659587383,0.001877801725640893,-0.01096944510936737,0.006929216906428337,-0.001125955837778747,-0.01496130507439375
0.014302333816885948,0.0021500957664102316,-0.010244200006127357,0.007232388481497765,-0.001103664981201291,-0.014964711852371693
0.014253108762204647,0.0021997459698468447,-0.009715324267745018,0.006677205208688974,-0.0010698505211621523,-0.014783560298383236
0.014978859573602676,0.0022428305819630623,-0.010793725028634071,0.006381215527653694,-0.0010447691893205047,-0.015309864655137062
0.014679115265607834,0.0021204643417149782,-0.01073317788541317,0.006069893948733807,-0.0009974964195862412,-0.015009764581918716
0.015085886232554913,0.0019152116728946567,-0.010804656893014908,0.006687341257929802,-0.0009746733121573925,-0.015432167798280716
0.01545819640159607,0.0018833091016858816,-0.010829050093889236,0.007056314032524824,-0.000972296460531652,-0.01600297912955284
0.015691811218857765,0.0017785654636099935,-0.009911020286381245,0.006495389621704817,-0.0009748105076141655,-0.016244959086179733
0.014954159036278725,0.0017877144273370504,-0.010299655608832836,0.006205512676388025,-0.0011483142152428627,-0.015424702316522598
0.015168065205216408,0.0015375810908153653,-0.010534819215536118,0.006718777120113373,-0.0012040783185511827,-0.015509013086557388
0.01533507090061903,0.0014188940403982997,-0.010827794671058655,0.006724093109369278,-0.0013803945621475577,-0.015480095520615578
0.015120536088943481,0.0011803227243945003,-0.010625339113175869,0.006688426248729229,-0.0014611659571528435,-0.01590179279446602
0.01528213731944561,0.001127912662923336,-0.010463021695613861,0.006769701838493347,-0.0014056888176128268,-0.01640309765934944
0.015266116708517075,0.0010891000274568796,-0.010010658763349056,0.007460324093699455,-0.001308619393967092,-0.016727739945054054
0.015244174748659134,0.0008918022504076362,-0.010663438588380814,0.00781042966991663,-0.001234222436323762,-0.01667613536119461
0.015400046482682228,0.0009807469323277473,-0.010441752150654793,0.006918816361576319,-0.0011715308064594865,-0.0167220588773489
0.01569950394332409,0.0010131411254405975,-0.010138049721717834,0.006571392994374037,-0.0011378047056496143,-0.016937023028731346
0.01524700503796339,0.0014715850120410323,-0.010764396749436855,0.0066887685097754,-0.001140000531449914,-0.016697246581315994
0.01524700503796339,0.0014715850120410323,-0.010764396749436855,0.0066887685097754,-0.001140000531449914,-0.016697246581315994
0.015813853591680527,0.0013696469832211733,-0.010934003628790379,0.007286778185516596,-0.0011688163504004478,-0.016659345477819443
0.015320944599807262,0.0012853373773396015,-0.010507123544812202,0.007117332890629768,-0.0013477704487740993,-0.01664877124130726
0.016095682978630066,0.001097039319574833,-0.01044341642409563,0.007249103393405676,-0.0015281019732356071,-0.016736876219511032
0.015581189654767513,0.0009184646187350154,-0.009966771118342876,0.007410142570734024,-0.001501549268141389,-0.017054790630936623
0.016012366861104965,0.0009087810758501291,-0.010828648693859577,0.006931844167411327,-0.0016639269888401031,-0.016767889261245728
0.016445716843008995,0.0009073521941900253,-0.010293696075677872,0.007162498775869608,-0.0015438374830409884,-0.01739472895860672
0.015397737734019756,0.0009136192384175956,-0.010257478803396225,0.00717905955389142,-0.0014308044919744134,-0.017580900341272354
0.015383240766823292,0.0010809936793521047,-0.010282238014042377,0.007122864946722984,-0.00132940080948174,-0.017283109948039055
0.015742260962724686,0.0012033116072416306,-0.010633889585733414,0.006992463953793049,-0.0013158181682229042,-0.017785735428333282
0.015919722616672516,0.0015218656044453382,-0.010424304753541946,0.007530915085226297,-0.0014029493322595954,-0.01776971109211445
0.016579648479819298,0.001280799973756075,-0.009760644286870956,0.007493400480598211,-0.001461074105463922,-0.018026115372776985
0.016366148367524147,0.00121450109872967,-0.010709580965340137,0.006743401754647493,-0.0015656357863917947,-0.018322568386793137
0.016558170318603516,0.0010652024066075683,-0.010498390533030033,0.008656631223857403,-0.0015227636322379112,-0.018141068518161774
0.016270169988274574,0.000821964000351727,-0.00969680491834879,0.008085904642939568,-0.00144370854832232,-0.01787860505282879
0.016509341076016426,0.0008309248951263726,-0.01027262955904007,0.007880277931690216,-0.0014988036127761006,-0.01811886578798294
0.016521338373422623,0.0009179419139400125,-0.010160109028220177,0.007801276631653309,-0.0015645847888663411,-0.018603963777422905
0.016324108466506004,0.001001532538793981,-0.0096944160759449,0.007875001057982445,-0.0016317523550242186,-0.018748285248875618
0.01683403179049492,0.0010530840372666717,-0.010883464477956295,0.007516623940318823,-0.0015950171509757638,-0.018814178183674812
0.016661830246448517,0.0011238278821110725,-0.010323948226869106,0.007388269528746605,-0.0016024780925363302,-0.01891070045530796
0.016815301030874252,0.0010118583450093865,-0.009676395915448666,0.008161547593772411,-0.0016521067591384053,-0.018973728641867638
0.016778362914919853,0.0010266340104863048,-0.010297255590558052,0.00787226390093565,-0.0015766564756631851,-0.019277626648545265
0.016689877957105637,0.0010031743440777063,-0.010245437733829021,0.0075417631305754185,-0.0016051314305514097,-0.019360912963747978
0.017061447724699974,0.0009750877507030964,-0.010562189854681492,0.00759893236681819,-0.0016046356176957488,-0.019289163872599602
0.016723955050110817,0.0009647473343648016,-0.010334919206798077,0.008082443848252296,-0.001716389087960124,-0.019166726619005203
0.016863195225596428,0.0009074254194274545,-0.009981434792280197,0.00788948591798544,-0.001632126048207283,-0.019167397171258926
0.01651020348072052,0.000912553514353931,-0.009762026369571686,0.007113143336027861,-0.0015161316841840744,-0.0189133919775486
0.016878413036465645,0.0009108185768127441,-0.010413960553705692,0.007547717075794935,-0.0015095097478479147,-0.019229043275117874
0.01716659404337406,0.0009094916167668998,-0.010790684260427952,0.007842003367841244,-0.0015188740799203515,-0.019638290628790855
0.01716659404337406,0.0009094916167668998,-0.010790684260427952,0.007842003367841244,-0.0015188740799203515,-0.019638290628790855
0.016988711431622505,0.0009724830742925406,-0.009888817556202412,0.00763748912140727,-0.0016543316887691617,-0.019515199586749077
0.01710628904402256,0.00101185601670295,-0.010544812306761742,0.007475786842405796,-0.0016220677644014359,-0.019707152619957924
0.016594888642430305,0.0010066265240311623,-0.010592194274067879,0.0076729655265808105,-0.001628521946258843,-0.01982610486447811
0.016822772100567818,0.0009817408863455057,-0.01002622488886118,0.007886858657002449,-0.001550248940475285,-0.019561510533094406
0.016971293836832047,0.0008759737829677761,-0.01044106762856245,0.0074277534149587154,-0.0015706121921539307,-0.019621647894382477
0.016898825764656067,0.0008462447440251708,-0.010087940841913223,0.006916501093655825,-0.0014324961230158806,-0.020146828144788742
0.01717524416744709,0.0008384776301681995,-0.010411303490400314,0.006878165993839502,-0.0014388173585757613,-0.01997864618897438
0.0168184544891119,0.0008186058257706463,-0.010183556005358696,0.008004472590982914,-0.0013398705050349236,-0.020107179880142212
0.01758352294564247,0.0007578026852570474,-0.009767350740730762,0.007808042224496603,-0.0012374871876090765,-0.02024020254611969
0.01725100725889206,0.0007720961584709585,-0.010672281496226788,0.007446021307259798,-0.0011719097383320332,-0.02045978419482708
0.01739267073571682,0.0007627324666827917,-0.011027184315025806,0.007524697110056877,-0.001234418130479753,-0.020534195005893707
0.017288263887166977,0.0007959736976772547,-0.010161730460822582,0.008765965700149536,-0.0014992448268458247,-0.020866215229034424
0.017686625942587852,0.0008230803068727255,-0.010301686823368073,0.008344384841620922,-0.0016106120310723782,-0.020853018388152122
0.017608841881155968,0.0011362271616235375,-0.010165917687118053,0.008573642000555992,-0.0017014547483995557,-0.021028822287917137
0.01751633733510971,0.0011033382033929229,-0.01096222922205925,0.00835756491869688,-0.0016305490862578154,-0.021141495555639267
0.01789931021630764,0.0010729193454608321,-0.011058825999498367,0.008500654250383377,-0.0014625957701355219,-0.02153039537370205
0.017430519685149193,0.001094793202355504,-0.010040664114058018,0.007835958153009415,-0.0014417311176657677,-0.02130207233130932
0.017589889466762543,0.0010624055285006762,-0.010356071405112743,0.008155422285199165,-0.001409545075148344,-0.021560244262218475
0.01804954744875431,0.0010191570036113262,-0.01025000773370266,0.008364327251911163,-0.0013775441329926252,-0.021447356790304184
0.017939453944563866,0.000973033718764782,-0.010219559073448181,0.008093559183180332,-0.0014564093435183167,-0.021383950486779213
0.01843961328268051,0.0008913585334084928,-0.011036333627998829,0.008196729235351086,-0.001486404100432992,-0.02197098545730114
0.01805608905851841,0.0007831393741071224,-0.010282296687364578,0.00872704666107893,-0.0016710619674995542,-0.02271362580358982
0.017889205366373062,0.0007988735451363027,-0.010032988153398037,0.008048859424889088,-0.0016032342100515962,-0.023122865706682205
0.017986636608839035,0.0008118517580442131,-0.010431846603751183,0.007611222565174103,-0.0016337084816768765,-0.02291145920753479
0.017576461657881737,0.0008218886214308441,-0.010187198407948017,0.008143190294504166,-0.0016420460306107998,-0.022387264296412468
0.017847800627350807,0.00103456259239465,-0.010586997494101524,0.008592032827436924,-0.00159771170001477,-0.021581508219242096
0.017979666590690613,0.0010552250314503908,-0.010643555782735348,0.00850358884781599,-0.0015162264462560415,-0.021671606227755547
0.017995674163103104,0.0010032334830611944,-0.00991495605558157,0.007937677204608917,-0.0014674486592411995,-0.022796710953116417
0.01792113669216633,0.0009155374718829989,-0.011078574694693089,0.008506398648023605,-0.0015185725642368197,-0.023153550922870636
0.017965562641620636,0.0009143314091488719,-0.010748949833214283,0.008433089591562748,-0.00155183847527951,-0.022802500054240227
0.017965562641620636,0.0009143314091488719,-0.010748949833214283,0.008433089591562748,-0.00155183847527951,-0.022802500054240227
0.018458781763911247,0.0007734693353995681,-0.01000960636883974,0.008309743367135525,-0.0016787881031632423,-0.022606585174798965
0.01897033490240574,0.0007862472557462752,-0.010820451192557812,0.008429392240941525,-0.001728165429085493,-0.023033088073134422
0.01862374134361744,0.0006906059570610523,-0.01056959480047226,0.008632566779851913,-0.0019103266531601548,-0.023243729025125504
0.018663400784134865,0.0007128079887479544,-0.010440804064273834,0.008510204963386059,-0.0019132598536089063,-0.022740622982382774
0.0189356729388237,0.0007318303105421364,-0.011184820905327797,0.008048427291214466,-0.0019504230003803968,-0.022065650671720505
0.018359556794166565,0.0006835631793364882,-0.011158238165080547,0.008549715392291546,-0.0018490551738068461,-0.022517690435051918
0.018609145656228065,0.0006043400499038398,-0.01200803555548191,0.0089400140568614,-0.001684696413576603,-0.02338070049881935
0.018861189484596252,0.000633658841252327,-0.011589671485126019,0.008624221198260784,-0.0017104665748775005,-0.023750826716423035
0.018124688416719437,0.0006026721675880253,-0.011884108185768127,0.008924831636250019,-0.001725601963698864,-0.023677952587604523
0.019336234778165817,0.0006257099448703229,-0.0120083624497056,0.008518736809492111,-0.0016776332631707191,-0.023772304877638817
0.0194912850856781,0.0006734594353474677,-0.012404326349496841,0.008822150528430939,-0.0019207397708669305,-0.023609278723597527
0.01930341124534607,0.0007376170833595097,-0.011949671432375908,0.008898899890482426,-0.0019768252968788147,-0.023958003148436546
0.019017893821001053,0.000732873217202723,-0.011694938875734806,0.00877692922949791,-0.0020427010022103786,-0.024396510794758797
0.018731364980340004,0.0006870171637274325,-0.012366089038550854,0.008735529147088528,-0.0019136328483000398,-0.024578528478741646
0.01941940374672413,0.0007070890278555453,-0.011923608370125294,0.008713589049875736,-0.001892296364530921,-0.02468658611178398
0.019719021394848824,0.0007775548147037625,-0.012589963153004646,0.008933414705097675,-0.0017096225637942553,-0.024525756016373634
0.019517384469509125,0.0007205693982541561,-0.012133483774960041,0.009145460091531277,-0.0016077157342806458,-0.024528266862034798
0.01953837461769581,0.0006218160851858556,-0.012538866139948368,0.00908922404050827,-0.0015754693886265159,-0.024692682549357414
0.01967903971672058,0.0006538548623211682,-0.012450141832232475,0.009208193980157375,-0.001471282565034926,-0.024350009858608246
0.019633298739790916,0.0005844979896210134,-0.012871522456407547,0.009026826359331608,-0.0016864815261214972,-0.025213629007339478
0.019633298739790916,0.0005844979896210134,-0.012871522456407547,0.009026826359331608,-0.0016864815261214972,-0.025213629007339478
0.019735848531126976,0.0005593543755821884,-0.012145805172622204,0.008915302343666553,-0.0020793599542230368,-0.024882685393095016
0.019445329904556274,0.0005851484020240605,-0.012787837535142899,0.009331239387392998,-0.0018451736541464925,-0.02515695057809353
0.019637903198599815,0.0005490541807375848,-0.012317226268351078,0.008936293423175812,-0.0018079658038914204,-0.024536961689591408
0.019637903198599815,0.0005490541807375848,-0.012317226268351078,0.008936293423175812,-0.0018079658038914204,-0.024536961689591408
0.01982087455689907,0.0006513192784041166,-0.012775346636772156,0.009655674919486046,-0.0017491679172962904,-0.024495190009474754
0.019584884867072105,0.000696815550327301,-0.012630652636289597,0.009642601944506168,-0.0018031431827694178,-0.026136061176657677
0.019651023671030998,0.0006445111939683557,-0.013005474582314491,0.009317845106124878,-0.0016645508585497737,-0.026073211804032326
0.020181329920887947,0.0009689038270153105,-0.012982563115656376,0.00975168775767088,-0.00169829570222646,-0.02614177018404007
0.020273245871067047,0.0008112159557640553,-0.012685352005064487,0.010273978114128113,-0.0016922327922657132,-0.026781082153320312
0.01959117315709591,0.0006873555830679834,-0.012053685262799263,0.009879826568067074,-0.001668495126068592,-0.026551971212029457
0.020005332306027412,0.0005961915012449026,-0.012298449873924255,0.00991893745958805,-0.001695998478680849,-0.025503069162368774
0.020281251519918442,0.0006300726090557873,-0.013148771598935127,0.009841321967542171,-0.0018213909352198243,-0.024708665907382965
0.01991797611117363,0.0005967228207737207,-0.012608851306140423,0.00990230031311512,-0.001703153015114367,-0.026287555694580078
0.020204167813062668,0.0006200660718604922,-0.012666869908571243,0.009834175929427147,-0.0017065880820155144,-0.02683069184422493
0.02040254697203636,0.0005313128349371254,-0.012708261609077454,0.009818969294428825,-0.0015878994017839432,-0.02653559111058712
0.020539477467536926,0.0004584710986819118,-0.01306862197816372,0.010164747945964336,-0.0015439892886206508,-0.026833701878786087
0.02107187733054161,0.0004977677017450333,-0.012169812805950642,0.010068441741168499,-0.0015930813970044255,-0.026865938678383827
0.020997576415538788,0.000506400247104466,-0.01252339780330658,0.010664834640920162,-0.0018612411804497242,-0.02699490264058113
0.019956033676862717,0.0004909686394967139,-0.012485194019973278,0.01006217859685421,-0.00201510195620358,-0.027001645416021347
0.02056526206433773,0.0004557666543405503,-0.01342326682060957,0.009611534886062145,-0.0025408403016626835,-0.027102584019303322
0.020645389333367348,0.0004848598036915064,-0.013150406070053577,0.009970170445740223,-0.0023704064078629017,-0.027310686185956
0.020946703851222992,0.00045501868589781225,-0.012778048403561115,0.010599304921925068,-0.0020731326658278704,-0.027982233092188835
0.02092565968632698,0.0005438632215373218,-0.013004740700125694,0.009963172487914562,-0.0018122084438800812,-0.02796557918190956
0.021654430776834488,0.0004899222403764725,-0.01261830609291792,0.010338547639548779,-0.0016960840439423919,-0.027808401733636856
0.02178342454135418,0.0005264696665108204,-0.012995976023375988,0.01031656563282013,-0.0016501955687999725,-0.027525490149855614
0.02108197659254074,0.00048275411245413125,-0.012592957355082035,0.009884939529001713,-0.001938298693858087,-0.02834596298635006
0.02108197659254074,0.00048275411245413125,-0.012592957355082035,0.009884939529001713,-0.001938298693858087,-0.02834596298635006
0.021356431767344475,0.0004095469193998724,-0.012779446318745613,0.010266096331179142,-0.0023377591278403997,-0.028151175007224083
0.021356431767344475,0.0004095469193998724,-0.012779446318745613,0.010266096331179142,-0.0023377591278403997,-0.028151175007224083
0.021850835531949997,0.00038067036075517535,-0.01316581666469574,0.00987030379474163,-0.002150158863514662,-0.02852010726928711
0.02171294018626213,0.0003943472111131996,-0.013148365542292595,0.010384797118604183,-0.0020522219128906727,-0.029052061960101128
0.020921194925904274,0.00038895383477211,-0.013252859935164452,0.009887478314340115,-0.0018873243825510144,-0.029034042730927467
0.021959558129310608,0.00036657313467003405,-0.013212602585554123,0.009437460452318192,-0.0018629812402650714,-0.02914946712553501
0.022394536063075066,0.0003900102456100285,-0.012864379212260246,0.009942473843693733,-0.002087709028273821,-0.029160382226109505
0.021970704197883606,0.00037518906174227595,-0.013035726733505726,0.009959903545677662,-0.002018652856349945,-0.028954921290278435
0.02219405025243759,0.00035667643533088267,-0.01295411679893732,0.010291524231433868,-0.002276820596307516,-0.029587628319859505
0.022271299734711647,0.00029795870068483055,-0.013196488842368126,0.010392885655164719,-0.0023462132085114717,-0.029498154297471046
0.021681787446141243,0.0002839651715476066,-0.0124083636328578,0.010470867156982422,-0.0022977637127041817,-0.029820872470736504
0.02195730060338974,0.0002604746841825545,-0.012499372474849224,0.01031739916652441,-0.0020254834089428186,-0.029519515112042427
0.02261795476078987,0.0002501331327948719,-0.01289969589561224,0.010440154001116753,-0.0018741736421361566,-0.030027804896235466
0.022095099091529846,0.00024058019334916025,-0.012596642598509789,0.009702027775347233,-0.001701876986771822,-0.02973967231810093
0.02250765822827816,0.00023173111549112946,-0.01255240198224783,0.009938592091202736,-0.0016867707017809153,-0.029929576441645622
0.022511739283800125,0.00022350977815221995,-0.012822292745113373,0.009934744797647,-0.0017814532620832324,-0.030151819810271263
0.022611195221543312,0.00021585192007478327,-0.01238949503749609,0.010581977665424347,-0.002166961319744587,-0.03054218739271164
0.022725354880094528,0.0002087008615490049,-0.012884236872196198,0.010973958298563957,-0.0022635001223534346,-0.03000532276928425
0.022710580378770828,0.00020200878498144448,-0.012381941080093384,0.010030406527221203,-0.002556472085416317,-0.029414422810077667
0.022662421688437462,0.00019573296594899148,-0.013130483217537403,0.009931741282343864,-0.0025291135534644127,-0.030411092564463615
0.022357691079378128,0.00018983452173415571,-0.012692234478890896,0.009905761107802391,-0.0023679567966610193,-0.03158743306994438
0.022914906963706017,0.00018428188923280686,-0.013034183531999588,0.01037994958460331,-0.001957152970135212,-0.031487952917814255
0.02312655560672283,0.00017904442211147398,-0.01270651537925005,0.010287187993526459,-0.001994926715269685,-0.030934004113078117
0.023258164525032043,0.0001740971056278795,-0.012768537737429142,0.009899608790874481,-0.002059757011011243,-0.029452012851834297
0.022944774478673935,0.00016941541980486363,-0.012941027991473675,0.010073649697005749,-0.002101449528709054,-0.03020360693335533
0.022967716678977013,0.00016497874457854778,-0.01276098471134901,0.010808626189827919,-0.0023374687880277634,-0.03164636343717575
0.023306168615818024,0.00016076878819148988,-0.013586508110165596,0.010748511180281639,-0.0021810506004840136,-0.03134569898247719
0.023306168615818024,0.00016076878819148988,-0.013586508110165596,0.010748511180281639,-0.0021810506004840136,-0.03134569898247719
0.023561907932162285,0.00015676833572797477,-0.013091656379401684,0.010374964214861393,-0.0022758098784834146,-0.03211640939116478
0.023482320830225945,0.00015296215133275837,-0.013770293444395065,0.010731727816164494,-0.0023337521124631166,-0.032098669558763504
0.02325339801609516,0.000149336046888493,-0.013135542161762714,0.010892018675804138,-0.0022659574169665575,-0.031222565099596977
0.02288326434791088,0.00014587848272640258,-0.013307089917361736,0.010963109321892262,-0.0021665734238922596,-0.02996702305972576
0.02325923554599285,0.0001425770460627973,-0.012788997031748295,0.011005975306034088,-0.0021741914097219706,-0.031061233952641487
0.023502560332417488,0.00013942182704340667,-0.0134999118745327,0.010150805115699768,-0.0020863236859440804,-0.032123446464538574
0.023665329441428185,0.00013640313409268856,-0.013186887837946415,0.010030834004282951,-0.0020203932654112577,-0.031982675194740295
0.02329954318702221,0.00013351268717087805,-0.01326370146125555,0.010274183936417103,-0.0019976033363491297,-0.03168746829032898
0.023318985477089882,0.00013074191519990563,-0.013433191925287247,0.010198268108069897,-0.001978767104446888,-0.03165697678923607
0.023474102839827538,7.213227218016982e-05,-0.013119665905833244,0.010967263951897621,-0.002446906641125679,-0.03188564255833626
0.023554882034659386,2.8595684852916747e-05,-0.013943576253950596,0.010510224848985672,-0.002849479438737035,-0.032167546451091766
0.024623911827802658,2.0075902284588665e-05,-0.013469678349792957,0.010590331628918648,-0.0027762367390096188,-0.03187088295817375
0.0239433441311121,1.9636525394162163e-05,-0.012904795818030834,0.010776042006909847,-0.002298890147358179,-0.03210030123591423
0.02410186640918255,1.9217255612602457e-05,-0.01402047835290432,0.010963868349790573,-0.0021338516380637884,-0.03240468353033066
0.021893605589866638,1.8815511793945916e-05,-0.013671442866325378,0.01067235879600048,-0.0019279085099697113,-0.03192272409796715
0.024321097880601883,1.843021163949743e-05,-0.014682956039905548,0.011263980530202389,-0.001889188657514751,-0.03232625499367714
0.024867048487067223,1.806036198104266e-05,-0.013797866180539131,0.011387980543076992,-0.002114730654284358,-0.033389125019311905
0.024577517062425613,1.7705093341646716e-05,-0.014331732876598835,0.01157692726701498,-0.002416034694761038,-0.03413467854261398
0.024097301065921783,1.7363514416501857e-05,-0.013712851330637932,0.011336997151374817,-0.0024800763931125402,-0.03286540508270264
0.024633988738059998,1.703487396298442e-05,-0.014437482692301273,0.01134775672107935,-0.0026629201602190733,-0.031778886914253235
0.024680640548467636,1.6718455299269408e-05,-0.013818757608532906,0.011190713383257389,-0.002343747764825821,-0.033127833157777786
0.02454959787428379,1.641353446757421e-05,-0.014170429669320583,0.010538790374994278,-0.002186898374930024,-0.033392637968063354
0.02487531118094921,1.6119605788844638e-05,-0.013736561872065067,0.010852601379156113,-0.002205616096034646,-0.03360803425312042
0.02392488718032837,1.583596895216033e-05,-0.014166966080665588,0.010765506885945797,-0.002194029511883855,-0.03477165848016739
0.024023670703172684,1.5562158296233974e-05,-0.013903478160500526,0.01186465285718441,-0.0025624744594097137,-0.033915624022483826
0.024023670703172684,1.5562158296233974e-05,-0.013903478160500526,0.01186465285718441,-0.0025624744594097137,-0.033915624022483826
0.02510988526046276,1.529763721919153e-05,-0.013360884040594101,0.011391457170248032,-0.002595995320007205,-0.032601989805698395
0.025271687656641006,2.052373275773789e-07,-0.014113274402916431,0.011227265000343323,-0.002387825632467866,-0.033187951892614365
0.024517722427845,2.7535207447471066e-09,-0.014603286981582642,0.011317680589854717,-0.0019396401476114988,-0.03365008160471916
0.024824272841215134,3.694199460224645e-11,-0.0137270363047719,0.010918837040662766,-0.0019721942953765392,-0.034350648522377014
0.0250654686242342,4.956239954036212e-13,-0.014332099817693233,0.011195378378033638,-0.0021049841307103634,-0.03420421481132507
0.02489248663187027,6.64942844099607e-15,-0.013924390077590942,0.011496393010020256,-0.0021700940560549498,-0.03411996364593506
0.025454718619585037,8.921057541345188e-17,-0.01419429387897253,0.011342735961079597,-0.0023783675860613585,-0.03334435820579529
0.025043286383152008,1.1968736844922712e-18,-0.014151989482343197,0.011254973709583282,-0.002266639145091176,-0.034705061465501785
0.025232771411538124,1.6057587095635963e-20,-0.014404842630028725,0.011538696475327015,-0.00221531605347991,-0.03536495938897133
0.025081327185034752,2.154330412109077e-22,-0.014211191795766354,0.011560666374862194,-0.0022909408435225487,-0.03482730686664581
0.02516876347362995,2.8903090483610756e-24,-0.014515090733766556,0.01159011572599411,-0.002261097775772214,-0.03488393500447273
0.025711670517921448,5.202454854944964e-28,-0.014367247931659222,0.011461040005087852,-0.003020277712494135,-0.035405948758125305
0.025767862796783447,6.979756692922705e-30,-0.01412659976631403,0.011913653463125229,-0.002791385166347027,-0.03547654673457146
0.02559574693441391,9.364233089222489e-32,-0.01444677822291851,0.012163369916379452,-0.002741805976256728,-0.03559151664376259
0.025689100846648216,1.2563313524539092e-33,-0.014481702819466591,0.012000329792499542,-0.002622106811031699,-0.035664428025484085
0.025547362864017487,1.6855288944549116e-35,-0.014783395454287529,0.011857283301651478,-0.002340344712138176,-0.03542827442288399
0.025473076850175858,2.261352010932925e-37,-0.014227007515728474,0.01254843920469284,-0.002195666078478098,-0.03526076674461365
0.025613512843847275,3.03389245057416e-39,-0.014654867351055145,0.012211433611810207,-0.002110288944095373,-0.03553134948015213
0.025883231312036514,4.070351649324296e-41,-0.0147965457290411,0.012593429535627365,-0.00225686002522707,-0.03597220405936241
0.02578713186085224,5.4650640108667866e-43,-0.01472766324877739,0.012315121479332447,-0.0023961146362125874,-0.03619580343365669
0.026216525584459305,7.006492321624085e-45,-0.014369700103998184,0.011849063448607922,-0.002361241029575467,-0.036631956696510315
0.026638638228178024,0.0,-0.014515919610857964,0.01211191713809967,-0.0025352411903440952,-0.03651716932654381
0.025793341919779778,0.0,-0.01474183239042759,0.01171438954770565,-0.0023960473481565714,-0.035882238298654556
0.02632632665336132,0.0,-0.01466378103941679,0.012163374572992325,-0.002378566190600395,-0.036098625510931015
0.026517702266573906,0.0,-0.014400331303477287,0.012182964012026787,-0.0026763668283820152,-0.03664253652095795
0.026234466582536697,0.0,-0.014814493246376514,0.011997108347713947,-0.002893542405217886,-0.03684452176094055
0.026234466582536697,0.0,-0.014814493246376514,0.011997108347713947,-0.002893542405217886,-0.03684452176094055
0.025461658835411072,0.0,-0.014898410998284817,0.012149037793278694,-0.0026335527654737234,-0.03754526004195213
0.025461658835411072,0.0,-0.014898410998284817,0.012149037793278694,-0.0026335527654737234,-0.03754526004195213
0.02681528963148594,0.0,-0.01459435559809208,0.012835599482059479,-0.0025249458849430084,-0.03826020658016205
0.027055969461798668,0.0,-0.01513034850358963,0.012673585675656796,-0.0026506592985242605,-0.03671635687351227
0.02671549655497074,0.0,-0.0145592475309968,0.013075776398181915,-0.0026152869686484337,-0.03582838922739029
0.026806991547346115,0.0,-0.015087184496223927,0.01274805050343275,-0.0027625150978565216,-0.03671988099813461
0.025958681479096413,0.0,-0.014600382186472416,0.012903600931167603,-0.0026443428359925747,-0.037710875272750854
0.025931688025593758,0.0,-0.015139839611947536,0.013113904744386673,-0.002478203037753701,-0.03885493054986
0.027041876688599586,0.0,-0.01466984674334526,0.012634352780878544,-0.0024665873497724533,-0.038565199822187424
0.02699066884815693,-0.00021845345327164978,-0.014975233003497124,0.012339256703853607,-0.002302340464666486,-0.036793649196624756
0.027374999597668648,-0.00021367876615840942,-0.015415036119520664,0.012470460496842861,-0.002406664425507188,-0.0379195362329483
0.027496498078107834,-0.00020399477216415107,-0.014625157229602337,0.011916439048945904,-0.002378226723521948,-0.038302745670080185
0.026492483913898468,-0.0001951476588146761,-0.015254608355462551,0.01189444586634636,-0.0026604614686220884,-0.03826211765408516
0.02697838470339775,-0.00018703634850680828,-0.014449520036578178,0.012094849720597267,-0.0028009326197206974,-0.03785461187362671
0.026908619329333305,-0.00020313792629167438,-0.014979005791246891,0.011804129928350449,-0.002845140639692545,-0.03809637576341629
0.026592906564474106,-0.00020705192582681775,-0.014746305532753468,0.012319948524236679,-0.002677168697118759,-0.03822411596775055
0.02705186977982521,-0.00022139008797239512,-0.015228049829602242,0.012057339772582054,-0.0026152937207370996,-0.03837081044912338
0.0271404217928648,-0.00022436837025452405,-0.01499872375279665,0.012696212157607079,-0.0023536498192697763,-0.03862372040748596
0.02734779193997383,-0.00021679370547644794,-0.015526000410318375,0.012487594038248062,-0.0023402583319693804,-0.03878655657172203
0.02675415202975273,-0.00020958384266123176,-0.015057899057865143,0.012290600687265396,-0.002542754402384162,-0.03867298364639282
0.027342837303876877,-0.00023064116248860955,-0.014965267851948738,0.013075917959213257,-0.0028135436587035656,-0.03830883279442787
0.027482634410262108,-0.00022456551960203797,-0.015198729932308197,0.01270722970366478,-0.0028805218171328306,-0.03928759694099426
0.027482634410262108,-0.00022456551960203797,-0.015198729932308197,0.01270722970366478,-0.0028805218171328306,-0.03928759694099426
0.02743489481508732,-0.00021778768859803677,-0.015019209124147892,0.012887273915112019,-0.0031762069556862116,-0.040474023669958115
0.027651725336909294,-0.0002635947021190077,-0.015742173418402672,0.012620019726455212,-0.003024613717570901,-0.03932730853557587
0.027245832607150078,-0.00027376317302696407,-0.015448926948010921,0.013092520646750927,-0.002710372442379594,-0.03761091083288193
0.027561988681554794,-0.00030391148175112903,-0.015818588435649872,0.013156026601791382,-0.0024155862629413605,-0.03890085592865944
0.02780649997293949,-0.0002931563649326563,-0.015266616828739643,0.013473753817379475,-0.002428593812510371,-0.039940547198057175
0.027397047728300095,-0.00030850167968310416,-0.015725888311862946,0.013248232193291187,-0.002392261056229472,-0.04127311706542969
0.027518685907125473,-0.00030837906524538994,-0.015386209823191166,0.01344699040055275,-0.0026270910166203976,-0.040326014161109924
0.026272479444742203,-0.0002941793645732105,-0.01611766777932644,0.013084293343126774,-0.002814947860315442,-0.03824831172823906
0.02792961709201336,-0.0003073852276429534,-0.015781914815306664,0.012941637076437473,-0.003073574975132942,-0.039277948439121246
0.028225909918546677,-0.00030730466824024916,-0.016393564641475677,0.01318242959678173,-0.0030287341214716434,-0.04047473147511482
0.02776334248483181,-0.0002967306936625391,-0.016345566138625145,0.012639293447136879,-0.0028385163750499487,-0.04080382362008095
0.027288587763905525,-0.0004363241605460644,-0.01574278436601162,0.013274532742798328,-0.002961232326924801,-0.04063911736011505
0.027384484186768532,-0.0005109659978188574,-0.016027206555008888,0.013036826625466347,-0.0029470345471054316,-0.0407998189330101
0.028687002137303352,-0.0005349844577722251,-0.01672411896288395,0.012655236758291721,-0.0027237876784056425,-0.04121939837932587
0.028182294219732285,-0.000742690812330693,-0.01606043055653572,0.012696304358541965,-0.0025569198187440634,-0.04082012176513672
0.028477612882852554,-0.0007367940270341933,-0.016493888571858406,0.012704835273325443,-0.0025366228073835373,-0.041056156158447266
0.026652196422219276,-0.0007454441511072218,-0.01618148759007454,0.012888286262750626,-0.002438085153698921,-0.04118143394589424
0.02756284922361374,-0.0006669384310953319,-0.016349464654922485,0.013223249465227127,-0.002787252189591527,-0.0412413515150547
0.028236061334609985,-0.0005937401438131928,-0.01651390641927719,0.012897616252303123,-0.0027402201667428017,-0.04113822057843208
0.028059925884008408,-0.0006131772533990443,-0.01607299968600273,0.013067630119621754,-0.002689037472009659,-0.04053883999586105
0.028106223791837692,-0.0005676315631717443,-0.016411958262324333,0.012574142776429653,-0.00263720634393394,-0.04166940227150917
0.029101233929395676,-0.0005941351992078125,-0.015813997015357018,0.01334504596889019,-0.0026499051600694656,-0.041487570852041245
0.0290825217962265,-0.00062259950209409,-0.0170248094946146,0.013534953817725182,-0.002829916775226593,-0.04149435833096504
0.02847873978316784,-0.0006754492060281336,-0.016824107617139816,0.013881934806704521,-0.0028886832296848297,-0.04161036014556885
0.027718860656023026,-0.0006978917517699301,-0.01628381386399269,0.013373110443353653,-0.0031048001255840063,-0.04173571988940239
0.02840298041701317,-0.001100247842259705,-0.014551390893757343,0.013452828861773014,-0.0028644262347370386,-0.04160972684621811
0.02840298041701317,-0.001100247842259705,-0.014551390893757343,0.013452828861773014,-0.0028644262347370386,-0.04160972684621811
0.029096221551299095,-0.001110366079956293,-0.016848227009177208,0.013292883522808552,-0.00284811994060874,-0.041080787777900696
0.02901424840092659,-0.0009272299357689917,-0.017785703763365746,0.013782796449959278,-0.0026624880265444517,-0.04148637130856514
0.02915610373020172,-0.0009210757561959326,-0.017008960247039795,0.013997805304825306,-0.0025704556610435247,-0.04145588353276253
0.029073936864733696,-0.0009058094001375139,-0.01706976629793644,0.014364568516612053,-0.002648155903443694,-0.04305730015039444
0.029153816401958466,-0.0008158755372278392,-0.016946930438280106,0.014228622429072857,-0.002668647561222315,-0.04240725189447403
0.029134009033441544,-0.0008168803178705275,-0.016385097056627274,0.01427314430475235,-0.0029265962075442076,-0.04026831313967705
0.028554076328873634,-0.0008278886089101434,-0.016745902597904205,0.01419578492641449,-0.003024420002475381,-0.041463445872068405
0.029841843992471695,-0.0008449121960438788,-0.016399839892983437,0.013436921872198582,-0.002952317241579294,-0.041225261986255646
0.029831133782863617,-0.0011998261325061321,-0.017259767279028893,0.013233463279902935,-0.002798655768856406,-0.04303005337715149
0.029854563996195793,-0.0011959117837250233,-0.01718803681433201,0.013339793309569359,-0.002747782040387392,-0.043311119079589844
0.030115801841020584,-0.0011419449001550674,-0.016734015196561813,0.014320491813123226,-0.0029231300577521324,-0.04173712804913521
0.03058023191988468,-0.001105614355765283,-0.016469981521368027,0.014708672650158405,-0.0028531996067613363,-0.042432382702827454
0.0305644478648901,-0.0011740988120436668,-0.01725102961063385,0.014408094808459282,-0.0029231710359454155,-0.04259628802537918
0.0305644478648901,-0.0011740988120436668,-0.01725102961063385,0.014408094808459282,-0.0029231710359454155,-0.04259628802537918
0.030451208353042603,-0.0013223455753177404,-0.01708524487912655,0.014284655451774597,-0.0030504718888550997,-0.04297585040330887
0.030565334483981133,-0.001290768850594759,-0.01720369979739189,0.014712123200297356,-0.0029673876706510782,-0.04272589832544327
0.03083842433989048,-0.001326204277575016,-0.016325008124113083,0.014477706514298916,-0.002783448901027441,-0.042879898101091385
0.030598802492022514,-0.0014396418118849397,-0.01714368909597397,0.014695200137794018,-0.002971350448206067,-0.04410616308450699
0.030726196244359016,-0.0017739672912284732,-0.017389003187417984,0.014359689317643642,-0.0031110355630517006,-0.04359997808933258
0.030726196244359016,-0.0017739672912284732,-0.017389003187417984,0.014359689317643642,-0.0031110355630517006,-0.04359997808933258
0.03110005520284176,-0.0019113130401819944,-0.017661038786172867,0.01410119328647852,-0.002896245801821351,-0.04277254641056061
0.0311648678034544,-0.0019862253684550524,-0.016747640445828438,0.014281402342021465,-0.002895364770665765,-0.043920792639255524
0.031358446925878525,-0.00188736105337739,-0.01684439927339554,0.01402631402015686,-0.002883180044591427,-0.04543174058198929
0.03144698962569237,-0.001828863169066608,-0.01679239235818386,0.014614982530474663,-0.0031089382246136665,-0.04527611285448074
0.03143099322915077,-0.0017166478792205453,-0.01745392009615898,0.014102854765951633,-0.0030865126755088568,-0.04300738498568535
0.031800393015146255,-0.0018483973108232021,-0.01721012406051159,0.013865564949810505,-0.0028887568041682243,-0.043464962393045425
0.032770246267318726,-0.0020156388636678457,-0.01714230328798294,0.013451840728521347,-0.0027016974054276943,-0.044128067791461945
0.032770246267318726,-0.0020156388636678457,-0.01714230328798294,0.013451840728521347,-0.0027016974054276943,-0.044128067791461945
0.033302389085292816,-0.0022608903236687183,-0.01740315556526184,0.013816352002322674,-0.0026829857379198074,-0.04580962285399437
0.029999742284417152,-0.0022747579496353865,-0.016723256558179855,0.013444448821246624,-0.0029833947774022818,-0.04520988464355469
0.03167233243584633,-0.0019750327337533236,-0.017588580027222633,0.014213353395462036,-0.0030666543170809746,-0.04300886392593384
0.03291238471865654,-0.0017911118920892477,-0.017615079879760742,0.014029698446393013,-0.003301164833828807,-0.044561319053173065
0.03191059082746506,-0.0017923183040693402,-0.01732196845114231,0.01413226593285799,-0.003210078924894333,-0.045319344848394394
0.03222515434026718,-0.0018096278654411435,-0.01765058934688568,0.013298534788191319,-0.0030023856088519096,-0.04367688670754433
0.033783912658691406,-0.0020611516665667295,-0.01790129952132702,0.014408491551876068,-0.0026513703633099794,-0.04530806466937065
0.03326689824461937,-0.002570339012891054,-0.017954809591174126,0.014305210672318935,-0.0027390792965888977,-0.0456012487411499
0.03194846585392952,-0.002764012897387147,-0.018174350261688232,0.014179643243551254,-0.0030887548346072435,-0.04531008005142212
0.032965101301670074,-0.002629691967740655,-0.01769202947616577,0.013629099354147911,-0.003011067397892475,-0.045282766222953796
0.03299018740653992,-0.0025406465865671635,-0.017412276938557625,0.013741165399551392,-0.002910955809056759,-0.04576345160603523
0.032994478940963745,-0.0024244028609246016,-0.017855733633041382,0.014378512278199196,-0.002967974403873086,-0.04561888054013252
0.03316138684749603,-0.002508720848709345,-0.01832677237689495,0.014191039837896824,-0.0031324743758887053,-0.04587934538722038
0.033043939620256424,-0.002563520334661007,-0.017923617735505104,0.014307458885014057,-0.0031883157789707184,-0.046045899391174316
0.03297733888030052,-0.0024633556604385376,-0.017785215750336647,0.013857338577508926,-0.0034089945256710052,-0.04644991457462311
0.03300466760993004,-0.002536546438932419,-0.01780645176768303,0.014326201751828194,-0.003624433884397149,-0.04518989101052284
0.0330677330493927,-0.00250876578502357,-0.017995232716202736,0.014642384834587574,-0.0033319208305329084,-0.046308211982250214
0.03315265476703644,-0.002387766260653734,-0.01920614391565323,0.014118662104010582,-0.0030834064818918705,-0.0467563271522522
0.033113475888967514,-0.002534189959987998,-0.01863781362771988,0.014413958415389061,-0.00298285367898643,-0.04674893617630005
0.03308689966797829,-0.0027018836699426174,-0.018007425591349602,0.01424127072095871,-0.0027449196204543114,-0.045535940676927567
0.03362588584423065,-0.003231991082429886,-0.018651029095053673,0.014557454735040665,-0.00273977592587471,-0.047187767922878265
0.032791636884212494,-0.0030552977696061134,-0.018053336068987846,0.014957024715840816,-0.003228389425203204,-0.04826110601425171
0.031718045473098755,-0.0030713879968971014,-0.018452735617756844,0.01473151333630085,-0.004008349496871233,-0.045732997357845306
0.032891761511564255,-0.0030097607523202896,-0.01869197189807892,0.014285446144640446,-0.004224462900310755,-0.04653623700141907
0.033797748386859894,-0.003211932722479105,-0.018717939034104347,0.014136281795799732,-0.0035632571671158075,-0.04725109413266182
0.033797748386859894,-0.003211932722479105,-0.018717939034104347,0.014136281795799732,-0.0035632571671158075,-0.04725109413266182
0.034083761274814606,-0.003160653403028846,-0.01871112734079361,0.014961346983909607,-0.003063207259401679,-0.04915861040353775
0.03301911801099777,-0.0029949666932225227,-0.01877135969698429,0.015242965891957283,-0.0027337209321558475,-0.04615776613354683
0.03272955119609833,-0.003072013845667243,-0.01875755563378334,0.014668641611933708,-0.0027126308996230364,-0.046603891998529434
0.033601488918066025,-0.0035601258277893066,-0.018434276804327965,0.015035794116556644,-0.0030028708279132843,-0.04831315204501152
0.03355038911104202,-0.004211519844830036,-0.01861453242599964,0.015397182665765285,-0.0029666179325431585,-0.04795823618769646
0.03396257385611534,-0.0037304230500012636,-0.018841441720724106,0.015085509046912193,-0.0034549105912446976,-0.048083361238241196
0.03316328674554825,-0.0037302509881556034,-0.01909937523305416,0.01518604438751936,-0.003533901646733284,-0.0486435666680336
0.03316328674554825,-0.0037302509881556034,-0.01909937523305416,0.01518604438751936,-0.003533901646733284,-0.0486435666680336
0.03362973779439926,-0.003538582008332014,-0.0181867815554142,0.015081271529197693,-0.0033297415357083082,-0.047254543751478195
0.03362973779439926,-0.003538582008332014,-0.0181867815554142,0.015081271529197693,-0.0033297415357083082,-0.047254543751478195
0.03345000743865967,-0.003760086838155985,-0.018434718251228333,0.015029491856694221,-0.0032724090851843357,-0.048868849873542786
0.03369564190506935,-0.0033476087264716625,-0.01821364276111126,0.015066352672874928,-0.003058860544115305,-0.04841521382331848
0.03392019495368004,-0.0034686923027038574,-0.01848708465695381,0.015677599236369133,-0.003415535669773817,-0.04760710150003433
0.033836234360933304,-0.0033149193041026592,-0.019144102931022644,0.015254325233399868,-0.003852139227092266,-0.04863175377249718
0.03429432213306427,-0.003460416803136468,-0.018456609919667244,0.015808038413524628,-0.003993813414126635,-0.05053849145770073
0.03409743681550026,-0.004091737791895866,-0.01882665976881981,0.015402599237859249,-0.0033080712892115116,-0.04980136454105377
0.03428329899907112,-0.00399717828258872,-0.018322117626667023,0.015868807211518288,-0.003548404900357127,-0.04889526590704918
0.03428329899907112,-0.00399717828258872,-0.018322117626667023,0.015868807211518288,-0.003548404900357127,-0.04889526590704918
0.03473760187625885,-0.00358635769225657,-0.01845136657357216,0.015959328040480614,-0.0034027830697596073,-0.04904932901263237
0.03473760187625885,-0.00358635769225657,-0.01845136657357216,0.015959328040480614,-0.0034027830697596073,-0.04904932901263237
0.03535838797688484,-0.004005654249340296,-0.018508370965719223,0.016166476532816887,-0.003165495814755559,-0.04907096177339554
0.035277221351861954,-0.0039076912216842175,-0.018635474145412445,0.015950405970215797,-0.0030629856046289206,-0.04875917732715607
0.03526894003152847,-0.0038772718980908394,-0.019053999334573746,0.016162024810910225,-0.0029888616409152746,-0.048373471945524216
0.03526894003152847,-0.0038772718980908394,-0.019053999334573746,0.016162024810910225,-0.0029888616409152746,-0.048373471945524216
0.034825026988983154,-0.0042693461291491985,-0.018016010522842407,0.0157032273709774,-0.002882015658542514,-0.05026509612798691
0.03485545516014099,-0.0037268090527504683,-0.018132906407117844,0.01592511683702469,-0.0029881575610488653,-0.04975811019539833
0.035292670130729675,-0.00349732325412333,-0.0184823926538229,0.015778202563524246,-0.003048188518732786,-0.04976502060890198
0.036222659051418304,-0.003581657540053129,-0.018394047394394875,0.01571478694677353,-0.003194099059328437,-0.04917026683688164
0.036048416048288345,-0.00425769342109561,-0.018632838502526283,0.01618961989879608,-0.0031714243814349174,-0.050605952739715576
0.035519279539585114,-0.004300313536077738,-0.01846141926944256,0.01648528315126896,-0.0035964848939329386,-0.048868339508771896
0.03546014800667763,-0.00399810029193759,-0.018809914588928223,0.01600264385342598,-0.003373438725247979,-0.049306247383356094
0.035805344581604004,-0.003862745128571987,-0.018628988415002823,0.016409559175372124,-0.003131308127194643,-0.05028272792696953
0.03681261092424393,-0.004091137088835239,-0.01892758160829544,0.015803037211298943,-0.002899694489315152,-0.051545821130275726
0.036007970571517944,-0.004241704475134611,-0.01922702230513096,0.016247998923063278,-0.0028110677376389503,-0.050991568714380264
0.03516063094139099,-0.004005521070212126,-0.018571607768535614,0.016256894916296005,-0.0026872430462390184,-0.05069153755903244
0.03551975637674332,-0.0034749582409858704,-0.017786379903554916,0.016253365203738213,-0.0028475874569267035,-0.05112190917134285
0.03653697296977043,-0.0026522937696427107,-0.019586440175771713,0.016092680394649506,-0.003030213760212064,-0.05084489658474922
