davideferrari95/blind_handover_controller/data/Test 255 - [2024-02-08 -- 12-45-19]/joint_states_data.csv
shoulder_pan_joint,shoulder_lift_joint,elbow_joint,wrist_1_joint,wrist_2_joint,wrist_3_joint
0.0065046874806284904,0.0070737628266215324,-0.012537558563053608,0.005187465343624353,-0.0,0.005900224205106497
0.0065046874806284904,0.0070737628266215324,-0.012537558563053608,0.005187465343624353,-0.0,0.005900224205106497
0.006740148179233074,0.008963629603385925,-0.012943701818585396,0.005157013889402151,-0.0,0.0059083253145217896
0.005940859206020832,0.008249031379818916,-0.01213989406824112,0.005133357364684343,-0.0,0.006799778901040554
0.0058249132707715034,0.00896912720054388,-0.012703010812401772,0.0048406654968857765,-0.0,0.0071401940658688545
0.0058249132707715034,0.00896912720054388,-0.012703010812401772,0.0048406654968857765,-0.0,0.0071401940658688545
0.005588983651250601,0.009343275800347328,-0.012098951265215874,0.005173415411263704,-0.0,0.006080681923776865
0.005684820003807545,0.00872072298079729,-0.012512102723121643,0.005560166668146849,-0.0,0.005259259138256311
0.005728719290345907,0.008765124715864658,-0.012380993925035,0.005191203206777573,-0.0,0.005534255877137184
0.006076325196772814,0.00865221582353115,-0.012977572157979012,0.005095659289509058,-0.0,0.006024473812431097
0.00561478640884161,0.008851688355207443,-0.012749701738357544,0.004881794564425945,-0.0,0.006346867885440588
0.005801236256957054,0.008893700316548347,-0.012362975627183914,0.004765947815030813,-0.0,0.006438333075493574
0.00550291920080781,0.008261923678219318,-0.012637936510145664,0.004714579787105322,-0.0,0.005899448413401842
0.006178606767207384,0.008782959543168545,-0.012120547704398632,0.004756664391607046,-0.0,0.005836645141243935
0.006356496829539537,0.008784912526607513,-0.013324043713510036,0.004639019258320332,-0.0,0.006110456772148609
0.005681015085428953,0.008470350876450539,-0.012338182888925076,0.004464080091565847,-0.0,0.00636931462213397
0.0059274970553815365,0.00900821853429079,-0.01265502255409956,0.004340083338320255,-0.0,0.006391256116330624
0.005593478679656982,0.008477238938212395,-0.012216453440487385,0.004078888799995184,-0.0,0.006608166266232729
0.00641815597191453,0.008198305033147335,-0.012239199131727219,0.004168512299656868,-0.0,0.006591630633920431
0.00584501912817359,0.009104241617023945,-0.012768679298460484,0.004336019046604633,-0.0,0.00645966362208128
0.005526571534574032,0.008020710200071335,-0.012872221879661083,0.004516536835581064,-0.0,0.006436713971197605
0.005956042092293501,0.007740043569356203,-0.012076753191649914,0.004669743590056896,-0.0,0.006310473661869764
0.006377860903739929,0.008565797470510006,-0.012278891168534756,0.004228280391544104,-0.0,0.006201203912496567
0.0059580435045063496,0.008383135311305523,-0.012020675465464592,0.004237757530063391,-0.0,0.0062525589019060135
0.0062844110652804375,0.0081790741533041,-0.01253722794353962,0.004053384531289339,-0.0,0.00663799187168479
0.005967180710285902,0.007882065139710903,-0.012979223392903805,0.004274406470358372,-0.0,0.006625656504184008
0.0058634174056351185,0.008632756769657135,-0.011753370054066181,0.004895995371043682,-0.0,0.00656975619494915
0.006256386172026396,0.008183536119759083,-0.012236476875841618,0.004679800942540169,-0.0,0.006341602653264999
0.0060591744258999825,0.008284609764814377,-0.012323727831244469,0.004607207607477903,-0.0,0.0064495159313082695
0.006282555405050516,0.007872506976127625,-0.012696420773863792,0.004491532687097788,-0.0,0.006942099891602993
0.005704802460968494,0.008057364262640476,-0.012030822224915028,0.004535767715424299,-0.0,0.006758769042789936
0.0057495892979204655,0.007956097833812237,-0.011718373745679855,0.00444539450109005,-0.0,0.006780094467103481
0.006315423641353846,0.008388973772525787,-0.012075650505721569,0.004513267427682877,-0.0,0.006646578200161457
0.006049932446330786,0.008690089918673038,-0.011410148814320564,0.005000780336558819,-0.0,0.006508180405944586
0.006325177848339081,0.0077605824917554855,-0.011848038993775845,0.004878276027739048,-0.0,0.006257839500904083
0.005711511243134737,0.007897398434579372,-0.011706952005624771,0.004692590329796076,-0.0,0.006113142240792513
0.005909915082156658,0.008182096295058727,-0.012183167971670628,0.004458208102732897,-0.0,0.006340472958981991
0.005909915082156658,0.008182096295058727,-0.012183167971670628,0.004458208102732897,-0.0,0.006340472958981991
0.005989750847220421,0.008479409851133823,-0.011756066232919693,0.004247634205967188,-0.0,0.00655705900862813
0.006095175631344318,0.007792137563228607,-0.011218857020139694,0.004426660481840372,-0.0,0.006413229741156101
0.006393085233867168,0.007548063062131405,-0.011759907938539982,0.004528501071035862,-0.0,0.006371252704411745
0.00560792675241828,0.007531312294304371,-0.011589350178837776,0.004811665043234825,-0.0,0.0062404172495007515
0.005912537686526775,0.008060364052653313,-0.011919890530407429,0.004586579278111458,-0.0,0.006420113146305084
0.00619546789675951,0.007683820556849241,-0.011827218346297741,0.0043634348548948765,-0.0,0.006408016197383404
0.005970158614218235,0.007698722183704376,-0.011385489255189896,0.004402704071253538,-0.0,0.006034931167960167
0.005992257967591286,0.007738644722849131,-0.011811296455562115,0.0044428203254938126,-0.0,0.006075013894587755
0.005848703905940056,0.007698678877204657,-0.011244778521358967,0.0043907612562179565,-0.0,0.006510530598461628
0.00604576151818037,0.007138832006603479,-0.011875412426888943,0.00461938651278615,-0.0,0.006341841071844101
0.0061461543664336205,0.007716515101492405,-0.011058688163757324,0.004125483334064484,-0.0,0.0067225126549601555
0.006281581707298756,0.0076223681680858135,-0.0113600455224514,0.004382824990898371,-0.0,0.006754934322088957
0.0057279206812381744,0.007104478310793638,-0.011311609297990799,0.0045424108393490314,-0.0,0.006777158938348293
0.006052033510059118,0.006728931795805693,-0.011137432418763638,0.004718906246125698,-0.0,0.006754565984010696
0.006748265586793423,0.0074761053547263145,-0.011040502227842808,0.0045107267796993256,-0.0,0.006413113325834274
0.006204575765877962,0.007542314939200878,-0.010846266523003578,0.004511925857514143,-0.0,0.00644839508458972
0.0059312512166798115,0.006966716144233942,-0.011472468264400959,0.004619589541107416,-0.0,0.006624526344239712
0.005922495853155851,0.007110336795449257,-0.01089300774037838,0.004658228252083063,-0.0,0.0066738128662109375
0.006102767772972584,0.006985337473452091,-0.010753760114312172,0.004636724013835192,-0.0,0.006890346296131611
0.006399700418114662,0.008004487492144108,-0.01136845164000988,0.004261121153831482,-0.0,0.00651536462828517
0.006540397647768259,0.0071821571327745914,-0.010786006227135658,0.003966071177273989,-0.0,0.0063894460909068584
0.006578807719051838,0.007236915174871683,-0.010829067789018154,0.004811593797057867,-0.0,0.0062342556193470955
0.006120465695858002,0.006851545535027981,-0.01192158181220293,0.005053436849266291,-0.0,0.006854511797428131
0.006430082023143768,0.00801369920372963,-0.010486526414752007,0.004883092828094959,-0.0,0.0067384205758571625
0.006847376935184002,0.007791335694491863,-0.011185294017195702,0.004209272563457489,-0.0,0.006656348239630461
0.006795104593038559,0.007599357515573502,-0.011954158544540405,0.004181812983006239,-0.0,0.006754051428288221
0.006282190326601267,0.006972586270421743,-0.011496593244373798,0.004441901575773954,-0.0,0.006677818018943071
0.006451631896197796,0.008050004951655865,-0.011493231169879436,0.004696912132203579,-0.0,0.006772608961910009
0.00791874248534441,0.007843362167477608,-0.011399018578231335,0.004724935628473759,-0.0,0.006415995769202709
0.006217501126229763,0.007464464288204908,-0.01180705614387989,0.004549500532448292,-0.0,0.0060063800774514675
0.0059183379635214806,0.007547265384346247,-0.011226759292185307,0.004540149588137865,-0.0,0.005930229090154171
0.0059183379635214806,0.007547265384346247,-0.011226759292185307,0.004540149588137865,-0.0,0.005930229090154171
0.006239220499992371,0.007608648389577866,-0.010911045596003532,0.0044504813849925995,-0.0,0.006127703469246626
0.006354444194585085,0.007425270974636078,-0.011774834245443344,0.004416188690811396,-0.0,0.006210749503225088
0.0067789084278047085,0.007444208022207022,-0.011048785410821438,0.004321393556892872,-0.0,0.006300617475062609
0.006622882094234228,0.008208729326725006,-0.011000958271324635,0.004305404145270586,-0.0,0.006196035537868738
0.00676891952753067,0.008054014295339584,-0.011476145125925541,0.0042840722016990185,-0.0,0.005642863921821117
0.00623791990801692,0.007636057212948799,-0.011229943484067917,0.004419567994773388,-0.0,0.006251662038266659
0.00655263289809227,0.007083761040121317,-0.012247118167579174,0.004208172205835581,-0.0,0.006684939377009869
0.006749758496880531,0.007221539504826069,-0.011377086862921715,0.004300156608223915,-0.0,0.00676161702722311
0.006817059125751257,0.008071210235357285,-0.011441671289503574,0.004118792712688446,-0.0,0.006614109501242638
0.006144501268863678,0.007085813209414482,-0.011057295836508274,0.004698149859905243,-0.0,0.006953179370611906
0.006825130898505449,0.007383550517261028,-0.0116584999486804,0.0045552849769592285,-0.0,0.006864823400974274
0.006653119344264269,0.0075488006696105,-0.011795357801020145,0.004346782807260752,-0.0,0.006744726095348597
0.0068750628270208836,0.0074440850876271725,-0.010875694453716278,0.004404090810567141,-0.0,0.006264503579586744
0.0068751135841012,0.00758627662435174,-0.011552718468010426,0.0041962587274611,-0.0,0.0064415340311825275
0.006740797311067581,0.007622396573424339,-0.010965608060359955,0.004496484529227018,-0.0,0.006692180410027504
0.006774230860173702,0.008233080618083477,-0.011309430003166199,0.004243323113769293,-0.0,0.0065073552541434765
0.0067374263890087605,0.007311665918678045,-0.011649870313704014,0.0043660299852490425,-0.0,0.006182882934808731
0.006728386972099543,0.007232917472720146,-0.01127241738140583,0.004254404921084642,-0.0,0.006470846012234688
0.006641428451985121,0.008018650114536285,-0.012087803333997726,0.004460805561393499,-0.0,0.006875695660710335
0.007309350650757551,0.007873368449509144,-0.011894963681697845,0.004845054820179939,-0.0,0.00617401534691453
0.0066697439178824425,0.0074996137991547585,-0.012044591829180717,0.004805474076420069,-0.0,0.006342788692563772
0.006354101933538914,0.007627555634826422,-0.01124905701726675,0.004471026826649904,-0.0,0.006292029283940792
0.006650218274444342,0.007797203958034515,-0.011182259768247604,0.004044227302074432,-0.0,0.006469531916081905
0.006811096332967281,0.007950572296977043,-0.011785424314439297,0.00418942840769887,-0.0,0.006837011780589819
0.007433057297021151,0.0076930769719183445,-0.011361205019056797,0.00416267616674304,-0.0,0.006990291178226471
0.006768510676920414,0.007084272336214781,-0.011522102169692516,0.004317916464060545,-0.0,0.006863407790660858
0.0065306308679282665,0.007289837580174208,-0.011974251829087734,0.004494831897318363,-0.0,0.006691301241517067
0.0065306308679282665,0.007289837580174208,-0.011974251829087734,0.004494831897318363,-0.0,0.006691301241517067
0.00693504186347127,0.008054375648498535,-0.011225023306906223,0.004656745586544275,-0.0,0.0066719562746584415
0.00703252200037241,0.007627089507877827,-0.01153878029435873,0.004329342860728502,-0.0,0.00672915019094944
0.007490264251828194,0.007629145868122578,-0.011363678611814976,0.004618859384208918,-0.0,0.006947126239538193
0.007490264251828194,0.007629145868122578,-0.011363678611814976,0.004618859384208918,-0.0,0.006947126239538193
0.007085372693836689,0.007961055263876915,-0.010024894960224628,0.004713729955255985,-0.0,0.007139674387872219
0.0067568509839475155,0.007556873839348555,-0.011589592322707176,0.004747141618281603,-0.0,0.00700432900339365
0.006348148453980684,0.007420347537845373,-0.01191779039800167,0.004626634065061808,-0.0,0.007119561079889536
0.00715349055826664,0.007730557583272457,-0.010882250033318996,0.004599091596901417,-0.0,0.006697804667055607
0.007027870509773493,0.007289927918463945,-0.011478008702397346,0.004690053407102823,-0.0,0.006999119650572538
0.007027870509773493,0.007289927918463945,-0.011478008702397346,0.004690053407102823,-0.0,0.006999119650572538
0.006861832924187183,0.007616069167852402,-0.01170435082167387,0.004578760825097561,-0.0,0.0065169441513717175
0.00667582917958498,0.008176335133612156,-0.010907039977610111,0.004841773305088282,-0.0,0.006167612504214048
0.006814126390963793,0.007847023196518421,-0.010607422329485416,0.0049652294255793095,-0.0,0.006357613019645214
0.006923086941242218,0.007765218615531921,-0.01195297110825777,0.00470357621088624,-0.0,0.006584065966308117
0.007209426257759333,0.008012081496417522,-0.011320177465677261,0.004782708361744881,-0.0,0.006548759527504444
0.00706901540979743,0.007119178771972656,-0.011318069882690907,0.0049012103118002415,-0.0,0.006538719870150089
0.0073635936714708805,0.0068535348400473595,-0.011031356640160084,0.004792291205376387,-0.0,0.006714355666190386
0.0074379658326506615,0.007149641867727041,-0.010817932896316051,0.005136364605277777,-0.0,0.007164917886257172
0.007328039966523647,0.007488369941711426,-0.01121191680431366,0.005064209923148155,-0.0,0.006656559184193611
0.007407139986753464,0.00757701275870204,-0.011080782860517502,0.004648672882467508,-0.0,0.0067060585133731365
0.007074789144098759,0.007301158271729946,-0.01090906746685505,0.004402087535709143,-0.0,0.006750528234988451
0.007152399979531765,0.007182925008237362,-0.011250408366322517,0.004151368048042059,-0.0,0.006832720246165991
0.008035989478230476,0.008090526796877384,-0.010853507556021214,0.0043081119656562805,-0.0,0.006667907815426588
0.007801821921020746,0.00767207145690918,-0.011021778918802738,0.004482420161366463,-0.0,0.006535361520946026
0.0071448818780481815,0.007325973827391863,-0.011125193908810616,0.004566771909594536,-0.0,0.006367465481162071
0.0071448818780481815,0.007325973827391863,-0.011125193908810616,0.004566771909594536,-0.0,0.006367465481162071
0.008044672198593616,0.007453946862369776,-0.01061040535569191,0.0041538262739777565,-0.0,0.006333088036626577
0.007840340957045555,0.007655286695808172,-0.011586402542889118,0.004169541876763105,-0.0,0.007012154906988144
0.007019514683634043,0.007394611369818449,-0.011410090140998363,0.00421565119177103,-0.0,0.00720615591853857
0.00727939372882247,0.007336766459047794,-0.011188018135726452,0.004244409967213869,-0.0,0.007220209110528231
0.007485447451472282,0.007413731887936592,-0.011741031892597675,0.004323915578424931,-0.0,0.007037904113531113
0.008064779452979565,0.008168807253241539,-0.011071880348026752,0.004487708210945129,-0.0,0.007033354137092829
0.0074023036286234856,0.0069870175793766975,-0.011294001713395119,0.004713233094662428,-0.0,0.006836199667304754
0.00817797426134348,0.007143961265683174,-0.011224644258618355,0.004299509804695845,-0.0,0.006534196902066469
0.007859840989112854,0.008187278173863888,-0.011316608637571335,0.004018567502498627,-0.0,0.006601949688047171
0.007566089741885662,0.00780282448977232,-0.010801822878420353,0.004300552420318127,-0.0,0.006865285336971283
0.007818976417183876,0.007623137440532446,-0.011633223854005337,0.005072588566690683,-0.0,0.006788416765630245
0.007250960450619459,0.007126809563487768,-0.011055216193199158,0.004962111357599497,-0.0,0.006822704803198576
0.007964611053466797,0.008153858594596386,-0.01074357982724905,0.004544035065919161,-0.0,0.00689286645501852
0.007821578532457352,0.007754298858344555,-0.011470863595604897,0.004560832865536213,-0.0,0.007311702240258455
0.007856533862650394,0.007584220264106989,-0.010949699208140373,0.004496301058679819,-0.0,0.0072885314002633095
0.00796559825539589,0.007662175223231316,-0.011999751441180706,0.00448646629229188,-0.0,0.007305704057216644
0.007712117396295071,0.007816482335329056,-0.011347535066306591,0.004784488584846258,-0.0,0.007413808722048998
0.007546807173639536,0.007516932208091021,-0.01089658122509718,0.004615265876054764,-0.0,0.007527052890509367
0.007690048310905695,0.007266114931553602,-0.011384187266230583,0.0048004938289523125,-0.0,0.00709253316745162
0.007922234013676643,0.00732743926346302,-0.011204591952264309,0.004798759240657091,-0.0,0.007253214251250029
0.007731473073363304,0.007830300368368626,-0.011368286795914173,0.00490347295999527,-0.0,0.006983734667301178
0.007131186313927174,0.007317929994314909,-0.011391126550734043,0.004399236291646957,-0.0,0.006969906855374575
0.00739098759368062,0.007093039341270924,-0.011200274340808392,0.004420495126396418,-0.0,0.007118664216250181
0.007958408445119858,0.006970041897147894,-0.011426456272602081,0.004627406131476164,-0.0,0.007239156402647495
0.007464929483830929,0.007239476777613163,-0.011743550188839436,0.004729787353426218,-0.0,0.00695015536621213
0.007063116878271103,0.007267551962286234,-0.011691057123243809,0.004702522419393063,-0.0,0.00731503264978528
0.007063116878271103,0.007267551962286234,-0.011691057123243809,0.004702522419393063,-0.0,0.00731503264978528
0.007673724554479122,0.007208019029349089,-0.011612235568463802,0.004675116389989853,-0.0,0.007364544551819563
0.008161218836903572,0.007777673192322254,-0.011459614150226116,0.005052462685853243,-0.0,0.0069772033020854
0.007727263495326042,0.00714109418913722,-0.011531258933246136,0.00476142019033432,-0.0,0.0071440995670855045
0.007727263495326042,0.00714109418913722,-0.011531258933246136,0.00476142019033432,-0.0,0.0071440995670855045
0.008272724226117134,0.007222066633403301,-0.011036303825676441,0.0048281229101121426,-0.0,0.00737807247787714
0.007873247377574444,0.007491648197174072,-0.011465483345091343,0.004915760830044746,-0.0,0.007374185137450695
0.007788476534187794,0.007721077185124159,-0.011347563937306404,0.004885007161647081,-0.0,0.007035994902253151
0.00744565948843956,0.00754581717774272,-0.01114700734615326,0.005035087000578642,-0.0,0.0073936134576797485
0.00814727507531643,0.00718909315764904,-0.011362401768565178,0.004963045008480549,-0.0,0.007511721923947334
0.008656141348183155,0.008260524831712246,-0.01135473232716322,0.00476152403280139,-0.0,0.0074370065703988075
0.008037385530769825,0.007981573231518269,-0.011094887740910053,0.004984475206583738,-0.0,0.007805338129401207
0.007945566438138485,0.0071457247249782085,-0.011149427853524685,0.005060272756963968,-0.0,0.008395361714065075
0.00783631857484579,0.0074722436256706715,-0.011719530448317528,0.004893647041171789,-0.0,0.007181518245488405
0.00788401160389185,0.007955518551170826,-0.010922599583864212,0.0050840843468904495,-0.0,0.006789063569158316
0.008310255594551563,0.006954369600862265,-0.011990802362561226,0.005018326453864574,-0.0,0.007541267201304436
0.008343938738107681,0.006523239891976118,-0.011973093263804913,0.005217517726123333,-0.0,0.007616251241415739
0.008216539397835732,0.006784350611269474,-0.01149832271039486,0.004995994735509157,-0.0,0.007428561337292194
0.007872577756643295,0.00705989683046937,-0.011700485832989216,0.0049599469639360905,-0.0,0.007448792457580566
0.008284595794975758,0.0074113644659519196,-0.011300770565867424,0.005048361606895924,-0.0,0.007535398472100496
0.00830842461436987,0.0074341436848044395,-0.011733457446098328,0.005382696632295847,-0.0,0.007180806249380112
0.00788907241076231,0.007033840753138065,-0.011659476906061172,0.005281596444547176,-0.0,0.007235903758555651
0.008326399140059948,0.00662847189232707,-0.011633421294391155,0.00525858486071229,-0.0,0.007420300040394068
0.008429303765296936,0.007168395910412073,-0.011747094802558422,0.005089894402772188,-0.0,0.008008156903088093
0.008445986546576023,0.007108346093446016,-0.011372162960469723,0.0049432250671088696,-0.0,0.007933804765343666
0.00794997625052929,0.006737055256962776,-0.012337509542703629,0.0050989543087780476,-0.0,0.007579317316412926
0.008542475290596485,0.006742145866155624,-0.011891992762684822,0.004625545348972082,-0.0,0.007457384839653969
0.00852953176945448,0.007092467043548822,-0.011721065267920494,0.0046216826885938644,-0.0,0.008077838458120823
0.008347527123987675,0.007247306406497955,-0.012455365620553493,0.005000196397304535,-0.0,0.007919524796307087
0.008347527123987675,0.007247306406497955,-0.012455365620553493,0.005000196397304535,-0.0,0.007919524796307087
0.008121260441839695,0.007021948229521513,-0.012171879410743713,0.0049703228287398815,-0.0,0.008087042719125748
0.008607172407209873,0.006618487183004618,-0.012339672073721886,0.0047591207548975945,-0.0,0.008144456893205643
0.008908224292099476,0.007034617476165295,-0.012159575708210468,0.004547939635813236,-0.0,0.00830717384815216
0.008061178959906101,0.006833971943706274,-0.012250296771526337,0.004615538287907839,-0.0,0.007827837951481342
0.00872013345360756,0.006568544078618288,-0.012044028379023075,0.005156088154762983,-0.0,0.00796553771942854
0.008098733611404896,0.00663040904328227,-0.012300669215619564,0.0047840247862041,-0.0,0.008052353747189045
0.008192728273570538,0.006669674068689346,-0.011844512075185776,0.004639398772269487,-0.0,0.008216115646064281
0.008320447988808155,0.006215264089405537,-0.012542489916086197,0.004430788103491068,-0.0,0.00810918863862753
0.00828029215335846,0.006457569543272257,-0.011754394508898258,0.004525608848780394,-0.0,0.007941626012325287
0.008226809091866016,0.006132522597908974,-0.011853165924549103,0.004634703043848276,-0.0,0.007422285620123148
0.008847156539559364,0.0065366048365831375,-0.012658948078751564,0.004747980274260044,-0.0,0.00790003128349781
0.008410807698965073,0.007029341999441385,-0.01193273440003395,0.0047130705788731575,-0.0,0.008422378450632095
0.0083150714635849,0.006443520542234182,-0.012288719415664673,0.00463138660416007,-0.0,0.008491083048284054
0.008530703373253345,0.005919347517192364,-0.011567614041268826,0.004635137505829334,-0.0,0.008158961310982704
0.009028006345033646,0.00630410760641098,-0.01205113623291254,0.0049906084313988686,-0.0,0.007578207645565271
0.008598445914685726,0.006708728149533272,-0.012199006043374538,0.004938221070915461,-0.0,0.008028150536119938
0.008284157142043114,0.0065816855058074,-0.011415714398026466,0.004887355491518974,-0.0,0.008382538333535194
0.008673354983329773,0.006210236810147762,-0.012519428506493568,0.0049888696521520615,-0.0,0.00813364889472723
0.008791346102952957,0.006503906100988388,-0.012143167667090893,0.00487335491925478,-0.0,0.007686599623411894
0.008791346102952957,0.006503906100988388,-0.012143167667090893,0.00487335491925478,-0.0,0.007686599623411894
0.008443132042884827,0.006772101391106844,-0.011927418410778046,0.00458961958065629,-0.0,0.007670629303902388
0.008885087445378304,0.006561844609677792,-0.010886894538998604,0.0047199781984090805,-0.0,0.007532294373959303
0.008885087445378304,0.006561844609677792,-0.010886894538998604,0.0047199781984090805,-0.0,0.007532294373959303
0.008444231003522873,0.006565444637089968,-0.013750906102359295,0.005258345976471901,-0.0,0.008010931313037872
0.008257709443569183,0.0066545139998197556,-0.011862392537295818,0.005062204319983721,-0.0,0.008386014960706234
0.0086003253236413,0.006572711747139692,-0.012129947543144226,0.005181212443858385,-0.0,0.007843640632927418
0.0086003253236413,0.006572711747139692,-0.012129947543144226,0.005181212443858385,-0.0,0.007843640632927418
0.008373516611754894,0.0068051922135055065,-0.011933931149542332,0.00469712819904089,-0.0,0.007921511307358742
0.009210711345076561,0.006204540375620127,-0.011985094286501408,0.004410936497151852,-0.0,0.008114222437143326
0.008896061219274998,0.006327418610453606,-0.011197050102055073,0.004792440216988325,-0.0,0.00830712728202343
0.008661914616823196,0.0066750505939126015,-0.01247444935142994,0.004512458108365536,-0.0,0.007931510917842388
0.008649538271129131,0.006899941246956587,-0.011278796009719372,0.0046066539362072945,-0.0,0.0077478038147091866
0.008886583149433136,0.006087124813348055,-0.011445126496255398,0.005027689039707184,-0.0,0.00760801462456584
0.00845928955823183,0.006491567008197308,-0.011346640065312386,0.005114392377436161,-0.0,0.008070901967585087
0.009562714025378227,0.006683084182441235,-0.012511434964835644,0.005449426826089621,-4.710308076028014e-06,0.008869054727256298
0.009062024764716625,0.006151332054287195,-0.011413587257266045,0.005358152091503143,-3.075494703352888e-07,0.008223828859627247
0.008821884170174599,0.006347577553242445,-0.011718533001840115,0.00509485462680459,-2.0080781482079146e-08,0.00805865041911602
0.00893158745020628,0.005793682299554348,-0.011989947408437729,0.005543843377381563,-1.3111315366742815e-09,0.008235767483711243
0.008896092884242535,0.0060197445563972,-0.011448419652879238,0.005300616379827261,-8.560752801090032e-11,0.009025109931826591
0.008730932138860226,0.006682008970528841,-0.012328091077506542,0.005394021049141884,-5.589559631119512e-12,0.008728297427296638
0.009146570228040218,0.006923204753547907,-0.011375585570931435,0.005239677149802446,-3.649583077153934e-13,0.008349793963134289
0.009262759238481522,0.006322269327938557,-0.011871973052620888,0.005008673295378685,-2.382916794115876e-14,0.009017650038003922
0.009002146311104298,0.006401273421943188,-0.011928447522222996,0.005109051708132029,-1.5558742691090745e-15,0.008340639993548393
0.009328091517090797,0.007322870194911957,-0.012330668047070503,0.0050390674732625484,-1.0158746054340112e-16,0.008170215412974358
0.009521810337901115,0.00705383438616991,-0.012255815789103508,0.005206948611885309,-6.632935925345808e-18,0.00803849846124649
0.009521810337901115,0.00705383438616991,-0.012255815789103508,0.005206948611885309,-6.632935925345808e-18,0.00803849846124649
0.008855575695633888,0.006426703184843063,-0.011760442517697811,0.0051132310181856155,-4.3308325685102635e-19,0.008572585880756378
0.008917631581425667,0.006503321696072817,-0.012513500638306141,0.005168161820620298,-2.827724355713341e-20,0.007830631919205189
0.009505638852715492,0.006734870374202728,-0.0121019771322608,0.005076466593891382,-1.8463018623417365e-21,0.008115105330944061
0.009777192957699299,0.0068045188672840595,-0.011727765202522278,0.004801271948963404,-1.2055031565676447e-22,0.008356336504220963
0.008904398418962955,0.006223996635526419,-0.012104909867048264,0.005126946605741978,-7.87107504086977e-24,0.009240610525012016
0.009874993935227394,0.006192423403263092,-0.011518570594489574,0.00546033913269639,-5.139249331658954e-25,0.008852746337652206
0.009292522445321083,0.006303600966930389,-0.012164859101176262,0.005380587186664343,-3.355562841396645e-26,0.008739444427192211
0.009576155804097652,0.006317052524536848,-0.012497666291892529,0.005200027022510767,-2.190942526966786e-27,0.00847120676189661
0.009587999433279037,0.006161519326269627,-0.012350485660135746,0.005324425175786018,-9.340331409938914e-30,0.008849850855767727
0.009587999433279037,0.006161519326269627,-0.012350485660135746,0.005324425175786018,-9.340331409938914e-30,0.008849850855767727
0.009184765629470348,0.006283397786319256,-0.011461124755442142,0.005471681710332632,-6.098569075964381e-31,0.009253261610865593
0.009297138080000877,0.006367227993905544,-0.011881569400429726,0.005480166524648666,-3.9819298080608963e-32,0.008764848113059998
0.009489021264016628,0.006540100090205669,-0.011662623845040798,0.005591390188783407,-2.599915609807526e-33,0.008492479100823402
0.008985133841633797,0.006492655258625746,-0.012154033407568932,0.005351568106561899,-9.477516869083047e-05,0.008714542724192142
0.010331660509109497,0.006008516997098923,-0.01227206364274025,0.005028863903135061,-0.0001751124655129388,0.008540220558643341
0.009311458095908165,0.007162738125771284,-0.012562173418700695,0.005190122406929731,-0.00019680405966937542,0.008739843033254147
0.008995010517537594,0.0070728519931435585,-0.011593949981033802,0.005460147745907307,-0.000193761195987463,0.008303764276206493
0.009729057550430298,0.006269875913858414,-0.012122806161642075,0.0057915919460356236,-0.00018730241572484374,0.008119615726172924
0.009542598389089108,0.00632172217592597,-0.011559939943253994,0.0060607208870351315,-0.00020917410438414663,0.00818176195025444
0.009272930212318897,0.006667664274573326,-0.012233592569828033,0.005542975850403309,-0.000218542932998389,0.008857222273945808
0.009376444853842258,0.007265457883477211,-0.012002565898001194,0.005673408508300781,-0.00022523665393237025,0.008630049414932728
0.009492225013673306,0.006746653467416763,-0.011640435084700584,0.005419774446636438,-0.0002192616229876876,0.008560914546251297
0.009321935474872589,0.006200178526341915,-0.012732081115245819,0.005812948103994131,-0.0004111362504772842,0.00875534862279892
0.009399622678756714,0.006617942824959755,-0.011858602985739708,0.0058364300057291985,-0.00047247804468497634,0.00910254567861557
0.009635197930037975,0.007158026099205017,-0.012221643701195717,0.005643945652991533,-0.0004993682960048318,0.009147248230874538
0.00943501852452755,0.007374949287623167,-0.012356643564999104,0.0056047700345516205,-0.0004790108068846166,0.008808965794742107
0.00943713914602995,0.006763600278645754,-0.012086129747331142,0.005537265446037054,-0.0005054952343925834,0.00906576868146658
0.00943713914602995,0.006763600278645754,-0.012086129747331142,0.005537265446037054,-0.0005054952343925834,0.00906576868146658
0.009552541188895702,0.006215420551598072,-0.01236974261701107,0.005583964288234711,-0.0006928746588528156,0.008775888942182064
0.009567023254930973,0.006436810828745365,-0.012018193490803242,0.005549795459955931,-0.0007270046626217663,0.008877977728843689
0.010074854828417301,0.007039220072329044,-0.012521849945187569,0.005498952232301235,-0.000694155169185251,0.00925777293741703
0.010216351598501205,0.006924872286617756,-0.012307905592024326,0.005558109376579523,-0.0006936853751540184,0.008985589258372784
0.009244570508599281,0.006228380370885134,-0.012223044410347939,0.005237456411123276,-0.000645775580778718,0.008921458385884762
0.009860809892416,0.006385417655110359,-0.011918858624994755,0.005011053290218115,-0.0006648956332355738,0.009183543734252453
0.010469387285411358,0.006775690242648125,-0.01131224725395441,0.005670812912285328,-0.0006133826682344079,0.009245263412594795
0.009430778212845325,0.007574675604701042,-0.012314526364207268,0.005597179289907217,-0.0005837383214384317,0.008904475718736649
0.01001632772386074,0.00651658046990633,-0.011957226321101189,0.005922302603721619,-0.0005358287016861141,0.009419087320566177
0.01005310844630003,0.006294464226812124,-0.012220549397170544,0.005345863755792379,-0.0004800038004759699,0.009227229282259941
0.01088477112352848,0.005942128598690033,-0.012380346655845642,0.005160320084542036,-0.0005142434383742511,0.008803573437035084
0.010442247614264488,0.006642760708928108,-0.012192337773740292,0.005598543677479029,-0.00047429362894035876,0.00862918607890606
0.010215925984084606,0.007020630408078432,-0.012344881892204285,0.005487501155585051,-0.0005038356175646186,0.009352320805191994
0.009893747046589851,0.006284751463681459,-0.01193570252507925,0.006245696917176247,-0.0005032165790908039,0.009333438239991665
0.011060601100325584,0.00577501067891717,-0.01162286289036274,0.0061508542858064175,-0.0005291603738442063,0.009657547809183598
0.010800330899655819,0.006574326194822788,-0.01212026085704565,0.0064774989150464535,-0.000541627174243331,0.009329602122306824
0.01072976365685463,0.006714313756674528,-0.012703841552138329,0.005992862395942211,-0.0005324049852788448,0.009077009744942188
0.010343768633902073,0.005847814027220011,-0.012268614955246449,0.005901969503611326,-0.000562633911613375,0.009540164843201637
0.010573934763669968,0.005871388129889965,-0.012917082756757736,0.005799508187919855,-0.0005758095066994429,0.009358199313282967
0.010377952829003334,0.00585640873759985,-0.012459131889045238,0.005407610908150673,-0.0005491358460858464,0.009249934926629066
0.010149368084967136,0.006362284068018198,-0.013445510528981686,0.005202787928283215,-0.0005112478393130004,0.009685147553682327
0.010385856032371521,0.006117762997746468,-0.011962488293647766,0.0056861271150410175,-0.0005770541029050946,0.009390747174620628
0.01003324892371893,0.005875451024621725,-0.01215833704918623,0.005482072941958904,-0.0005425862036645412,0.009209181182086468
0.01020071841776371,0.005969634745270014,-0.012282149866223335,0.005718268919736147,-0.0004861894703935832,0.008926812559366226
0.01046083029359579,0.005861642770469189,-0.012397712096571922,0.005276137497276068,-0.00043885313789360225,0.009686469100415707
0.010438782162964344,0.006088257301598787,-0.012902132235467434,0.005260856356471777,-0.00039982120506465435,0.009679503738880157
0.010324659757316113,0.006489226128906012,-0.012630091048777103,0.005651628132909536,-0.0003671648446470499,0.010060261003673077
0.010797372087836266,0.005961616989225149,-0.013215935789048672,0.006040465552359819,-0.0003394442028366029,0.009054788388311863
0.010797372087836266,0.005961616989225149,-0.013215935789048672,0.006040465552359819,-0.0003394442028366029,0.009054788388311863
0.010326335206627846,0.005803472362458706,-0.012635119259357452,0.006452909670770168,-0.00031561823561787605,0.008839013986289501
0.010832618921995163,0.00605989433825016,-0.012788997031748295,0.006261469330638647,-0.0002949203772004694,0.008929567411541939
0.010338015854358673,0.007045404519885778,-0.012529742904007435,0.006443885155022144,-0.00027677108300849795,0.009637903422117233
0.010164652951061726,0.006048642098903656,-0.012371636927127838,0.006046465132385492,-0.0002607278001960367,0.0091630257666111
0.010431178845465183,0.005794276017695665,-0.012588553130626678,0.005799103528261185,-0.0002464430290274322,0.009292475879192352
0.010670242831110954,0.005805973894894123,-0.012591016478836536,0.005468662362545729,-0.00023364246590062976,0.009783132001757622
0.009993438608944416,0.006203378550708294,-0.012846040539443493,0.005604415666311979,-0.00022210695897229016,0.009563704021275043
0.010656770318746567,0.00633892510086298,-0.01221049390733242,0.006018259562551975,-0.000211657170439139,0.009727848693728447
0.01078534685075283,0.006138945929706097,-0.01289837621152401,0.006348255090415478,-0.0002021465334109962,0.009841942228376865
0.010643879882991314,0.006132456939667463,-0.012308583594858646,0.006151236593723297,-0.00019345403416082263,0.009324675425887108
0.011036339215934277,0.006294936407357454,-0.012648601084947586,0.006371258292347193,-0.0001854788133641705,0.008932218886911869
0.010983774438500404,0.006200218107551336,-0.012515692040324211,0.005913166794925928,-0.00017813494196161628,0.00958856102079153
0.010539451614022255,0.006198964547365904,-0.012604527175426483,0.006204790435731411,-0.00016506455722264946,0.009799154475331306
0.010223563760519028,0.006026206072419882,-0.012225194834172726,0.00609730975702405,-0.00015922314196359366,0.009838578291237354
0.010527580976486206,0.006176387891173363,-0.01296980306506157,0.006221387069672346,-0.00015378127864096314,0.01001428347080946
0.010745225474238396,0.006400519050657749,-0.011774342507123947,0.006235528737306595,-0.00014869902224745601,0.009591009467840195
0.01040475070476532,0.006073530297726393,-0.01221903320401907,0.006167645566165447,-0.00015805938164703548,0.009626892395317554
0.010621474124491215,0.006090519484132528,-0.012569581158459187,0.0063698021695017815,-0.00016641811816953123,0.009805534034967422
0.010608027689158916,0.006536559201776981,-0.012255384586751461,0.006152501329779625,-0.00016228081949520856,0.010349788703024387
0.010949875228106976,0.005979133304208517,-0.012912219390273094,0.005765762645751238,-0.00015760076348669827,0.010057364590466022
0.011176123283803463,0.006455299444496632,-0.012485985644161701,0.00600636238232255,-0.00015313475159928203,0.009836561977863312
0.010683935135602951,0.006504939403384924,-0.012945475988090038,0.00698668509721756,-0.00014891174214426428,0.009868289344012737
0.011023675091564655,0.006298374850302935,-0.012169662863016129,0.0069639612920582294,-0.00014491536421701312,0.010563964024186134
0.011119046248495579,0.006128136999905109,-0.012336771003901958,0.006447348278015852,-0.00014112773351371288,0.010428992100059986
0.011119046248495579,0.006128136999905109,-0.012336771003901958,0.006447348278015852,-0.00014112773351371288,0.010428992100059986
0.010398881509900093,0.006582445465028286,-0.01228086557239294,0.006098207086324692,-0.00013753327948506922,0.00981251709163189
0.011050984263420105,0.006856291554868221,-0.012533185072243214,0.0063678910955786705,-0.00013411713007371873,0.010262183845043182
0.011266537010669708,0.006280843168497086,-0.01255367137491703,0.006446361541748047,-0.00013086669787298888,0.010103481821715832
0.01104053296148777,0.006282079499214888,-0.012051841244101524,0.006601172033697367,-0.00012777012307196856,0.010638213716447353
0.011293909512460232,0.006533704698085785,-0.012467291206121445,0.00683433935046196,-0.00012481662270147353,0.01048200111836195
0.011204376816749573,0.006402358412742615,-0.01208280585706234,0.006544647738337517,-0.00012199659977341071,0.010626344010233879
0.011253602802753448,0.006332834251224995,-0.012985358946025372,0.00701880594715476,-0.00011930130858672783,0.010816051624715328
0.011241743341088295,0.00617165956646204,-0.012399508617818356,0.007365740370005369,-0.0001262883160961792,0.0102913249284029
0.011659977026283741,0.0060009402222931385,-0.012677126564085484,0.006794854067265987,-0.0001326492929365486,0.010011903941631317
0.011422643437981606,0.006392897572368383,-0.012863723561167717,0.006472862791270018,-0.00013049082190264016,0.01048900093883276
0.010987982153892517,0.006399776786565781,-0.012162956409156322,0.0069068619050085545,-0.00012788052845280617,0.010667404159903526
0.01129229087382555,0.006155040580779314,-0.012570556253194809,0.007048486266285181,-0.0001253387745236978,0.010940587148070335
0.01132377702742815,0.005989469587802887,-0.012006892822682858,0.007138093933463097,-0.0001228939217980951,0.010476678609848022
0.010874464176595211,0.006130942143499851,-0.01230615098029375,0.006747155915945768,-0.00012054242688464001,0.009944213554263115
0.011507871560752392,0.006506822537630796,-0.012086458504199982,0.006608572322875261,-0.00012426194734871387,0.01059035025537014
0.011289231479167938,0.006495002657175064,-0.012410077266395092,0.006889632903039455,-0.0001297342823818326,0.01086057722568512
0.011317881755530834,0.006510066334158182,-0.011901430785655975,0.006863011512905359,-0.00012793269706889987,0.010944166220724583
0.011157442815601826,0.0061254040338099,-0.012417623773217201,0.006705657113343477,-0.00012573150161188096,0.010435779578983784
0.01150959450751543,0.00639245193451643,-0.01200312003493309,0.007145850919187069,-0.00012357559171505272,0.010368325747549534
0.01145388837903738,0.0065566361881792545,-0.012395523488521576,0.007093964144587517,-0.00012149054236942902,0.010262902826070786
0.011426467448472977,0.006081535015255213,-0.012167797423899174,0.00693536177277565,-0.00011947461462114006,0.011020253412425518
0.012954357080161572,0.00615342240780592,-0.011996795423328876,0.006581537891179323,-8.733478171052411e-05,0.010325422510504723
0.012543866410851479,0.005663647316396236,-0.012457790784537792,0.006998852826654911,-8.160783181665465e-05,0.009793173521757126
0.012597133405506611,0.006032603792846203,-0.011869492009282112,0.007084517739713192,-7.988839206518605e-05,0.010468872264027596
0.012001368217170238,0.006148565094918013,-0.012408751994371414,0.0072290170937776566,-7.847750384826213e-05,0.010920819826424122
0.012266257777810097,0.005977431312203407,-0.012298919260501862,0.006920300889760256,-8.472556510241702e-05,0.011203321628272533
0.012458359822630882,0.005921120755374432,-0.012296080589294434,0.006510919891297817,-9.048623178387061e-05,0.011300995945930481
0.012348512187600136,0.005867005791515112,-0.012347736395895481,0.006927601061761379,-8.945616718847305e-05,0.011152059771120548
0.012348512187600136,0.005867005791515112,-0.012347736395895481,0.006927601061761379,-8.945616718847305e-05,0.011152059771120548
0.012438357807695866,0.00653913663700223,-0.012246552854776382,0.006947886198759079,-0.00010092964657815173,0.011692019179463387
0.012438357807695866,0.00653913663700223,-0.012246552854776382,0.006947886198759079,-0.00010092964657815173,0.011692019179463387
0.012844682671129704,0.005977707915008068,-0.012028085067868233,0.006796368397772312,-9.945145575329661e-05,0.011566723696887493
0.012595048174262047,0.0058986349031329155,-0.012427158653736115,0.0071472059935331345,-0.00011097332026110962,0.011259741149842739
0.012714818120002747,0.0064854067750275135,-0.012128257192671299,0.007050948683172464,-0.00011012845789082348,0.01068764366209507
0.01273605227470398,0.00687453243881464,-0.011723990552127361,0.0066684819757938385,-0.00022922175412531942,0.011238578706979752
0.012661765329539776,0.006197415292263031,-0.012576000764966011,0.00653889961540699,-0.00032444889075122774,0.011017102748155594
0.013149520382285118,0.006290735676884651,-0.012212935835123062,0.0066378116607666016,-0.00033955578692257404,0.01064284984022379
0.012696986086666584,0.005781829357147217,-0.012871013022959232,0.006864173803478479,-0.0003459001309238374,0.010632937774062157
0.012880946509540081,0.006015859078615904,-0.012658790685236454,0.0069236732088029385,-0.0003267983556725085,0.01066221110522747
0.01243909914046526,0.006345592904835939,-0.012904179282486439,0.007189000956714153,-0.00033328105928376317,0.011029437184333801
0.012814202345907688,0.006026868708431721,-0.012402097694575787,0.006757738068699837,-0.00033849189640022814,0.011283909901976585
0.012989072129130363,0.005780696868896484,-0.0126412408426404,0.007302676327526569,-0.0003450136282481253,0.011685931123793125
0.012674662284553051,0.005739031359553337,-0.011963081546127796,0.0072395894676446915,-0.0003342065610922873,0.011731992475688457
0.012705763801932335,0.006166332866996527,-0.013354399241507053,0.0067204744555056095,-0.00037739655817858875,0.011897946707904339
0.012952265329658985,0.006063099950551987,-0.012513963505625725,0.006885914597660303,-0.0003995176812168211,0.011341295205056667
0.012866995297372341,0.006038002669811249,-0.013034569099545479,0.006851964630186558,-0.00040612538577988744,0.011184043250977993
0.01300562359392643,0.00571204349398613,-0.012563316151499748,0.007074497640132904,-0.00040829263161867857,0.011823229491710663
0.012576690874993801,0.005813078489154577,-0.01357843354344368,0.007404339034110308,-0.0003815811942331493,0.012047932483255863
0.013218110427260399,0.0063704545609653,-0.01317520160228014,0.0077751330099999905,-0.000411780463764444,0.012094412930309772
0.01297015231102705,0.006158750969916582,-0.013163194060325623,0.007792320568114519,-0.0003898989816661924,0.011859646998345852
0.013705137185752392,0.005938699468970299,-0.013181452639400959,0.007510651368647814,-0.0003929446393158287,0.011614413931965828
0.013351288624107838,0.005969885736703873,-0.012854264117777348,0.006677200086414814,-0.0003949854872189462,0.012171955779194832
0.012965815141797066,0.0059546781703829765,-0.012983715161681175,0.006589352618902922,-0.00037590222200378776,0.011939466930925846
0.012903936207294464,0.006030424032360315,-0.012564243748784065,0.0070947930216789246,-0.0003573411959223449,0.011627220548689365
0.012841894291341305,0.006007485091686249,-0.01311217900365591,0.007294720970094204,-0.00039639175520278513,0.011620773002505302
0.013028289191424847,0.006048255600035191,-0.012951837852597237,0.007001649122685194,-0.0003724988491740078,0.011265914887189865
0.012708976864814758,0.005735273007303476,-0.013364900834858418,0.006900907959789038,-0.00034454220440238714,0.011730344966053963
0.012708976864814758,0.005735273007303476,-0.013364900834858418,0.006900907959789038,-0.00034454220440238714,0.011730344966053963
0.013316646218299866,0.0057771895080804825,-0.01270569209009409,0.007985604926943779,-0.00037956880987621844,0.01208159513771534
0.012979799881577492,0.0061186025850474834,-0.013228753581643105,0.007913963869214058,-0.000358259683707729,0.012483732774853706
0.013288735412061214,0.005804459098726511,-0.01302092894911766,0.007583679165691137,-0.0003361963899806142,0.012474272400140762
0.013096570037305355,0.005597321316599846,-0.01370937004685402,0.007046185899525881,-0.0003553607384674251,0.012520965188741684
0.01309313252568245,0.005783008877187967,-0.013477650471031666,0.007907853461802006,-0.000347890512784943,0.01279381476342678
0.012701724655926228,0.006030338350683451,-0.012626701965928078,0.0076960232108831406,-0.00033043377334252,0.01206481084227562
0.013212150894105434,0.006321414839476347,-0.01350226067006588,0.0074982247315347195,-0.00033590360544621944,0.013400268740952015
0.013540158979594707,0.006200245115906,-0.012893308885395527,0.00745936157181859,-0.0003403308801352978,0.012008467689156532
0.013101894408464432,0.005956890061497688,-0.013140547089278698,0.007635253481566906,-0.0003262352547608316,0.01171802543103695
0.01384404394775629,0.006203741300851107,-0.01285927277058363,0.007806380279362202,-0.0003124897484667599,0.012042499147355556
0.013334706425666809,0.005862898658961058,-0.013344082050025463,0.007359568495303392,-0.0003258991055190563,0.01240080688148737
0.013402055017650127,0.006503389682620764,-0.012647656723856926,0.00750119099393487,-0.0003060836752410978,0.012374362908303738
0.01330660842359066,0.006536783650517464,-0.013168117962777615,0.00814085267484188,-0.0002867249713744968,0.012337367981672287
0.012963377870619297,0.005953840911388397,-0.013120661489665508,0.008103063330054283,-0.00030336799682118,0.012384016066789627
0.013467337004840374,0.005903877317905426,-0.012811881490051746,0.007969913072884083,-0.0002887259179260582,0.012212144210934639
0.013089505024254322,0.006552755832672119,-0.012815522961318493,0.008683411404490471,-0.0002964613086078316,0.012245813384652138
0.013703801669180393,0.0064452039077878,-0.013293993659317493,0.00861277524381876,-0.00030287992558442056,0.012389170937240124
0.013366002589464188,0.005680745001882315,-0.01264980435371399,0.008436908945441246,-0.00029027447453700006,0.012807980179786682
0.01374325156211853,0.006308877840638161,-0.013311265967786312,0.00824086181819439,-0.0002775702450890094,0.012544050812721252
0.011917616240680218,0.0062719606794416904,-0.012879183515906334,0.008214578963816166,-0.0002939249970950186,0.0123407868668437
0.014049799181520939,0.006511410232633352,-0.013377767987549305,0.007736910134553909,-0.00029088775045238435,0.012473441660404205
0.014191653579473495,0.006348712835460901,-0.013044225051999092,0.00749545032158494,-0.0002801456721499562,0.012957988306879997
0.013950031250715256,0.005983061157166958,-0.013117853552103043,0.008025907911360264,-0.00031018839217722416,0.012907946482300758
0.014104872941970825,0.0059631746262311935,-0.013245915062725544,0.008171175606548786,-0.00030336607596836984,0.012323596514761448
0.013815084472298622,0.006551654543727636,-0.013331597670912743,0.007734046317636967,-0.00028506253147497773,0.012310020625591278
0.014077986590564251,0.0062263100408017635,-0.013352242298424244,0.007584999315440655,-0.000314503675326705,0.01238214410841465
0.014025061391294003,0.0060153864324092865,-0.012841805815696716,0.007543505635112524,-0.00030318525386974216,0.012992390431463718
0.014025061391294003,0.0060153864324092865,-0.012841805815696716,0.007543505635112524,-0.00030318525386974216,0.012992390431463718
0.014292912557721138,0.005871242377907038,-0.013346000574529171,0.007548996713012457,-0.0002874557685572654,0.012770579196512699
0.014808272011578083,0.006183665711432695,-0.013421468436717987,0.007746081333607435,-0.00030291080474853516,0.012737110257148743
0.014808272011578083,0.006183665711432695,-0.013421468436717987,0.007746081333607435,-0.00030291080474853516,0.012737110257148743
0.014449629001319408,0.006291098427027464,-0.013183552771806717,0.008018585853278637,-0.00028918380849063396,0.012919329106807709
0.014556349255144596,0.005965645890682936,-0.013355830684304237,0.007598930038511753,-0.0002958091499749571,0.012459828518331051
0.014488859102129936,0.005926111713051796,-0.012961559928953648,0.007302572019398212,-0.0003013945242855698,0.012472209520637989
0.014730899594724178,0.00590492645278573,-0.013534227386116982,0.007712817285209894,-0.00029041062225587666,0.012878421694040298
0.014711656607687473,0.006076748948544264,-0.013401849195361137,0.00801848340779543,-0.0002794574829749763,0.012833272106945515
0.014757857657968998,0.006409742869436741,-0.013461019843816757,0.00813086237758398,-0.00033418560633435845,0.013169766403734684
0.01455125492066145,0.00575812254101038,-0.013347988948225975,0.007922842167317867,-0.0003156802849844098,0.012778181582689285
0.014849032275378704,0.005800522398203611,-0.012784136459231377,0.008301954716444016,-0.000295278470730409,0.013607136905193329
0.014588038437068462,0.005547618959099054,-0.01317121647298336,0.008137383498251438,-0.0003286716528236866,0.013372618705034256
0.014687731862068176,0.006173665635287762,-0.013145741075277328,0.00759089132770896,-0.00029603540315292776,0.013096066191792488
0.01470577996224165,0.005522457882761955,-0.013003981672227383,0.007806416600942612,-0.0002806583943311125,0.012996777892112732
0.014872895553708076,0.005736394319683313,-0.013535958714783192,0.008221728727221489,-0.0002667885273694992,0.012913178652524948
0.014925035648047924,0.005771343596279621,-0.012876775115728378,0.008212394081056118,-0.000290921627311036,0.012783258222043514
0.01490212231874466,0.006374569144099951,-0.013822820037603378,0.008380652405321598,-0.0002828861470334232,0.014257608912885189
0.014879606664180756,0.006364925764501095,-0.01369746495038271,0.0085454685613513,-0.00027104190667159855,0.013051938265562057
0.015198013745248318,0.005965796299278736,-0.013786420226097107,0.008851591497659683,-0.00025988015113398433,0.012995101511478424
0.015180646441876888,0.006203581113368273,-0.013592401519417763,0.008210361935198307,-0.0002495841181371361,0.013289169408380985
0.01533361803740263,0.006282223388552666,-0.013483821414411068,0.008715195581316948,-0.00025686228764243424,0.013838567771017551
0.014788578264415264,0.006171787157654762,-0.01376877911388874,0.008521350100636482,-0.00026315159630030394,0.013098401948809624
0.015066748484969139,0.006436537951231003,-0.013914070092141628,0.008293502032756805,-0.000254860584391281,0.013422501273453236
0.01524908747524023,0.0062845745123922825,-0.014240932650864124,0.008856067433953285,-0.0002462111006025225,0.013763053342700005
0.01548166573047638,0.005832890048623085,-0.014267846010625362,0.009143881499767303,-0.0002486270386725664,0.013882464729249477
0.014969338662922382,0.005663140676915646,-0.014059275388717651,0.008695531636476517,-0.0002393245667917654,0.0143257612362504
0.014969338662922382,0.005663140676915646,-0.014059275388717651,0.008695531636476517,-0.0002393245667917654,0.0143257612362504
0.015435990877449512,0.006053347606211901,-0.01454214658588171,0.008901155553758144,-0.0002485154545865953,0.013714049011468887
0.015435990877449512,0.006053347606211901,-0.01454214658588171,0.008901155553758144,-0.0002485154545865953,0.013714049011468887
0.015585063956677914,0.005251273047178984,-0.013952276669442654,0.008842664770781994,-0.0002471831103321165,0.013885908760130405
0.015338173136115074,0.004407376982271671,-0.014238453470170498,0.008732801303267479,-0.00025630093296058476,0.014227941632270813
0.015598328784108162,0.004572461824864149,-0.013981209136545658,0.009079239331185818,-0.0002635910641402006,0.01373676024377346
0.015643607825040817,0.004689134657382965,-0.014104269444942474,0.009196946397423744,-0.00025413435650989413,0.013582373969256878
0.015448150224983692,0.0052563222125172615,-0.013698914088308811,0.009336361661553383,-0.00024435255909338593,0.013373617082834244
0.01575286127626896,0.005516829900443554,-0.014491475187242031,0.00983855314552784,-0.00023523268464487046,0.013953633606433868
0.01574527844786644,0.004958895966410637,-0.014119016006588936,0.009223142638802528,-0.0002267645759275183,0.014153735712170601
0.015797216445207596,0.004775036126375198,-0.014549207873642445,0.008619030006229877,-0.00021888483024667948,0.014839132316410542
0.01596280001103878,0.00469882832840085,-0.01396908424794674,0.008643737994134426,-0.00023971169139258564,0.014373705722391605
0.016280466690659523,0.004838996101170778,-0.01479601114988327,0.009345720522105694,-0.00023376573517452925,0.014202876016497612
0.016356298699975014,0.0053985388949513435,-0.014549419283866882,0.00852710660547018,-0.00022653005726169795,0.013923423364758492
0.01664009690284729,0.0046658567152917385,-0.014740969054400921,0.008490851148962975,-0.00021312577882781625,0.013798406347632408
0.016174178570508957,0.00445991475135088,-0.01537635549902916,0.008315496146678925,-0.0002504410222172737,0.01427517645061016
0.016052447259426117,0.004500691778957844,-0.014886287041008472,0.008219064213335514,-0.00024343248514924198,0.014370935037732124
0.01592765562236309,0.005012454465031624,-0.01475499663501978,0.008847447112202644,-0.0002313419245183468,0.014754163101315498
0.016633469611406326,0.0049765445291996,-0.014252911321818829,0.008496837690472603,-0.00022005359642207623,0.014323732815682888
0.016351837664842606,0.004995093680918217,-0.015127257443964481,0.008156665600836277,-0.00020979340479243547,0.014212320558726788
0.017066659405827522,0.004724903963506222,-0.015514449216425419,0.00872338842600584,-0.00023005732509773225,0.014214357361197472
0.016892509534955025,0.004850657191127539,-0.015056357719004154,0.009163769893348217,-0.00022959138732403517,0.01460512075573206
0.01632794551551342,0.004836336709558964,-0.015342929400503635,0.00898878276348114,-0.0002208110090577975,0.014458033256232738
0.01688854955136776,0.0047066668048501015,-0.015130151994526386,0.009144279174506664,-0.00021217316680122167,0.014695895835757256
0.016836825758218765,0.0051165251061320305,-0.01520564965903759,0.009301867336034775,-0.00020415280596353114,0.014442159794270992
0.017559252679347992,0.005147682037204504,-0.014856717549264431,0.009218702092766762,-0.00022514640295412391,0.014597563073039055
0.017335308715701103,0.005339677445590496,-0.015526125207543373,0.009268569760024548,-0.00022114872990641743,0.014789390377700329
0.01736314967274666,0.00505237840116024,-0.014669897966086864,0.009668171405792236,-0.00021389470202848315,0.015074675902724266
0.01736314967274666,0.00505237840116024,-0.014669897966086864,0.009668171405792236,-0.00021389470202848315,0.015074675902724266
0.017177553847432137,0.005019748117774725,-0.015192041173577309,0.009540715254843235,-0.0002287631359649822,0.013856097124516964
0.016621088609099388,0.00530428159981966,-0.014837886206805706,0.009134134277701378,-0.00022842313046567142,0.014348587021231651
0.0170694962143898,0.005104733631014824,-0.01492026075720787,0.0100284768268466,-0.00022183654073160142,0.014537230134010315
0.017208024859428406,0.005353565327823162,-0.014341645874083042,0.009312878362834454,-0.00021588201343547553,0.014914692379534245
0.017342260107398033,0.005506609566509724,-0.015255274251103401,0.009434963576495647,-0.0002528713666833937,0.014719490893185139
0.017889617010951042,0.005195896606892347,-0.014575030654668808,0.009726625867187977,-0.0002424577542115003,0.014853926375508308
0.017358964309096336,0.005424990318715572,-0.015327878296375275,0.009816262871026993,-0.0002642342878971249,0.014922834001481533
0.017661593854427338,0.0054789758287370205,-0.014716820791363716,0.009405837394297123,-0.000262082350673154,0.015111332759261131
0.017598256468772888,0.005600507836788893,-0.015087657608091831,0.009279428981244564,-0.0002868008450604975,0.015005124732851982
0.017857497557997704,0.005173522047698498,-0.014504006132483482,0.009820054285228252,-0.00029861260554753244,0.015362853184342384
0.01796833425760269,0.005266095511615276,-0.014864692464470863,0.009036422707140446,-0.0003044653858523816,0.015326570719480515
0.017774265259504318,0.005489047151058912,-0.01447372604161501,0.00966570619493723,-0.00029371929122135043,0.015348914079368114
0.01804058812558651,0.005507937632501125,-0.014815477654337883,0.009285387583076954,-0.00045181435416452587,0.01502236258238554
0.017726419493556023,0.005400638561695814,-0.015010353177785873,0.008613461628556252,-0.00048230632091872394,0.01509939320385456
0.017949581146240234,0.005613962188363075,-0.01452525332570076,0.00928426068276167,-0.0004516343760769814,0.01526643242686987
0.017994718626141548,0.005631510633975267,-0.014890958555042744,0.009019402787089348,-0.00047736018314026296,0.015223541297018528
0.018122270703315735,0.0058241114020347595,-0.0153290880843997,0.008837387897074223,-0.00045136112021282315,0.01485122088342905
0.01818869635462761,0.005611890461295843,-0.014878709800541401,0.00923096016049385,-0.00047769854427315295,0.015119741670787334
0.018299780786037445,0.005630353931337595,-0.014935251325368881,0.009229674004018307,-0.0004514253232628107,0.015240778215229511
0.018290476873517036,0.0054237511940300465,-0.015066386200487614,0.00903304759413004,-0.00048456547665409744,0.015463021583855152
0.018388967961072922,0.005627899896353483,-0.01530924066901207,0.009806719608604908,-0.00045717816101387143,0.015155884437263012
0.018106989562511444,0.005549171008169651,-0.015136395581066608,0.009592057205736637,-0.0004162751429248601,0.014976701699197292
0.018510935828089714,0.005659161135554314,-0.015301773324608803,0.009128907695412636,-0.0004518570494838059,0.014906428754329681
0.018510935828089714,0.005659161135554314,-0.015301773324608803,0.009128907695412636,-0.0004518570494838059,0.014906428754329681
0.018658507615327835,0.006083361804485321,-0.01475624181330204,0.009568946436047554,-0.00047278759302571416,0.015631258487701416
0.018564850091934204,0.005475920159369707,-0.015428498387336731,0.00963774137198925,-0.00045494441292248666,0.01589851826429367
0.01869438961148262,0.005730547942221165,-0.01489550992846489,0.00966877955943346,-0.000425284611992538,0.015790196135640144
0.018370866775512695,0.005463197827339172,-0.015116130001842976,0.009913434274494648,-0.00045139415306039155,0.015822339802980423
0.018559526652097702,0.005839603487402201,-0.014746890403330326,0.009839938022196293,-0.0005105980671942234,0.01567700505256653
0.018860306590795517,0.005924359429627657,-0.015321571379899979,0.009577401913702488,-0.0005316379247233272,0.015846721827983856
0.018659185618162155,0.005533265415579081,-0.01475485973060131,0.009674733504652977,-0.0005239697056822479,0.01581006497144699
0.018598122522234917,0.005256320349872112,-0.014931060373783112,0.00950573105365038,-0.00048021497786976397,0.015936853364109993
0.018721772357821465,0.005600006319582462,-0.014378559775650501,0.00911693461239338,-0.0005094318185001612,0.015565939247608185
0.018460964784026146,0.005400440655648708,-0.01523299515247345,0.00945867970585823,-0.0005083709256723523,0.015966512262821198
0.018899722024798393,0.0058867959305644035,-0.014682125300168991,0.009741787798702717,-0.0005032253684476018,0.016339613124728203
0.019175749272108078,0.006025552283972502,-0.015207483433187008,0.009572378359735012,-0.0005369288264773786,0.015423519536852837
0.018869739025831223,0.005309859290719032,-0.01512144785374403,0.010001813992857933,-0.0005659022717736661,0.015844395384192467
0.019223324954509735,0.005498754326254129,-0.014926629140973091,0.009582692757248878,-0.0005226092180237174,0.01620316691696644
0.019089944660663605,0.005728227086365223,-0.015144092962145805,0.00955098494887352,-0.0005456648650579154,0.016240699216723442
0.019600648432970047,0.006111325696110725,-0.014940790832042694,0.009682259522378445,-0.0005107600009068847,0.016683239489793777
0.0192702803760767,0.0061879828572273254,-0.015311319380998611,0.009434552863240242,-0.0005313202855177224,0.016473520547151566
0.018869556486606598,0.005474998150020838,-0.015491442754864693,0.009914383292198181,-0.0005022306577302516,0.016607344150543213
0.018955545499920845,0.005542900413274765,-0.015187829732894897,0.009941251017153263,-0.00046995203592814505,0.016757361590862274
0.019089723005890846,0.005740907043218613,-0.015145261771976948,0.009644127450883389,-0.00047776030260138214,0.016788966953754425
0.019729457795619965,0.00619470002129674,-0.014867001213133335,0.00986870750784874,-0.00044428755063563585,0.016488030552864075
0.019602539017796516,0.005751093849539757,-0.015324209816753864,0.010481626726686954,-0.000464497075881809,0.01574563980102539
0.01952795498073101,0.005603429861366749,-0.015143387019634247,0.00978004653006792,-0.00044462704681791365,0.016104524955153465
0.01895879954099655,0.005643976852297783,-0.01558026671409607,0.009759650565683842,-0.00044516450725495815,0.01616423949599266
0.01986953616142273,0.005647048354148865,-0.015030065551400185,0.00982512068003416,-0.00044423702638596296,0.016483455896377563
0.01986953616142273,0.005647048354148865,-0.015030065551400185,0.00982512068003416,-0.00044423702638596296,0.016483455896377563
0.019485842436552048,0.005917837843298912,-0.015611854381859303,0.009795703925192356,-0.0004682989092543721,0.016647057607769966
0.01969124563038349,0.005983385723084211,-0.015293934382498264,0.010831485502421856,-0.00044641090789809823,0.01641961559653282
0.01979641802608967,0.005486956797540188,-0.015761634334921837,0.010579535737633705,-0.00047228086623363197,0.01678163930773735
0.02010452188551426,0.00560553465038538,-0.015511617064476013,0.009102717973291874,-0.0004725672770291567,0.016905255615711212
0.018973061814904213,0.006160528864711523,-0.015983957797288895,0.009696478955447674,-0.000430583517299965,0.017370151355862617
0.0191536583006382,0.006198267452418804,-0.015432065352797508,0.010365990921854973,-0.0004661426355596632,0.017331944778561592
0.01979479007422924,0.0062188985757529736,-0.015337820164859295,0.009748166427016258,-0.000433475011959672,0.017291562631726265
0.020222436636686325,0.0055612483993172646,-0.01573224924504757,0.010736767202615738,-0.00040153024019673467,0.016798585653305054
0.020186571404337883,0.005735819227993488,-0.015413827262818813,0.010360172018408775,-0.00042754175956360996,0.01642460748553276
0.02039211615920067,0.00551674235612154,-0.016064783558249474,0.010388625785708427,-0.00040723581332713366,0.016681885346770287
0.02045287936925888,0.005958599504083395,-0.015800410881638527,0.009425610303878784,-0.00042324274545535445,0.016938040032982826
0.019745873287320137,0.0062665450386703014,-0.015969842672348022,0.010420003905892372,-0.0004116612544748932,0.017230190336704254
0.02033311128616333,0.005748407449573278,-0.016035214066505432,0.01106071937829256,-0.00040135826566256583,0.01767849735915661
0.02047467976808548,0.005733679048717022,-0.015414915047585964,0.010279943235218525,-0.00036992543027736247,0.01796279475092888
0.020467322319746017,0.006233156193047762,-0.016373349353671074,0.010874342173337936,-0.0003750378091353923,0.01726209744811058
0.02027091383934021,0.00591340521350503,-0.0164015032351017,0.010552708059549332,-0.00037899627932347357,0.017544811591506004
0.020361581817269325,0.005963219329714775,-0.015904245898127556,0.010157284326851368,-0.0003559843171387911,0.017612341791391373
0.020532025024294853,0.005297619383782148,-0.015903959050774574,0.010283642448484898,-0.0003340783587191254,0.01733306795358658
0.020793572068214417,0.005186830647289753,-0.015379992313683033,0.010594380088150501,-0.000314613978844136,0.01885945163667202
0.020934000611305237,0.005096402484923601,-0.01594184711575508,0.010126202367246151,-0.0003401577996555716,0.017340026795864105
0.021099437028169632,0.005850365851074457,-0.015293699689209461,0.01076734159141779,-0.0003282943507656455,0.017499390989542007
0.02079826034605503,0.005378855392336845,-0.01610996387898922,0.0101678017526865,-0.0003123942587990314,0.01795336790382862
0.021153010427951813,0.005193015094846487,-0.01588139310479164,0.00990291591733694,-0.0002976554387714714,0.017645273357629776
0.020973585546016693,0.005375387612730265,-0.015745626762509346,0.011030699126422405,-0.00032205117167904973,0.017895866185426712
0.02119438722729683,0.005209929775446653,-0.015393000096082687,0.010884635150432587,-0.00031062145717442036,0.01773075759410858
0.021366789937019348,0.00530230300500989,-0.015984348952770233,0.011209246702492237,-0.0002979269193019718,0.01769208163022995
0.02103409357368946,0.0055229440331459045,-0.01621285453438759,0.011379930190742016,-0.0002905634755734354,0.01774800941348076
0.020954610779881477,0.005447972100228071,-0.016079772263765335,0.010908037424087524,-0.00027839868562296033,0.01771119423210621
0.021275540813803673,0.005057840142399073,-0.016356786713004112,0.011493482626974583,-0.0002625307533890009,0.017945507541298866
0.021275540813803673,0.005057840142399073,-0.016356786713004112,0.011493482626974583,-0.0002625307533890009,0.017945507541298866
0.021424250677227974,0.004898037761449814,-0.01562377717345953,0.011044414713978767,-0.00027225722442381084,0.017962787300348282
0.021007811650633812,0.005089134443551302,-0.015974674373865128,0.010906200855970383,-0.00028047390514984727,0.017873579636216164
0.02113112062215805,0.005039541982114315,-0.015567190945148468,0.010961135849356651,-0.0002680128673091531,0.018034139648079872
0.021375199779868126,0.005251072812825441,-0.016067789867520332,0.010806623846292496,-0.0002868570445571095,0.01792011223733425
0.021554715931415558,0.005414870101958513,-0.01597226783633232,0.011267135851085186,-0.00028381581068970263,0.017847726121544838
0.02121654339134693,0.0050385938957333565,-0.01593395322561264,0.010980642400681973,-0.0003009310457855463,0.017686957493424416
0.021507689729332924,0.004957384895533323,-0.016066262498497963,0.010884968563914299,-0.0002975796232931316,0.017783142626285553
0.02173336036503315,0.004876721650362015,-0.015718160197138786,0.011761383153498173,-0.00028633748297579587,0.01826048642396927
0.02186913974583149,0.004859959706664085,-0.016256077215075493,0.011334900744259357,-0.00038938666693866253,0.018180152401328087
0.021781036630272865,0.0052222758531570435,-0.015982432290911674,0.011188585311174393,-0.0004102031234651804,0.018351493403315544
0.020740533247590065,0.0047354502603411674,-0.015322850085794926,0.011028191074728966,-0.00044547425932250917,0.018452011048793793
0.0224510096013546,0.004620513878762722,-0.01584489829838276,0.011860428377985954,-0.0004198221431579441,0.01859765686094761
0.022560426965355873,0.004580707289278507,-0.015851985663175583,0.01107227336615324,-0.0004211941559333354,0.01797294057905674
0.022206008434295654,0.005104078911244869,-0.016291659325361252,0.011666028760373592,-0.0004217285313643515,0.017682183533906937
0.02159925177693367,0.005005232989788055,-0.016356170177459717,0.011498229578137398,-0.0003999455366283655,0.018103627488017082
0.022342653945088387,0.004947032779455185,-0.015717465430498123,0.011117099784314632,-0.0004966441192664206,0.01853238418698311
0.021614886820316315,0.005330913234502077,-0.015984302386641502,0.011526764370501041,-0.0005317265167832375,0.018838465213775635
0.021205564960837364,0.004995848052203655,-0.015691913664340973,0.011678979732096195,-0.0005041549447923899,0.018627993762493134
0.021964918822050095,0.004749073181301355,-0.01619773544371128,0.011628875508904457,-0.0005339714698493481,0.01830459199845791
0.022429145872592926,0.00516557227820158,-0.01563558541238308,0.011889833025634289,-0.000496614899020642,0.0183094535022974
0.02218598499894142,0.005133085418492556,-0.016084585338830948,0.011304250918328762,-0.0005174005054868758,0.018787479028105736
0.022117789834737778,0.004822340793907642,-0.015673620626330376,0.01119476743042469,-0.0004899397608824074,0.019142748787999153
0.022399701178073883,0.004687103908509016,-0.016305960714817047,0.011419308371841908,-0.0005721946945413947,0.018699221312999725
0.02285303920507431,0.00476613687351346,-0.01577129401266575,0.011218089610338211,-0.0006002133595757186,0.01844039000570774
0.022718321532011032,0.004655071999877691,-0.015848692506551743,0.011758754961192608,-0.0005622720927931368,0.018026897683739662
0.022836869582533836,0.004702465608716011,-0.016150519251823425,0.011265473440289497,-0.0005839409423060715,0.018967024981975555
0.022599440068006516,0.004752823151648045,-0.015891214832663536,0.011663489043712616,-0.0005811494193039834,0.01840127259492874
0.02214667573571205,0.0048410724848508835,-0.016945084556937218,0.011879604309797287,-0.0006640533683821559,0.01829908974468708
0.02214667573571205,0.0048410724848508835,-0.016945084556937218,0.011879604309797287,-0.0006640533683821559,0.01829908974468708
0.022412395104765892,0.004648158326745033,-0.0159754678606987,0.011983205564320087,-0.0007251274073496461,0.018940037116408348
0.023080797865986824,0.004801563918590546,-0.016706351190805435,0.012275593355298042,-0.0006940359016880393,0.0192581620067358
0.023032400757074356,0.004730503540486097,-0.01643507555127144,0.011669106781482697,-0.0007070631836540997,0.018859710544347763
0.022776367142796516,0.0048742578364908695,-0.016244258731603622,0.011795718222856522,-0.000691154389642179,0.019001781940460205
0.022443586960434914,0.004917827434837818,-0.01664709486067295,0.01153483148664236,-0.0006678631762042642,0.0190591998398304
0.02342582866549492,0.004554674029350281,-0.017402339726686478,0.011541957035660744,-0.0006974184652790427,0.019224174320697784
0.02304142341017723,0.0045145126059651375,-0.016888245940208435,0.011037729680538177,-0.0006686916458420455,0.019710585474967957
0.02302228845655918,0.004613843280822039,-0.01642613112926483,0.011418210342526436,-0.0006907260394655168,0.019408036023378372
0.022624844685196877,0.00462745688855648,-0.01666281931102276,0.011367800645530224,-0.000693708483595401,0.01927625574171543
0.022937912493944168,0.0045892782509326935,-0.016744542866945267,0.01159602776169777,-0.0006515016430057585,0.019432786852121353
0.023204678669571877,0.00459262914955616,-0.017645077779889107,0.012356918305158615,-0.0007102497038431466,0.019399255514144897
0.02334931306540966,0.0044583710841834545,-0.016390342265367508,0.012023687362670898,-0.0007388812955468893,0.019533036276698112
0.023176023736596107,0.004684212617576122,-0.01669195108115673,0.01205466315150261,-0.0007444730727002025,0.01991102658212185
0.02285238727927208,0.004819884896278381,-0.01684456877410412,0.011983071453869343,-0.000688657455611974,0.0197061225771904
0.023456165567040443,0.0047811344265937805,-0.017731893807649612,0.011844521388411522,-0.0007047010003589094,0.019651809707283974
0.02343718335032463,0.004669949412345886,-0.01691765896975994,0.012388600036501884,-0.0006505792844109237,0.019751841202378273
0.02165050245821476,0.0046321614645421505,-0.016289956867694855,0.011747241951525211,-0.0006807018653489649,0.019982045516371727
0.02430794946849346,0.004556525964289904,-0.017201554030179977,0.0125898327678442,-0.0007093081367202103,0.02013380639255047
0.024147547781467438,0.0045599318109452724,-0.017407963052392006,0.012939962558448315,-0.0006843761657364666,0.01995597407221794
0.023497451096773148,0.004301575943827629,-0.017240110784769058,0.012434491887688637,-0.0006585233495570719,0.020052975043654442
0.023551879450678825,0.0049521285109221935,-0.017313165590167046,0.012517218478024006,-0.0005988589837215841,0.020387031137943268
0.023551879450678825,0.0049521285109221935,-0.017313165590167046,0.012517218478024006,-0.0005988589837215841,0.020387031137943268
0.0241029541939497,0.0048738159239292145,-0.016718624159693718,0.012269281782209873,-0.0005470011383295059,0.02043958194553852
0.023947715759277344,0.004930152557790279,-0.016982125118374825,0.012421898543834686,-0.00056528823915869,0.02073674090206623
0.02403097040951252,0.004746541380882263,-0.0167472455650568,0.011671106331050396,-0.0005319439223967493,0.020117327570915222
0.02486472949385643,0.004737362265586853,-0.01710345409810543,0.012052071280777454,-0.000499709858559072,0.02006419748067856
0.024071022868156433,0.004751831758767366,-0.017078997567296028,0.012128815986216068,-0.0004556851927191019,0.020391879603266716
0.02462857961654663,0.004757288843393326,-0.016407085582613945,0.012521645054221153,-0.0004747723287437111,0.020544281229376793
0.02392476610839367,0.004475805442780256,-0.017154887318611145,0.012585798278450966,-0.0004536155320238322,0.020179376006126404
0.02416503243148327,0.004552964586764574,-0.016506792977452278,0.013272050768136978,-0.00047992021427489817,0.020372141152620316
0.024547958746552467,0.004987411201000214,-0.01728108525276184,0.013246606104075909,-0.0004536461492534727,0.020824432373046875
0.02470644935965538,0.004964252468198538,-0.016966763883829117,0.013176389038562775,-0.00047995586646720767,0.02066570147871971
0.024638447910547256,0.004348736722022295,-0.017741935327649117,0.013333703391253948,-0.0005968117038719356,0.02090940624475479
0.025342252105474472,0.004939545411616564,-0.016551177948713303,0.013876505196094513,-0.0005884678103029728,0.020645448938012123
0.025589272379875183,0.004957097582519054,-0.01701381616294384,0.013295379467308521,-0.0006105562788434327,0.020728493109345436
0.02579464577138424,0.004603984300047159,-0.016822831705212593,0.013159477151930332,-0.000566270318813622,0.020940329879522324
0.02465769089758396,0.004591582342982292,-0.017232799902558327,0.012561090290546417,-0.0005842471146024764,0.020591966807842255
0.024847446009516716,0.004492591600865126,-0.017258619889616966,0.013028517365455627,-0.0005484799039550126,0.020815569907426834
0.025132305920124054,0.004594983998686075,-0.01661943644285202,0.012915318831801414,-0.0006245553959161043,0.020838849246501923
0.025570744648575783,0.004734276793897152,-0.017334794625639915,0.012839832343161106,-0.0005653711268678308,0.02117333933711052
0.02523321658372879,0.004644729662686586,-0.017028678208589554,0.012878329493105412,-0.0005965690943412483,0.020711636170744896
0.025498926639556885,0.004756827373057604,-0.01725206896662712,0.012448293156921864,-0.0005862874677404761,0.020608264952898026
0.025738654658198357,0.004826406016945839,-0.01759449392557144,0.012930097058415413,-0.0005726457457058132,0.021601630374789238
0.0253360066562891,0.0046953847631812096,-0.01687108725309372,0.012356290593743324,-0.0005825363332405686,0.02195521630346775
0.02538325823843479,0.005181547254323959,-0.01736167073249817,0.012681710533797741,-0.0005548973567783833,0.02116250991821289
0.02566424012184143,0.004958896432071924,-0.016963951289653778,0.012447894550859928,-0.0005732658319175243,0.02018762193620205
0.023796062916517258,0.004878201521933079,-0.017227668315172195,0.012873883359134197,-0.0005271602421998978,0.0204299483448267
0.026384126394987106,0.004775266628712416,-0.017629344016313553,0.01304940227419138,-0.0005543978768400848,0.021270548924803734
0.0258097592741251,0.005328221712261438,-0.01698782853782177,0.013332328759133816,-0.0005540861166082323,0.02181403525173664
0.02579524740576744,0.005141561385244131,-0.01721709966659546,0.013266351073980331,-0.0005442367983050644,0.021202456206083298
0.026252781972289085,0.0051964144222438335,-0.01710308901965618,0.012703882530331612,-0.0005652609397657216,0.021357472985982895
0.026252781972289085,0.0051964144222438335,-0.01710308901965618,0.012703882530331612,-0.0005652609397657216,0.021357472985982895
0.025560474023222923,0.005538225639611483,-0.017256097868084908,0.01314083393663168,-0.0005320748896338046,0.021972041577100754
0.026247913017868996,0.005243524443358183,-0.0173648651689291,0.012472974136471748,-0.0005841763922944665,0.02284417673945427
0.026338834315538406,0.005075933877378702,-0.017009243369102478,0.0132650937885046,-0.0006218036869540811,0.022393906489014626
0.026435963809490204,0.00528678810223937,-0.01728714630007744,0.012887437827885151,-0.0005695071304216981,0.021566955372691154
0.02665439434349537,0.0050760614685714245,-0.01704571582376957,0.013309015892446041,-0.0005956866079941392,0.021242117509245872
0.02631267160177231,0.0052423193119466305,-0.01746421307325363,0.013612848706543446,-0.0005489946925081313,0.021254433318972588
0.026585908606648445,0.004914111457765102,-0.017827067524194717,0.013717408291995525,-0.0005675273714587092,0.0217925775796175
0.02671988122165203,0.004934052471071482,-0.01758219301700592,0.013709411025047302,-0.0005346090183593333,0.022131280973553658
0.026376688852906227,0.004877666011452675,-0.01779814437031746,0.013993864879012108,-0.0005886834696866572,0.022239316254854202
0.026890983805060387,0.005568864289671183,-0.017581073567271233,0.013632252812385559,-0.0006353666540235281,0.021780209615826607
0.026776595041155815,0.005307768937200308,-0.01747330091893673,0.013608389534056187,-0.0005971493083052337,0.021693142130970955
0.026994846761226654,0.0050059836357831955,-0.017132382839918137,0.013375994749367237,-0.0006039697909727693,0.021993618458509445
0.02720162458717823,0.005162939429283142,-0.017695458605885506,0.013586021028459072,-0.0005736246821470559,0.022042756900191307
0.027430634945631027,0.005071807187050581,-0.018604826182127,0.012984661385416985,-0.0006244726246222854,0.022039704024791718
0.0276559516787529,0.0052879019640386105,-0.018116995692253113,0.013509318232536316,-0.0005771341966465116,0.022576073184609413
0.02770320698618889,0.005334910936653614,-0.01838812232017517,0.013342236168682575,-0.0006084683118388057,0.022523242980241776
0.027385305613279343,0.004690238740295172,-0.0175824873149395,0.013933577574789524,-0.000552495417650789,0.022286925464868546
0.027733750641345978,0.005131157115101814,-0.01773172803223133,0.013117214664816856,-0.0005735136801376939,0.022321218624711037
0.028828322887420654,0.005038292147219181,-0.01801314949989319,0.013515913859009743,-0.0005346108227968216,0.022447090595960617
0.029097452759742737,0.0052439989522099495,-0.017587343230843544,0.01346628274768591,-0.0005588443600572646,0.022388901561498642
0.02746698632836342,0.004998140037059784,-0.01832244172692299,0.013711546547710896,-0.000527002674061805,0.02251574583351612
0.02714489959180355,0.005050112493336201,-0.01800963096320629,0.013652116060256958,-0.0005274577415548265,0.022641273215413094
0.028221115469932556,0.004904503934085369,-0.0176783949136734,0.01376916654407978,-0.0005214845295995474,0.022427823394536972
0.02847883105278015,0.004998634569346905,-0.01864902302622795,0.013913583941757679,-0.0005132884252816439,0.02238376997411251
0.02847883105278015,0.004998634569346905,-0.01864902302622795,0.013913583941757679,-0.0005132884252816439,0.02238376997411251
0.028608007356524467,0.005144106689840555,-0.01854305900633335,0.013620337471365929,-0.0005043762503191829,0.022787773981690407
0.029010483995079994,0.005221353843808174,-0.018197480589151382,0.0134115694090724,-0.000525782466866076,0.022540468722581863
0.029010483995079994,0.005221353843808174,-0.018197480589151382,0.0134115694090724,-0.000525782466866076,0.022540468722581863
0.028533458709716797,0.005022922530770302,-0.01733252964913845,0.013550573959946632,-0.0004973871982656419,0.02254537120461464
0.02802429161965847,0.004884274676442146,-0.018589353188872337,0.013283132575452328,-0.0004657181561924517,0.022191863507032394
0.027708545327186584,0.005270572379231453,-0.018352990970015526,0.013313527218997478,-0.0004815801221411675,0.022678738459944725
0.028717905282974243,0.005073264241218567,-0.01826626993715763,0.013072136789560318,-0.00045005534775555134,0.02333862893283367
0.028712786734104156,0.005273132584989071,-0.017635969445109367,0.014046696946024895,-0.0004100899095647037,0.02336355298757553
0.02857063151896,0.005442142486572266,-0.018139785155653954,0.014057943597435951,-0.0003758714010473341,0.023121006786823273
0.02814810536801815,0.00487441336736083,-0.01849067583680153,0.014609424397349358,-0.0004113414033781737,0.022608544677495956
0.027877746149897575,0.005293667316436768,-0.01763094961643219,0.014656814746558666,-0.00040480567258782685,0.02254897728562355
0.028296098113059998,0.005493542179465294,-0.018332894891500473,0.014217574149370193,-0.00039332802407443523,0.023164385929703712
0.028466852381825447,0.005579416174441576,-0.018691319972276688,0.014420395717024803,-0.00037105564842931926,0.02308828942477703
0.02799111045897007,0.004604246001690626,-0.017994966357946396,0.013558577746152878,-0.0003873707028105855,0.023275747895240784
0.02799111045897007,0.004604246001690626,-0.017994966357946396,0.013558577746152878,-0.0003873707028105855,0.023275747895240784
0.028528396040201187,0.004153605550527573,-0.01807674579322338,0.013714038766920567,-0.00037703244015574455,0.02383253537118435
0.028528396040201187,0.004153605550527573,-0.01807674579322338,0.013714038766920567,-0.00037703244015574455,0.02383253537118435
0.028074663132429123,0.0049152672290802,-0.018008507788181305,0.013385539874434471,-0.00040046958019956946,0.02266882359981537
0.028447236865758896,0.0047797588631510735,-0.017351767048239708,0.013964563608169556,-0.000407189509132877,0.02221471443772316
0.028297683224081993,0.0048647127114236355,-0.01830025017261505,0.013758828863501549,-0.0004089886788278818,0.022675858810544014
0.028223920613527298,0.004778001457452774,-0.01852811872959137,0.014089888893067837,-0.0004370794340502471,0.023426806554198265
0.02682529389858246,0.004417808726429939,-0.017975738272070885,0.014092626981437206,-0.0005630931118503213,0.0236322283744812
0.029146594926714897,0.004564228001981974,-0.018552115187048912,0.014666885137557983,-0.0006221271469257772,0.023748138919472694
0.0288053210824728,0.004299143794924021,-0.018063316121697426,0.014411916956305504,-0.0006571668200194836,0.02361411787569523
0.029344724491238594,0.004490657243877649,-0.018133368343114853,0.015007481910288334,-0.0006397325778380036,0.02366122603416443
0.029344724491238594,0.004490657243877649,-0.018133368343114853,0.015007481910288334,-0.0006397325778380036,0.02366122603416443
0.027807962149381638,0.004433949012309313,-0.017589474096894264,0.014988051727414131,-0.0005667852237820625,0.023489847779273987
0.027807962149381638,0.004433949012309313,-0.017589474096894264,0.014988051727414131,-0.0005667852237820625,0.023489847779273987
0.028456510975956917,0.004434516653418541,-0.01785399578511715,0.014723839238286018,-0.0005841972306370735,0.023502405732870102
0.029354820027947426,0.004207739606499672,-0.018624641001224518,0.014640290290117264,-0.0005484041757881641,0.02349918708205223
0.02894691936671734,0.004260605666786432,-0.01807963103055954,0.014103341847658157,-0.0005399383371695876,0.023523133248090744
0.02921394258737564,0.004197209607809782,-0.018270203843712807,0.014590473845601082,-0.00048772551235742867,0.023875191807746887
0.02947627194225788,0.004892451222985983,-0.017923373728990555,0.014247451908886433,-0.0005161396111361682,0.023833610117435455
0.029471926391124725,0.005082298535853624,-0.017895780503749847,0.01483625452965498,-0.0005192207172513008,0.02420535869896412
0.02875511161983013,0.004430325701832771,-0.018202122300863266,0.014329645782709122,-0.0005127533804625273,0.02391146682202816
0.029154442250728607,0.003963186405599117,-0.01758776232600212,0.014662152156233788,-0.0005395716289058328,0.024901149794459343
0.029123349115252495,0.004636304918676615,-0.01874898187816143,0.015204668045043945,-0.0005831408780068159,0.02329559624195099
0.029318194836378098,0.004635225981473923,-0.01807846501469612,0.015085744671523571,-0.0005185588379390538,0.023594865575432777
0.029323887079954147,0.004828445613384247,-0.018157701939344406,0.01532239280641079,-0.0005512931966222823,0.023746637627482414
0.029709313064813614,0.004701855126768351,-0.018234631046652794,0.014919818378984928,-0.0005459434469230473,0.02372792363166809
0.02931840345263481,0.004674577619880438,-0.017866771668195724,0.015035982243716717,-0.0005365681718103588,0.023906948044896126
0.02956523932516575,0.004752323031425476,-0.018483929336071014,0.01447191834449768,-0.0005579060525633395,0.023927947506308556
0.029515763744711876,0.004866551607847214,-0.017770353704690933,0.01451875176280737,-0.0005256516742520034,0.023842813447117805
0.02987600490450859,0.004564720671623945,-0.018082406371831894,0.014056781306862831,-0.0005340400384739041,0.023987529799342155
0.029803913086652756,0.00509112561121583,-0.018110353499650955,0.014550893567502499,-0.00048476833035238087,0.02372744493186474
0.030377518385648727,0.0050895605236291885,-0.017486073076725006,0.014348930679261684,-0.0004380568861961365,0.02379404753446579
0.03050963766872883,0.004845097661018372,-0.01834353432059288,0.014776640571653843,-0.00047330063534900546,0.023760611191391945
0.03050963766872883,0.004845097661018372,-0.01834353432059288,0.014776640571653843,-0.00047330063534900546,0.023760611191391945
0.02845115400850773,0.004213644191622734,-0.018404236063361168,0.01499164942651987,-0.0004652723728213459,0.024189287796616554
0.030420251190662384,0.004544905852526426,-0.018257098272442818,0.014795581810176373,-0.0004407061205711216,0.02415039949119091
0.030420251190662384,0.004544905852526426,-0.018257098272442818,0.014795581810176373,-0.0004407061205711216,0.02415039949119091
0.030295273289084435,0.0048728687688708305,-0.01788184978067875,0.01526565384119749,-0.00047741542221046984,0.024029934778809547
0.030295273289084435,0.0048728687688708305,-0.01788184978067875,0.01526565384119749,-0.00047741542221046984,0.024029934778809547
0.029724400490522385,0.004816989414393902,-0.018750185146927834,0.014728883281350136,-0.0005434965714812279,0.024025168269872665
0.03004099614918232,0.004672589711844921,-0.0182811226695776,0.014202453196048737,-0.0005675514694303274,0.024212729185819626
0.030420921742916107,0.004662040621042252,-0.01819535344839096,0.014115817844867706,-0.000576221733354032,0.024862511083483696
0.03010326251387596,0.004586200229823589,-0.01918533816933632,0.013843495398759842,-0.0005661120521835983,0.024762393906712532
0.03070756047964096,0.004370334558188915,-0.01775933988392353,0.014354011975228786,-0.0007622319390065968,0.024571489542722702
0.030461911112070084,0.0044178166426718235,-0.01794765517115593,0.014156612567603588,-0.000824596150778234,0.02358771301805973
0.03038921393454075,0.004662361461669207,-0.018161343410611153,0.01413433626294136,-0.0007471910794265568,0.023693665862083435
0.030647650361061096,0.004635676741600037,-0.018073350191116333,0.01390462089329958,-0.0006583277136087418,0.02427213452756405
0.03084138035774231,0.004595597740262747,-0.018742311745882034,0.01439402811229229,-0.000677442760206759,0.024660931900143623
0.03052140772342682,0.004867161624133587,-0.01828969083726406,0.014812877401709557,-0.0006395485252141953,0.024888236075639725
0.030889274552464485,0.004369004629552364,-0.019054165109992027,0.014658103697001934,-0.000593942531850189,0.026002096012234688
0.03142037242650986,0.004479465074837208,-0.01849948801100254,0.015002165921032429,-0.0005374773172661662,0.025331396609544754
0.03187113255262375,0.004622253589332104,-0.01878059096634388,0.015128749422729015,-0.0005635797861032188,0.023583294823765755
0.03191336616873741,0.004459837917238474,-0.018552524968981743,0.015215741470456123,-0.0005623394390568137,0.024120109155774117
0.030102211982011795,0.00419932696968317,-0.017841996625065804,0.01506505161523819,-0.0005516382516361773,0.025440029799938202
0.030623355880379677,0.004332955926656723,-0.018755655735731125,0.015305020846426487,-0.000562940607778728,0.025876397266983986
0.03158937767148018,0.004541559610515833,-0.01856902614235878,0.015104320831596851,-0.0005376150365918875,0.02545146271586418
0.031100990250706673,0.00456889858469367,-0.017953114584088326,0.01487878616899252,-0.0006058848812244833,0.024578703567385674
0.03157687559723854,0.004576527047902346,-0.01897677779197693,0.01480934675782919,-0.000566007976885885,0.024509986862540245
0.032643403857946396,0.004804989323019981,-0.019056688994169235,0.014475323259830475,-0.0005532546783797443,0.024805624037981033
0.03190397471189499,0.004693025257438421,-0.018241023644804955,0.014792666770517826,-0.0005413156468421221,0.024733854457736015
0.03169063478708267,0.004718434531241655,-0.018121859058737755,0.014977634884417057,-0.000534338760189712,0.025028139352798462
0.03136790171265602,0.0044286479242146015,-0.018320567905902863,0.015769165009260178,-0.000525937823113054,0.025069089606404305
0.03136790171265602,0.0044286479242146015,-0.018320567905902863,0.015769165009260178,-0.000525937823113054,0.025069089606404305
0.032382577657699585,0.0041962796822190285,-0.018459467217326164,0.016064757481217384,-0.0005127955228090286,0.024956701323390007
0.032382577657699585,0.0041962796822190285,-0.018459467217326164,0.016064757481217384,-0.0005127955228090286,0.024956701323390007
0.03171968087553978,0.004979692865163088,-0.01808498613536358,0.01501021534204483,-0.0004823561175726354,0.02496727555990219
0.032778456807136536,0.00510444026440382,-0.01862545683979988,0.015642069280147552,-0.00046984496293589473,0.02492714859545231
0.03248629346489906,0.004438310395926237,-0.01889869198203087,0.015381003729999065,-0.0004919783677905798,0.025324435904622078
0.03181842342019081,0.004376482684165239,-0.018082592636346817,0.015331116504967213,-0.00046888343058526516,0.02522418089210987
0.032272446900606155,0.004525352269411087,-0.018610162660479546,0.014999553561210632,-0.0004947803099639714,0.025273337960243225
0.032906316220760345,0.004659302067011595,-0.018788931891322136,0.015510750003159046,-0.0004990294692106545,0.025381144136190414
0.032354529947042465,0.004758910275995731,-0.01816886104643345,0.01576980948448181,-0.0004948808928020298,0.025936782360076904
0.03257913514971733,0.004760658834129572,-0.01815859042108059,0.015895113348960876,-0.0005814576288685203,0.026206016540527344
0.03253045305609703,0.00480739027261734,-0.018566494807600975,0.015055874362587929,-0.0006096213473938406,0.026432406157255173
0.032360732555389404,0.004986869171261787,-0.018886728212237358,0.01572524569928646,-0.00060382200172171,0.026254277676343918
0.032115038484334946,0.004418653901666403,-0.018207797780632973,0.015483945608139038,-0.0005885802092961967,0.02592865750193596
0.033479124307632446,0.004403010010719299,-0.01824909821152687,0.01657797023653984,-0.0005973612423986197,0.025671042501926422
0.03374888747930527,0.005024324636906385,-0.018818248063325882,0.01565251499414444,-0.0005722696078009903,0.025972960516810417
0.032002780586481094,0.005082262214273214,-0.018457036465406418,0.015253768302500248,-0.0006773818749934435,0.027019226923584938
0.03202749416232109,0.0044153062626719475,-0.018656950443983078,0.014633910730481148,-0.0006560364854522049,0.02694537304341793
0.033494580537080765,0.004237733781337738,-0.019032305106520653,0.015444380231201649,-0.0006727799773216248,0.02635614387691021
0.03280588611960411,0.004617548082023859,-0.018408821895718575,0.015273620374500751,-0.0006609671982005239,0.025798849761486053
0.03355545923113823,0.0047982241958379745,-0.018642086535692215,0.015775220468640327,-0.0006412769434973598,0.026204179972410202
0.03394212946295738,0.004919381812214851,-0.01943880319595337,0.01605232246220112,-0.0006666562403552234,0.02722696214914322
0.033878862857818604,0.004561313893646002,-0.019104719161987305,0.016093391925096512,-0.0007381526520475745,0.02627064846456051
0.03221791982650757,0.004493657033890486,-0.01952550746500492,0.01666702702641487,-0.0007759829750284553,0.026053685694932938
0.03221791982650757,0.004493657033890486,-0.01952550746500492,0.01666702702641487,-0.0007759829750284553,0.026053685694932938
0.033870913088321686,0.00453168386593461,-0.01899450272321701,0.016420308500528336,-0.0010072920704260468,0.026690633967518806
0.033870913088321686,0.00453168386593461,-0.01899450272321701,0.016420308500528336,-0.0010072920704260468,0.026690633967518806
0.03355313464999199,0.004343703389167786,-0.01953035779297352,0.016068072989583015,-0.001103467890061438,0.026308083906769753
0.03310125693678856,0.00403954554349184,-0.01981811225414276,0.015852993354201317,-0.0011147689074277878,0.026241423562169075
0.033765822649002075,0.004417732823640108,-0.018836749717593193,0.015821710228919983,-0.001109533361159265,0.02583666890859604
0.03376961871981621,0.00426018051803112,-0.01964760385453701,0.015661925077438354,-0.0010812653927132487,0.027020664885640144
0.03353537619113922,0.0039793760515749454,-0.02013411559164524,0.015398669987916946,-0.0009728269069455564,0.02775002084672451
0.0335509367287159,0.004011017736047506,-0.019764119759202003,0.015164213255047798,-0.0009467514464631677,0.02714412845671177
0.033470332622528076,0.00410743523389101,-0.019361523911356926,0.015740860253572464,-0.0008369350689463317,0.02695288136601448
0.03384630009531975,0.004495133180171251,-0.02018590085208416,0.015567314811050892,-0.0008302229107357562,0.027104798704385757
0.033777669072151184,0.004265530500560999,-0.01973980851471424,0.01583988592028618,-0.0007559414952993393,0.02651054970920086
0.03429267928004265,0.004443595185875893,-0.020062806084752083,0.015268746763467789,-0.0006409577326849103,0.02672162838280201
0.03383218124508858,0.0043779644183814526,-0.019927993416786194,0.014917087741196156,-0.0006436909316107631,0.02751486375927925
0.034145962446928024,0.0041460613720119,-0.01928120106458664,0.014795277267694473,-0.0006899322615936399,0.02699088118970394
0.03405604511499405,0.00412970595061779,-0.01953292451798916,0.014326930977404118,-0.0006528709782287478,0.02729852683842182
0.03273956477642059,0.004504548851400614,-0.01975851319730282,0.014899380505084991,-0.0007654447690583766,0.027585364878177643
0.03462269902229309,0.00424921466037631,-0.019458159804344177,0.01505889743566513,-0.0006666622939519584,0.027451736852526665
0.03449295833706856,0.004406946245580912,-0.020219221711158752,0.016187991946935654,-0.0006888338248245418,0.027287481352686882
0.03397487848997116,0.004294937010854483,-0.02014468051493168,0.016501909121870995,-0.0006664359825663269,0.02727605402469635
0.03436757251620293,0.004044434521347284,-0.019542470574378967,0.01655292697250843,-0.000642979284748435,0.027097640559077263
0.034871336072683334,0.00435451976954937,-0.019713783636689186,0.01677788607776165,-0.0006637553451582789,0.027485502883791924
0.034583985805511475,0.004146739840507507,-0.02009687013924122,0.0162720438092947,-0.0006423517479561269,0.028005434200167656
0.03468691185116768,0.004353999625891447,-0.01964595913887024,0.016940375789999962,-0.0005754126468673348,0.02785530872642994
0.034430913627147675,0.004502014257013798,-0.019567804411053658,0.016397327184677124,-0.0005987228360027075,0.027625126764178276
0.034783314913511276,0.004551999270915985,-0.020130043849349022,0.016349969431757927,-0.0005496525554917753,0.027904022485017776
0.0349530354142189,0.004396549426019192,-0.020058806985616684,0.016411323100328445,-0.0005767997354269028,0.02790682390332222
0.03438176214694977,0.004537681583315134,-0.019605441018939018,0.016718875616788864,-0.0005987414042465389,0.02817152440547943
0.035125985741615295,0.004249026998877525,-0.019865334033966064,0.01717754825949669,-0.0006322828121483326,0.027162469923496246
0.036009155213832855,0.004317822400480509,-0.019855700433254242,0.01663164608180523,-0.0006170420674607158,0.028697358444333076
0.036009155213832855,0.004317822400480509,-0.019855700433254242,0.01663164608180523,-0.0006170420674607158,0.028697358444333076
0.03506910055875778,0.004623542074114084,-0.01959490031003952,0.016735054552555084,-0.0006405187305063009,0.028590042144060135
0.03424030542373657,0.004184728488326073,-0.02014302648603916,0.016331197693943977,-0.0005841413512825966,0.02871309407055378
0.035081926733255386,0.004425116814672947,-0.019946487620472908,0.016274526715278625,-0.0006094282725825906,0.029627744108438492
0.03460008278489113,0.004109238274395466,-0.019459618255496025,0.01632254384458065,-0.0006192360306158662,0.0290713869035244
0.03595087677240372,0.004334493540227413,-0.019838659092783928,0.016325993463397026,-0.0005888265441171825,0.028047414496541023
0.036394838243722916,0.004129659850150347,-0.01990373618900776,0.016414908692240715,-0.0006277417996898293,0.027497433125972748
0.03542284294962883,0.004147551488131285,-0.019460685551166534,0.016162283718585968,-0.0006611692369915545,0.02792411670088768
0.03420940786600113,0.003994397819042206,-0.019837019965052605,0.016705432906746864,-0.0006807807949371636,0.02890128828585148
0.036051809787750244,0.003779300954192877,-0.019259188324213028,0.017026394605636597,-0.0008462813566438854,0.028613256290555
0.03573498874902725,0.004390283487737179,-0.019467655569314957,0.017009705305099487,-0.0009037225390784442,0.029111888259649277
0.03567524999380112,0.004235015716403723,-0.01990550383925438,0.016818249598145485,-0.0008890649187378585,0.028977597132325172
0.03558524698019028,0.003958180081099272,-0.019980257377028465,0.01705240085721016,-0.0008608110365457833,0.028195073828101158
0.03549948334693909,0.003813567105680704,-0.019934196025133133,0.016682345420122147,-0.0008148922934196889,0.02742905169725418
0.03584657981991768,0.00416677538305521,-0.019760843366384506,0.016846947371959686,-0.0008351542637683451,0.02802901715040207
0.03531389310956001,0.004270984325557947,-0.019675057381391525,0.017853904515504837,-0.0008455567294731736,0.028961846604943275
0.03537537157535553,0.004007717128843069,-0.019754216074943542,0.017932580783963203,-0.0007389523671008646,0.029083704575896263
0.03560790792107582,0.0038348182570189238,-0.020074492320418358,0.018011046573519707,-0.0007507031550630927,0.028734704479575157
0.03539673611521721,0.0038206500466912985,-0.01958409696817398,0.017106277868151665,-0.0007471580756828189,0.02860201522707939
0.03542742505669594,0.004327868577092886,-0.019396262243390083,0.016758253797888756,-0.0007045571692287922,0.028511447831988335
0.035961247980594635,0.004141240380704403,-0.0200495645403862,0.016956031322479248,-0.0006629390991292894,0.028390364721417427
0.03557959944009781,0.0036230410914868116,-0.020891649648547173,0.017095351591706276,-0.0006888190400786698,0.028884373605251312
0.034351643174886703,0.0034522879868745804,-0.0201870147138834,0.017623625695705414,-0.0006923141190782189,0.028705572709441185
0.03554290533065796,0.0036524527240544558,-0.02035387046635151,0.01760789006948471,-0.000644837215077132,0.028861086815595627
0.0347830131649971,0.004245983902364969,-0.020322388038039207,0.017270633950829506,-0.0006640343926846981,0.028796030208468437
0.035440441220998764,0.004203445743769407,-0.01985088177025318,0.016880106180906296,-0.0007081967196427286,0.028969481587409973
0.03688899427652359,0.004079120699316263,-0.02007126621901989,0.016599612310528755,-0.0007373802945949137,0.029202409088611603
0.03544129058718681,0.0036542771849781275,-0.020818933844566345,0.017280129715800285,-0.0007298351265490055,0.029198123142123222
0.03389063850045204,0.003591111395508051,-0.020875152200460434,0.017058467492461205,-0.0007470559794455767,0.028335561975836754
0.03389063850045204,0.003591111395508051,-0.020875152200460434,0.017058467492461205,-0.0007470559794455767,0.028335561975836754
0.035599447786808014,0.003893005894497037,-0.019748505204916,0.017444904893636703,-0.0007188880699686706,0.029690749943256378
0.036403633654117584,0.0040530129335820675,-0.020608514547348022,0.017366375774145126,-0.0007946467376314104,0.029690001159906387
0.03598777949810028,0.003927570302039385,-0.021102216094732285,0.01685972325503826,-0.0008413490722887218,0.029264403507113457
0.03553565591573715,0.0037695912178605795,-0.020838109776377678,0.01680743135511875,-0.0008352213189937174,0.0298326313495636
0.03596273809671402,0.004270884674042463,-0.019735734909772873,0.016207987442612648,-0.000842213979922235,0.02944192849099636
0.03609909862279892,0.004099906887859106,-0.02052433416247368,0.01692906767129898,-0.0009437421686016023,0.029484044760465622
0.03619154542684555,0.0039619035087525845,-0.02106858789920807,0.01704449951648712,-0.0009761203546077013,0.028845852240920067
0.03627632185816765,0.0039850338362157345,-0.01995726302266121,0.018176689743995667,-0.0009668069542385638,0.029130809009075165
0.03642997145652771,0.004026359878480434,-0.021419091150164604,0.01646355353295803,-0.0008518639951944351,0.030693750828504562
0.03652075305581093,0.003923660144209862,-0.021152278408408165,0.017339974641799927,-0.0008234116248786449,0.02939692884683609
0.03665904328227043,0.0039316266775131226,-0.020357679575681686,0.01700863242149353,-0.0008409923175349832,0.028461908921599388
0.036837805062532425,0.003980859648436308,-0.02099413052201271,0.01726365089416504,-0.0008332894649356604,0.029488129541277885
0.03723975270986557,0.004313732031732798,-0.02093622460961342,0.01743893139064312,-0.0008131938520818949,0.03020164556801319
