davideferrari95/blind_handover_controller/data/Test 226 - [2024-02-08 -- 12-25-33]/joint_states_data.csv
shoulder_pan_joint,shoulder_lift_joint,elbow_joint,wrist_1_joint,wrist_2_joint,wrist_3_joint
0.006670053582638502,0.004300838802009821,-0.005183456931263208,0.0015261465450748801,0.0008123727748170495,0.0071875834837555885
0.006513535976409912,0.0040154545567929745,-0.005224397871643305,0.0015721353702247143,0.000610591669101268,0.006864538416266441
0.006513535976409912,0.0040154545567929745,-0.005224397871643305,0.0015721353702247143,0.000610591669101268,0.006864538416266441
0.006853971630334854,0.004335107281804085,-0.005682728253304958,0.0017820325447246432,0.0005073396023362875,0.00702756829559803
0.007344583049416542,0.004922887776046991,-0.0060705505311489105,0.001849491149187088,0.0004538157081697136,0.007029601372778416
0.006948930211365223,0.0044570560567080975,-0.005420166067779064,0.0017750520491972566,0.0004885370144620538,0.006955191493034363
0.006357782986015081,0.0040211728774011135,-0.00532070267945528,0.0017193042440339923,0.0005078949616290629,0.007210971787571907
0.006489843595772982,0.003925062716007233,-0.005136911291629076,0.001625669770874083,0.00048615288687869906,0.007017257157713175
0.0069699580781161785,0.004389456007629633,-0.0059571643359959126,0.0015653888694941998,0.00048372268793173134,0.006540675647556782
0.0069699580781161785,0.004389456007629633,-0.0059571643359959126,0.0015653888694941998,0.00048372268793173134,0.006540675647556782
0.007178472820669413,0.0041669695638120174,-0.00550455367192626,0.0016128284623846412,0.0004802419862244278,0.006987314205616713
0.006935708690434694,0.004366277251392603,-0.005083603318780661,0.0017992632929235697,0.00045232143020257354,0.0071656303480267525
0.006577076390385628,0.004455465357750654,-0.00481584994122386,0.001829835120588541,0.00047804287169128656,0.007369344122707844
0.006870429031550884,0.004614484962075949,-0.005020979791879654,0.0019727032631635666,0.00043648332939483225,0.007108909077942371
0.007210602983832359,0.004219225607812405,-0.005576222203671932,0.0018921562004834414,0.0004365960485301912,0.007411092985421419
0.006723235361278057,0.004076015204191208,-0.0052660685032606125,0.0018314382759854198,0.00043622913653962314,0.007047497201710939
0.006624870467931032,0.004093787632882595,-0.00488165533170104,0.0016848325030878186,0.00040572232683189213,0.007315549533814192
0.006617526989430189,0.0041265240870416164,-0.0050484840758144855,0.0015453005908057094,0.0004318284336477518,0.006783639080822468
0.007066578138619661,0.004162545781582594,-0.005341615993529558,0.0015064477920532227,0.00041106389835476875,0.006940041668713093
0.006682508159428835,0.00438682409003377,-0.005033388733863831,0.0015184637159109116,0.0004131841997150332,0.006877803709357977
0.0067283995449543,0.004298094660043716,-0.0052019329741597176,0.001527487300336361,0.00041418219916522503,0.007092089857906103
0.006684951484203339,0.004018159583210945,-0.005191626027226448,0.0016060663620010018,0.0004244697920512408,0.007031639106571674
0.007088514976203442,0.004070932976901531,-0.005315433256328106,0.0015059327706694603,0.00041597115341573954,0.006724449805915356
0.007043405435979366,0.004392589442431927,-0.004585828632116318,0.0016215946525335312,0.0004206729063298553,0.006953028962016106
0.006412131246179342,0.004591577220708132,-0.005078909453004599,0.0016646733274683356,0.00039230758557096124,0.006993771996349096
0.0066250343807041645,0.004359869752079248,-0.005456952378153801,0.0015863787848502398,0.00036585619091056287,0.007125470787286758
0.007029710337519646,0.004468209575861692,-0.005118637811392546,0.00148634216748178,0.0003704059054143727,0.007230483461171389
0.0069552017375826836,0.004368800204247236,-0.004852548707276583,0.0015362412668764591,0.0003739670792128891,0.006871464196592569
0.006597086321562529,0.004077005200088024,-0.00471730250865221,0.0015659842174500227,0.0003545841318555176,0.006711154710501432
0.007211333606392145,0.00354665401391685,-0.004881837405264378,0.0017632351955398917,0.00033578716102056205,0.007106895558536053
0.006694967858493328,0.0034591122530400753,-0.00491438340395689,0.001616617781110108,0.00031879713060334325,0.00701734097674489
0.006613859441131353,0.0037327338941395283,-0.005073612090200186,0.001568066654726863,0.00030343804974108934,0.007183545734733343
0.006678793579339981,0.004024134483188391,-0.005412846338003874,0.001581540098413825,0.00032002944499254227,0.007413683459162712
0.006618192419409752,0.004207904450595379,-0.005577137693762779,0.0015088015934452415,0.0003156021411996335,0.007465391885489225
0.007290385663509369,0.0039100549183785915,-0.004989606328308582,0.0015367919113487005,0.00030294808675535023,0.007496944162994623
0.006627606227993965,0.003629181068390608,-0.0044862194918096066,0.00148496322799474,0.00029075282509438694,0.007359796203672886
0.0066098496317863464,0.0034686699509620667,-0.005054732318967581,0.0015786330914124846,0.00027946787304244936,0.007406543008983135
0.0066098496317863464,0.0034686699509620667,-0.005054732318967581,0.0015786330914124846,0.00027946787304244936,0.007406543008983135
0.006546099670231342,0.0036220576148480177,-0.0056799533776938915,0.001738368533551693,0.0002690242254175246,0.006713475100696087
0.007232979871332645,0.0032503714319318533,-0.005350254941731691,0.0016264665173366666,0.0002534374361857772,0.006643925793468952
0.007076619658619165,0.0034216241911053658,-0.005039280746132135,0.0016782874008640647,0.00023495648929383606,0.0070750960148870945
0.0071958377957344055,0.0042686667293310165,-0.004819519817829132,0.0016777365235611796,0.00022296766110230237,0.006528336089104414
0.006678335834294558,0.004201869014650583,-0.00487904017791152,0.00163282360881567,0.00021241682406980544,0.006380174309015274
0.006623031105846167,0.0032262098975479603,-0.005398956127464771,0.0015444591408595443,0.00023798142501618713,0.006655576638877392
0.007191765587776899,0.0028054052963852882,-0.0051757520996034145,0.00160271639470011,0.0002325506939087063,0.007219378370791674
0.006871689576655626,0.0040308283641934395,-0.00504353828728199,0.0016598819056525826,0.00022324979363474995,0.006807197351008654
0.0070097604766488075,0.004126227926462889,-0.005599350202828646,0.0016029344405978918,0.00023189223429653794,0.006765149533748627
0.007079682312905788,0.003456501755863428,-0.005178873892873526,0.0016661324771121144,0.00023939486709423363,0.00651970598846674
0.007517753168940544,0.003364645643159747,-0.004659372381865978,0.0016870967810973525,0.0002532760554458946,0.007007813546806574
0.006915176287293434,0.0038245338946580887,-0.0048095956444740295,0.0015973527915775776,0.0002465482393745333,0.00682129617780447
0.006295769475400448,0.003870214568451047,-0.00528165977448225,0.0016476885648444295,0.00033244062797166407,0.006635557394474745
0.007004794664680958,0.0038003544323146343,-0.005408644676208496,0.0017718600574880838,0.000338295241817832,0.006760112009942532
0.007080439478158951,0.003786447923630476,-0.004791088402271271,0.0016212884802371264,0.0003165107627864927,0.006619497202336788
0.007272991351783276,0.0038804335054010153,-0.004867746494710445,0.0015437526162713766,0.000350854272255674,0.006672233808785677
0.007272991351783276,0.0038804335054010153,-0.004867746494710445,0.0015437526162713766,0.000350854272255674,0.006672233808785677
0.00751651031896472,0.003233690047636628,-0.0051778159104287624,0.0014138998230919242,0.0003137111198157072,0.006523579824715853
0.006997203920036554,0.0032161662820726633,-0.0055239275097846985,0.001444716821424663,0.0003392522339709103,0.007179494947195053
0.0069700805470347404,0.0035979391541332006,-0.00505191832780838,0.0014907039003446698,0.00032746672513894737,0.006773621309548616
0.0069700805470347404,0.0035979391541332006,-0.00505191832780838,0.0014907039003446698,0.00032746672513894737,0.006773621309548616
0.00673537515103817,0.004056629724800587,-0.004598358646035194,0.001882776734419167,0.0003116452426183969,0.0066443635150790215
0.007030277047306299,0.003820616053417325,-0.005077432841062546,0.0017640854930505157,0.0003337194793857634,0.006640801206231117
0.007357514929026365,0.003481790190562606,-0.005465473048388958,0.001843643607571721,0.0003237485943827778,0.006510578561574221
0.007072698790580034,0.003493964672088623,-0.005330183077603579,0.0016618017107248306,0.0003101300972048193,0.006469698157161474
0.006159967742860317,0.0036573761608451605,-0.005342522636055946,0.0015438385307788849,0.0003544859355315566,0.006504555698484182
0.0074507566168904305,0.0039033147040754557,-0.005064667668193579,0.001445157453417778,0.00036953261587768793,0.0067831119522452354
0.007924413308501244,0.003838801058009267,-0.0049624028615653515,0.0014842288801446557,0.00037440212327055633,0.006447748281061649
0.0073004369623959064,0.0036372169852256775,-0.005168992560356855,0.0016998788341879845,0.00040270190220326185,0.006367134395986795
0.007032117806375027,0.003564808052033186,-0.004991909023374319,0.0016794103430584073,0.0003851315123029053,0.0064131515100598335
0.007330774795264006,0.0036036106757819653,-0.005193347577005625,0.0016068198019638658,0.000411688641179353,0.006444995291531086
0.0076628876850008965,0.0038737424183636904,-0.005575140472501516,0.0016511330613866448,0.00039242402999661863,0.006486587692052126
0.007519352715462446,0.0038618664257228374,-0.00503159873187542,0.0016945450333878398,0.0003723321424331516,0.0062261419370770454
0.007463259156793356,0.003750081639736891,-0.00477585569024086,0.0016068394761532545,0.0004304799367673695,0.006676478777080774
0.007466388866305351,0.0035313565749675035,-0.005313062574714422,0.0016150586307048798,0.0004593291669152677,0.006475632544606924
0.007612184621393681,0.0035687286872416735,-0.0052178665064275265,0.0014401195803657174,0.00042109566857106984,0.006515825632959604
0.00764580350369215,0.003879801370203495,-0.005244533531367779,0.0014286994701251388,0.00042553889215923846,0.006514326203614473
0.006987059488892555,0.0038919844664633274,-0.005154650192707777,0.001696910010650754,0.00039471700438298285,0.00659747002646327
0.006643414963036776,0.0035689296200871468,-0.005207482725381851,0.0016356133855879307,0.0004129177541472018,0.006157116033136845
0.0068198605440557,0.003574495203793049,-0.005377198103815317,0.0017521666595712304,0.00040069693932309747,0.006462426856160164
0.006779935210943222,0.003994574770331383,-0.00554359657689929,0.001726182410493493,0.000377591117285192,0.006320594344288111
0.006763284560292959,0.003933645784854889,-0.005168597679585218,0.0015699682990089059,0.0004003196081612259,0.00639837933704257
0.007050259504467249,0.003681465517729521,-0.00507016945630312,0.0015452353982254863,0.00038493823376484215,0.006418716628104448
0.007543129380792379,0.003491830313578248,-0.005092309322208166,0.0014656521379947662,0.00039805611595511436,0.006514070089906454
0.007056330796331167,0.0035390611737966537,-0.005670679733157158,0.0014583958545699716,0.00042552981176413596,0.006699551362544298
0.007056330796331167,0.0035390611737966537,-0.005670679733157158,0.0014583958545699716,0.00042552981176413596,0.006699551362544298
0.006567962467670441,0.003853136906400323,-0.005317073781043291,0.001413958496414125,0.00041044020326808095,0.006316137034446001
0.006683559622615576,0.003868710482493043,-0.0054161930456757545,0.0015287849819287658,0.0003824829764198512,0.006447829306125641
0.007245772052556276,0.0035666050389409065,-0.005613330751657486,0.0016943353693932295,0.00041261373553425074,0.006268611643463373
0.006845606956630945,0.0035113533958792686,-0.005176698789000511,0.0018118206644430757,0.00039063591975718737,0.005606386810541153
0.006797208450734615,0.0038539832457900047,-0.005159069783985615,0.0019561483059078455,0.0004067794361617416,0.006017208099365234
0.007028602529317141,0.003887210041284561,-0.005381412338465452,0.0018037641420960426,0.00039650610415264964,0.00688169477507472
0.007038182113319635,0.003752055810764432,-0.0055792126804590225,0.0018681945512071252,0.00037655618507415056,0.006519458256661892
0.007243659347295761,0.00370615953579545,-0.005301828496158123,0.0017559030093252659,0.0004099303623661399,0.006037193350493908
0.007553362753242254,0.0037435158155858517,-0.00573954451829195,0.0019299759296700358,0.00042173636029474437,0.006295910105109215
0.006766024045646191,0.003766631241887808,-0.005373010411858559,0.0017708714585751295,0.0003885895712301135,0.006272317375987768
0.00704388041049242,0.0037478574085980654,-0.004972041118890047,0.0018220273777842522,0.0003578727482818067,0.00612699706107378
0.006902465596795082,0.003707078518345952,-0.005280631128698587,0.0016447362722828984,0.0003887354105245322,0.006289189215749502
0.007075625471770763,0.003673138562589884,-0.005248510744422674,0.0015354141360148787,0.0003698989748954773,0.005555982701480389
0.007097778841853142,0.0037121318746358156,-0.005926854442805052,0.0014159722486510873,0.0003466515918262303,0.005470135249197483
0.007106010336428881,0.0037681693211197853,-0.004685221705585718,0.001486260094679892,0.0003257621719967574,0.005515674594789743
0.007415146566927433,0.0036649189423769712,-0.005771552678197622,0.0017405902035534382,0.00033260256168432534,0.005868337117135525
0.00689913472160697,0.0036518455017358065,-0.005547667387872934,0.0019319119164720178,0.00032137040398083627,0.006034722551703453
0.007397750858217478,0.0037242139223963022,-0.00537080317735672,0.0019291136413812637,0.00030612541013397276,0.005715789273381233
0.007770414464175701,0.0038191138301044703,-0.004938618745654821,0.0019151109736412764,0.0002919594699051231,0.005520142614841461
0.007077927701175213,0.0038707475177943707,-0.004760461393743753,0.0018980186432600021,0.0002790267753880471,0.005396808497607708
0.006842220667749643,0.004273843485862017,-0.005238377023488283,0.0019342645537108183,0.00026719007291831076,0.005998536013066769
0.006812404841184616,0.0037154569290578365,-0.005289941560477018,0.0019162825774401426,0.0002563170564826578,0.006155121605843306
0.007389568258076906,0.003462562570348382,-0.005557449534535408,0.0018052449449896812,0.0002462947741150856,0.00588194327428937
0.0072345309890806675,0.003498896723613143,-0.005254807416349649,0.0018074179533869028,0.00023702695034444332,0.005669871345162392
0.0069080134853720665,0.003589948872104287,-0.005049438681453466,0.0018733981996774673,0.00025257072411477566,0.005238272249698639
0.0069080134853720665,0.003589948872104287,-0.005049438681453466,0.0018733981996774673,0.00025257072411477566,0.005238272249698639
0.006814260501414537,0.003481455845758319,-0.0051368665881454945,0.001970319775864482,0.00025137345073744655,0.0054513197392225266
0.007212446071207523,0.003372588660567999,-0.005104664713144302,0.002026168629527092,0.00024337400100193918,0.005703995935618877
0.007786083966493607,0.0035773534327745438,-0.004979184363037348,0.001987861003726721,0.00023544690338894725,0.005460429470986128
0.007279890589416027,0.0033878996036946774,-0.004898608196526766,0.0018611833220347762,0.00022799252474214882,0.00556981423869729
0.006972909439355135,0.0035228505730628967,-0.005460341926664114,0.001849365420639515,0.00022099392663221806,0.005428287200629711
0.0075276135466992855,0.003636074485257268,-0.005436793435364962,0.0018827765015885234,0.00021441216813400388,0.005624544341117144
0.007574010640382767,0.00322038889862597,-0.004986923653632402,0.0018864769954234362,0.00020821127691306174,0.00602022185921669
0.007359378505498171,0.003375075524672866,-0.004875026177614927,0.0018871391657739878,0.00020235894771758467,0.005621340125799179
0.007421998772770166,0.0030462511349469423,-0.005090636666864157,0.0018874395173043013,0.00019682654237840325,0.005693076644092798
0.0076656281016767025,0.003256338881328702,-0.005070251412689686,0.0017101384000852704,0.00019158887153025717,0.005346150603145361
0.007506809663027525,0.0033966999035328627,-0.005510063376277685,0.0017635232070460916,0.00016267280443571508,0.005765252746641636
0.007654200773686171,0.0034860637970268726,-0.005139154847711325,0.001652076723985374,0.0001498784258728847,0.005427976604551077
0.007132131140679121,0.0032124549616128206,-0.004884775727987289,0.0018491406226530671,0.00014458023360930383,0.005320838186889887
0.007596625946462154,0.003570389933884144,-0.00500355614349246,0.0019159185467287898,0.00014004867989569902,0.005359724164009094
0.0072299763560295105,0.003101999405771494,-0.0051527926698327065,0.0021919715218245983,0.0001318394934060052,0.005854555405676365
0.00706201046705246,0.0031323812436312437,-0.0056661153212189674,0.0021191921550780535,0.00012808653991669416,0.005415693391114473
0.007858132012188435,0.003319589886814356,-0.005163122899830341,0.0019942433573305607,0.0001245413877768442,0.005285030696541071
0.0076924702152609825,0.0033312824089080095,-0.004416434094309807,0.0019497033208608627,0.00013308876077644527,0.005308522842824459
0.007352976594120264,0.0034889995586127043,-0.004966866225004196,0.00197556521743536,0.00014080529217608273,0.005516537930816412
0.007242639549076557,0.003307502483949065,-0.005472364369779825,0.0018052830127999187,0.00013793919060844928,0.005572997499257326
0.007242639549076557,0.003307502483949065,-0.005472364369779825,0.0018052830127999187,0.00013793919060844928,0.005572997499257326
0.007809741888195276,0.003489308524876833,-0.00540471076965332,0.0017561615677550435,0.00013454975851345807,0.006022368557751179
0.007831777445971966,0.003692059312015772,-0.005323790013790131,0.001925174379721284,0.00013128164573572576,0.0056491149589419365
0.008086208254098892,0.0038537723012268543,-0.004874933511018753,0.0020652718376368284,0.00012816583330277354,0.005250240210443735
0.00783945620059967,0.00331151788122952,-0.005217953585088253,0.002048162743449211,0.00012519420124590397,0.005051129963248968
0.007732313591986895,0.0034175990149378777,-0.005074764136224985,0.0021401322446763515,0.00012235739268362522,0.005785947199910879
0.008266138844192028,0.0031532635912299156,-0.004944675136357546,0.002071315422654152,0.00011964621808147058,0.005797681398689747
0.007860444486141205,0.0034250847529619932,-0.005699581932276487,0.0022247585002332926,0.00011705258657457307,0.005749059841036797
0.007850087247788906,0.003618934890255332,-0.00533057376742363,0.0020684469491243362,0.000114569062134251,0.005149331409484148
0.0077839442528784275,0.003606366692110896,-0.0053171999752521515,0.0021976870484650135,0.00011218877625651658,0.0046473219990730286
0.007781405467540026,0.0035012417938560247,-0.005491236224770546,0.002270008670166135,0.00011891553003806621,0.004822151269763708
0.007850605063140392,0.0035245311446487904,-0.005339362658560276,0.002226919634267688,0.00012505742779467255,0.005108745768666267
0.007918830029666424,0.003422119189053774,-0.0059289769269526005,0.002249554730951786,0.00012316781794652343,0.005186281632632017
0.00759483128786087,0.003153526457026601,-0.005652261432260275,0.0021653783041983843,0.00012084151967428625,0.0057752118445932865
0.008177155628800392,0.0032276171259582043,-0.005674406886100769,0.0022691446356475353,0.0001185695145977661,0.0054822699166834354
0.007847953587770462,0.003230672562494874,-0.005481688305735588,0.0020941307302564383,0.0001163793567684479,0.00487144710496068
0.008223239332437515,0.0034774497617036104,-0.005956090521067381,0.002091457834467292,0.00011426838318584487,0.004653327167034149
0.007615301758050919,0.0036454536020755768,-0.005672228056937456,0.0020214233081787825,0.00011223278124816716,0.004702598322182894
0.007758559193462133,0.0036319857463240623,-0.005766040179878473,0.0020332299172878265,0.000110268360003829,0.005531301721930504
0.007777235470712185,0.0036577568389475346,-0.005616778042167425,0.002174785127863288,0.00010837149602593854,0.005446729250252247
0.00818495824933052,0.0038174171932041645,-0.005638590548187494,0.002182287396863103,0.00010653887875378132,0.004862714093178511
0.008233652450144291,0.00337040051817894,-0.005564122926443815,0.002145250327885151,0.00010305333125870675,0.00487069645896554
0.008241011761128902,0.003364563686773181,-0.006177626550197601,0.00205651530995965,0.00010139473306480795,0.004887179937213659
0.008269231766462326,0.0033978077117353678,-0.00563787342980504,0.0019971211440861225,9.978867456084117e-05,0.004807821474969387
0.008363370783627033,0.0034364177845418453,-0.00538230175152421,0.0020373964216560125,9.67246014624834e-05,0.004986223764717579
0.008363370783627033,0.0034364177845418453,-0.00538230175152421,0.0020373964216560125,9.67246014624834e-05,0.004986223764717579
0.008461281657218933,0.003642692696303129,-0.005984548944979906,0.002204096643254161,9.526197391096503e-05,0.005228898487985134
0.008364347741007805,0.003915662877261639,-0.0055903661996126175,0.0023092476185411215,9.384297300130129e-05,0.005328211467713118
0.008364347741007805,0.003915662877261639,-0.0055903661996126175,0.0023092476185411215,9.384297300130129e-05,0.005328211467713118
0.008561373688280582,0.003554342780262232,-0.005250759422779083,0.0020953898783773184,9.112814586842433e-05,0.00486044492572546
0.008561373688280582,0.003554342780262232,-0.005250759422779083,0.0020953898783773184,9.112814586842433e-05,0.00486044492572546
0.008480721153318882,0.0036245964001864195,-0.005307267885655165,0.0021146219223737717,8.982879080576822e-05,0.0049736881628632545
0.008939465507864952,0.003632250474765897,-0.0056363847106695175,0.002063311170786619,8.856599015416577e-05,0.004838583525270224
0.008563884533941746,0.0033363555558025837,-0.0056007420644164085,0.002005548682063818,8.733815047889948e-05,0.004587632138282061
0.00878867320716381,0.0032912050373852253,-0.005803652107715607,0.0021268269047141075,8.614392572781071e-05,0.00465717539191246
0.008801140822470188,0.003371194703504443,-0.005600606556981802,0.002018847269937396,8.498193346895278e-05,0.004646744579076767
0.00845931563526392,0.003412950551137328,-0.005600854754447937,0.0023797033354640007,8.385086402995512e-05,0.004832027014344931
0.008300265297293663,0.003505283035337925,-0.005441917572170496,0.002407851628959179,8.274950232589617e-05,0.004894803278148174
0.008604819886386395,0.003681577043607831,-0.0057913921773433685,0.0024834121577441692,8.167670603143051e-05,0.004835729021579027
0.008841335773468018,0.0037346382159739733,-0.005432766862213612,0.002684998558834195,8.06313255452551e-05,0.004540365654975176
0.008314482867717743,0.0033586518839001656,-0.005389771889895201,0.0024525977205485106,7.961240771692246e-05,0.004596475511789322
0.009003671817481518,0.003439582185819745,-0.005453434307128191,0.002366645261645317,7.861893391236663e-05,0.004489146173000336
0.008659827522933483,0.0033970163203775883,-0.005651276092976332,0.0023718837182968855,7.764991460135207e-05,0.004409746266901493
0.008170422166585922,0.003412822727113962,-0.005555103532969952,0.002487538382411003,7.670452032471076e-05,0.0045934454537928104
0.008842739276587963,0.0036556206177920103,-0.00558859808370471,0.00238231779076159,7.578188524348661e-05,0.004814310930669308
0.009034857153892517,0.0038377931341528893,-0.005910608917474747,0.0025084735825657845,7.488112896680832e-05,0.004758020862936974
0.00863388366997242,0.003420972265303135,-0.0053457338362932205,0.0024710323195904493,7.314245158340782e-05,0.004413612186908722
0.009075363166630268,0.003408880904316902,-0.005821540951728821,0.0024682041257619858,7.230301707750186e-05,0.004454899113625288
0.009128434583544731,0.0035262361634522676,-0.005951889790594578,0.0023358091711997986,7.148263830458745e-05,0.004562285728752613
0.00847276858985424,0.003554384922608733,-0.00607328861951828,0.0024073042441159487,7.068068225635216e-05,0.004476953763514757
0.009219428524374962,0.0033958612475544214,-0.005962008144706488,0.0025125883985310793,6.98964940966107e-05,0.004335335455834866
0.009112222120165825,0.0034979127813130617,-0.005632365588098764,0.00242276000790298,1.776175486156717e-05,0.00370670179836452
0.009074782952666283,0.003761086380109191,-0.006169399246573448,0.002448438201099634,1.1597156799325603e-06,0.003809342859312892
0.009188874624669552,0.003491696435958147,-0.006549495737999678,0.002321834210306406,7.572115379161914e-08,0.00412720488384366
0.009835118427872658,0.0036058032419532537,-0.006149296183139086,0.0024515849072486162,4.944050502331265e-09,0.004054177086800337
0.009835118427872658,0.0036058032419532537,-0.006149296183139086,0.0024515849072486162,4.944050502331265e-09,0.004054177086800337
0.008723516948521137,0.0036712512373924255,-0.005796040408313274,0.002578503917902708,3.2281116668642085e-10,0.0039218636229634285
0.009183481335639954,0.0036692842841148376,-0.005286689847707748,0.0028117753099650145,2.107726319866554e-11,0.0038028766866773367
0.009123824536800385,0.003688066964969039,-0.005782420746982098,0.002812750171869993,1.3761946226695243e-12,0.004046190995723009
0.00919392891228199,0.003764284774661064,-0.005821703001856804,0.0026328640524297953,8.985566739456996e-14,0.004032600205391645
0.008769111707806587,0.0033986205235123634,-0.00616094097495079,0.002291526645421982,5.866933051575443e-15,0.00391347287222743
0.010478130541741848,0.0035245695617049932,-0.005929610691964626,0.0018923546886071563,3.830688239809648e-16,0.003723683999851346
0.009141412563621998,0.0037001706659793854,-0.005788599140942097,0.0019497204339131713,2.501165870511291e-17,0.003647841513156891
0.009094493463635445,0.004389303270727396,-0.006165023427456617,0.0021995152346789837,1.6330825208360116e-18,0.003675638698041439
0.009214150719344616,0.004119241144508123,-0.005581788718700409,0.0030256363097578287,1.0662861512759448e-19,0.0036327161360532045
0.009828207083046436,0.003948242869228125,-0.00649609649553895,0.0029725111089646816,6.9620867945876e-21,0.003619190538302064
0.008946634829044342,0.0034799929708242416,-0.005975217092782259,0.0026879585348069668,4.545744702020042e-22,0.003606458194553852
0.009620776399970055,0.0035542845726013184,-0.005934061016887426,0.0024857143871486187,2.968046557405175e-23,0.0036014553625136614
0.00946158729493618,0.004058250226080418,-0.0057264650240540504,0.002488377969712019,1.9379222078684057e-24,0.0036609589587897062
0.009294006042182446,0.004234157036989927,-0.005785542074590921,0.0026596749667078257,1.2653246335869014e-25,0.0037454136181622744
0.009471378289163113,0.004066583700478077,-0.006643993314355612,0.0026151000056415796,8.261666304669792e-27,0.0041936542838811874
0.00940432958304882,0.004372595809400082,-0.00618790416046977,0.002824730472639203,5.394278440370905e-28,0.004179574549198151
0.009003479033708572,0.004175241105258465,-0.00577884167432785,0.0029353233985602856,3.522078390498738e-29,0.0037202853709459305
0.009514504112303257,0.0035416341852396727,-0.006096320692449808,0.002915188204497099,2.2996656778921933e-30,0.0033855154179036617
0.009923490695655346,0.003518873592838645,-0.006046793889254332,0.0027215308509767056,1.5015174739239788e-31,0.003461533458903432
0.00958610326051712,0.004258088767528534,-0.006111506838351488,0.0026950750034302473,6.401204537748173e-34,0.003870295360684395
0.010464243590831757,0.004168129991739988,-0.005691837053745985,0.0027308787684887648,4.1795289964633694e-35,0.004222982097417116
0.009797918610274792,0.0040528359822928905,-0.006416917312890291,0.0030179396271705627,1.7817989778484234e-37,0.0035521462559700012
0.009797918610274792,0.0040528359822928905,-0.006416917312890291,0.0030179396271705627,1.7817989778484234e-37,0.0035521462559700012
0.01003980915993452,0.003976840991526842,-0.0070704128593206406,0.002996720839291811,1.163387412350214e-38,0.0033269328996539116
0.009523865766823292,0.003934241831302643,-0.006239979527890682,0.0031081130728125572,7.596088650488752e-40,0.003305288264527917
0.009523865766823292,0.003934241831302643,-0.006239979527890682,0.0031081130728125572,7.596088650488752e-40,0.003305288264527917
0.010575633496046066,0.0040743849240243435,-0.006071758922189474,0.0031733133364468813,3.238400751054652e-42,0.0039273593574762344
0.009164214134216309,0.0038935644552111626,-0.006559222005307674,0.003233186434954405,2.1159606811304738e-43,0.003937381319701672
0.009842711500823498,0.0037700829561799765,-0.006758673582226038,0.003259149147197604,1.401298464324817e-44,0.003548476379364729
0.009842711500823498,0.0037700829561799765,-0.006758673582226038,0.003259149147197604,1.401298464324817e-44,0.003548476379364729
0.009860561229288578,0.004416884854435921,-0.006465950049459934,0.0030722995288670063,1.401298464324817e-45,0.003495653159916401
0.009452372789382935,0.0041756522841751575,-0.005834382493048906,0.0028760225977748632,0.0,0.0037177554331719875
0.010137717239558697,0.0038945586420595646,-0.00613383250311017,0.002854446414858103,0.0,0.0034299606923013926
0.009891443885862827,0.004156993702054024,-0.006746610626578331,0.002911614952608943,0.0,0.003503262996673584
0.009527954272925854,0.004266172181814909,-0.006544459145516157,0.0030819843523204327,0.0,0.003745483234524727
0.010187470354139805,0.004104066174477339,-0.005988236051052809,0.0030615117866545916,0.0,0.0034556915052235126
0.009951754473149776,0.00403344351798296,-0.0064556836150586605,0.003393585328012705,0.0,0.0034852426033467054
0.009733025915920734,0.004088608548045158,-0.007094774395227432,0.0036946535110473633,0.0,0.0032201367430388927
0.009747532196342945,0.004047840368002653,-0.007039020769298077,0.003396896179765463,0.0,0.0032381219789385796
0.010711784474551678,0.004390074871480465,-0.006515970919281244,0.0031266636215150356,0.0,0.0032463781535625458
0.009409191086888313,0.004107107874006033,-0.006259513553231955,0.002913267584517598,0.0,0.003452412085607648
0.009871388785541058,0.004049225710332394,-0.006695709191262722,0.002852637553587556,0.0,0.0037122941575944424
0.010379798710346222,0.003988124895840883,-0.007547667250037193,0.00280520087108016,0.0,0.0035704101901501417
0.00951138511300087,0.0035918881185352802,-0.007091019302606583,0.0027549981605261564,0.0,0.003404062008485198
0.009798359125852585,0.003465621266514063,-0.006275404244661331,0.002891179407015443,0.0,0.003132696496322751
0.010188283398747444,0.00372497015632689,-0.0065597244538366795,0.003169866744428873,0.0,0.002827287884429097
0.009742422960698605,0.003986641298979521,-0.007236008066684008,0.0035785380750894547,0.0,0.0027654909063130617
0.010011761449277401,0.003947009798139334,-0.007146736606955528,0.003736573038622737,0.0,0.0030693099834024906
0.01034547109156847,0.0034423558972775936,-0.006536267232149839,0.00305159785784781,0.0,0.0034317427780479193
0.01016051322221756,0.0036024386063218117,-0.006991053465753794,0.0028743732254952192,0.0,0.003516491036862135
0.010069821029901505,0.003509092377498746,-0.007421533577144146,0.00283821951597929,0.0,0.003106461837887764
0.009847808629274368,0.0034644007682800293,-0.006577779538929462,0.0028151851147413254,0.0,0.00305964145809412
0.010438770055770874,0.0036245451774448156,-0.006644008215516806,0.0028920702170580626,0.0,0.003428092459216714
0.00994715467095375,0.003767795395106077,-0.006817529909312725,0.0028513409197330475,0.0,0.0033605669159442186
0.00979030504822731,0.0032656968105584383,-0.008007975295186043,0.0029542199335992336,0.0,0.0026972589548677206
0.00979030504822731,0.0032656968105584383,-0.008007975295186043,0.0029542199335992336,0.0,0.0026972589548677206
0.010280272923409939,0.003158395644277334,-0.0077658467926084995,0.003098947461694479,0.0,0.002426615683361888
0.010178648866713047,0.0033617899753153324,-0.007074153050780296,0.0032534433994442225,0.0,0.002794102765619755
0.009680809453129768,0.0032495632767677307,-0.006471569649875164,0.0033572919201105833,0.0,0.0029845379758626223
0.010426340624690056,0.003508938942104578,-0.007146175485104322,0.0033501051366329193,0.0,0.00350660621188581
0.009951513260602951,0.0032780724577605724,-0.007466946728527546,0.0030886298045516014,0.0,0.003277246840298176
0.009940288960933685,0.0030059111304581165,-0.006665351800620556,0.0029522725380957127,0.0,0.0030503657180815935
0.010697629302740097,0.0030679607298225164,-0.0069260927848517895,0.0028505735099315643,0.0,0.002802422037348151
0.009948943741619587,0.0032756051514297724,-0.007498756051063538,0.002988681895658374,0.0,0.0027568028308451176
0.009915228933095932,0.003646162571385503,-0.007403335999697447,0.003326334524899721,0.0,0.002838904270902276
0.010189935564994812,0.0038021220825612545,-0.007090528029948473,0.003617314388975501,0.0,0.00279831001535058
0.010147342458367348,0.003391419304534793,-0.006744638085365295,0.003780149621888995,0.0,0.00296967220492661
0.009913918562233448,0.003134932601824403,-0.007477080915123224,0.0042902263812720776,0.0,0.0028585479594767094
0.010145333595573902,0.0034449659287929535,-0.007611643057316542,0.004118330776691437,0.0,0.0025880583561956882
0.010166609659790993,0.0032554822973906994,-0.0072227357886731625,0.0035543267149478197,0.0,0.002551739802584052
0.010342382825911045,0.003324647666886449,-0.006561764981597662,0.003549569984897971,0.0,0.002557137282565236
0.010135955177247524,0.003382057184353471,-0.00667647086083889,0.003675988409668207,0.0,0.0024396057706326246
0.009566528722643852,0.003406689502298832,-0.007509937509894371,0.003300872864201665,9.434020284970757e-06,0.002546877833083272
0.009942319244146347,0.00352167384698987,-0.007307449355721474,0.00319190276786685,6.159740451039397e-07,0.0027250824496150017
0.010406025685369968,0.003319675102829933,-0.006811041850596666,0.0033089937642216682,4.021870125825444e-08,0.002735758200287819
0.009950474835932255,0.00328045547939837,-0.007399614434689283,0.003933963365852833,1.714586250756156e-10,0.0022972163278609514
0.0099049536511302,0.0034793615341186523,-0.006619013845920563,0.003875767346471548,1.1195023207066779e-11,0.0021462300792336464
0.01056782528758049,0.0037262230180203915,-0.007433449383825064,0.0038703845348209143,7.309549558513762e-13,0.0020674457773566246
0.01035217847675085,0.003392694052308798,-0.0071868388913571835,0.003458628198131919,4.7726135787547544e-14,0.0019472406711429358
0.009943903423845768,0.0032363361679017544,-0.007283672224730253,0.0035731603857129812,3.1161759794334472e-15,0.0021708898711949587
0.009663610719144344,0.003261709352955222,-0.007089369930326939,0.003324385965242982,2.0346403725450177e-16,0.0021017054095864296
0.010496382601559162,0.0034614403266459703,-0.007331996690481901,0.0033958719577640295,1.3284746457908851e-17,0.0020917668007314205
0.010032681748270988,0.003682222682982683,-0.00696196872740984,0.0036333734169602394,8.67399064513545e-19,0.001926322584040463
0.009739773347973824,0.0034055663272738457,-0.008017822168767452,0.003860614961013198,5.663496274058028e-20,0.001824556034989655
0.009940620511770248,0.0035547518637031317,-0.007903988473117352,0.0038492821622639894,3.697858017939675e-21,0.0016836095601320267
0.01036038063466549,0.003272643079981208,-0.006992137059569359,0.0037878232542425394,2.414437163875404e-22,0.001681891386397183
0.008243023417890072,0.0035252149682492018,-0.00656986003741622,0.0037657783832401037,1.5764548998282387e-23,0.001717445906251669
0.008243023417890072,0.0035252149682492018,-0.00656986003741622,0.0037657783832401037,1.5764548998282387e-23,0.001717445906251669
0.010708865709602833,0.003138656262308359,-0.006954573094844818,0.0038668266497552395,1.0293124144500706e-24,0.0018874418456107378
0.010623853653669357,0.003286401741206646,-0.00810274388641119,0.003923395648598671,6.720673981234375e-26,0.001967895543202758
0.00989248976111412,0.003565669758245349,-0.0071868496015667915,0.0034285783767700195,4.3881196743495424e-27,0.0022671883925795555
0.010643640533089638,0.0035374241415411234,-0.006876267027109861,0.0034042224287986755,2.8651287003258722e-28,0.002115711336955428
0.010019449517130852,0.0035627218894660473,-0.007353009656071663,0.0037218935322016478,1.870724366237591e-29,0.0019873843993991613
0.009921614080667496,0.0033267722465097904,-0.008177224546670914,0.004334334284067154,1.2214493150524301e-30,0.0017814562888816
0.010035931132733822,0.0034819082356989384,-0.007122222799807787,0.004530030302703381,7.975190793916544e-32,0.001581751275807619
0.010425957851111889,0.003750517265871167,-0.006907610688358545,0.0043547446839511395,5.2072294871855395e-33,0.001609235885553062
0.01012342981994152,0.0033885545562952757,-0.007347629405558109,0.004328790120780468,3.3999486620292763e-34,0.0019464971264824271
0.010387532413005829,0.0035020667128264904,-0.007619531825184822,0.004293918143957853,2.219923377415294e-35,0.0020235509146004915
0.010202253237366676,0.0032477525528520346,-0.0072582317516207695,0.004099458921700716,1.4494513843479002e-36,0.0021921785082668066
0.01004277728497982,0.0033697662875056267,-0.007111619226634502,0.003917394205927849,9.463881055145458e-38,0.0019826428033411503
0.010740602388978004,0.0034753866493701935,-0.008264164440333843,0.004168302286416292,6.179238575806858e-39,0.0016974201425909996
0.010885808616876602,0.003502902342006564,-0.007939052768051624,0.004472116008400917,4.03460452549937e-40,0.0014984237495809793
0.010408925823867321,0.003383233677595854,-0.007662665564566851,0.00426665460690856,2.6343009830842236e-41,0.0013750139623880386
0.009937618859112263,0.0034070515539497137,-0.008326627314090729,0.0037811226211488247,1.1210387714598537e-43,0.001253354363143444
0.010342473164200783,0.003517896169796586,-0.007950619794428349,0.004055223427712917,7.006492321624085e-45,0.001280306139960885
0.010378052480518818,0.0036710244603455067,-0.007472016848623753,0.004233452025800943,0.0,0.001760483137331903
0.01015808992087841,0.0037648470606654882,-0.007570142392069101,0.004509846214205027,0.0,0.0017298057209700346
0.010502460412681103,0.0038039409555494785,-0.007769710849970579,0.004469343926757574,0.0,0.0018314480548724532
0.010164598003029823,0.003822654252871871,-0.007424585986882448,0.004306647926568985,0.0,0.001737317768856883
0.010360655374825,0.0033951278310269117,-0.007263020612299442,0.0040132030844688416,0.0,0.00149053568020463
0.010539564304053783,0.0036044223234057426,-0.007377813570201397,0.004220889415591955,0.0,0.0013143366668373346
0.011157768778502941,0.0032552676275372505,-0.00834277831017971,0.00408900436013937,0.0,0.001227629603818059
0.011754504404962063,0.003441535634920001,-0.00796179287135601,0.004106022417545319,0.0,0.0011918824166059494
0.011754504404962063,0.003441535634920001,-0.00796179287135601,0.004106022417545319,0.0,0.0011918824166059494
0.011381242424249649,0.0035760437604039907,-0.007444493938237429,0.004368181340396404,0.0,0.0012486069463193417
0.010908767580986023,0.003618677146732807,-0.007451160345226526,0.004395430441945791,0.0,0.0012169722467660904
0.011813968420028687,0.003709155134856701,-0.008301966823637486,0.004551137797534466,0.0,0.0011956774396821856
0.011531413532793522,0.0037103614304214716,-0.008124828338623047,0.004510559141635895,0.0,0.001367888180539012
0.011428361758589745,0.0035541255492717028,-0.007557328790426254,0.00426443899050355,0.0,0.001310522435232997
0.01206191536039114,0.003350865328684449,-0.0072612762451171875,0.004388110246509314,-7.510712021030486e-05,0.0013511697761714458
0.01215157750993967,0.0034122325014322996,-0.008469829335808754,0.004666720982640982,-0.0002981469442602247,0.0013332657981663942
0.01175818033516407,0.0033485924359411,-0.007894746959209442,0.004588141106069088,-0.00034452902036719024,0.0013495064340531826
0.011562101542949677,0.003429214470088482,-0.008100730367004871,0.004392270464450121,-0.0003720506501849741,0.0013846675865352154
0.01198651548475027,0.003672593040391803,-0.007873425260186195,0.004438400734215975,-0.00036380754318088293,0.0013136217603459954
0.012102119624614716,0.003871581982821226,-0.007830804213881493,0.004286814481019974,-0.00038107536965981126,0.0012333766790106893
0.011854681186378002,0.003811864648014307,-0.007566904183477163,0.004335588775575161,-0.0003727770526893437,0.0011204886250197887
0.011768178083002567,0.003706783289089799,-0.007630791515111923,0.004321231506764889,-0.0006152871064841747,0.0010239529656246305
0.011509290896356106,0.0033672540448606014,-0.007611685898154974,0.004263405688107014,-0.0006594035075977445,0.0008600017754361033
0.011794031597673893,0.0033637848682701588,-0.007901031523942947,0.0045441025868058205,-0.0006126865628175437,0.0008457406074739993
0.011838702484965324,0.0036345436237752438,-0.007573622744530439,0.0045902482233941555,-0.0005518383695743978,0.0008518514223396778
0.011876866221427917,0.0038277090061455965,-0.007342799101024866,0.004593984689563513,-0.0005409723380580544,0.0008692792034707963
0.011752279475331306,0.0032801469787955284,-0.008232361637055874,0.004835209809243679,-0.0004925276152789593,0.0012395523954182863
0.011919845826923847,0.0033048803452402353,-0.007565382868051529,0.004487443715333939,-0.0004885956295765936,0.0014237200375646353
0.011546683497726917,0.003519008168950677,-0.007267682813107967,0.004529519472271204,-0.00048468829481862485,0.0015015454264357686
0.012243608012795448,0.0035003244411200285,-0.008173326030373573,0.004885874688625336,-0.0004558853979688138,0.0013030468253418803
0.012508745305240154,0.003586027305573225,-0.00779573293402791,0.005050308536738157,-0.00042555617983452976,0.0010850506369024515
0.012302253395318985,0.0037048219237476587,-0.007643320132046938,0.004660536535084248,-0.0003894974070135504,0.0010212190682068467
0.012346457690000534,0.003762325970456004,-0.007534055970609188,0.0043979729525744915,-0.000358489400241524,0.0009195061284117401
0.012136138044297695,0.0037694096099585295,-0.008245631121098995,0.004428505431860685,-0.00038080578087829053,0.0008168811909854412
0.012189735658466816,0.003776285797357559,-0.008322437293827534,0.004478474613279104,-0.00036988011561334133,0.0006392120849341154
0.011713428422808647,0.003804080653935671,-0.007567419670522213,0.004805214703083038,-0.00034708750899881124,0.0005376625922508538
0.011673676781356335,0.0038372082635760307,-0.008131041191518307,0.004797371570020914,-0.00035263283643871546,0.0005609669606201351
0.011673676781356335,0.0038372082635760307,-0.008131041191518307,0.004797371570020914,-0.00035263283643871546,0.0005609669606201351
0.012463866733014584,0.0038409975823014975,-0.008010993711650372,0.0048367795534431934,-0.00035703624598681927,0.0005598112475126982
0.012040916830301285,0.003820213954895735,-0.007904124446213245,0.00474010081961751,-0.00033939286367967725,0.0005493605276569724
0.012150045484304428,0.00354179204441607,-0.007881506346166134,0.004631717689335346,-0.0003221365623176098,0.0005075849476270378
0.011742196045815945,0.0034687540028244257,-0.008480372838675976,0.00468047708272934,-0.0003064687189180404,0.0005191711243242025
0.011983366683125496,0.0036378875374794006,-0.00849815271794796,0.005491483490914106,-0.00033113951212726533,0.0004985377890989184
0.012426324188709259,0.003800647798925638,-0.007634222041815519,0.005411808378994465,-0.00031900088652037084,0.00046718106023035944
0.012251866981387138,0.0038500858936458826,-0.007829535752534866,0.0052346475422382355,-0.00030562240863218904,0.0004387621011119336
0.01256024930626154,0.0038642724975943565,-0.008510615676641464,0.0050005000084638596,-0.00030649465043097734,0.00041355294524692
0.012243389151990414,0.0038170383777469397,-0.008969011716544628,0.004829477984458208,-0.0002920758561231196,0.0003976979642175138
0.012473266571760178,0.0038503301329910755,-0.007986924611032009,0.005133579485118389,-0.00027460287674330175,0.00036722561344504356
0.012429310940206051,0.003416958497837186,-0.007649637758731842,0.005225074011832476,-0.00029696954879909754,0.00033961792360059917
0.01260930486023426,0.003511136630550027,-0.00846526212990284,0.005896478425711393,-0.00029280316084623337,0.00037032022373750806
0.012976209633052349,0.0037184946704655886,-0.008543750271201134,0.00549016147851944,-0.00027848011814057827,0.00035350912366993725
0.012855716049671173,0.003844722406938672,-0.007893827743828297,0.005063120275735855,-0.0002648672088980675,0.0003322372504044324
0.012865860015153885,0.0039211660623550415,-0.008314171805977821,0.005010046064853668,-0.00028355218819342554,0.00031300183036364615
0.01276415679603815,0.0034416948910802603,-0.00859503448009491,0.005229718517512083,-0.0002806841512210667,0.00029584922594949603
0.013323989696800709,0.003501004772260785,-0.00800122320652008,0.006153051275759935,-0.00026932163746096194,0.00028047768864780664
0.013167044147849083,0.0036303068045526743,-0.00861398410052061,0.005378083325922489,-0.0002481440606061369,0.0002540758578106761
0.01304510049521923,0.00366002949886024,-0.008744470775127411,0.005076711531728506,-0.0002705296210478991,0.0002426558203296736
0.01345908548682928,0.004265360999852419,-0.008931627497076988,0.004986270796507597,-0.0002627301146276295,0.00023221825540531427
0.013143808580935001,0.004118815530091524,-0.009058448486030102,0.005742962937802076,-0.0002536094980314374,0.00022264175640884787
0.013072564266622066,0.0040039317682385445,-0.00870712473988533,0.005949300713837147,-0.00024498821585439146,0.00021382399427238852
0.013363255187869072,0.004006892908364534,-0.008489338681101799,0.005855560302734375,-0.00023726624203845859,0.00020567854517139494
0.013207608833909035,0.003482579020783305,-0.008911269716918468,0.005451710894703865,-0.00025846579228527844,0.0001981311070267111
0.013207608833909035,0.003482579020783305,-0.008911269716918468,0.005451710894703865,-0.00025846579228527844,0.0001981311070267111
0.013302193954586983,0.003484561340883374,-0.009159454144537449,0.005378255620598793,-0.0002465786528773606,0.00019111786969006062
0.01318731065839529,0.003621639683842659,-0.008630619384348392,0.005468802992254496,-0.00023390633577946573,0.0001845841179601848
0.012432543560862541,0.0036723969969898462,-0.009108835831284523,0.005850694142282009,-0.00026086028083227575,0.0001784824562491849
0.013154426589608192,0.004188979510217905,-0.00940727163106203,0.005546179134398699,-0.0002538699482101947,0.0001727714407024905
0.013869363814592361,0.0036974018439650536,-0.009287775494158268,0.00579783134162426,-0.0002427973668090999,0.00016741456056479365
0.013208380900323391,0.0034935653675347567,-0.008379250764846802,0.005514758173376322,-0.00023236982815433294,0.00016237985983025283
0.01340847834944725,0.0035625630989670753,-0.009539387188851833,0.005801324732601643,-0.00022278261894825846,0.0001576391514390707
0.013441704213619232,0.003740037325769663,-0.00949794426560402,0.005727192386984825,-0.0002471885527484119,0.00013425663928501308
0.013699677772819996,0.003683627350255847,-0.009560564532876015,0.005953576415777206,-0.00023993989452719688,0.00012455086107365787
0.0135099608451128,0.0034865601919591427,-0.009773887693881989,0.006197793874889612,-0.0002474539796821773,0.00012081546447006986
0.013962369412183762,0.003372557694092393,-0.00937421340495348,0.005966834723949432,-0.00025385982007719576,9.720528760226443e-05
0.013587720692157745,0.0035290776286274195,-0.008845744654536247,0.005645312834531069,-0.0002461681142449379,9.19090089155361e-05
0.013223657384514809,0.00367208244279027,-0.009626489132642746,0.005743345245718956,-0.0002380921068834141,8.944150613388047e-05
0.013736960478127003,0.003557029413059354,-0.009672495536506176,0.0060617453418672085,-0.00023047388822305948,8.726138185011223e-05
0.013213981874287128,0.0038071051239967346,-0.009052104316651821,0.005718449596315622,-0.0002673157723620534,8.519539551343769e-05
0.013918359763920307,0.003852840745821595,-0.009512905031442642,0.00562615692615509,-0.0002663600607775152,7.299816206796095e-05
0.01377012487500906,0.003564885351806879,-0.009711830876767635,0.005524617154151201,-0.0002523892617318779,6.169956031953916e-05
0.013912162743508816,0.003680495312437415,-0.009568188339471817,0.005938062444329262,-0.000226983058382757,-4.309118594392203e-05
0.013911150395870209,0.003766432171687484,-0.010339520871639252,0.005809782538563013,-0.0002563322486821562,-7.139742228901014e-05
0.013526791706681252,0.003702830523252487,-0.009553584270179272,0.0060621630400419235,-0.0002472200430929661,-9.214363672072068e-05
0.01434814091771841,0.0036716745235025883,-0.00972969364374876,0.005679702386260033,-0.00023655923723708838,-0.00010416302393423393
0.014020678587257862,0.003804383799433708,-0.010115927085280418,0.0060680946335196495,-0.00022663947311230004,-0.00011249107774347067
0.014797084033489227,0.0034759221598505974,-0.009548742324113846,0.006238838192075491,-0.00021750919404439628,-0.0004127187130507082
0.013968829065561295,0.0035782787017524242,-0.010718287900090218,0.006138048600405455,-0.00022614352928940207,-0.0006852337392047048
0.014169711619615555,0.003716012928634882,-0.00996376946568489,0.006273319944739342,-0.0002336778270546347,-0.0006718827644363046
0.0138644278049469,0.003695729887112975,-0.009293166920542717,0.006452547386288643,-0.00022632289619650692,-0.0006016506813466549
0.014993597753345966,0.0036872015334665775,-0.009627960622310638,0.006464456673711538,-0.00021853920770809054,-0.0006252385792322457
0.014151587150990963,0.0037061471957713366,-0.0099351080134511,0.00647748913615942,-0.00021121591271366924,-0.0006337811355479062
0.014549784362316132,0.003779197344556451,-0.009699146263301373,0.006514417007565498,-0.000204363779630512,-0.0005998549167998135
0.014302129857242107,0.0039220405742526054,-0.010629854165017605,0.0065344772301614285,-0.0001979417138500139,-0.0006173048168420792
0.014314784668385983,0.003957669250667095,-0.009817716665565968,0.0064844428561627865,-0.00020536102238111198,-0.000648356624878943
0.01410630438476801,0.0034493072889745235,-0.009412012994289398,0.006658765487372875,-0.0002119313576258719,-0.0006629439303651452
0.0143742635846138,0.0035163077991455793,-0.010027443058788776,0.006634554825723171,-0.0002066719316644594,-0.0006855655228719115
0.01414394099265337,0.0033266854006797075,-0.010674132034182549,0.006441026460379362,-0.00020095687068533152,-0.000794161285739392
0.01414394099265337,0.0033266854006797075,-0.010674132034182549,0.006441026460379362,-0.00020095687068533152,-0.000794161285739392
0.014454567804932594,0.003393870545551181,-0.010129724629223347,0.006556617561727762,-0.0002012724435189739,-0.0010104483226314187
0.014454567804932594,0.003393870545551181,-0.010129724629223347,0.006556617561727762,-0.0002012724435189739,-0.0010104483226314187
0.014934305101633072,0.003345122328028083,-0.010080109350383282,0.0071096839383244514,-0.0002124716411344707,-0.0011489031603559852
0.014211103320121765,0.0034291266929358244,-0.009560422040522099,0.006588812917470932,-0.00022144622926134616,-0.001370681100524962
0.014566981233656406,0.0032490913290530443,-0.009975955821573734,0.006250046659260988,-0.00024019063857849687,-0.0013649098109453917
0.014203330501914024,0.003536055563017726,-0.009873251430690289,0.006425182335078716,-0.00023944616259541363,-0.0013088973937556148
0.014913765713572502,0.0034088469110429287,-0.009582335129380226,0.006995289586484432,-0.000262001296505332,-0.0012176035670563579
0.014541530050337315,0.00339763006195426,-0.010674967430531979,0.006823766976594925,-0.00044118938967585564,-0.0011567879701033235
0.015108615159988403,0.003215314354747534,-0.01033836230635643,0.006078463979065418,-0.0005571762449108064,-0.0012312410399317741
0.014980223961174488,0.0032492331229150295,-0.009572496637701988,0.00632966635748744,-0.0005996134714223444,-0.0013988858554512262
0.015118125826120377,0.003408121643587947,-0.010656303726136684,0.0067867678590118885,-0.0006123600760474801,-0.0016713481163606048
0.015031165443360806,0.0035082718823105097,-0.009714296087622643,0.0069854240864515305,-0.0005771414726041257,-0.0019288735929876566
0.014852197840809822,0.0035117515362799168,-0.010410272516310215,0.0060356054455041885,-0.0005580101860687137,-0.001921775285154581
0.014991247095167637,0.0037347297184169292,-0.011170333251357079,0.006383964791893959,-0.0005966027383692563,-0.0017772403080016375
0.01514799427241087,0.0034009162336587906,-0.009999055415391922,0.006712881848216057,-0.0005523458239622414,-0.0017967071617022157
0.015244757756590843,0.0034874393604695797,-0.010295974090695381,0.006579581648111343,-0.0005656135035678744,-0.001703627873212099
0.015149426646530628,0.0032579710241407156,-0.009911083616316319,0.006342644803225994,-0.0005320551572367549,-0.0019158629002049565
0.014935781247913837,0.003483567386865616,-0.010230718180537224,0.006419601384550333,-0.00048561402945779264,-0.0018196282908320427
0.015171063132584095,0.003712984034791589,-0.01109757274389267,0.006820934824645519,-0.00050963438116014,-0.002029274357482791
0.015341735444962978,0.003257627133280039,-0.010153800249099731,0.007215998601168394,-0.0004795387212652713,-0.002048390917479992
0.015363067388534546,0.003280577715486288,-0.00970351230353117,0.007089509628713131,-0.00044613113277591765,-0.0022699369583278894
0.015095069073140621,0.0033636116422712803,-0.010696560144424438,0.006484994199126959,-0.000460433482658118,-0.0025683543644845486
0.01444255281239748,0.003234993666410446,-0.009744659066200256,0.006732413079589605,-0.0004455874441191554,-0.002350171562284231
0.01444255281239748,0.003234993666410446,-0.009744659066200256,0.006732413079589605,-0.0004455874441191554,-0.002350171562284231
0.016156794503331184,0.003144796472042799,-0.010238819755613804,0.007024483289569616,-0.00039624504279345274,-0.002116892719641328
0.01564759947359562,0.0030777803622186184,-0.009692066349089146,0.007140838075429201,-0.00036605543573386967,-0.002053468720987439
0.01564759947359562,0.0030777803622186184,-0.009692066349089146,0.007140838075429201,-0.00036605543573386967,-0.002053468720987439
0.016206225380301476,0.003095518331974745,-0.010267956182360649,0.007093491032719612,-0.0003386213502380997,-0.0021737352944910526
0.016005121171474457,0.0031736837700009346,-0.010321740992367268,0.00784236378967762,-0.00034548871917650104,-0.002332496689632535
0.015728062018752098,0.0034370170906186104,-0.010080481879413128,0.007595608942210674,-0.00035105255665257573,-0.003080770606175065
0.016002187505364418,0.003443185007199645,-0.010801395401358604,0.007038987707346678,-0.00037202032399363816,-0.003329689148813486
0.015861768275499344,0.0034721700940281153,-0.010632476769387722,0.007220689672976732,-0.0003633876913227141,-0.003134510014206171
0.015762196853756905,0.0036305480170994997,-0.009855493903160095,0.00709160603582859,-0.00034435774432495236,-0.0026086787693202496
0.015676267445087433,0.003741405438631773,-0.010670220479369164,0.007299145683646202,-0.0003669383004307747,-0.002538101514801383
0.01647227630019188,0.0033339159563183784,-0.009987177327275276,0.006965047679841518,-0.00035440592910163105,-0.002685932908207178
0.016816113144159317,0.003451500553637743,-0.010909694246947765,0.006730172783136368,-0.00033812009496614337,-0.0032077780924737453
0.016602160409092903,0.003124621929600835,-0.010663796216249466,0.0069483607076108456,-0.0003842695150524378,-0.003192255971953273
0.01663959212601185,0.003404278540983796,-0.01048800814896822,0.006990182679146528,-0.0003736371290870011,-0.003510330570861697
0.01641177572309971,0.0036090631037950516,-0.01026295404881239,0.007206097710877657,-0.00034626328852027655,-0.0036529868375509977
0.015187912620604038,0.003762518987059593,-0.009910795837640762,0.007559129502624273,-0.0003890272055286914,-0.003271052148193121
0.016444340348243713,0.003712542587891221,-0.010704057291150093,0.007495607249438763,-0.00039186771027743816,-0.0032004881650209427
0.016162976622581482,0.0035941931419074535,-0.010665647685527802,0.007506403606384993,-0.0003705788985826075,-0.003062962554395199
0.016570547595620155,0.0035198000259697437,-0.010755897499620914,0.007557391654700041,-0.0003744636778719723,-0.003372619394212961
0.016357021406292915,0.003479841398075223,-0.011445281095802784,0.00772891053929925,-0.0003773694043047726,-0.0032358565367758274
0.01616799645125866,0.0033726792316883802,-0.010322668589651585,0.007581805344671011,-0.00035997244413010776,-0.0031178516801446676
0.01656784676015377,0.0034956014715135098,-0.009589537978172302,0.007727331016212702,-0.00041165584116242826,-0.0031031921971589327
0.01657477393746376,0.0037365967873483896,-0.010615972802042961,0.007631142623722553,-0.0003987785312347114,-0.0031971049029380083
0.01657477393746376,0.0037365967873483896,-0.010615972802042961,0.007631142623722553,-0.0003987785312347114,-0.0031971049029380083
0.01719944179058075,0.003959477413445711,-0.010199817828834057,0.008239339105784893,-0.0004216768138576299,-0.0037689043674618006
0.01707194373011589,0.0035226410254836082,-0.010618690401315689,0.007893885485827923,-0.00040673266630619764,-0.004751307424157858
0.017122875899076462,0.00355153507553041,-0.011357665061950684,0.006973820272833109,-0.00043803261360153556,-0.004819913767278194
0.016557134687900543,0.003468414070084691,-0.009579251520335674,0.00867123156785965,-0.00044289755169302225,-0.004279822111129761
0.016557134687900543,0.003468414070084691,-0.009579251520335674,0.00867123156785965,-0.00044289755169302225,-0.004279822111129761
0.01725125126540661,0.0032222771551460028,-0.010685836896300316,0.007111065089702606,-0.0006299553206190467,-0.003474394790828228
0.01725125126540661,0.0032222771551460028,-0.010685836896300316,0.007111065089702606,-0.0006299553206190467,-0.003474394790828228
0.017575062811374664,0.0031627495773136616,-0.011318008415400982,0.007622905075550079,-0.000623062252998352,-0.004650999326258898
0.017963886260986328,0.003041485557332635,-0.010338990949094296,0.008065578527748585,-0.0006056257407180965,-0.00475448090583086
0.017401034012436867,0.00336697930470109,-0.009546241723001003,0.008587350137531757,-0.0005550082423724234,-0.004371578339487314
0.017818033695220947,0.003767693880945444,-0.010123401880264282,0.008429192937910557,-0.0005779123166576028,-0.004120115656405687
0.01764402538537979,0.003400741843506694,-0.01075269840657711,0.008538810536265373,-0.0006329924217425287,-0.004022333770990372
0.01800007000565529,0.003108361968770623,-0.010148326866328716,0.008098340593278408,-0.0006861569127067924,-0.004472598433494568
0.01783733256161213,0.0030769784934818745,-0.010645762085914612,0.007997862994670868,-0.0007121220696717501,-0.005093513056635857
0.017338428646326065,0.00317473360337317,-0.010499614290893078,0.007678881287574768,-0.0007316818227991462,-0.004937366582453251
0.01789730228483677,0.003428044030442834,-0.009601863101124763,0.007774827536195517,-0.0006747800507582724,-0.004388445522636175
0.017692018300294876,0.003240537829697132,-0.01030306052416563,0.008519652299582958,-0.0006176038295961916,-0.0044514574110507965
0.01817111112177372,0.0030725793913006783,-0.010339958593249321,0.00823086779564619,-0.0006916106794960797,-0.004576358012855053
0.01817530021071434,0.00336226518265903,-0.010424557141959667,0.00819024071097374,-0.0006174439913593233,-0.0047358074225485325
0.016573911532759666,0.0036988556385040283,-0.01086432859301567,0.008383281528949738,-0.00054400839144364,-0.005154991988092661
0.01828470267355442,0.0032679573632776737,-0.010306844487786293,0.008050993084907532,-0.0004380041500553489,-0.005351957865059376
0.01790032722055912,0.0031673673074692488,-0.010511582717299461,0.008624954149127007,-0.00047320983139798045,-0.005033841822296381
0.018541162833571434,0.0034309530165046453,-0.010497103445231915,0.009002137929201126,-0.00043950023245997727,-0.004689259920269251
0.018312910571694374,0.00330557394772768,-0.011371972970664501,0.008328794501721859,-0.00045647757360711694,-0.004652999807149172
0.018052902072668076,0.0035692269448190928,-0.01086832582950592,0.008371532894670963,-0.0004400667967274785,-0.004852797836065292
0.018594468012452126,0.00328825949691236,-0.010096602141857147,0.008455832488834858,-0.00044089765287935734,-0.005295411683619022
0.018495257943868637,0.0034785924945026636,-0.010762619785964489,0.00836117286235094,-0.000440305593656376,-0.005102194380015135
0.018540911376476288,0.00324107613414526,-0.010823823511600494,0.008047301322221756,-0.0004165523569099605,-0.004818890709429979
0.018454784527420998,0.003296018810942769,-0.010000448673963547,0.00817749835550785,-0.0003957609587814659,-0.0048018270172178745
0.01851624809205532,0.003354026935994625,-0.010930106043815613,0.008200423792004585,-0.0003317237424198538,-0.004736101720482111
0.01851624809205532,0.003354026935994625,-0.010930106043815613,0.008200423792004585,-0.0003317237424198538,-0.004736101720482111
0.019069425761699677,0.003385715652257204,-0.010304654017090797,0.007839701138436794,-0.000306799920508638,-0.005066361743956804
0.01907704398036003,0.003222040133550763,-0.010432316921651363,0.008140685968101025,-0.00028706793091259897,-0.005200902000069618
0.019069548696279526,0.0032510515302419662,-0.010855814442038536,0.008431345224380493,-0.00030366634018719196,-0.005364806391298771
0.019403520971536636,0.003047423902899027,-0.012067477218806744,0.008393763564527035,-0.0003306963189970702,-0.005482243839651346
0.019403520971536636,0.003047423902899027,-0.012067477218806744,0.008393763564527035,-0.0003306963189970702,-0.005482243839651346
0.019351709634065628,0.0030380827374756336,-0.012752688489854336,0.008647164329886436,-0.00034203610266558826,-0.005663576535880566
0.018848201259970665,0.0032494061160832644,-0.011483647860586643,0.008936190977692604,-0.0003466318012215197,-0.006149077322334051
0.019011057913303375,0.0035069554578512907,-0.011686582118272781,0.009009802713990211,-0.00045516909449361265,-0.005586850922554731
0.0194543544203043,0.003275744616985321,-0.011433715000748634,0.008749330416321754,-0.0004945474211126566,-0.005343268625438213
0.01978844404220581,0.0030010975897312164,-0.01214167196303606,0.008745263330638409,-0.0004916266188956797,-0.005482363048940897
0.019283827394247055,0.0028591505251824856,-0.012073207646608353,0.008531836792826653,-0.0005085018929094076,-0.0057145687751472
0.019613215699791908,0.002984700258821249,-0.012197965756058693,0.008470000699162483,-0.0004865510272793472,-0.005853069946169853
0.019817527383565903,0.003339320421218872,-0.013130316510796547,0.008601401001214981,-0.0005085489829070866,-0.005994914565235376
0.01962745375931263,0.003431113436818123,-0.012201604433357716,0.008397425524890423,-0.0004821699985768646,-0.005482960492372513
0.019832096993923187,0.0031618853099644184,-0.012652795761823654,0.007860046811401844,-0.0005944521981291473,-0.005935107357800007
0.020061593502759933,0.003455505007877946,-0.0123370960354805,0.007874093018472195,-0.0005971930222585797,-0.005998578388243914
0.020293965935707092,0.0034505832009017467,-0.013168318197131157,0.008291427046060562,-0.0005810090224258602,-0.0060663684271276
0.01986151933670044,0.0034011933021247387,-0.012862705625593662,0.009043458849191666,-0.0005273669958114624,-0.005898918025195599
0.020635467022657394,0.003115684725344181,-0.01277924608439207,0.009669684804975986,-0.0005141044966876507,-0.006165985018014908
0.020511891692876816,0.003257987555116415,-0.012249784544110298,0.009596169926226139,-0.0005257884040474892,-0.006115059833973646
0.020818905904889107,0.0035604226868599653,-0.01282821036875248,0.009320256300270557,-0.0005048354505561292,-0.006381060928106308
0.02115383930504322,0.003318309783935547,-0.012546026147902012,0.009653612039983273,-0.0006096423021517694,-0.006209918763488531
0.020900150761008263,0.003545372746884823,-0.013342377729713917,0.009675106033682823,-0.0006435751565732062,-0.006063026841729879
0.020271267741918564,0.0033031601924449205,-0.012644967064261436,0.009472040459513664,-0.0006678436184301972,-0.006230158265680075
0.019119350239634514,0.0031584843527525663,-0.012963442131876945,0.009626957587897778,-0.0006825931486673653,-0.006572050042450428
0.021433034911751747,0.0031569486018270254,-0.01254454255104065,0.009547406807541847,-0.0010534144239500165,-0.006822946015745401
0.02101951837539673,0.0032802678178995848,-0.012477384880185127,0.009250774048268795,-0.0010799240553751588,-0.006736266892403364
0.02066105417907238,0.003388483077287674,-0.012951523996889591,0.008952170610427856,-0.001056541339494288,-0.006610143464058638
0.02066105417907238,0.003388483077287674,-0.012951523996889591,0.008952170610427856,-0.001056541339494288,-0.006610143464058638
0.019907696172595024,0.0036095299292355776,-0.013097524642944336,0.00922511238604784,-0.0010136968921869993,-0.0065039643086493015
0.02042449824512005,0.0038456853944808245,-0.013123467564582825,0.008835094049572945,-0.0009316023206338286,-0.006345890462398529
0.02042805776000023,0.003466671099886298,-0.012200784869492054,0.009559718891978264,-0.0008777590119279921,-0.0061645046807825565
0.02030806802213192,0.0034950519911944866,-0.013031276874244213,0.009760229848325253,-0.0008781364886090159,-0.006381836719810963
0.020952878519892693,0.0037227030843496323,-0.012745583429932594,0.009982485324144363,-0.0008243105257861316,-0.006451999302953482
0.020816389471292496,0.0039042325224727392,-0.013390444219112396,0.010271650739014149,-0.0008224539342336357,-0.006332553457468748
0.020047636702656746,0.0038256593979895115,-0.012773793190717697,0.010049978271126747,-0.0008211276144720614,-0.006701286416500807
0.020175931975245476,0.003898870199918747,-0.013058499433100224,0.009742707014083862,-0.0007600458338856697,-0.0068373242393136024
0.0209844708442688,0.003587667364627123,-0.012710141949355602,0.009976436384022236,-0.000775087857618928,-0.006765390746295452
0.02126961573958397,0.0035047070123255253,-0.012804348021745682,0.010524585843086243,-0.0007393294363282621,-0.007137603592127562
0.020236792042851448,0.003611062653362751,-0.012882438488304615,0.00989480409771204,-0.0007054728921502829,-0.0069289254024624825
0.020587127655744553,0.003765030996873975,-0.012645053677260876,0.009836469776928425,-0.0007039963384158909,-0.007257280871272087
0.021305391564965248,0.003909861668944359,-0.013046779669821262,0.009612741880118847,-0.0006609411793760955,-0.006750596687197685
0.020987393334507942,0.0035253390669822693,-0.012340414337813854,0.009037028066813946,-0.0006349543109536171,-0.007006047293543816
0.02085455320775509,0.0033846059814095497,-0.012664670124650002,0.00986319687217474,-0.0005602571764029562,-0.006969141308218241
0.02126298099756241,0.0033394224010407925,-0.012572130188345909,0.010018941015005112,-0.000498229346703738,-0.0071494560688734055
0.021226659417152405,0.003365016309544444,-0.012796896509826183,0.00958393793553114,-0.0005257733864709735,-0.00711771659553051
0.020926062017679214,0.003975861705839634,-0.012134088203310966,0.009393304586410522,-0.00044870335841551423,-0.0070584905333817005
0.02151637338101864,0.003559993114322424,-0.012669849209487438,0.009673038497567177,-0.0004476592584978789,-0.00747463945299387
0.021446963772177696,0.003609106410294771,-0.012531068176031113,0.009784291498363018,-0.0004465570382308215,-0.007697157561779022
0.020937904715538025,0.0033507472835481167,-0.013383864425122738,0.010417232289910316,-0.00041886200779117644,-0.007113845087587833
0.021430138498544693,0.003541401820257306,-0.013078045099973679,0.009523690678179264,-0.00039285863749682903,-0.006791240535676479
0.021651363000273705,0.004243300296366215,-0.01307606976479292,0.009460479952394962,-0.00036979702417738736,-0.007001881953328848
0.021437766030430794,0.004127969965338707,-0.01283380575478077,0.010431109927594662,-0.0003957345033995807,-0.007975426502525806
0.021032460033893585,0.0034871655516326427,-0.012775721028447151,0.009809614159166813,-0.00037798142875544727,-0.007673153653740883
0.021742891520261765,0.003609051462262869,-0.013237551786005497,0.010073413141071796,-0.00035931027377955616,-0.007452956400811672
0.021742891520261765,0.003609051462262869,-0.013237551786005497,0.010073413141071796,-0.00035931027377955616,-0.007452956400811672
0.02197078987956047,0.0039476617239415646,-0.012891963124275208,0.010150281712412834,-0.0003422397712711245,-0.008035633713006973
0.021503526717424393,0.0035301169846206903,-0.013326462358236313,0.010169264860451221,-0.00030606420477852225,-0.007830538786947727
0.021081306040287018,0.003593873232603073,-0.012574106454849243,0.010509531013667583,-0.00026977501693181694,-0.00762259541079402
0.021947843953967094,0.004148730076849461,-0.012889688834547997,0.010641058906912804,-0.00025340155116282403,-0.007544479798525572
0.021633630618453026,0.0035377012100070715,-0.012312905862927437,0.01008693315088749,-0.00023981429694686085,-0.008000651374459267
0.022527003660798073,0.0033382431138306856,-0.012808110564947128,0.01033314224332571,-0.0002498553949408233,-0.008015011437237263
0.022535383701324463,0.003323765704408288,-0.01305491290986538,0.010830896906554699,-0.0002585213806014508,-0.007957488298416138
0.022822750732302666,0.0034752751234918833,-0.013197213411331177,0.010268197394907475,-0.00024799545644782484,-0.008121337741613388
0.02251911163330078,0.003655547508969903,-0.013207643292844296,0.010852041654288769,-0.00027402047999203205,-0.008260209113359451
0.02179732732474804,0.003706890856847167,-0.01258483063429594,0.010495249181985855,-0.000264904199866578,-0.007870176807045937
0.021925952285528183,0.0036364870611578226,-0.013027159497141838,0.010493484325706959,-0.00028823065804317594,-0.008194010704755783
0.022089781239628792,0.003628310514613986,-0.012561727315187454,0.011000444181263447,-0.00027926822076551616,-0.008206987753510475
0.02281743660569191,0.0037794301752001047,-0.013090072199702263,0.010507216677069664,-0.0003872696834150702,-0.008143615908920765
0.02285088412463665,0.003693758277222514,-0.012667509727180004,0.010321822948753834,-0.0004088998248334974,-0.008289053104817867
0.02271394431591034,0.003588913707062602,-0.013414900749921799,0.010615674778819084,-0.0004117865755688399,-0.008138029836118221
0.02274184487760067,0.0036259545013308525,-0.012627312913537025,0.010663391090929508,-0.00038467111880891025,-0.008420168422162533
0.02334153838455677,0.0038286203052848577,-0.013053307309746742,0.01112748496234417,-0.0004148945736233145,-0.008023195900022984
0.023186810314655304,0.004018485080450773,-0.01275384146720171,0.009981990791857243,-0.0004155203641857952,-0.008654904551804066
0.022429905831813812,0.004020799417048693,-0.01319959107786417,0.010584552772343159,-0.00039877911331132054,-0.008543201722204685
0.02269337885081768,0.0037821766454726458,-0.013068089261651039,0.010378459468483925,-0.0005010929889976978,-0.008762547746300697
0.022706320509314537,0.0034562223590910435,-0.013513895682990551,0.010115989483892918,-0.0004681738209910691,-0.00838556606322527
0.023181980475783348,0.0035164235159754753,-0.01282960269600153,0.010212898254394531,-0.00048738630721345544,-0.008402649313211441
0.023183424025774002,0.0037064095959067345,-0.01364434789866209,0.01029280386865139,-0.0004646987363230437,-0.008328454568982124
0.023157719522714615,0.003774654818698764,-0.013541948981583118,0.00997766200453043,-0.0004954578471370041,-0.008544117212295532
0.02311807870864868,0.003971141763031483,-0.014094449579715729,0.010272925719618797,-0.0005205716588534415,-0.008439881727099419
0.023298192769289017,0.003929991275072098,-0.013805612921714783,0.009979150258004665,-0.000584180117584765,-0.00869913399219513
0.023248106241226196,0.003776426427066326,-0.013682737946510315,0.010257159359753132,-0.0005944404401816428,-0.007720079272985458
0.023308532312512398,0.003624225966632366,-0.014064844697713852,0.010419673286378384,-0.0006283312686719,-0.009088859893381596
0.023608993738889694,0.00349396257661283,-0.014266792684793472,0.009935888461768627,-0.0006568236858583987,-0.009355232119560242
0.023608993738889694,0.00349396257661283,-0.014266792684793472,0.009935888461768627,-0.0006568236858583987,-0.009355232119560242
0.023661434650421143,0.003615383757278323,-0.013841197825968266,0.010391398333013058,-0.0006417385884560645,-0.008992142975330353
0.023487329483032227,0.0037547049578279257,-0.014075733721256256,0.01107871625572443,-0.0006238934583961964,-0.008855752646923065
0.023759152740240097,0.004005083814263344,-0.01433517225086689,0.010361493565142155,-0.0006451605004258454,-0.00898489635437727
0.02418147400021553,0.003840728895738721,-0.014579071663320065,0.010319006629288197,-0.0006244976539164782,-0.009009936824440956
0.024212466552853584,0.0034793061204254627,-0.014885139651596546,0.010718134231865406,-0.0005522648571059108,-0.008494831621646881
0.02401900477707386,0.0035058753564953804,-0.01437266543507576,0.010718483477830887,-0.000583251821808517,-0.009160539135336876
0.024374008178710938,0.0036551414523273706,-0.014213107526302338,0.01168110966682434,-0.0005317303584888577,-0.00894527044147253
0.023732414469122887,0.0036890925839543343,-0.015276775695383549,0.011374729685485363,-0.0005539198173210025,-0.008890260942280293
0.02389966882765293,0.003709422191604972,-0.014894351363182068,0.011718452908098698,-0.0005178343853913248,-0.008895874954760075
0.02469119429588318,0.003747542854398489,-0.014593075029551983,0.01168203353881836,-0.0005426492425613105,-0.009124730713665485
0.024332037195563316,0.003377846907824278,-0.014532252214848995,0.011278053745627403,-0.0005097208777442575,-0.009172618389129639
0.02450605481863022,0.0035104616545140743,-0.014407982118427753,0.01150974165648222,-0.0004929458955302835,-0.009461265057325363
0.024108298122882843,0.0038521408569067717,-0.014460599049925804,0.011220353655517101,-0.0005233791307546198,-0.009273217990994453
0.024366026744246483,0.003891368629410863,-0.01470356248319149,0.011550435796380043,-0.000526027346495539,-0.009327174164354801
0.02439345419406891,0.004156565759330988,-0.014694109559059143,0.011288350448012352,-0.0005189310177229345,-0.009384162724018097
0.024777021259069443,0.003585960017517209,-0.015123145654797554,0.011585293337702751,-0.000541004934348166,-0.00958608090877533
0.024808369576931,0.0037320652045309544,-0.014942960813641548,0.011809632182121277,-0.0007486650138162076,-0.00962082203477621
0.025224171578884125,0.0038982275873422623,-0.014120419509708881,0.011750315316021442,-0.0007734255632385612,-0.009885318577289581
0.024660704657435417,0.003973424434661865,-0.0148177370429039,0.012044503353536129,-0.0007627351442351937,-0.009688889607787132
0.02471163310110569,0.0039543267339468,-0.014277574606239796,0.011947710067033768,-0.0007309602224268019,-0.010068384930491447
0.0249407347291708,0.003997098188847303,-0.015209298580884933,0.012386993505060673,-0.0008067645248956978,-0.010112882591784
0.025300344452261925,0.004012643359601498,-0.015010346658527851,0.01167738065123558,-0.0008324480731971562,-0.00953624490648508
0.02531057968735695,0.0039404467679560184,-0.015285505913197994,0.011471320874989033,-0.000751524290535599,-0.009618882089853287
0.02535812184214592,0.003819915931671858,-0.01489817164838314,0.011543323285877705,-0.0007561618112958968,-0.010337017476558685
0.025135286152362823,0.0037012742832303047,-0.015292446129024029,0.01139671541750431,-0.0006865723989903927,-0.009828603826463223
0.025088101625442505,0.0036833949852734804,-0.014155435375869274,0.011820170097053051,-0.0006197779439389706,-0.009951966814696789
0.02499152347445488,0.003706317627802491,-0.01506655290722847,0.011708547361195087,-0.0005642501637339592,-0.010042235255241394
0.02569960057735443,0.003761876607313752,-0.014507998712360859,0.011688701808452606,-0.0005178265855647624,-0.009654724970459938
0.02569960057735443,0.003761876607313752,-0.014507998712360859,0.011688701808452606,-0.0005178265855647624,-0.009654724970459938
0.026064183562994003,0.0039835842326283455,-0.01511612068861723,0.011778516694903374,-0.0004784636839758605,-0.009703382849693298
0.026165682822465897,0.004076277371495962,-0.014634436927735806,0.01191348023712635,-0.00044466694816946983,-0.010023818351328373
0.025071900337934494,0.00394368264824152,-0.015347256325185299,0.012227421626448631,-0.00041533439070917666,-0.010379576124250889
0.02560790628194809,0.003756682388484478,-0.015259487554430962,0.012017096392810345,-0.00038963364204391837,-0.010119336657226086
0.026229556649923325,0.0037289143074303865,-0.01516470592468977,0.012699540704488754,-0.00041226751636713743,-0.009958390146493912
0.026006216183304787,0.0038402776699513197,-0.014700964093208313,0.012302663177251816,-0.00039579710573889315,-0.009879924356937408
0.025755364447832108,0.0034060662146657705,-0.014947246760129929,0.01197061873972416,-0.00037555108428932726,-0.009767934679985046
0.02634473517537117,0.003359694266691804,-0.014570093713700771,0.012309110723435879,-0.00032474054023623466,-0.01002287957817316
0.026790056377649307,0.0035175285302102566,-0.01523313857614994,0.012039141729474068,-0.00027561135357245803,-0.010301165282726288
0.02576981671154499,0.0038280233275145292,-0.015520749613642693,0.012243395671248436,-0.00025789099163375795,-0.010269403457641602
0.02567247301340103,0.0038641411811113358,-0.01528848521411419,0.011917508207261562,-0.0002891774056479335,-0.010671783238649368
0.025597522035241127,0.0036886653397232294,-0.015407580882310867,0.012490864843130112,-0.00027727775159291923,-0.01019959431141615
0.02565479464828968,0.003529683221131563,-0.01540506910532713,0.012781703844666481,-0.00030488232732750475,-0.009939698502421379
0.026894861832261086,0.0034499033354222775,-0.015411212109029293,0.012299207970499992,-0.0002933670475613326,-0.010168632492423058
0.026276720687747,0.0035717443097382784,-0.01551878359168768,0.011925706639885902,-0.0003065439232159406,-0.010798749513924122
0.02721339650452137,0.0036414284259080887,-0.014940441586077213,0.012158924713730812,-0.0002943231665994972,-0.011106587946414948
0.026872698217630386,0.003827782580628991,-0.015419315546751022,0.012396370992064476,-0.0003998241154477,-0.01024276576936245
0.02692565880715847,0.003913114778697491,-0.015080367214977741,0.012004372663795948,-0.00044180467375554144,-0.00941154733300209
0.02660520188510418,0.003786954563111067,-0.015588909387588501,0.012332203797996044,-0.00044354397687129676,-0.009391221217811108
0.026722120121121407,0.00363358948379755,-0.014860925264656544,0.012493196874856949,-0.00047147495206445456,-0.009057719260454178
0.026948822662234306,0.0035762463230639696,-0.015660356730222702,0.012705937027931213,-0.00044630063348449767,-0.01004074141383171
0.026573464274406433,0.0035925754345953465,-0.01561757642775774,0.011722436174750328,-0.0004727107298094779,-0.009385262615978718
0.02646229788661003,0.0034959870390594006,-0.015648311004042625,0.012593956664204597,-0.0005692419945262372,-0.010195012204349041
0.02646229788661003,0.0034959870390594006,-0.015648311004042625,0.012593956664204597,-0.0005692419945262372,-0.010195012204349041
0.027099432423710823,0.003539546625688672,-0.015752440318465233,0.012876370921730995,-0.0006653015734627843,-0.010191689245402813
0.02706451714038849,0.0037667120341211557,-0.015519248321652412,0.01244389172643423,-0.0006452095112763345,-0.009804225526750088
0.026951195672154427,0.0038618757389485836,-0.0158077422529459,0.012226824648678303,-0.0006503232871182263,-0.009916777722537518
0.02714553289115429,0.0037895955611020327,-0.01547082606703043,0.012257969938218594,-0.0006513487896881998,-0.010297827422618866
0.027262696996331215,0.0036974826361984015,-0.016245145350694656,0.012747609056532383,-0.0006334251957014203,-0.009971946477890015
0.027566121891140938,0.003705135080963373,-0.015283209271728992,0.012465434148907661,-0.0006804712465964258,-0.010616188868880272
0.02832556515932083,0.0037686589639633894,-0.0157836452126503,0.01279438566416502,-0.000712095235940069,-0.011152599938213825
0.028283733874559402,0.0038141023833304644,-0.01570092886686325,0.012700876221060753,-0.0007078340277075768,-0.011239759624004364
0.02715425193309784,0.0039027121383696795,-0.01664167083799839,0.012701117433607578,-0.0007269916823133826,-0.010568086057901382
0.027061887085437775,0.003988658078014851,-0.016466623172163963,0.012339419685304165,-0.0007076953770592809,-0.010527915321290493
0.02823333628475666,0.0039230454713106155,-0.016060596331954002,0.01228585559874773,-0.0008914304198697209,-0.010714949108660221
0.028381595388054848,0.0038058392237871885,-0.016658509150147438,0.012875696644186974,-0.0008363484521396458,-0.010913261212408543
0.027582282200455666,0.003974839113652706,-0.01651676744222641,0.012621698901057243,-0.0008327600080519915,-0.011286595836281776
0.028271283954381943,0.0039651598781347275,-0.016451817005872726,0.01294293999671936,-0.0007993501494638622,-0.010849490761756897
0.028669947758316994,0.0038241916336119175,-0.015848329290747643,0.012462136335670948,-0.0007614089990966022,-0.010548808611929417
0.02869165688753128,0.0036480643320828676,-0.016796013340353966,0.01257498562335968,-0.0007354136323556304,-0.010743316262960434
0.02761702984571457,0.003705352544784546,-0.016661062836647034,0.012552570551633835,-0.0007435118895955384,-0.010631896555423737
0.02755463868379593,0.004484368022531271,-0.016718270257115364,0.013060454279184341,-0.0007340101292356849,-0.010631176643073559
0.028867024928331375,0.004188109189271927,-0.016977453604340553,0.013573724776506424,-0.0007759397849440575,-0.010243618860840797
0.028106480836868286,0.004209449514746666,-0.01740509830415249,0.012912565842270851,-0.0009772665798664093,-0.010891749523580074
0.027846211567521095,0.004067227244377136,-0.01694737747311592,0.012774193659424782,-0.0009500279556959867,-0.010981917381286621
0.028672458603978157,0.004372517578303814,-0.017387159168720245,0.013719877228140831,-0.000853512086905539,-0.010659666731953621
0.028264300897717476,0.004164574667811394,-0.017446119338274002,0.01404988020658493,-0.0008530182531103492,-0.010815751738846302
0.02867024578154087,0.004251927603036165,-0.017286615446209908,0.013510968536138535,-0.0007737096166238189,-0.010717183351516724
0.02855943702161312,0.004175540991127491,-0.017813444137573242,0.013985604047775269,-0.0007163267000578344,-0.011017438024282455
0.028691140934824944,0.0038733636029064655,-0.01663043536245823,0.014038633555173874,-0.0006214880268089473,-0.011111822910606861
0.028691140934824944,0.0038733636029064655,-0.01663043536245823,0.014038633555173874,-0.0006214880268089473,-0.011111822910606861
0.02854318916797638,0.004267487674951553,-0.017223695293068886,0.013397259637713432,-0.0006256694905459881,-0.011120307259261608
0.02857976406812668,0.0042244731448590755,-0.017859209328889847,0.013776354491710663,-0.0005824042018502951,-0.011032762005925179
0.028594354167580605,0.004498390480875969,-0.01743808388710022,0.013424073345959187,-0.0005913348286412656,-0.01108041126281023
0.029005102813243866,0.00408179173246026,-0.017947912216186523,0.01337610837072134,-0.0005587493069469929,-0.01119268499314785
0.029389141127467155,0.004331310745328665,-0.017781401053071022,0.013471832498908043,-0.0005777795449830592,-0.011225974187254906
0.029087869450449944,0.004238632041960955,-0.017813177779316902,0.013908139429986477,-0.00054289645049721,-0.011885514482855797
0.02913658134639263,0.003981430549174547,-0.01782846450805664,0.014166010543704033,-0.0005053788772784173,-0.011919170618057251
0.029575886204838753,0.004035054240375757,-0.016684580594301224,0.013779444620013237,-0.0004560195084195584,-0.011662648059427738
0.02936640754342079,0.004004407208412886,-0.01760965585708618,0.013743785209953785,-0.00041412428254261613,-0.011667754501104355
0.02834942564368248,0.004445512313395739,-0.017498984932899475,0.01409305538982153,-0.0004158717056270689,-0.011196563951671124
0.030009374022483826,0.004177096299827099,-0.017547039315104485,0.014280685223639011,-0.00041708548087626696,-0.011117899790406227
0.030430633574724197,0.004445064812898636,-0.0181624423712492,0.01351544912904501,-0.0003891938249580562,-0.011355824768543243
0.030127082020044327,0.004499646835029125,-0.017696477472782135,0.013775782659649849,-0.0003631470608524978,-0.01109643280506134
0.029755696654319763,0.004328334238380194,-0.01818719506263733,0.013654941692948341,-0.0003930189413949847,-0.011106514371931553
0.03012981079518795,0.004065087530761957,-0.018618056550621986,0.014067580923438072,-0.00037317295209504664,-0.011040250770747662
0.030363839119672775,0.004156143870204687,-0.0180829968303442,0.014143667183816433,-0.0003993852296844125,-0.011261392384767532
0.030062345787882805,0.004492425359785557,-0.018596721813082695,0.014588926918804646,-0.00038326531648635864,-0.011914867907762527
0.029935704544186592,0.004227430559694767,-0.018382709473371506,0.014117006212472916,-0.00038346441579051316,-0.011810513213276863
0.03003869578242302,0.004556775093078613,-0.01800657995045185,0.014332657679915428,-0.00042137940181419253,-0.0115141486749053
0.030044130980968475,0.0042169163934886456,-0.018676532432436943,0.013926270417869091,-0.0004562346148304641,-0.011599735356867313
0.029808487743139267,0.004202169831842184,-0.01854001358151436,0.013647698797285557,-0.0008384837419725955,-0.011807392351329327
0.02961268275976181,0.004185196943581104,-0.01883821189403534,0.014135017991065979,-0.0008847102872096002,-0.011770648881793022
0.030452702194452286,0.004145472310483456,-0.01785185933113098,0.0139234634116292,-0.0007781535969115794,-0.012237424030900002
0.03096546232700348,0.003962693735957146,-0.01834905706346035,0.014576463028788567,-0.0007861995254643261,-0.012148176319897175
0.030615895986557007,0.0043043941259384155,-0.018669800832867622,0.014167427085340023,-0.0007050259155221283,-0.012070744298398495
0.029237113893032074,0.004530664533376694,-0.01831631176173687,0.014553980901837349,-0.0007123376126401126,-0.012081436812877655
0.029237113893032074,0.004530664533376694,-0.01831631176173687,0.014553980901837349,-0.0007123376126401126,-0.012081436812877655
0.02972375601530075,0.004320322070270777,-0.018635792657732964,0.014087547548115253,-0.0006577976164408028,-0.012043497525155544
0.03069451078772545,0.003997241146862507,-0.01868891529738903,0.014767477288842201,-0.0006033179815858603,-0.012307082302868366
0.030305730178952217,0.0043457369320094585,-0.018341103568673134,0.014926644042134285,-0.0005248676752671599,-0.01236103568226099
0.031043803319334984,0.004466921556740999,-0.018511541187763214,0.01548292487859726,-0.0005359461065381765,-0.01258095446974039
0.03173673152923584,0.00438055582344532,-0.018335962668061256,0.015185591764748096,-0.0005472966586239636,-0.01238210964947939
0.03155280649662018,0.00429968535900116,-0.018456565216183662,0.015689922496676445,-0.0005387722630985081,-0.012349506840109825
0.030249707400798798,0.003983851056545973,-0.018749495968222618,0.015771320089697838,-0.000564815301913768,-0.012515062466263771
0.030686870217323303,0.0034271690528839827,-0.018522286787629128,0.015854451805353165,-0.0007482102955691516,-0.012823180295526981
0.03157695382833481,0.0033792818430811167,-0.01844491809606552,0.016031820327043533,-0.0007960861548781395,-0.012909161858260632
0.031600650399923325,0.004292994271963835,-0.01854948326945305,0.015612700022757053,-0.0007879679324105382,-0.012415412813425064
0.031151888892054558,0.004218260291963816,-0.018247276544570923,0.01583654060959816,-0.0007239212864078581,-0.012666760943830013
0.031153008341789246,0.004438384436070919,-0.0185244083404541,0.015088655054569244,-0.0007369926897808909,-0.012518389150500298
0.031704071909189224,0.003642622148618102,-0.01880943402647972,0.015203801915049553,-0.0007691155187785625,-0.012795480899512768
0.031390611082315445,0.003622128628194332,-0.018185917288064957,0.014418194070458412,-0.0008614976541139185,-0.01248327549546957
0.03188738226890564,0.0041860658675432205,-0.019242605194449425,0.015182141214609146,-0.0008154907845892012,-0.012750474736094475
0.03211325407028198,0.004260628949850798,-0.019124461337924004,0.014998188242316246,-0.0008012981270439923,-0.012893350794911385
0.03153426945209503,0.004015440586954355,-0.018373781815171242,0.015712641179561615,-0.0007420381298288703,-0.012940282002091408
0.03203883767127991,0.00336622865870595,-0.0191597118973732,0.015151738189160824,-0.0007910957792773843,-0.013364377431571484
0.031958259642124176,0.0034551280550658703,-0.019452596083283424,0.015092020854353905,-0.0008188216015696526,-0.013339641503989697
0.03211245313286781,0.003943986725062132,-0.019100386649370193,0.015648823231458664,-0.0008170187356881797,-0.013312325812876225
0.03253708407282829,0.003544985083863139,-0.019108178094029427,0.015384814701974392,-0.0008493087952956557,-0.013202996924519539
0.03175876662135124,0.0034555250313133,-0.019104648381471634,0.01564326323568821,-0.0008693592390045524,-0.01286302600055933
0.03101409785449505,0.0034904268104583025,-0.019961368292570114,0.015173390507698059,-0.0008103344589471817,-0.012878887355327606
0.0317859947681427,0.003588298102840781,-0.019968394190073013,0.01528568658977747,-0.0008177575655281544,-0.012965152971446514
0.03236865624785423,0.0036124384496361017,-0.01913687214255333,0.015246095135807991,-0.0008063316345214844,-0.013082641176879406
0.031992338597774506,0.0035491958260536194,-0.019710183143615723,0.014820156618952751,-0.0007464665686711669,-0.01344375777989626
0.03262677043676376,0.003468940733000636,-0.01964869163930416,0.014888609759509563,-0.0007268066401593387,-0.013267476111650467
0.032630566507577896,0.0034934598952531815,-0.019246147945523262,0.015055387280881405,-0.0007393985870294273,-0.013451725244522095
0.03155866637825966,0.003628531703725457,-0.020055847242474556,0.015341289341449738,-0.0007163943373598158,-0.012792891822755337
0.03155866637825966,0.003628531703725457,-0.020055847242474556,0.015341289341449738,-0.0007163943373598158,-0.012792891822755337
0.03071276657283306,0.0038177892565727234,-0.020129112526774406,0.015536771155893803,-0.0006864342140033841,-0.013191934674978256
0.03229344263672829,0.003861062228679657,-0.019793802872300148,0.016494056209921837,-0.0006217700429260731,-0.013386457227170467
0.03249360993504524,0.003738455241546035,-0.02011558786034584,0.016157690435647964,-0.0006252588937059045,-0.01416956540197134
0.032402388751506805,0.003817986696958542,-0.02049674652516842,0.01661284640431404,-0.0005921141128055751,-0.013853694312274456
0.03237515687942505,0.0035947177093476057,-0.020380349829792976,0.016666114330291748,-0.000552259967662394,-0.013943471945822239
0.03249645233154297,0.003764333203434944,-0.01986849494278431,0.01660774275660515,-0.0005134999519214034,-0.01351756788790226
0.03237605467438698,0.003808501875028014,-0.02049827016890049,0.016841590404510498,-0.00046227569691836834,-0.01375750731676817
0.03237073868513107,0.003795754862949252,-0.020278992131352425,0.016326196491718292,-0.0004970609443262219,-0.01410009153187275
0.03256751224398613,0.0038892547599971294,-0.019160427153110504,0.016784649342298508,-0.00045979206333868206,-0.013840489089488983
0.032839301973581314,0.003927575424313545,-0.020043043419718742,0.016635343432426453,-0.00045821693493053317,-0.013672863133251667
0.03251750022172928,0.003880572272464633,-0.020750312134623528,0.01696104370057583,-0.00045626956853084266,-0.013851302675902843
0.032704781740903854,0.004258212633430958,-0.020127348601818085,0.01686089299619198,-0.0004722587764263153,-0.013848507776856422
0.03304603695869446,0.00408303365111351,-0.019985761493444443,0.016214946284890175,-0.00045645039062947035,-0.014305244199931622
0.033391498029232025,0.003970719408243895,-0.020106803625822067,0.016566522419452667,-0.00048148358473554254,-0.014810962602496147
0.033329401165246964,0.0039252713322639465,-0.020196687430143356,0.016141114756464958,-0.0005178314168006182,-0.014664215967059135
0.03332586959004402,0.003942056559026241,-0.020101606845855713,0.01664070412516594,-0.0004921959480270743,-0.014140079729259014
0.03350367769598961,0.003901118179783225,-0.020207000896334648,0.016246426850557327,-0.0005223878542892635,-0.014029653742909431
0.03390992432832718,0.00432560546323657,-0.020119771361351013,0.01639706827700138,-0.000546707131434232,-0.014157349243760109
0.03372783213853836,0.0035095764324069023,-0.02062557078897953,0.016565117985010147,-0.0009292324539273977,-0.014855030924081802
0.034157466143369675,0.003624997567385435,-0.020617933943867683,0.016898421570658684,-0.00095293641788885,-0.014826822094619274
0.03406432271003723,0.0037987285759299994,-0.019988415762782097,0.016398347914218903,-0.001416712417267263,-0.014202550053596497
0.03441616892814636,0.0038348643574863672,-0.020038271322846413,0.016670474782586098,-0.0013616763753816485,-0.014053350314497948
0.0341460146009922,0.004247916396707296,-0.02065224014222622,0.016687102615833282,-0.0013057709438726306,-0.01414115633815527
0.03461627662181854,0.004288967698812485,-0.020187515765428543,0.016891062259674072,-0.0012674382887780666,-0.013774055056273937
0.03508308529853821,0.004062016028910875,-0.020048847422003746,0.016761308535933495,-0.0011957352980971336,-0.014254041016101837
0.034886766225099564,0.0034755587112158537,-0.020693128928542137,0.016550980508327484,-0.0010725881438702345,-0.014685836620628834
0.034886766225099564,0.0034755587112158537,-0.020693128928542137,0.016550980508327484,-0.0010725881438702345,-0.014685836620628834
0.03511595353484154,0.0035301719326525927,-0.02092789113521576,0.016846535727381706,-0.0010331576922908425,-0.014883683063089848
0.035461608320474625,0.004292159806936979,-0.02005830593407154,0.016658209264278412,-0.0009167988318949938,-0.015125992707908154
0.03514549136161804,0.0042045339941978455,-0.02050849236547947,0.01700345054268837,-0.0007781668100506067,-0.015240080654621124
0.03498869016766548,0.003980199806392193,-0.02103487029671669,0.01683720573782921,-0.000753275235183537,-0.015273830853402615
0.03645465523004532,0.003989352844655514,-0.020716607570648193,0.016612010076642036,-0.0007692434592172503,-0.01501802634447813
0.03672060742974281,0.004111357033252716,-0.020197080448269844,0.01697062887251377,-0.0007839036989025772,-0.015483967028558254
0.03482985869050026,0.0035374481230974197,-0.020929666236042976,0.016526101157069206,-0.0009211086435243487,-0.015448745340108871
0.03431309759616852,0.0035397917963564396,-0.020730149000883102,0.017308807000517845,-0.0009649785351939499,-0.015553818084299564
0.03614895045757294,0.004203491844236851,-0.020480677485466003,0.01744106225669384,-0.0009580196347087622,-0.01573905348777771
0.03612043336033821,0.004171656910330057,-0.02087894082069397,0.017582936212420464,-0.0009503584587946534,-0.016077261418104172
0.036334794014692307,0.0035386092495173216,-0.021785348653793335,0.017943724989891052,-0.0009324752609245479,-0.01566888950765133
0.037362921983003616,0.0035983978305011988,-0.021766262128949165,0.01741712912917137,-0.0008447553846053779,-0.015553122386336327
0.03556085377931595,0.0037608023267239332,-0.021284038200974464,0.01765044406056404,-0.0008478238596580923,-0.015685610473155975
0.03517884016036987,0.004420076031237841,-0.020590361207723618,0.017322387546300888,-0.000846050912514329,-0.01545797474682331
0.03680136799812317,0.004145024344325066,-0.02124202996492386,0.01687365397810936,-0.0008378363563679159,-0.01511893980205059
0.036364007741212845,0.0038849343545734882,-0.02174428477883339,0.017304446548223495,-0.0008230582461692393,-0.015716593712568283
0.03632953390479088,0.003910332452505827,-0.022064488381147385,0.01707981713116169,-0.0008519699913449585,-0.01618628017604351
0.03625680133700371,0.004043993540108204,-0.02130942791700363,0.01807105541229248,-0.000767027959227562,-0.015779929235577583
0.036184944212436676,0.004405377432703972,-0.021627629175782204,0.01822052150964737,-0.0007774170371703804,-0.015758797526359558
0.03642933815717697,0.004353450611233711,-0.021774889901280403,0.018130803480744362,-0.000789661193266511,-0.015957575291395187
0.03650251775979996,0.004148698877543211,-0.021458245813846588,0.018320780247449875,-0.0007369357626885176,-0.016113143414258957
0.036130502820014954,0.003921341150999069,-0.0225453432649374,0.01806553080677986,-0.000729796476662159,-0.016004525125026703
0.036968737840652466,0.00428953068330884,-0.021850327029824257,0.01816646009683609,-0.0006677823839709163,-0.015886377543210983
0.038250863552093506,0.004054772201925516,-0.020938359200954437,0.0176528412848711,-0.0006682784296572208,-0.015817828476428986
0.03590787202119827,0.004298453219234943,-0.02167976088821888,0.01751519925892353,-0.0006243310635909438,-0.016297854483127594
0.03589310497045517,0.00424895528703928,-0.02258387580513954,0.01747608371078968,-0.0006085866480134428,-0.016546379774808884
0.03740529343485832,0.004014140460640192,-0.022537145763635635,0.018053457140922546,-0.0005940267001278698,-0.01660843938589096
0.037580616772174835,0.004318788647651672,-0.021989144384860992,0.018741874024271965,-0.000557041319552809,-0.016399890184402466
0.037580616772174835,0.004318788647651672,-0.021989144384860992,0.018741874024271965,-0.000557041319552809,-0.016399890184402466
0.03837205097079277,0.00411089975386858,-0.021853117272257805,0.01847500167787075,-0.0005845995619893074,-0.01665329374372959
0.0379641018807888,0.003931237384676933,-0.022256774827837944,0.018277036026120186,-0.000615425466094166,-0.01632707379758358
0.03724435716867447,0.0040563722141087055,-0.022342918440699577,0.018528999760746956,-0.0006490396917797625,-0.01660100556910038
0.036569755524396896,0.004007634706795216,-0.022280126810073853,0.018570618703961372,-0.0010951674776151776,-0.01645928993821144
0.03855745866894722,0.0038968317676335573,-0.02158959023654461,0.019625013694167137,-0.0010867516975849867,-0.016423385590314865
0.03835783898830414,0.004378530662506819,-0.0221179760992527,0.019420145079493523,-0.0010599818779155612,-0.016499724239110947
0.037812791764736176,0.004722290672361851,-0.022015772759914398,0.01867237500846386,-0.0010429200483486056,-0.016082637012004852
0.03733492270112038,0.00441424734890461,-0.021804362535476685,0.018963735550642014,-0.0010629999451339245,-0.01635190099477768
0.03789244592189789,0.004364112392067909,-0.021779870614409447,0.018956681713461876,-0.0010586914140731096,-0.01682107336819172
0.038137856870889664,0.004322795197367668,-0.021802401170134544,0.018304983153939247,-0.0010459329932928085,-0.01698911003768444
0.03774101287126541,0.0043295035138726234,-0.022152556106448174,0.01861383579671383,-0.001050062826834619,-0.016204209998250008
0.03780768811702728,0.004319787956774235,-0.02209886536002159,0.01938486658036709,-0.0009782012784853578,-0.017592987045645714
0.03803194314241409,0.0048254625871777534,-0.021890908479690552,0.01950058527290821,-0.0008917354862205684,-0.017229974269866943
0.03821616247296333,0.004495508968830109,-0.022446075454354286,0.01926141418516636,-0.0008303315844386816,-0.01686602085828781
0.03866349160671234,0.004519026260823011,-0.02252168022096157,0.0190107561647892,-0.0007812803378328681,-0.01600010320544243
0.03905293345451355,0.004179296083748341,-0.022443421185016632,0.018384715542197227,-0.0007708932971581817,-0.016078665852546692
0.03874734789133072,0.004279624205082655,-0.022000784054398537,0.019108952954411507,-0.0007201410480774939,-0.016790837049484253
0.038716722279787064,0.004539601504802704,-0.02203516662120819,0.01886836625635624,-0.0007191537879407406,-0.017077064141631126
0.03836463764309883,0.004850659519433975,-0.022305091843008995,0.019329695031046867,-0.0007524078246206045,-0.016785958781838417
0.0387367345392704,0.00473889522254467,-0.022186003625392914,0.01940058544278145,-0.0011969080660492182,-0.01704305037856102
0.039126571267843246,0.004331742879003286,-0.02245517261326313,0.018738893792033195,-0.0011940727708861232,-0.0172209981828928
0.038625359535217285,0.004340489394962788,-0.022543299943208694,0.019014345481991768,-0.0011859508231282234,-0.017797352746129036
0.03916943818330765,0.004102834966033697,-0.022633250802755356,0.019400572404265404,-0.001056573004461825,-0.018127720803022385
0.03938884660601616,0.004421373829245567,-0.022722922265529633,0.01898759976029396,-0.001044024364091456,-0.017757456749677658
0.039449144154787064,0.004599062725901604,-0.022929053753614426,0.019182870164513588,-0.0009453464881516993,-0.017709750682115555
0.03918307647109032,0.004708635155111551,-0.02258935384452343,0.019122840836644173,-0.0009241130901500583,-0.017382312566041946
0.03897003084421158,0.004719646647572517,-0.022660529240965843,0.01899319887161255,-0.0008195156697183847,-0.0174176637083292
0.03897003084421158,0.004719646647572517,-0.022660529240965843,0.01899319887161255,-0.0008195156697183847,-0.0174176637083292
0.039142709225416183,0.004646919667720795,-0.02270018495619297,0.01933807134628296,-0.000725923222489655,-0.017507271841168404
0.03924776613712311,0.00421929731965065,-0.02316681481897831,0.019147168844938278,-0.0006508603692054749,-0.01789127290248871
0.03942887485027313,0.004436366260051727,-0.02254512906074524,0.019131114706397057,-0.0006623927620239556,-0.01816674694418907
