davideferrari95/blind_handover_controller/data/Test 121 - [2024-02-07 -- 16-32-00]/joint_states_data.csv
shoulder_pan_joint,shoulder_lift_joint,elbow_joint,wrist_1_joint,wrist_2_joint,wrist_3_joint
0.003796831239014864,0.007927685976028442,-0.010678643360733986,0.0030598058365285397,0.0,0.0038214637897908688
0.003796831239014864,0.007927685976028442,-0.010678643360733986,0.0030598058365285397,0.0,0.0038214637897908688
0.0037903275806456804,0.0087359007447958,-0.010312853381037712,0.002815775340422988,0.0,0.003882677759975195
0.0032688353676348925,0.008416830562055111,-0.010648271068930626,0.002889784751459956,0.0,0.0038997430820018053
0.0033378489315509796,0.008110307157039642,-0.010411720722913742,0.0031294203363358974,0.0,0.0034120851196348667
0.0035881686490029097,0.008341317996382713,-0.010172363370656967,0.0029420640785247087,0.0,0.003523595165461302
0.00363206397742033,0.008718207478523254,-0.010860133916139603,0.002865810412913561,0.0,0.0037642705719918013
0.0034484839998185635,0.008414640091359615,-0.010386571288108826,0.0028012418188154697,0.0,0.003608993487432599
0.003975170198827982,0.008958108723163605,-0.011025629006326199,0.0029805435333400965,0.0,0.0034340419806540012
0.003929535858333111,0.008220262825489044,-0.010314607061445713,0.0032708148937672377,0.0,0.0033506308682262897
0.0036622872576117516,0.007945516146719456,-0.01068499218672514,0.003052565734833479,0.0,0.003570038825273514
0.003661426017060876,0.008527697995305061,-0.01086155604571104,0.0028838191647082567,0.0,0.00385251734405756
0.0038232768420130014,0.008461538702249527,-0.01012548990547657,0.0027777489740401506,0.0,0.003922086209058762
0.0037290111649781466,0.008508807048201561,-0.010535584762692451,0.00291388644836843,0.0,0.004036269150674343
0.0037290111649781466,0.008508807048201561,-0.010535584762692451,0.00291388644836843,0.0,0.004036269150674343
0.0036341503728181124,0.009195731021463871,-0.010697081685066223,0.0033015396911650896,0.0,0.003698852611705661
0.0037063821218907833,0.008483674377202988,-0.010408375412225723,0.0031653395853936672,0.0,0.0034718713723123074
0.0037655860651284456,0.007745868526399136,-0.01120190229266882,0.0027719291392713785,0.0,0.0031841727904975414
0.003758275182917714,0.008378255181014538,-0.010909332893788815,0.0026493154000490904,0.0,0.0033956619445234537
0.0037418368738144636,0.009082899428904057,-0.010505258105695248,0.0027487236075103283,0.0,0.004245513118803501
0.003819767851382494,0.008872183971107006,-0.010787253268063068,0.0029209679923951626,0.0,0.004153430927544832
0.0038131445180624723,0.008343777619302273,-0.010554824955761433,0.0028536939062178135,0.0,0.0034699351526796818
0.0037806518375873566,0.008334948681294918,-0.011225361377000809,0.002804033923894167,0.0,0.00311929639428854
0.0037064705975353718,0.008795686066150665,-0.011301562190055847,0.0026236961130052805,0.0,0.0031182796228677034
0.003682789159938693,0.009096729569137096,-0.01058301329612732,0.002717664698138833,0.0,0.003446677466854453
0.0037972908467054367,0.008225232362747192,-0.011091713793575764,0.0035210868809372187,0.0,0.0036754461470991373
0.004281033296138048,0.008445669896900654,-0.01079889852553606,0.003462946740910411,0.0,0.004228236153721809
0.0040630167350173,0.007760875858366489,-0.011101257987320423,0.0031915639992803335,0.0,0.004153088200837374
0.0038883539382368326,0.008377850987017155,-0.011173876002430916,0.0028455806896090508,0.0,0.003536693751811981
0.0038214153610169888,0.008541560731828213,-0.01073088776320219,0.002825299045071006,0.0,0.0033403984270989895
0.003791516413912177,0.008356009609997272,-0.011095638386905193,0.0030913136433809996,0.0,0.0033121388405561447
0.004260046873241663,0.007975663058459759,-0.011161377653479576,0.0031381554435938597,0.0,0.0035531059838831425
0.004108777269721031,0.007695245090872049,-0.010330327786505222,0.003042287193238735,0.0,0.003710750490427017
0.004025396890938282,0.008210558444261551,-0.011023997329175472,0.002895840210840106,0.0,0.0037020647432655096
0.0039108507335186005,0.008333047851920128,-0.010912503115832806,0.0030204628128558397,0.0,0.0034789047203958035
0.0039043042343109846,0.0079070208594203,-0.010617401450872421,0.0029637415427714586,0.0,0.003379375673830509
0.004213201347738504,0.007979065179824829,-0.01055860798805952,0.002779552014544606,0.0,0.002962250728160143
0.003926539793610573,0.007783503737300634,-0.011186067014932632,0.0029394153971225023,0.0,0.0031776688992977142
0.0033410945907235146,0.008134319446980953,-0.009723684750497341,0.0028053713031113148,0.0,0.0032977338414639235
0.003398771397769451,0.00849134474992752,-0.011108911596238613,0.00278178951703012,0.0,0.0035239425487816334
0.003398771397769451,0.00849134474992752,-0.011108911596238613,0.00278178951703012,0.0,0.0035239425487816334
0.0034867909271270037,0.007890735752880573,-0.01151363831013441,0.0026395213790237904,0.0,0.003708828240633011
0.0035052814055234194,0.007746272254735231,-0.010473989881575108,0.002710560569539666,0.0,0.003783079097047448
0.004196989815682173,0.008169244043529034,-0.010803788900375366,0.0030845035798847675,0.0,0.0035547581501305103
0.004196989815682173,0.008169244043529034,-0.010803788900375366,0.0030845035798847675,0.0,0.0035547581501305103
0.003513314528390765,0.00818172562867403,-0.010623074136674404,0.002865974325686693,0.0,0.0033701362553983927
0.0034973795991390944,0.008121838793158531,-0.011514014564454556,0.002648395486176014,0.0,0.003443666035309434
0.003695701016113162,0.007678364869207144,-0.011598673649132252,0.0023650876246392727,0.0,0.0031247008591890335
0.003837498603388667,0.007995037361979485,-0.010497288778424263,0.0023862342350184917,0.0,0.0032439378555864096
0.0038769226521253586,0.007377415429800749,-0.0107779111713171,0.0025675951037555933,0.0,0.003333928296342492
0.0038265211042016745,0.0070029934868216515,-0.010838075540959835,0.0028271684423089027,0.0,0.0035615540109574795
0.003362764837220311,0.007277956232428551,-0.01054605282843113,0.002719670766964555,0.0,0.0033527007326483727
0.003533140290528536,0.008200613781809807,-0.010883701965212822,0.0025907657109200954,0.0,0.003603767603635788
0.004194490611553192,0.007960544899106026,-0.010004255920648575,0.0026354542933404446,0.0,0.0033702654764056206
0.004008166957646608,0.007508916314691305,-0.010349838063120842,0.0029847838450223207,0.0,0.0032238629646599293
0.0039051894564181566,0.0075171152129769325,-0.010576410219073296,0.0029514862690120935,0.0,0.0031086094677448273
0.003992121201008558,0.008143411949276924,-0.00983139593154192,0.0030880216509103775,0.0,0.0029143360443413258
0.004085605498403311,0.00818133819848299,-0.010828591883182526,0.002984025049954653,0.0,0.0030642382334917784
0.003532260423526168,0.00793267972767353,-0.010172090493142605,0.0029877328779548407,0.0,0.0030979178845882416
0.003537981305271387,0.00777265103533864,-0.009792561642825603,0.0031318976543843746,0.0,0.0034314836375415325
0.004207079764455557,0.007654306944459677,-0.010674556717276573,0.0029839416965842247,0.0,0.0032439599744975567
0.004059358034282923,0.007434131111949682,-0.011097654700279236,0.00299252662807703,0.0,0.00329588376916945
0.003460418665781617,0.007585521321743727,-0.010166565887629986,0.002908342517912388,0.0,0.0032586785964667797
0.0032990355975925922,0.007539903279393911,-0.010451441630721092,0.002880454994738102,0.0,0.00347976665943861
0.0037792304065078497,0.007335241883993149,-0.01018916629254818,0.0031170391011983156,0.0,0.0030716853216290474
0.0038017865736037493,0.007215204648673534,-0.010252387262880802,0.0031090499833226204,0.0,0.003244575345888734
0.003685211529955268,0.007579403463751078,-0.009617340750992298,0.003015513066202402,0.0,0.0030250740237534046
0.003685211529955268,0.007579403463751078,-0.009617340750992298,0.003015513066202402,0.0,0.0030250740237534046
0.0036695292219519615,0.007549118250608444,-0.0098800640553236,0.0030555271077901125,0.0,0.003142419969663024
0.0036755369510501623,0.007154881954193115,-0.010505491867661476,0.0029044938273727894,0.0,0.0033467081375420094
0.00371359009295702,0.007139237597584724,-0.009897749871015549,0.0028266445733606815,0.0,0.0031719906255602837
0.0037255482748150826,0.007107643876224756,-0.010163214057683945,0.002690413733944297,0.0,0.00341650634072721
0.003756558755412698,0.007642160635441542,-0.010363350622355938,0.0027624189388006926,0.0,0.003246443113312125
0.004236480221152306,0.007108017336577177,-0.009867146611213684,0.0027977032586932182,0.0,0.0031415324192494154
0.0036918693222105503,0.0067125647328794,-0.0104680759832263,0.0030073747038841248,0.0,0.0031877567525953054
0.0034513669088482857,0.007307262625545263,-0.010401367209851742,0.003181075444445014,0.0,0.003407525597140193
0.003502987092360854,0.007554142270237207,-0.010522364638745785,0.0033355727791786194,0.0,0.0034055602736771107
0.003705915529280901,0.008012914098799229,-0.010125311091542244,0.0033884195145219564,-3.949683377868496e-05,0.003161816857755184
0.004319464787840843,0.007166075054556131,-0.009790509939193726,0.0031504319049417973,-5.973161751171574e-05,0.0029439895879477262
0.004209778271615505,0.007310077548027039,-0.009898895397782326,0.0028458675369620323,-6.028664211044088e-05,0.0027351598255336285
0.004016190301626921,0.008175760507583618,-0.011256602592766285,0.002818694803863764,-5.957704706816003e-05,0.002834312617778778
0.003900761716067791,0.007758844178169966,-0.010087600909173489,0.002678484423086047,-5.88042639719788e-05,0.003367969300597906
0.0037855959963053465,0.007562601938843727,-0.009388015605509281,0.002958737313747406,-5.804618194815703e-05,0.0033455395605415106
0.004195684101432562,0.007620948366820812,-0.010560497641563416,0.002835803432390094,-5.730693374061957e-05,0.0033187263179570436
0.0043228245340287685,0.007962968200445175,-0.01003226451575756,0.0028293526265770197,-5.658634836436249e-05,0.0029875747859477997
0.004037547390908003,0.007534842472523451,-0.009665392339229584,0.002792449900880456,-5.5883650929899886e-05,0.002917087869718671
0.0042447540909051895,0.007227197289466858,-0.010415129363536835,0.003085516393184662,-5.5198197514982894e-05,0.0028501751367002726
0.0042960927821695805,0.007524134125560522,-0.010146228596568108,0.0035559069365262985,-5.4529300541616976e-05,0.0028381701558828354
0.004363905638456345,0.007497895043343306,-0.009583818726241589,0.003430688753724098,-5.3876457968726754e-05,0.003085555974394083
0.004170956555753946,0.007365038618445396,-0.01017782837152481,0.0032115578651428223,-5.32390913576819e-05,0.002992931054905057
0.0038889616262167692,0.007395795080810785,-0.0098985955119133,0.0029734254349023104,-5.261655314825475e-05,0.002995844464749098
0.004310129676014185,0.007814986631274223,-0.00948411412537098,0.0028444011695683002,-5.2008472266606987e-05,0.002973088761791587
0.0042686061933636665,0.00742010772228241,-0.009840494021773338,0.0028798545245081186,-5.083348514745012e-05,0.003276137402281165
0.004212114494293928,0.0073950267396867275,-0.009826627559959888,0.0030712145380675793,-5.02656475873664e-05,0.0030710885766893625
0.004212114494293928,0.0073950267396867275,-0.009826627559959888,0.0030712145380675793,-5.02656475873664e-05,0.0030710885766893625
0.004538768902420998,0.00822368822991848,-0.01090310700237751,0.003023242810741067,-4.971041198587045e-05,0.0028925673104822636
0.004317415878176689,0.008281160145998001,-0.009910520166158676,0.002991316607221961,-3.2457348879688652e-06,0.0025228867307305336
0.003935256972908974,0.007816757075488567,-0.009748810902237892,0.0028709254693239927,-2.1192329313635128e-07,0.0023932806216180325
0.0037964016664773226,0.007642225828021765,-0.0103405537083745,0.0029833505395799875,-1.3837076373590662e-08,0.0026218644343316555
0.004067671950906515,0.008266224525868893,-0.009781936183571815,0.002880615182220936,-9.03462193946325e-10,0.002833474660292268
0.004069079644978046,0.008058935403823853,-0.01025021355599165,0.0028979259077459574,-5.898962568418042e-11,0.0029415288008749485
0.004387529566884041,0.008247067220509052,-0.010412653908133507,0.0028740710113197565,-3.851600895860008e-12,0.002957683289423585
0.004610736854374409,0.00801327358931303,-0.0099454615265131,0.00292996596544981,-2.5148202205567405e-13,0.003058491973206401
0.004429558292031288,0.0077142114751040936,-0.010419206693768501,0.0028172365855425596,-1.641997762801342e-14,0.003347940742969513
0.003980804700404406,0.007454404141753912,-0.010025146417319775,0.0028631873428821564,-1.0721071772734235e-15,0.0033498541451990604
0.004159332253038883,0.008113078773021698,-0.009935577400028706,0.003254928393289447,-7.000094019579822e-17,0.0030704583041369915
0.004289689473807812,0.0077595473267138,-0.010467634536325932,0.0032572634518146515,-4.570561659243378e-18,0.0029499169904738665
0.004105702508240938,0.007640518713742495,-0.010209194384515285,0.003341378876939416,-2.9842497396987044e-19,0.0027535322587937117
0.0041681923903524876,0.007764183450490236,-0.009444735944271088,0.003470541210845113,-1.9485018041685103e-20,0.0026991816703230143
0.004530403763055801,0.007454340811818838,-0.010328461416065693,0.003563737729564309,-1.2722323578039873e-21,0.002944372594356537
0.0047388458624482155,0.00752997025847435,-0.010274435393512249,0.0034504414070397615,-8.306768440849672e-23,0.002716487506404519
0.004672525450587273,0.0078119332902133465,-0.009732640348374844,0.003182938089594245,-5.423726379147492e-24,0.002827980788424611
0.004418064374476671,0.00736154755577445,-0.010427718050777912,0.003031429136171937,-3.5413060579877214e-25,0.0030514984391629696
0.0042790500447154045,0.007366766221821308,-0.009980116970837116,0.002883681794628501,-2.3122197222344102e-26,0.0030141815077513456
0.004434636794030666,0.008260631002485752,-0.010616454295814037,0.002970874309539795,-9.857354826673513e-29,0.0028411780949681997
0.005016804207116365,0.0076491087675094604,-0.01038491353392601,0.003032985609024763,-6.436148672108102e-30,0.0028793204110115767
0.004677052143961191,0.0080534303560853,-0.010445794090628624,0.003204889129847288,-4.202345284415645e-31,0.0026572123169898987
0.004289084579795599,0.0079163433983922,-0.011026956140995026,0.003535076044499874,-2.743831272976103e-32,0.0024988451041281223
0.004289084579795599,0.0079163433983922,-0.011026956140995026,0.003535076044499874,-2.743831272976103e-32,0.0024988451041281223
0.004084030166268349,0.007795620243996382,-0.010093755088746548,0.0033885010052472353,-1.7915257570241387e-33,0.002437087008729577
0.004505629185587168,0.0074935550801455975,-0.010648996569216251,0.003262394340708852,-1.169738331511845e-34,0.002466272795572877
0.004621243569999933,0.007338611409068108,-0.010746405459940434,0.0029986281879246235,-7.637555717699624e-36,0.002404056489467621
0.005077289883047342,0.0075088669545948505,-0.010092352516949177,0.00274540763348341,-4.986778200009543e-37,0.002587093273177743
0.005039190407842398,0.007434937637299299,-0.010771330446004868,0.002711086068302393,-3.2560103083364365e-38,0.0029855528846383095
0.0043556541204452515,0.00735252071171999,-0.01060071587562561,0.0029092615004628897,-2.1259421300918594e-39,0.0030051646754145622
0.00454364437609911,0.0074307736940681934,-0.009505375288426876,0.0031240759417414665,-1.388084219806234e-40,0.00285365735180676
0.004775922279804945,0.00795594323426485,-0.01045274455100298,0.0033535209950059652,-9.063598467252917e-42,0.003008489031344652
0.004374347161501646,0.007433690130710602,-0.010156676173210144,0.003370230784639716,-5.913479519450728e-43,0.002588398288935423
0.004462901037186384,0.0071849278174340725,-0.009736022911965847,0.003165370784699917,-3.923635700109488e-44,0.002446661237627268
0.004498399794101715,0.007195636630058289,-0.010437117889523506,0.0030709602870047092,-2.802596928649634e-45,0.0024660187773406506
0.004721590783447027,0.007543916814029217,-0.00985427014529705,0.003109396668151021,-0.0,0.0026767035014927387
0.00466695474460721,0.007379485759884119,-0.010806246660649776,0.003382789669558406,-0.0,0.0030346293933689594
0.004673578776419163,0.0073413853533566,-0.009318319149315357,0.0034325418528169394,-0.0,0.0028965750243514776
0.004555747844278812,0.00806642696261406,-0.01051882840692997,0.003154612146317959,-0.0,0.0027268764097243547
0.004845301155000925,0.0084858238697052,-0.01013232208788395,0.0028926189988851547,-0.0,0.002409417647868395
0.004814644809812307,0.007314171642065048,-0.010148857720196247,0.0031689382158219814,-0.0,0.0023975844960659742
0.004958994686603546,0.007207077462226152,-0.010402515530586243,0.0035936448257416487,-0.0,0.002537273336201906
0.004814021289348602,0.008141675032675266,-0.009975910186767578,0.003566735191270709,-0.0,0.0029719360172748566
0.004768822342157364,0.007985671982169151,-0.010046570561826229,0.00348715391010046,-0.0,0.0032223020680248737
0.004844225011765957,0.007483916822820902,-0.009860202670097351,0.003398797009140253,-0.0,0.00296552712097764
0.005249794106930494,0.007835622876882553,-0.010825853794813156,0.002861331682652235,-0.0,0.0023557767271995544
0.005034113302826881,0.00792299397289753,-0.009764992631971836,0.002987529616802931,-0.0,0.002235545078292489
0.005034113302826881,0.00792299397289753,-0.009764992631971836,0.002987529616802931,-0.0,0.002235545078292489
0.004935045260936022,0.007478129584342241,-0.009945494122803211,0.0029535877984017134,-0.0,0.00228897319175303
0.005035467445850372,0.0072939409874379635,-0.010134552605450153,0.0033519002608954906,-0.0,0.0022325513418763876
0.005378583911806345,0.007814588956534863,-0.01047532632946968,0.00358847645111382,-0.0,0.0022185570560395718
0.0049759275279939175,0.007591940928250551,-0.010335547849535942,0.0036229509860277176,-0.0,0.0021373024210333824
0.0050015817396342754,0.007265524007380009,-0.010481893084943295,0.003522296901792288,-0.0,0.002228961791843176
0.005530420690774918,0.007129591424018145,-0.009806408546864986,0.0033119881991297007,-0.0,0.002118308562785387
0.005239368882030249,0.007295805495232344,-0.010141965001821518,0.0032684956677258015,-0.0,0.0024427995085716248
0.005195028614252806,0.007305496837943792,-0.010380694642663002,0.0032959161326289177,-0.0,0.002664673374965787
0.004999708849936724,0.00715847872197628,-0.009831767529249191,0.0031606259290128946,-0.0,0.0025555945467203856
0.005255339667201042,0.007193820085376501,-0.010784000158309937,0.003057231195271015,-0.0,0.002578143496066332
0.005040342453867197,0.007540067657828331,-0.010173889808356762,0.0030903881415724754,-0.0,0.0023310231044888496
0.005246923770755529,0.007847335189580917,-0.009876957163214684,0.0034104539081454277,-0.0,0.0022691856138408184
0.005431596655398607,0.0072191315703094006,-0.010581613518297672,0.0036132147070020437,-0.0,0.0021339035592973232
0.0053774830885231495,0.007213368080556393,-0.009859185665845871,0.003485205816105008,-0.0,0.002047908026725054
0.0050878082402050495,0.0077436030842363834,-0.010244295932352543,0.0035832973662763834,-0.0,0.001932253479026258
0.005215800832957029,0.008388368412852287,-0.01109152752906084,0.0037076992448419333,-0.0,0.0018227569526061416
0.005036217626184225,0.007894584909081459,-0.010009328834712505,0.0037971369456499815,-0.0,0.0019341132137924433
0.005532591603696346,0.007586004678159952,-0.010217265225946903,0.003416533814743161,-0.0,0.0019459520699456334
0.005573938600718975,0.007677850779145956,-0.010538065806031227,0.003478600876405835,-0.0,0.0022745158057659864
0.00603523338213563,0.007447907235473394,-0.009781355038285255,0.003728920826688409,-0.0,0.002108399523422122
0.005264269188046455,0.007170993369072676,-0.010608276352286339,0.0039234342984855175,-0.0,0.0020669728983193636
0.005508571397513151,0.007463926915079355,-0.010126364417374134,0.003478853963315487,-0.0,0.0019426195649430156
0.005374143831431866,0.00827828235924244,-0.009772742167115211,0.003493123222142458,-0.0,0.002006904687732458
0.005374862812459469,0.007179001811891794,-0.010255962610244751,0.0031985228415578604,-0.0,0.0022049671970307827
0.005326797254383564,0.007402627728879452,-0.009817308746278286,0.0031354292295873165,-0.0,0.0022461782209575176
0.005547437816858292,0.007732531987130642,-0.01063956692814827,0.003376838518306613,-0.0,0.00214099301956594
0.005694304592907429,0.007648559287190437,-0.010279815644025803,0.003717511659488082,-0.0,0.0019986850675195456
0.005694304592907429,0.007648559287190437,-0.010279815644025803,0.003717511659488082,-0.0,0.0019986850675195456
0.00583256222307682,0.006730245426297188,-0.010280738584697247,0.004006465431302786,-0.0,0.0019572621677070856
0.0061710248701274395,0.0068854764103889465,-0.011280540376901627,0.004092790186405182,-0.0,0.002199537353590131
0.005577415693551302,0.007473834790289402,-0.010322454385459423,0.003947383724153042,-0.0,0.0020548070315271616
0.005358238238841295,0.00740422448143363,-0.009896423667669296,0.003854120383039117,-0.0,0.002152407309040427
0.005439784377813339,0.007142751943320036,-0.010520823299884796,0.003385002026334405,-0.0,0.002027923706918955
0.005401293747127056,0.006968626286834478,-0.009859628044068813,0.003281643148511648,-0.0,0.002184838056564331
0.0059006898663938046,0.007221557665616274,-0.010937347076833248,0.003286586608737707,-0.0,0.0021527695935219526
0.0056755137629806995,0.007396673317998648,-0.01039016805589199,0.00303462240844965,-2.0496601791819558e-05,0.0020865476690232754
0.005715535953640938,0.007189481519162655,-0.010039310902357101,0.00327527173794806,-1.338281776952499e-06,0.0018058920977637172
0.005264793522655964,0.0070701343938708305,-0.010838605463504791,0.0036107676569372416,-8.73802363798859e-08,0.0017305559013038874
0.005840123165398836,0.007488303817808628,-0.01084932405501604,0.0035341638140380383,-5.705305117231774e-09,0.0016357172280550003
0.0062401266768574715,0.00735010951757431,-0.010069879703223705,0.003515978343784809,-3.725156849654354e-10,0.0017736684530973434
0.005680207163095474,0.007139462046325207,-0.010316675528883934,0.0036833251360803843,-2.432260989837509e-11,0.0017331797862425447
0.005847430322319269,0.007122274022549391,-0.010516167618334293,0.003718401538208127,-1.58809272156335e-12,0.002125292317941785
0.005348885431885719,0.0073129585944116116,-0.01002802699804306,0.0037198953796178102,-1.036911035550217e-13,0.001924719545058906
0.005894198082387447,0.007161986548453569,-0.010776492767035961,0.003693058853968978,-6.770288184107997e-15,0.001723146648146212
0.0059011559933424,0.006937328726053238,-0.010124794207513332,0.003404392162337899,-4.420514073976464e-16,0.0015224781818687916
0.0061831846833229065,0.006749627646058798,-0.010340265929698944,0.0035402849316596985,-2.8862796570200544e-17,0.0013514785096049309
0.005809929221868515,0.007193733472377062,-0.010535559616982937,0.004120567813515663,-1.884534363511439e-18,0.0012141341576352715
0.005913641303777695,0.00755776884034276,-0.010330787859857082,0.00418198062106967,-1.2304661871016915e-19,0.001064045587554574
0.006257505156099796,0.006891246885061264,-0.01109400950372219,0.00400047330185771,-8.034065208635873e-21,0.0011228814255446196
0.005810991395264864,0.0067058103159070015,-0.010362252593040466,0.003784970846027136,-5.24567056474614e-22,0.0015266520204022527
0.006478318478912115,0.006771045736968517,-0.01007530465722084,0.00376823334954679,-3.425047879296001e-23,0.0017609274946153164
0.0059468685649335384,0.007272105198353529,-0.01066400296986103,0.003600643714889884,-2.2363114090661954e-24,0.0022699313703924417
0.006236827466636896,0.006448286585509777,-0.010008495301008224,0.0038756432477384806,-9.533746114425472e-27,0.0016534895403310657
0.006267302203923464,0.006542696617543697,-0.010580345056951046,0.004145937040448189,-6.224854988187344e-28,0.001450330950319767
0.006335325539112091,0.006931876298040152,-0.010578064247965813,0.004291105549782515,-4.0643856562844956e-29,0.0013172287726774812
0.006296680774539709,0.007008844055235386,-0.009864683263003826,0.004359233658760786,-2.6537533524615744e-30,0.001181957428343594
0.006296680774539709,0.007008844055235386,-0.009864683263003826,0.004359233658760786,-2.6537533524615744e-30,0.001181957428343594
0.005873861722648144,0.006557181477546692,-0.010976429097354412,0.004001781344413757,-1.7327112343055696e-31,0.0010721009457483888
0.006184836849570274,0.006735552567988634,-0.01033614668995142,0.0033496166579425335,-1.1313366116600606e-32,0.0008889942546375096
0.006067973095923662,0.0068743578158319,-0.010354343801736832,0.0031014704145491123,-7.386819816714198e-34,0.0009146053344011307
0.006122981198132038,0.006972222123295069,-0.010761203244328499,0.0033712671138346195,-4.823065374832716e-35,0.0009298017830587924
0.006551246624439955,0.006615281570702791,-0.009965107776224613,0.004165861289948225,-3.149117008189809e-36,0.001246849074959755
0.006024760194122791,0.006291225552558899,-0.010797169990837574,0.004921095911413431,-2.0561485543102505e-37,0.0012929528020322323
0.00674000009894371,0.006604717578738928,-0.01067239698022604,0.004095206968486309,-8.76568241373746e-40,0.0013449328253045678
0.00674000009894371,0.006604717578738928,-0.01067239698022604,0.004095206968486309,-8.76568241373746e-40,0.0013449328253045678
0.0068885996006429195,0.006319090723991394,-0.01141474861651659,0.0038596526719629765,-5.72332331784185e-41,0.0011691085528582335
0.0064429775811731815,0.0064695426262915134,-0.011339657008647919,0.0037763994187116623,-3.737263004354287e-42,0.0011148564517498016
0.006085943430662155,0.006772520486265421,-0.01144290342926979,0.003856769297271967,-2.4382593279251817e-43,0.001054233405739069
0.006499165203422308,0.0063803112134337425,-0.011594163253903389,0.003920595161616802,-1.5414283107572988e-44,0.0009606888052076101
0.006917980499565601,0.006587989162653685,-0.010463077574968338,0.004356455989181995,-1.401298464324817e-45,0.0008824450778774917
0.006818124558776617,0.006800633855164051,-0.01090774592012167,0.004517583176493645,-2.615248376969248e-05,0.0008976851822808385
0.006161103956401348,0.006055919453501701,-0.011259669438004494,0.004197078291326761,-0.00011893273040186614,0.001154896686784923
0.006486738100647926,0.006013707257807255,-0.010759817436337471,0.004259968642145395,-0.00012181221973150969,0.00141093076672405
0.006433665286749601,0.006696362514048815,-0.011945229023694992,0.004045276436954737,-0.00011898953380296007,0.0013430197723209858
0.007109558209776878,0.006970755755901337,-0.011227542534470558,0.003954627551138401,-0.0001159495222964324,0.0012220892822369933
0.006451169028878212,0.006235511973500252,-0.011033209040760994,0.003984407056123018,-0.00011303840437904,0.001107678166590631
0.006442141253501177,0.0063544949516654015,-0.011090509593486786,0.0039858571253716946,-0.00011026842548744753,0.001062981435097754
0.007080433424562216,0.00608435133472085,-0.010872681625187397,0.004420771263539791,-0.00010763100726762787,0.0010248670587316155
0.007002579048275948,0.006399260368198156,-0.011159134097397327,0.00414137402549386,-0.0001051167564583011,0.0009894802933558822
0.006423025857657194,0.006502842530608177,-0.011433565989136696,0.004294167272746563,-0.00011795056343544275,0.0008945454610511661
0.0068304575979709625,0.006163678597658873,-0.011357411742210388,0.003983224742114544,-0.00011785633250838146,0.0007708733901381493
0.007023564539849758,0.006370839662849903,-0.011226186528801918,0.0038411100395023823,-0.00011535923840710893,0.0007749394862912595
0.007023564539849758,0.006370839662849903,-0.011226186528801918,0.0038411100395023823,-0.00011535923840710893,0.0007749394862912595
0.006679628975689411,0.006862959824502468,-0.01179607305675745,0.003941284026950598,-0.00011294755677226931,0.0007750751683488488
0.006312699522823095,0.006188514176756144,-0.011162737384438515,0.003979912027716637,-0.00011063362762797624,0.0007875632727518678
0.006640606559813023,0.005845306906849146,-0.010646956041455269,0.004295360762625933,-0.00010841246694326401,0.0008393118623644114
0.007428591139614582,0.0061457096599042416,-0.012092025950551033,0.004507546313107014,-0.00010627872688928619,0.0008502093842253089
0.00703003816306591,0.005737138446420431,-0.011229670606553555,0.004491947125643492,-0.00010422740888316184,0.0008710410329513252
0.007364621385931969,0.006501902360469103,-0.011040628887712955,0.00438240310177207,-0.0001022537107928656,0.0011671509128063917
0.006708766333758831,0.006151349749416113,-0.011203899048268795,0.004084584768861532,-0.00010858485620701686,0.0011553396470844746
0.007046150509268045,0.005840064957737923,-0.01022327784448862,0.0040035066194832325,-0.00011438827641541138,0.0010446029482409358
0.006975136231631041,0.006159479264169931,-0.010796262882649899,0.004497378598898649,-0.00011284706852165982,0.0010102911619469523
0.007134272251278162,0.005631443113088608,-0.010996364988386631,0.004520202986896038,-0.00011089391773566604,0.0008990373462438583
0.007010883651673794,0.006572089623659849,-0.011112556792795658,0.004265602212399244,-0.00010897773609030992,0.0007875700248405337
0.007060112431645393,0.005973649676889181,-0.011629890650510788,0.004410829395055771,-0.00010712489165598527,0.0006734022172167897
0.007235297933220863,0.005953512620180845,-0.011384541168808937,0.004649433773010969,-0.00010533386375755072,0.0005857474752701819
0.007382311392575502,0.006222931668162346,-0.010267619043588638,0.004713594447821379,-0.00010360159649280831,0.0005181549931876361
0.007255105767399073,0.006058241240680218,-0.010884067974984646,0.004440269898623228,-0.0001090957157430239,0.0004645648004952818
0.007350569125264883,0.006430760491639376,-0.010127313435077667,0.00450349785387516,-0.00011414921755203977,0.00042103673331439495
0.007445926778018475,0.006641678512096405,-0.00927735399454832,0.0045602587051689625,-0.0001128037110902369,0.00045647035585716367
0.007421939168125391,0.005882827565073967,-0.011022810824215412,0.00462720450013876,-0.00011109218030469492,0.00042517101974226534
0.007272267248481512,0.005985366180539131,-0.011262885294854641,0.00465083634480834,-0.0001094060207833536,0.0004427003441378474
0.007261388469487429,0.006234488449990749,-0.011025840416550636,0.004749699030071497,-0.00010776848648674786,0.00042767703416757286
0.007326722145080566,0.00633394718170166,-0.010900452733039856,0.005081832874566317,-0.00010617919906508178,0.00040139988414011896
0.0075564514845609665,0.005961700342595577,-0.010331179015338421,0.005019195377826691,-0.00010463615035405383,0.00040364774758927524
0.0070774438790977,0.005600210279226303,-0.011002319864928722,0.004754412919282913,-0.00010313739767298102,0.0004051295109093189
0.007599923759698868,0.006563626229763031,-0.010448549874126911,0.004628840368241072,-0.0001218502366100438,0.0003655878535937518
0.007679229136556387,0.006793666630983353,-0.011538716033101082,0.004837075248360634,-0.00011882597027579322,0.0003195919271092862
0.007220204919576645,0.005864338018000126,-0.010306915268301964,0.004774428904056549,-0.00011578104749787599,0.00027477971161715686
0.00754961185157299,0.0058289943262934685,-0.010396631434559822,0.004750384483486414,-0.00011287749657640234,0.000257396895904094
0.007438081316649914,0.006352584343403578,-0.010502113960683346,0.004898048937320709,-0.00011011533933924511,0.00024336218484677374
0.007438081316649914,0.006352584343403578,-0.010502113960683346,0.004898048937320709,-0.00011011533933924511,0.00024336218484677374
0.007506060879677534,0.006331282667815685,-0.01170953270047903,0.005020336247980595,-0.00012561003677546978,0.00021959519654046744
0.00751335546374321,0.005843261256814003,-0.010586620308458805,0.004923100583255291,-0.00012307731958571821,0.00020937494991812855
0.008314238861203194,0.005762113258242607,-0.010642807930707932,0.004854204598814249,-0.00012035581312375143,0.00020006406703032553
0.007928484119474888,0.006165921222418547,-0.011351906694471836,0.005060453899204731,-0.00011773289588745683,0.00019154613255523145
0.007928484119474888,0.006165921222418547,-0.011351906694471836,0.005060453899204731,-0.00011773289588745683,0.00019154613255523145
0.007798211183398962,0.006326434668153524,-0.010718761943280697,0.004876455292105675,-0.00011522103159222752,0.00018372430349700153
0.0077962083742022514,0.006093091797083616,-0.01078357920050621,0.004888962954282761,-0.00011281368642812595,0.0001765160559443757
0.008228947408497334,0.0059786951169371605,-0.01105669979006052,0.004892555996775627,-0.00011050517059629783,0.00016985232650768012
0.007899274118244648,0.005498736165463924,-0.010214461013674736,0.005004019010812044,-0.00010828895028680563,0.0001636731904000044
0.007394096814095974,0.005894834641367197,-0.01087889727205038,0.004920528270304203,-0.00010615996870910749,0.00015792845806572586
0.007915259338915348,0.006345872767269611,-0.010865945369005203,0.004888161551207304,-0.00010411326366011053,0.0001525732659501955
0.008075627498328686,0.0060378070920705795,-0.010723898187279701,0.004872746765613556,-0.0001021438292809762,0.00014756908058188856
0.007732404861599207,0.005827720742672682,-0.01127753034234047,0.004725541919469833,-0.0001084701725631021,0.0001428828836651519
0.008218351751565933,0.005618887487798929,-0.011133247055113316,0.004725421313196421,-0.00011426977289374918,0.0001384853239869699
0.008531617000699043,0.00613977899774909,-0.011169742792844772,0.004999043419957161,-0.00011273241398157552,0.00013435030996333808
0.008081934414803982,0.006870245095342398,-0.011099902912974358,0.004970823880285025,-0.00011078317766077816,0.00013045527157373726
0.007911541499197483,0.006269363686442375,-0.010302306152880192,0.0049712397158145905,-0.0001088708741008304,0.00012677964696194977
0.008255313150584698,0.005706361029297113,-0.011347204446792603,0.005124975927174091,-0.00010702161671360955,0.00012330536264926195
0.008786137215793133,0.005616414826363325,-0.012219799682497978,0.005203224718570709,-0.00010523389937588945,0.00012001670256722718
0.007991831749677658,0.00606689415872097,-0.011614634655416012,0.005075238645076752,-0.0001035049426718615,0.00011689861275954172
0.008037153631448746,0.006635892670601606,-0.011622552759945393,0.004898865707218647,-0.00011541391722857952,0.00011393862951081246
0.00844242237508297,0.006160078104585409,-0.011417021974921227,0.005047112237662077,-0.00011446512507973239,0.00011112481297459453
0.009077522903680801,0.0059761363081634045,-0.010741674341261387,0.005170892924070358,-0.00011273079871898517,0.00010844664939213544
0.00808853842318058,0.005892620421946049,-0.011573624797165394,0.0049021607264876366,-0.00011099663242930546,9.01917737792246e-05
0.008987804874777794,0.006220920942723751,-0.011472000740468502,0.004653844982385635,-0.00010767702769953758,8.093099313555285e-05
0.008403993211686611,0.006168884225189686,-0.011261656880378723,0.004657778888940811,-0.0001060904614860192,7.91307829786092e-05
0.008146210573613644,0.005931241903454065,-0.010933314450085163,0.004900142550468445,-0.00012975094432476908,7.742745947325602e-05
0.008146210573613644,0.005931241903454065,-0.010933314450085163,0.004900142550468445,-0.00012975094432476908,7.742745947325602e-05
0.008805332705378532,0.005638692062348127,-0.011123431846499443,0.0049669635482132435,-0.00012963719200342894,5.933472129981965e-05
0.008547374978661537,0.005733779165893793,-0.010684946551918983,0.0050108362920582294,-0.000126237326185219,5.583796519204043e-05
0.008156370371580124,0.006294868886470795,-0.011257343925535679,0.005101651884615421,-0.00012280729424674064,5.456122744362801e-05
0.00839573796838522,0.006166422739624977,-0.011579407379031181,0.00509429257363081,-0.00011954546789638698,-3.7537465686909854e-05
0.009023778140544891,0.006179800257086754,-0.011254456825554371,0.005583509337157011,-0.00011645181803032756,-4.900445492239669e-05
0.008733472786843777,0.006309909280389547,-0.011480043642222881,0.005361395422369242,-0.00011351422290317714,-4.84996271552518e-05
0.008002161048352718,0.006034188903868198,-0.011562002822756767,0.005110333673655987,-0.00011072108463849872,-6.9335030275397e-05
0.008699823170900345,0.0064358958043158054,-0.011373930610716343,0.005540812853723764,-0.00010806222417159006,-8.032088953768834e-05
0.008617770858108997,0.00625821016728878,-0.010901384986937046,0.00547108193859458,-0.0001252222282346338,-8.907305891625583e-05
0.008804806508123875,0.0059891934506595135,-0.010751628316938877,0.0053237867541611195,-0.00012363973655737936,-0.00010663805733202025
0.008619718253612518,0.006098022684454918,-0.011219470761716366,0.004905885551124811,-0.00012095397687517107,-0.0003391803184058517
0.00839898083359003,0.006382389459758997,-0.011472560465335846,0.004587851464748383,-0.0001183095300802961,-0.0005103049334138632
0.008830776438117027,0.006217773072421551,-0.011347070336341858,0.00503878528252244,-0.00011577329860301688,-0.0005518062971532345
0.008698122575879097,0.006246093660593033,-0.01153513602912426,0.005420872010290623,-0.00012263405369594693,-0.0005114116356708109
0.008846226148307323,0.0058837030082941055,-0.011293426156044006,0.005194566212594509,-0.00012888852506875992,-0.0005350455758161843
0.007505918387323618,0.005780740175396204,-0.011943529359996319,0.005613626912236214,-0.0001268653286388144,-0.0005363498348742723
0.008628396317362785,0.006107540801167488,-0.011149309575557709,0.005440080538392067,-0.00012439755664672703,-0.0005321488133631647
0.009335584007203579,0.005958574824035168,-0.011234596371650696,0.005390494130551815,-0.0001219912082888186,-0.0007165041752159595
0.008709955960512161,0.006254459265619516,-0.011714874766767025,0.00507199065759778,-0.00011967399768764153,-0.0007482068031094968
0.008629347197711468,0.005990542937070131,-0.011064855381846428,0.005190855357795954,-0.00011744305811589584,-0.0007656303932890296
0.009315661154687405,0.005900619551539421,-0.01131515670567751,0.005053304601460695,-0.00013066871906630695,-0.0009045235929079354
0.008845732547342777,0.006684991531074047,-0.011191234923899174,0.004979405552148819,-0.00012932471872773021,-0.0010396006982773542
0.008892149664461613,0.006295073311775923,-0.010902096517384052,0.005057632923126221,-0.00012710712326224893,-0.0010251428466290236
0.008798074908554554,0.006004201713949442,-0.011686180718243122,0.005574159324169159,-0.00012490634981077164,-0.0010076098842546344
0.008798074908554554,0.006004201713949442,-0.011686180718243122,0.005574159324169159,-0.00012490634981077164,-0.0010076098842546344
0.009130827151238918,0.006112530827522278,-0.011771589517593384,0.006014525890350342,-0.00016234566282946616,-0.0010079561034217477
0.009338442236185074,0.006110191345214844,-0.011437823995947838,0.005577848758548498,-0.00015742573305033147,-0.0010095620527863503
0.00919333752244711,0.006049224641174078,-0.012243098579347134,0.005856586620211601,-0.00015215198800433427,-0.0010353708639740944
0.00919333752244711,0.006049224641174078,-0.012243098579347134,0.005856586620211601,-0.00015215198800433427,-0.0010353708639740944
0.008870930410921574,0.005986721254885197,-0.011029542423784733,0.006368924397975206,-0.00017271596880163997,-0.0011331378482282162
0.009213995188474655,0.006186960730701685,-0.01201453898102045,0.005745376460254192,-0.00017076576477847993,-0.0011401221854612231
0.009221951477229595,0.00600828742608428,-0.011690604500472546,0.005419920198619366,-0.00016575283370912075,-0.0013860204489901662
0.008909087628126144,0.00641539366915822,-0.011389156803488731,0.005630316212773323,-0.00018409467884339392,-0.001319037051871419
0.009446230717003345,0.0063893841579556465,-0.012499261647462845,0.00530422106385231,-0.0001819784811232239,-0.0012437960831448436
0.01004092302173376,0.006075998302549124,-0.012080344371497631,0.005689328070729971,-0.0001770727540133521,-0.0011350892018526793
0.009121849201619625,0.006195674650371075,-0.012024614959955215,0.005764113739132881,-0.00017224479233846068,-0.0011355883907526731
0.009522540494799614,0.00671726418659091,-0.011880751699209213,0.005784635432064533,-0.00017942431441042572,-0.001194814802147448
0.00970194861292839,0.006426122039556503,-0.011947362683713436,0.005927554331719875,-0.00018584993085823953,-0.0015377870295196772
0.009584535844624043,0.006304255221039057,-0.012410826981067657,0.005389608908444643,-0.00018187719979323447,-0.0016839946620166302
0.009979374706745148,0.006356848403811455,-0.011913109570741653,0.005371652543544769,-0.00017776554159354419,-0.0019697356037795544
0.010482621379196644,0.006171348504722118,-0.012299145571887493,0.005661717616021633,-0.0002854385820683092,-0.002095965202897787
0.009187893010675907,0.006515165325254202,-0.01175555307418108,0.006054471712559462,-0.00027572904946282506,-0.0019827918149530888
0.009836042299866676,0.006609499454498291,-0.011531362310051918,0.005681629292666912,-0.0002602838212624192,-0.0017704274505376816
0.009823372587561607,0.006631725933402777,-0.01189196016639471,0.00576722202822566,-0.0002886654110625386,-0.0016464429209008813
0.009201598353683949,0.005826197098940611,-0.011841640807688236,0.005804854445159435,-0.0002795475593302399,-0.0014631346566602588
0.00944867916405201,0.0064878095872700214,-0.012396963313221931,0.006242915987968445,-0.00026614710805006325,-0.0015223714290186763
0.009593340568244457,0.006232880521565676,-0.012941735796630383,0.005965588614344597,-0.0002536665415391326,-0.0017161649884656072
0.009481016546487808,0.005812750197947025,-0.012338829226791859,0.005815722979605198,-0.0002799035864882171,-0.001819973229430616
0.010009316727519035,0.0060468632727861404,-0.012132750824093819,0.006022055167704821,-0.00027034347294829786,-0.0022355993278324604
0.009519550018012524,0.006021623965352774,-0.012272835709154606,0.005873550660908222,-0.00025937153259292245,-0.0024315891787409782
0.01011565513908863,0.006747764069586992,-0.012030323967337608,0.005814520642161369,-0.00027327562565915287,-0.002172516193240881
0.010114816017448902,0.005954325664788485,-0.012475535273551941,0.0058339848183095455,-0.000263804045971483,-0.001978200627490878
0.009322968311607838,0.005999419838190079,-0.012418340891599655,0.005873337388038635,-0.000254513171967119,-0.00183803029358387
0.009906706400215626,0.006442524492740631,-0.012107506394386292,0.0063927387818694115,-0.0002467665181029588,-0.001821904326789081
0.009906706400215626,0.006442524492740631,-0.012107506394386292,0.0063927387818694115,-0.0002467665181029588,-0.001821904326789081
0.010234007611870766,0.006728130858391523,-0.012194725684821606,0.006659095641225576,-0.0002796315820887685,-0.0019283867441117764
0.010416152887046337,0.006203384604305029,-0.011950654909014702,0.006013506557792425,-0.0002515552914701402,-0.0023316715378314257
0.009867693297564983,0.006012577097862959,-0.011591748334467411,0.0056274328380823135,-0.0002794909232761711,-0.0023100925609469414
0.009867693297564983,0.006012577097862959,-0.011591748334467411,0.0056274328380823135,-0.0002794909232761711,-0.0023100925609469414
0.00942554697394371,0.005961353424936533,-0.012342533096671104,0.005744850262999535,-0.00027111783856526017,-0.0024446567986160517
0.010797028429806232,0.006111144553869963,-0.012787368148565292,0.0062943738885223866,-0.0002585063630249351,-0.0023312033154070377
0.011930343694984913,0.005947607569396496,-0.012183754704892635,0.006339055486023426,-0.00028233620105311275,-0.002273168182000518
0.011113673448562622,0.00595093471929431,-0.01218431070446968,0.006410334259271622,-0.00027490410138852894,-0.002166056539863348
0.011284434236586094,0.005913002882152796,-0.012130971997976303,0.006266722455620766,-0.00026371015701442957,-0.0020738334860652685
0.011477458290755749,0.00588946370407939,-0.01161146629601717,0.006108911242336035,-0.0002798519271891564,-0.0021311368327587843
0.012204842641949654,0.00610826350748539,-0.011531352065503597,0.006435762625187635,-0.00027750676963478327,-0.0021892585791647434
0.011608022265136242,0.00603023124858737,-0.011725950986146927,0.006222228053957224,-0.0002677382726687938,-0.002511753933504224
0.011300766840577126,0.005977345164865255,-0.012653112411499023,0.005842065904289484,-0.00030000536935403943,-0.003237292403355241
0.011604021303355694,0.006174389738589525,-0.012154465541243553,0.006024711299687624,-0.00031922757625579834,-0.0034458960872143507
0.011640354990959167,0.005604506935924292,-0.012889770790934563,0.006003753747791052,-0.0003005521430168301,-0.003165678819641471
0.011050521396100521,0.006482751574367285,-0.01161674689501524,0.0064628878608345985,-0.00028186244890093803,-0.002996627939864993
0.011407487094402313,0.006238135974854231,-0.011924274265766144,0.006456224247813225,-0.00030433209030888975,-0.0027126523200422525
0.012293213978409767,0.005900414194911718,-0.012187331914901733,0.006132445763796568,-0.0002996809489559382,-0.002863592468202114
0.01144548412412405,0.0055868118070065975,-0.011991099454462528,0.006262971553951502,-0.0002846859861165285,-0.003031558822840452
0.011371049098670483,0.005773710552603006,-0.012312176637351513,0.006325728725641966,-0.00029247364727780223,-0.0035442286171019077
0.011653627268970013,0.006572414189577103,-0.011648699641227722,0.006378937512636185,-0.0002989892673213035,-0.0033547987695783377
0.01206409465521574,0.006029646378010511,-0.011999604292213917,0.006170189008116722,-0.000286699301796034,-0.003131532110273838
0.011043831706047058,0.00584115507081151,-0.011511178687214851,0.00597663689404726,-0.0002743127115536481,-0.0027302526868879795
0.01141059398651123,0.005916596855968237,-0.011934691108763218,0.006106492131948471,-0.00025234429631382227,-0.0024158991873264313
0.011433645151555538,0.006320301443338394,-0.012290725484490395,0.006136019714176655,-0.0002595918485894799,-0.002877597464248538
0.011433645151555538,0.006320301443338394,-0.012290725484490395,0.006136019714176655,-0.0002595918485894799,-0.002877597464248538
0.011836668476462364,0.006341938395053148,-0.01222776435315609,0.005764765199273825,-0.00026584527222439647,-0.0033806664869189262
0.011638274416327477,0.005993727594614029,-0.012236366048455238,0.005749187897890806,-0.00025737631949596107,-0.003832518821582198
0.012064555659890175,0.0061241271905601025,-0.012424380518496037,0.0058340695686638355,-0.00024855800438672304,-0.0036103271413594484
0.011539885774254799,0.006006448995321989,-0.011684403754770756,0.00640471838414669,-0.000240266730543226,-0.0031583644449710846
0.011910013854503632,0.006386048626154661,-0.01110943965613842,0.006456994917243719,-0.0002327245892956853,-0.002933020703494549
0.012226661667227745,0.006401972379535437,-0.011883065104484558,0.00646045058965683,-0.00023532024351879954,-0.0027386785950511694
0.011833393014967442,0.005594275891780853,-0.01169494353234768,0.006519950460642576,-0.00022454076679423451,-0.003129644552245736
0.012386777438223362,0.005948932375758886,-0.012112417258322239,0.00670271459966898,-0.00021392659982666373,-0.003378295572474599
0.012138763442635536,0.005633706692606211,-0.01220755372196436,0.006755241192877293,-0.0002042197884293273,-0.0035393668804317713
0.011829318478703499,0.006168394349515438,-0.011374703608453274,0.006645683199167252,-0.00022920549963600934,-0.0034254565834999084
0.011961831711232662,0.006120243109762669,-0.0122483866289258,0.00706929387524724,-0.00022432688274420798,-0.0033771772868931293
0.011589815840125084,0.005797866731882095,-0.011528439819812775,0.006793821230530739,-0.00021566933719441295,-0.003592120250687003
0.01201205886900425,0.005742765963077545,-0.011836692690849304,0.007033953443169594,-0.00020740438776556402,-0.0034012198448181152
0.011473789811134338,0.005757186096161604,-0.012175304815173149,0.006767200771719217,-0.00021603571076411754,-0.0035008895210921764
0.011949855834245682,0.006116542033851147,-0.012106255628168583,0.006727673579007387,-0.0002236001892015338,-0.0036311692092567682
0.012403660453855991,0.0063264942727983,-0.012335495091974735,0.0066034323535859585,-0.00021689702407456934,-0.0033572132233530283
0.012013317085802555,0.005592857487499714,-0.011517040431499481,0.007292513735592365,-0.00020974004291929305,-0.0033850758336484432
0.01188187301158905,0.005926168989390135,-0.01220407709479332,0.007457176223397255,-0.00021720491349697113,-0.0034758159890770912
0.011809471994638443,0.005897680763155222,-0.011947489343583584,0.007427171804010868,-0.00022377756249625236,-0.003600010182708502
0.012736991047859192,0.006208837032318115,-0.0120485695078969,0.006712145172059536,-0.00021787603327538818,-0.003485678229480982
0.012054380029439926,0.005641451105475426,-0.012037236243486404,0.006630025804042816,-0.00021153116540517658,-0.003872713539749384
0.012057161889970303,0.005918669980019331,-0.011696020141243935,0.006635725032538176,-0.0002054970245808363,-0.004063023254275322
0.012587383389472961,0.0056912959553301334,-0.011983232572674751,0.00656490121036768,-0.00024522491730749607,-0.003886436577886343
0.012167750857770443,0.005723767448216677,-0.012142821215093136,0.006368753965944052,-0.00023893106845207512,-0.0036577729042619467
0.012933183461427689,0.006644383538514376,-0.012436836026608944,0.00637464877218008,-0.00022729908232577145,-0.003573379945009947
0.012236574664711952,0.005865911953151226,-0.012516926974058151,0.006894515361636877,-0.00021639480837620795,-0.003523240564391017
0.012237765826284885,0.005620454903692007,-0.01255076751112938,0.007059630937874317,-0.00023550857440568507,-0.003693151054903865
0.012237765826284885,0.005620454903692007,-0.01255076751112938,0.007059630937874317,-0.00023550857440568507,-0.003693151054903865
0.012312999926507473,0.00599385192617774,-0.012210896238684654,0.007165977731347084,-0.000226840449613519,-0.003912095446139574
0.012639254331588745,0.006338465493172407,-0.012514535337686539,0.0075400820933282375,-0.00021777069196105003,-0.0043047526851296425
0.012099857442080975,0.006024226080626249,-0.012410971336066723,0.007636884693056345,-0.00023512927873525769,-0.004147832281887531
0.012379500083625317,0.006155411712825298,-0.01266414299607277,0.007559323683381081,-0.0002345126267755404,-0.004209429491311312
0.012152832001447678,0.005965637508779764,-0.01262571755796671,0.007667906582355499,-0.00022660796821583062,-0.003733778605237603
0.01277422159910202,0.005895093083381653,-0.012095439247786999,0.0077269491739571095,-0.00024588030646555126,-0.003448048373684287
0.012456493452191353,0.006708631291985512,-0.012578007765114307,0.007599621545523405,-0.0002413655020063743,-0.0034571862779557705
0.012385094538331032,0.006263183429837227,-0.010982810519635677,0.007430822588503361,-0.0002784429816529155,-0.0036960705183446407
0.012902338989078999,0.005863077472895384,-0.013243666850030422,0.006980439648032188,-0.0003026264894288033,-0.003929876256734133
0.012562130577862263,0.006109859794378281,-0.0125890439376235,0.0073496452532708645,-0.00033569379593245685,-0.0043922229669988155
0.01296006329357624,0.0060510397888720036,-0.012469212524592876,0.007478675805032253,-0.00032258042483590543,-0.004594516474753618
0.012793919071555138,0.006435559596866369,-0.012304936535656452,0.0075671677477657795,-0.0003295728820376098,-0.004430784843862057
0.013028273358941078,0.006119892932474613,-0.01290226075798273,0.006902747787535191,-0.00033494600211270154,-0.004528632387518883
0.012750718742609024,0.00584218418225646,-0.01311963889747858,0.00700336042791605,-0.00031945560476742685,-0.004135116469115019
0.012979051098227501,0.006093729753047228,-0.012468744069337845,0.006933053955435753,-0.00033619769965298474,-0.003823418403044343
0.013071810826659203,0.005866214632987976,-0.01300754677504301,0.0069214156828820705,-0.0003308278392069042,-0.004105460364371538
0.012999025173485279,0.005955937318503857,-0.012764823623001575,0.00687700230628252,-0.0004016377788502723,-0.004509991034865379
0.013488370925188065,0.005915291141718626,-0.012857546098530293,0.007356299087405205,-0.0004418149183038622,-0.00417260592803359
0.013026556000113487,0.0053187170997262,-0.012487649917602539,0.007515542674809694,-0.0004070511204190552,-0.0042329696007072926
0.013034108094871044,0.005792306270450354,-0.01274170633405447,0.007536302786320448,-0.00037356792017817497,-0.004221878945827484
0.012595410458743572,0.0059340293519198895,-0.012706845998764038,0.007506357040256262,-0.000409038650104776,-0.004516454879194498
0.013081984594464302,0.0062417746521532536,-0.012755094096064568,0.007647099904716015,-0.0003841100842691958,-0.004196044988930225
0.012780405580997467,0.006259103771299124,-0.012953255325555801,0.007981903851032257,-0.00041447137482464314,-0.0041667381301522255
0.013304091058671474,0.005837336648255587,-0.012817492708563805,0.008022383786737919,-0.0003952179686166346,-0.004376934375613928
0.01317388191819191,0.005864070262759924,-0.012480131350457668,0.008709058165550232,-0.0003971450205426663,-0.004685101564973593
0.012986855581402779,0.006233065854758024,-0.013016465120017529,0.008136110380291939,-0.00040633557364344597,-0.004735131748020649
0.012986855581402779,0.006233065854758024,-0.013016465120017529,0.008136110380291939,-0.00040633557364344597,-0.004735131748020649
0.013386731036007404,0.0056404112838208675,-0.012689960189163685,0.007612528279423714,-0.00039963104063645005,-0.004529026336967945
0.01355873141437769,0.005974475294351578,-0.012698991224169731,0.007422114256769419,-0.0004044856468681246,-0.0043478128500282764
0.013476384803652763,0.00570090115070343,-0.013434388674795628,0.0074411253444850445,-0.00040665100095793605,-0.004433124326169491
0.013626037165522575,0.005792573094367981,-0.012774220667779446,0.0077112759463489056,-0.00038014823803678155,-0.004604622256010771
0.013219386339187622,0.006017839536070824,-0.01289181225001812,0.007488734554499388,-0.00040642733802087605,-0.004742514807730913
0.014050953090190887,0.0056726993061602116,-0.01253162045031786,0.007554975338280201,-0.00038836017483845353,-0.005120818968862295
0.013510042801499367,0.004828960169106722,-0.013125604018568993,0.007736645173281431,-0.0003662316012196243,-0.004920297302305698
0.013708556070923805,0.004554090090095997,-0.012251422740519047,0.007846309803426266,-0.00038891765871085227,-0.004662734922021627
0.013400732539594173,0.004906550515443087,-0.013182888738811016,0.007576873991638422,-0.000374537892639637,-0.00423010578379035
0.013767109252512455,0.004805572330951691,-0.012793753296136856,0.007563901599496603,-0.0003563767531886697,-0.004432985559105873
0.0134994275867939,0.005407754331827164,-0.012888798490166664,0.007680983282625675,-0.00033963817986659706,-0.00497335335239768
0.013972921296954155,0.005093865096569061,-0.013178437948226929,0.008128700777888298,-0.0003696517087519169,-0.00514962337911129
0.013670294545590878,0.004693227354437113,-0.012913214042782784,0.008313861675560474,-0.0003785556764341891,-0.00475526787340641
0.013745701871812344,0.0046607148833572865,-0.012971991673111916,0.008258293382823467,-0.0003825496241915971,-0.004399725701659918
0.013722551986575127,0.004790308885276318,-0.012560931034386158,0.008846849203109741,-0.00040316610829904675,-0.004345746710896492
0.013979369774460793,0.004734112415462732,-0.013178559020161629,0.008350883610546589,-0.0003919439041055739,-0.0046392749063670635
0.013883172534406185,0.005250750109553337,-0.012681038118898869,0.007661830168217421,-0.0003698326472658664,-0.00496990792453289
0.01390398945659399,0.005380568094551563,-0.012980522587895393,0.0074295783415436745,-0.0003958341258112341,-0.005693112500011921
0.014110017567873001,0.004606079310178757,-0.01276542991399765,0.007923008874058723,-0.0003780780534725636,-0.005424575414508581
0.014614062383770943,0.004426519386470318,-0.013003414496779442,0.0072515602223575115,-0.0004908742848783731,-0.005209226626902819
0.014598298817873001,0.004599458537995815,-0.013190672732889652,0.007244341541081667,-0.0004606771399267018,-0.00498920725658536
0.014277960173785686,0.004721968900412321,-0.012970903888344765,0.008199687115848064,-0.00045948277693241835,-0.005302463658154011
0.014868748374283314,0.004706991370767355,-0.012836389243602753,0.008198344148695469,-0.00042374071199446917,-0.00570567836984992
0.01455366238951683,0.004618840757757425,-0.01336105540394783,0.008376887999475002,-0.0004411669506225735,-0.005299566313624382
0.015566018410027027,0.00413275882601738,-0.012818371877074242,0.008577943779528141,-0.00042628651135601103,-0.005023307632654905
0.014816328883171082,0.0044258590787649155,-0.013052400201559067,0.008275965228676796,-0.0004422619240358472,-0.0052487836219370365
0.014816328883171082,0.0044258590787649155,-0.013052400201559067,0.008275965228676796,-0.0004422619240358472,-0.0052487836219370365
0.015200527384877205,0.0046217902563512325,-0.012680026702582836,0.008103696629405022,-0.0004290984070394188,-0.005526449531316757
0.014860686846077442,0.004732052329927683,-0.01323933806270361,0.008437889628112316,-0.0004326113557908684,-0.0052567427046597
0.014761197380721569,0.005100091453641653,-0.013254285790026188,0.008581943809986115,-0.0004206668527331203,-0.005557738710194826
0.013399356976151466,0.004938094411045313,-0.013194339349865913,0.008602150715887547,-0.0004530174774117768,-0.005451675038784742
0.015332670882344246,0.004729717504233122,-0.012828742153942585,0.008637899532914162,-0.0004264079325366765,-0.005720296874642372
0.01584344357252121,0.0050640651024878025,-0.012966479174792767,0.008665594272315502,-0.0004570551391225308,-0.005868017207831144
0.015658777207136154,0.0049955048598349094,-0.013091236352920532,0.008810167200863361,-0.0004298888088669628,-0.005812643561512232
0.015105622820556164,0.00477609783411026,-0.012709300965070724,0.008958585560321808,-0.00045238295570015907,-0.005633821710944176
0.015406009741127491,0.005315991118550301,-0.013372850604355335,0.009306776337325573,-0.0004320360894780606,-0.005755161866545677
0.01560654304921627,0.0050781238824129105,-0.012757131829857826,0.009319686330854893,-0.000538016261998564,-0.006053512450307608
0.016156159341335297,0.004876905120909214,-0.013602407649159431,0.00836614053696394,-0.0004988262080587447,-0.005873106885701418
0.015289165079593658,0.005179384723305702,-0.012652141973376274,0.008773040026426315,-0.00045020197285339236,-0.005884093698114157
0.01563938893377781,0.005006053484976292,-0.013227153569459915,0.009035021997988224,-0.00040928772068582475,-0.005614080000668764
0.015608282759785652,0.005102606490254402,-0.013128181919455528,0.008834430947899818,-0.0003751368203666061,-0.005599528085440397
0.01550963707268238,0.005451736506074667,-0.013424835167825222,0.009140332229435444,-0.00034624600084498525,-0.005853069480508566
0.015681153163313866,0.0050398679450154305,-0.013219458051025867,0.0089572137221694,-0.0003214903990738094,-0.006152117624878883
0.01476368773728609,0.005128101445734501,-0.012984382919967175,0.008715382777154446,-0.0003000404394697398,-0.005890318658202887
0.015614238567650318,0.005057213362306356,-0.013239839114248753,0.009001031517982483,-0.0003299049858469516,-0.006338709499686956
0.0152740478515625,0.004864171147346497,-0.012576351873576641,0.00919489935040474,-0.0003171678981743753,-0.006539833266288042
0.016015660017728806,0.005119739565998316,-0.013330780901014805,0.008903435431420803,-0.00029997623641975224,-0.00626892875880003
0.015824148431420326,0.005162423942238092,-0.013227039948105812,0.008585281670093536,-0.00028421098249964416,-0.006033959332853556
0.015783293172717094,0.0054197655990719795,-0.013385881669819355,0.008685005828738213,-0.0002995986142195761,-0.006179403513669968
0.015934282913804054,0.005232249852269888,-0.014021722599864006,0.008630260825157166,-0.0002863281115423888,-0.006490654312074184
0.015966113656759262,0.004965724423527718,-0.013208383694291115,0.009078501723706722,-0.00027389952447265387,-0.006777498871088028
0.015757368877530098,0.0051534464582800865,-0.014115399681031704,0.00924490112811327,-0.00026248619542457163,-0.007213468663394451
0.016052203252911568,0.005082704592496157,-0.013605372980237007,0.008599590510129929,-0.00028553520678542554,-0.007466630078852177
0.015710288658738136,0.005292155779898167,-0.013832228258252144,0.008408211171627045,-0.00027674634475260973,-0.007348497398197651
0.016383463516831398,0.005422831047326326,-0.013734549283981323,0.009055593982338905,-0.0002666388463694602,-0.007199185900390148
0.016383463516831398,0.005422831047326326,-0.013734549283981323,0.009055593982338905,-0.0002666388463694602,-0.007199185900390148
0.016255028545856476,0.005195015110075474,-0.013989104889333248,0.009069064632058144,-0.00025712454225867987,-0.007376302964985371
0.016418084502220154,0.005328293889760971,-0.014112517237663269,0.00850075576454401,-0.00024880110868252814,-0.007703019771724939
0.01600033976137638,0.00511023448780179,-0.014364317059516907,0.009177089668810368,-0.00020225589105393738,-0.00734333461150527
0.016430750489234924,0.005424844101071358,-0.014170637354254723,0.009198015555739403,-0.00019133847672492266,-0.006797182839363813
0.016560617834329605,0.005523468367755413,-0.014555295929312706,0.009093377739191055,-0.00018338827067054808,-0.006947735790163279
0.01669148914515972,0.0052269380539655685,-0.014199902303516865,0.009205606766045094,-0.00017619629215914756,-0.006865340750664473
0.016950203105807304,0.005287265870720148,-0.014727889560163021,0.009636114351451397,-0.0001695555547485128,-0.0066576008684933186
0.016663620248436928,0.005416759289801121,-0.014357092790305614,0.009024577215313911,-0.00017940528050530702,-0.006449467968195677
0.016962284222245216,0.005669707898050547,-0.014587001875042915,0.00958350021392107,-0.0001881177886389196,-0.006983391009271145
0.016947532072663307,0.005344612989574671,-0.014950881712138653,0.009877637960016727,-0.00018272968009114265,-0.007274753879755735
0.016681943088769913,0.005667179357260466,-0.014872013591229916,0.009455539286136627,-0.00017680956807453185,-0.007292938884347677
0.017131682485342026,0.0053844447247684,-0.014906561933457851,0.009124800562858582,-0.0001978181826416403,-0.007185900583863258
0.016717899590730667,0.00573680130764842,-0.014989673160016537,0.009500917047262192,-0.0001934776664711535,-0.0070876325480639935
0.0176533255726099,0.005439782049506903,-0.014855172485113144,0.00965140014886856,-0.00021284969989210367,-0.00728294113650918
0.017559776082634926,0.0058488985523581505,-0.014845959842205048,0.009666301310062408,-0.00020833015150856227,-0.007544870022684336
0.01730375550687313,0.0053722308948636055,-0.014237276278436184,0.009626592509448528,-0.00029123376589268446,-0.00703780772164464
0.017574604600667953,0.005334000568836927,-0.014913312159478664,0.00986306183040142,-0.0003005818580277264,-0.007244649343192577
0.017394304275512695,0.005551299080252647,-0.014323870651423931,0.009873732924461365,-0.000325286528095603,-0.006954295095056295
0.017893154174089432,0.005576172843575478,-0.015051920898258686,0.00981399230659008,-0.0003192179719917476,-0.007232118397951126
0.018367523327469826,0.005755969788879156,-0.014205161482095718,0.009888332337141037,-0.00030220794724300504,-0.007197556085884571
0.01749163307249546,0.005948751699179411,-0.014703186228871346,0.009927061386406422,-0.00028623914113268256,-0.007239068858325481
0.018138082697987556,0.005034016910940409,-0.014846978709101677,0.0099377715960145,-0.0003015338152181357,-0.0071961842477321625
0.018200676888227463,0.005142408423125744,-0.014705158770084381,0.009438704699277878,-0.00030820275424048305,-0.007976212538778782
0.018444672226905823,0.0057558282278478146,-0.015295651741325855,0.00904531218111515,-0.0003135000297334045,-0.007893770933151245
0.018066659569740295,0.0059017580933868885,-0.014789475128054619,0.009196256287395954,-0.000301589461741969,-0.007703390438109636
0.018066659569740295,0.0059017580933868885,-0.014789475128054619,0.009196256287395954,-0.000301589461741969,-0.007703390438109636
0.018594244495034218,0.00550033850595355,-0.014790138229727745,0.010020644403994083,-0.0003573335416149348,-0.007676532492041588
0.018594244495034218,0.00550033850595355,-0.014790138229727745,0.010020644403994083,-0.0003573335416149348,-0.007676532492041588
0.018400888890028,0.00599944731220603,-0.014340425841510296,0.009437969885766506,-0.00037255583447404206,-0.008275520987808704
0.018400888890028,0.00599944731220603,-0.014340425841510296,0.009437969885766506,-0.00037255583447404206,-0.008275520987808704
0.018014084547758102,0.005873965099453926,-0.014941789209842682,0.009814905934035778,-0.0003489942755550146,-0.008266188204288483
0.018207985907793045,0.0055999536998569965,-0.014049539342522621,0.009298497810959816,-0.00037866897764615715,-0.007924809120595455
0.017368080094456673,0.0051580690778791904,-0.014998839236795902,0.009817753918468952,-0.0003603231452871114,-0.008608483709394932
0.018707003444433212,0.005036643706262112,-0.014356196857988834,0.009924803860485554,-0.00038318720180541277,-0.00841030478477478
0.019144311547279358,0.005709836259484291,-0.015235044062137604,0.009490869008004665,-0.0003693122125696391,-0.008403066545724869
0.019204212352633476,0.005930193699896336,-0.014581683091819286,0.00938815250992775,-0.0004176103975623846,-0.008414127863943577
0.019050927832722664,0.005779247265309095,-0.015058684162795544,0.01031744759529829,-0.00043912327964790165,-0.008444251492619514
0.01878783293068409,0.005419142544269562,-0.014765034429728985,0.009988445788621902,-0.0004788007936440408,-0.00816499162465334
0.019057998433709145,0.005512182135134935,-0.015148228965699673,0.010018742643296719,-0.00048039742978289723,-0.007904542610049248
0.018655480816960335,0.005559088662266731,-0.014642821624875069,0.01096400897949934,-0.0004770055820699781,-0.007969922386109829
0.0183086059987545,0.005820217076689005,-0.014966437593102455,0.010463405400514603,-0.00044542725663632154,-0.008408993482589722
0.018538719043135643,0.0055956486612558365,-0.015114727430045605,0.010076086968183517,-0.0004714186943601817,-0.008550556376576424
0.018894890323281288,0.005565401166677475,-0.015154202468693256,0.010393298231065273,-0.00044583212002180517,-0.007986080832779408
0.01964099332690239,0.005417581647634506,-0.015260797925293446,0.00999613106250763,-0.0004200455150566995,-0.008049809373915195
0.019085345789790154,0.005594783928245306,-0.015167851001024246,0.009989038109779358,-0.00039689752156846225,-0.008417402394115925
0.018324561417102814,0.006067258305847645,-0.01531633734703064,0.010690469294786453,-0.0004208602767903358,-0.008424682542681694
0.019741537049412727,0.005822665058076382,-0.015603719279170036,0.010984305292367935,-0.0004218171234242618,-0.0084487060084939
0.019410932436585426,0.005327908787876368,-0.01488575991243124,0.010765626095235348,-0.0004068239068146795,-0.008878218941390514
0.01912347786128521,0.005833577364683151,-0.015252635814249516,0.009793962351977825,-0.00043812449439428747,-0.00850939005613327
0.0193766038864851,0.005814265925437212,-0.014973319135606289,0.010336636565625668,-0.00045674730790778995,-0.00826626643538475
0.019439000636339188,0.006329245865345001,-0.015369710512459278,0.010829613544046879,-0.0004424851795192808,-0.008362305350601673
0.019439000636339188,0.006329245865345001,-0.015369710512459278,0.010829613544046879,-0.0004424851795192808,-0.008362305350601673
0.019282011315226555,0.005969733465462923,-0.014665423892438412,0.010061549954116344,-0.0005057037924416363,-0.008730448782444
0.019249282777309418,0.005762611981481314,-0.015242376364767551,0.010253898799419403,-0.0005295954761095345,-0.008714482188224792
0.019576573744416237,0.005627462174743414,-0.014963223598897457,0.010251319967210293,-0.0005486405570991337,-0.00845711212605238
0.019937727600336075,0.005797374993562698,-0.015444711782038212,0.010415403172373772,-0.0005178318242542446,-0.008785254321992397
0.019836025312542915,0.006249900441616774,-0.01489933393895626,0.010657284408807755,-0.0005119371926411986,-0.00846225768327713
0.01951748877763748,0.0061441389843821526,-0.01522384025156498,0.010054275393486023,-0.0005055589717812836,-0.008378474041819572
0.01957295462489128,0.00593702495098114,-0.015058103948831558,0.00998712982982397,-0.00047008940600790083,-0.008668489754199982
0.02006804198026657,0.00550983427092433,-0.015313460491597652,0.010444938205182552,-0.0004956902121193707,-0.008520630188286304
0.019872205331921577,0.005848873872309923,-0.01525300182402134,0.009999509900808334,-0.00046730265603400767,-0.008480518124997616
0.01935584656894207,0.005817940924316645,-0.015579882077872753,0.01048366166651249,-0.00043904161429964006,-0.008778590708971024
0.019782654941082,0.005950495600700378,-0.015659241005778313,0.010122712701559067,-0.0004367993678897619,-0.008167163468897343
0.019801829010248184,0.006138130556792021,-0.014957675710320473,0.0095859719440341,-0.0004025694797746837,-0.0074807158671319485
0.01946251466870308,0.005868859589099884,-0.015210429206490517,0.010106847621500492,-0.00042402607505209744,-0.007422095630317926
0.02005712315440178,0.0057113985531032085,-0.015121043659746647,0.010629786178469658,-0.00040874688420444727,-0.007816275581717491
0.019787954166531563,0.005945033859461546,-0.01567426137626171,0.010383603163063526,-0.0004358417063485831,-0.008088150061666965
0.019448813050985336,0.005724811926484108,-0.01493164710700512,0.009760597720742226,-0.0004146968713030219,-0.00791382510215044
0.019943399354815483,0.004642592743039131,-0.015632594004273415,0.009602237492799759,-0.0004413142742123455,-0.008083590306341648
0.01982990652322769,0.004376491531729698,-0.014657656662166119,0.010004340671002865,-0.00041903118835762143,-0.008352627977728844
0.019615238532423973,0.004701339174062014,-0.014928743243217468,0.010951442644000053,-0.0005075903609395027,-0.007972389459609985
0.020282048732042313,0.005229569505900145,-0.014597880654036999,0.010501638054847717,-0.0005173489334993064,-0.007794495671987534
0.020226461812853813,0.005216960795223713,-0.01536533609032631,0.009994042105972767,-0.0005104854353703558,-0.007847676984965801
0.02024175599217415,0.004895118530839682,-0.015454924665391445,0.01054686401039362,-0.000493599392939359,-0.00829724594950676
0.02024175599217415,0.004895118530839682,-0.015454924665391445,0.01054686401039362,-0.000493599392939359,-0.00829724594950676
0.021090852096676826,0.004722298122942448,-0.015879904851317406,0.009932154789566994,-0.00046556038432754576,-0.008535007014870644
0.020280426368117332,0.004954506177455187,-0.015839623287320137,0.010472389869391918,-0.00043402021401561797,-0.008093543350696564
0.020296528935432434,0.005251550581306219,-0.015541395172476768,0.00992104597389698,-0.0004060672363266349,-0.00792408175766468
0.020503854379057884,0.005187063477933407,-0.015337524004280567,0.00987999513745308,-0.00038146768929436803,-0.007933873683214188
0.020316945388913155,0.00482953293249011,-0.015850545838475227,0.010010547004640102,-0.00035967983421869576,-0.008389686234295368
0.02052808739244938,0.004578630439937115,-0.015492354519665241,0.009843369945883751,-0.00034024575143121183,-0.008592306636273861
0.020359791815280914,0.004630505107343197,-0.016102660447359085,0.010221181437373161,-0.0003657477209344506,-0.008392280898988247
0.021141262724995613,0.004664082080125809,-0.015626300126314163,0.01046228688210249,-0.00035072644823230803,-0.008876984938979149
0.021596964448690414,0.004653580021113157,-0.01644008234143257,0.010064640082418919,-0.0003346064477227628,-0.008586796000599861
0.020600564777851105,0.00478180218487978,-0.015974394977092743,0.010344814509153366,-0.00030994488042779267,-0.008443840779364109
0.021411318331956863,0.004770259838551283,-0.015898199751973152,0.010284348390996456,-0.00028819686849601567,-0.008296411484479904
0.020881442353129387,0.004580653738230467,-0.01588461920619011,0.010587870143353939,-0.00027072709053754807,-0.008426422253251076
0.020526304841041565,0.004714807029813528,-0.016156429424881935,0.011376552283763885,-0.0002553503436502069,-0.008512822911143303
0.02108483947813511,0.004686807747930288,-0.01641332358121872,0.011833906173706055,-0.00024163162743207067,-0.00862859282642603
0.02144722454249859,0.004699902143329382,-0.01620800420641899,0.010516520589590073,-0.00026901738601736724,-0.008373475633561611
0.02144465036690235,0.004445141647011042,-0.016648368909955025,0.011129100807011127,-0.00026142856222577393,-0.008404088206589222
0.021204592660069466,0.004549684934318066,-0.015701856464147568,0.011089074425399303,-0.00027002557180821896,-0.00842808187007904
0.021484527736902237,0.004608164541423321,-0.01664903573691845,0.011181289330124855,-0.00027706744731403887,-0.008309422060847282
0.021980097517371178,0.004593672696501017,-0.01594896987080574,0.011573337949812412,-0.00028520863270387053,-0.0086221843957901
0.021709298714995384,0.004598854575306177,-0.016037268564105034,0.011239019222557545,-0.00029110905597917736,-0.008721968159079552
0.021609889343380928,0.004553072154521942,-0.016119342297315598,0.011154739186167717,-0.0002808909339364618,-0.008500095456838608
0.021519510075449944,0.00458938255906105,-0.016107574105262756,0.0117982542142272,-0.0002704135549720377,-0.008676254190504551
0.021289143711328506,0.0047637396492064,-0.016400236636400223,0.012044874019920826,-0.0003174279991071671,-0.008631438948214054
0.022478459402918816,0.0045433868654072285,-0.01608583703637123,0.011522319167852402,-0.0002948354522231966,-0.008749409578740597
0.022243767976760864,0.004329401068389416,-0.015364479273557663,0.012224695645272732,-0.0003175335587002337,-0.008469630032777786
0.022243767976760864,0.004329401068389416,-0.015364479273557663,0.012224695645272732,-0.0003175335587002337,-0.008469630032777786
0.02229798585176468,0.00437537906691432,-0.016031067818403244,0.011654618196189404,-0.00031192836468108,-0.009500222280621529
0.022484440356492996,0.0045682284981012344,-0.015944262966513634,0.011493310332298279,-0.000295676029054448,-0.00912288948893547
0.022529777139425278,0.004593206569552422,-0.016497749835252762,0.011389595456421375,-0.00032388512045145035,-0.008991179056465626
0.022108007222414017,0.004636914934962988,-0.016355441883206367,0.01117957103997469,-0.00034352915827184916,-0.008724820800125599
0.022321563214063644,0.004662118386477232,-0.016023414209485054,0.01246378943324089,-0.00033788441214710474,-0.00888377707451582
0.022431472316384315,0.004672038834542036,-0.0163121335208416,0.011510733515024185,-0.0004519784706644714,-0.008760305121541023
0.022507673129439354,0.00443218182772398,-0.015794578939676285,0.011472789570689201,-0.0004913345910608768,-0.009176846593618393
0.021878419443964958,0.004567205440253019,-0.01664048805832863,0.011651216074824333,-0.00046929187374189496,-0.009593529626727104
0.02304341085255146,0.004509265534579754,-0.01609651930630207,0.011037349700927734,-0.000495246727950871,-0.009560156613588333
0.022706780582666397,0.004279498476535082,-0.016059577465057373,0.01177650410681963,-0.0005161598674021661,-0.00909215584397316
0.02289799600839615,0.004865123890340328,-0.01591457799077034,0.011736047454178333,-0.0004963802057318389,-0.009424102492630482
0.02295812778174877,0.005014332942664623,-0.01605139672756195,0.011712371371686459,-0.0006514057167805731,-0.009487112984061241
0.02261742576956749,0.0046217977069318295,-0.016602588817477226,0.011989912018179893,-0.0006813083891756833,-0.009261814877390862
0.022692883387207985,0.0042952592484653,-0.015939660370349884,0.01167889405041933,-0.0006300410605035722,-0.008914765901863575
0.023194340988993645,0.004474897403270006,-0.01626736856997013,0.011761732399463654,-0.000646876054815948,-0.009630877524614334
0.023195965215563774,0.004574907943606377,-0.015610119327902794,0.01156627107411623,-0.0006378166726790369,-0.009644176810979843
0.023445572704076767,0.004760622512549162,-0.016439251601696014,0.011633903719484806,-0.0006207329570315778,-0.009280821308493614
0.02337430790066719,0.004473334643989801,-0.016146043315529823,0.012120148167014122,-0.0006216154433786869,-0.009288444183766842
0.022931132465600967,0.0042359656654298306,-0.01615471951663494,0.011761060915887356,-0.0005913087516091764,-0.009711258113384247
0.02333693392574787,0.004171569831669331,-0.01592015102505684,0.012096513994038105,-0.0006157871102914214,-0.009893683716654778
0.02371305599808693,0.00459457840770483,-0.016404442489147186,0.012213065288960934,-0.000593234202824533,-0.009534534066915512
0.023779403418302536,0.004287180490791798,-0.016184352338314056,0.01200246810913086,-0.0005446327268145978,-0.009779364801943302
0.023862900212407112,0.0044882092624902725,-0.01653257943689823,0.011870612390339375,-0.000536099832970649,-0.009600775316357613
0.02380940690636635,0.004404839128255844,-0.01583871804177761,0.012305895797908306,-0.000528373580891639,-0.009623317047953606
0.024107396602630615,0.004093554336577654,-0.016581745818257332,0.011893647722899914,-0.0004964781692251563,-0.009897373616695404
0.024483177810907364,0.0039048148319125175,-0.015977533534169197,0.012781866826117039,-0.0004963364917784929,-0.009596217423677444
0.024169769138097763,0.004274576436728239,-0.016326893121004105,0.012049775570631027,-0.000527725089341402,-0.009492872282862663
0.024169769138097763,0.004274576436728239,-0.016326893121004105,0.012049775570631027,-0.000527725089341402,-0.009492872282862663
0.024501338601112366,0.0045549506321549416,-0.01703467033803463,0.012142679654061794,-0.0004905046662315726,-0.009954995475709438
0.024317888543009758,0.004661018960177898,-0.016331179067492485,0.012594982050359249,-0.000519973982591182,-0.009324467740952969
0.024271497502923012,0.004651348106563091,-0.017033668234944344,0.012287324294447899,-0.000518108659889549,-0.009439783170819283
0.024668969213962555,0.004592509474605322,-0.016168130561709404,0.012484956532716751,-0.0005121855647303164,-0.00958000123500824
0.0246531181037426,0.004525619558990002,-0.016875671222805977,0.011592349037528038,-0.0006022370071150362,-0.009532243944704533
0.02486911602318287,0.004375077784061432,-0.01678447611629963,0.012046470306813717,-0.0006232434534467757,-0.009707177989184856
0.02538079023361206,0.004613790195435286,-0.016486607491970062,0.012307343073189259,-0.0006047809729352593,-0.009738652966916561
0.026007218286395073,0.0046100798062980175,-0.017018165439367294,0.012012568302452564,-0.0006313950871117413,-0.009488044306635857
0.0247054286301136,0.004477333277463913,-0.016797227784991264,0.012287537567317486,-0.0006396575481630862,-0.009791718795895576
0.023472845554351807,0.004603289067745209,-0.017438026145100594,0.012384497560560703,-0.0006076325662434101,-0.010065612383186817
0.025730373337864876,0.004491088911890984,-0.016936535015702248,0.013108687475323677,-0.000693928508553654,-0.010290764272212982
0.02613002434372902,0.0042603774927556515,-0.016596052795648575,0.01253532525151968,-0.0007246211753226817,-0.010221358388662338
0.025313545018434525,0.0040562995709478855,-0.017115361988544464,0.013022059574723244,-0.0006975757423788309,-0.010418091900646687
0.025919560343027115,0.004111901856958866,-0.017410192638635635,0.01263472344726324,-0.0006698879878968,-0.010219869203865528
0.025958990678191185,0.004272094462066889,-0.017991928383708,0.012727072462439537,-0.0006717828800901771,-0.01065446250140667
0.026168256998062134,0.004421653691679239,-0.01684066280722618,0.012423543259501457,-0.0006334754871204495,-0.011067225597798824
0.025548316538333893,0.004632899537682533,-0.016790563240647316,0.01223704218864441,-0.0006497267750091851,-0.010358916595578194
0.024641726166009903,0.004582574591040611,-0.01770537905395031,0.012418531812727451,-0.000573844532482326,-0.010210283100605011
0.024708056822419167,0.004332860931754112,-0.017239969223737717,0.011653020977973938,-0.0006035891710780561,-0.010126857087016106
0.02560260333120823,0.004339957144111395,-0.016818668693304062,0.011845747008919716,-0.0005484091816470027,-0.01021755114197731
0.02624090202152729,0.004671397618949413,-0.016521835699677467,0.011852717958390713,-0.0004981571109965444,-0.010283628478646278
0.025660693645477295,0.004751230124384165,-0.017199799418449402,0.012534962967038155,-0.0005117887048982084,-0.010386696085333824
0.025836164131760597,0.004491578787565231,-0.017026204615831375,0.012924384325742722,-0.00045504706213250756,-0.01050477009266615
0.026049137115478516,0.0044210003688931465,-0.01727544330060482,0.01285780780017376,-0.000476827728562057,-0.010380405932664871
0.026049137115478516,0.0044210003688931465,-0.01727544330060482,0.01285780780017376,-0.000476827728562057,-0.010380405932664871
0.02583017386496067,0.004634461831301451,-0.016913969069719315,0.012753072194755077,-0.0004539085493888706,-0.010343754664063454
0.025829218327999115,0.004739829804748297,-0.017223834991455078,0.013338041491806507,-0.0004187019367236644,-0.010723944753408432
0.025875549763441086,0.004735185764729977,-0.017498837783932686,0.012757161632180214,-0.00038246368058025837,-0.010679006576538086
0.025820590555667877,0.004449093714356422,-0.016892416402697563,0.012880532070994377,-0.00041793633135966957,-0.010724618099629879
0.025994032621383667,0.004660871811211109,-0.017367679625749588,0.013213849626481533,-0.0004398919700179249,-0.010842875577509403
0.026249762624502182,0.00489920424297452,-0.017220204696059227,0.01314043253660202,-0.0004253976803738624,-0.011230363510549068
0.026134906336665154,0.004413713235408068,-0.017404433339834213,0.012788782827556133,-0.0004414195427671075,-0.010693403892219067
0.02645188942551613,0.004556320607662201,-0.017396043986082077,0.012722552753984928,-0.00042833041516132653,-0.01073615811765194
0.026475971564650536,0.004717359784990549,-0.01686016656458378,0.012884744442999363,-0.0005554310628212988,-0.010857206769287586
0.02661319077014923,0.005062590818852186,-0.017490681260824203,0.01232409942895174,-0.000538994965609163,-0.01090719923377037
0.026830237358808517,0.0049471682868897915,-0.01725437119603157,0.012595146894454956,-0.0005674936692230403,-0.010188831016421318
0.026614990085363388,0.005207313224673271,-0.01720190793275833,0.012411123141646385,-0.0005238823359832168,-0.010366890579462051
0.026120251044631004,0.004919331055134535,-0.01739742048084736,0.012890223413705826,-0.00047819092287681997,-0.01053895615041256
0.027415627613663673,0.004893495235592127,-0.016836486756801605,0.013253908604383469,-0.0005073139909654856,-0.010854174382984638
0.027372924610972404,0.005054610315710306,-0.01738564297556877,0.013777131214737892,-0.00047359164454974234,-0.010954681783914566
0.027727946639060974,0.004849548917263746,-0.01676372066140175,0.01389121450483799,-0.0004992730100639164,-0.010997139848768711
0.026979252696037292,0.004752543289214373,-0.017321862280368805,0.014053432270884514,-0.00047046979307197034,-0.010675427503883839
0.025908922776579857,0.004661643877625465,-0.017245715484023094,0.013967929407954216,-0.0004691612266469747,-0.010904385708272457
0.02696099877357483,0.004752711858600378,-0.017272740602493286,0.01410799939185381,-0.0005096724489703774,-0.010883587412536144
0.028034623712301254,0.004850458819419146,-0.017940932884812355,0.014227022416889668,-0.0005283267819322646,-0.011315596289932728
0.02735462784767151,0.004815802909433842,-0.017050892114639282,0.014531048014760017,-0.0005041842814534903,-0.011110094375908375
0.027497906237840652,0.00432761013507843,-0.01751735433936119,0.014300301671028137,-0.0005300436168909073,-0.010830124840140343
0.027497906237840652,0.00432761013507843,-0.01751735433936119,0.014300301671028137,-0.0005300436168909073,-0.010830124840140343
0.02830175869166851,0.004679291043430567,-0.01775388792157173,0.013345310464501381,-0.0007902044453658164,-0.011304332874715328
0.02734025940299034,0.0046521639451384544,-0.01701783388853073,0.013762570917606354,-0.0008031526231206954,-0.012433795258402824
0.027478007599711418,0.004490535706281662,-0.017110342159867287,0.013909493573009968,-0.0009595415322110057,-0.010981048457324505
0.028144313022494316,0.004891772288829088,-0.017312994226813316,0.014261090196669102,-0.0009368410101160407,-0.010714283213019371
0.028144313022494316,0.004891772288829088,-0.017312994226813316,0.014261090196669102,-0.0009368410101160407,-0.010714283213019371
0.0279652439057827,0.005245910957455635,-0.017144721001386642,0.013672620989382267,-0.0008618392748758197,-0.01127665676176548
0.028132924810051918,0.004953744355589151,-0.018001386895775795,0.013907807879149914,-0.0007471988210454583,-0.012024945579469204
0.0284266397356987,0.004916744772344828,-0.017842335626482964,0.013447773642838001,-0.0007503113592974842,-0.01156898494809866
0.027989991009235382,0.004825851880013943,-0.01783067174255848,0.014250481501221657,-0.0006817076355218887,-0.011182233691215515
0.028057701885700226,0.004789389669895172,-0.017828108742833138,0.013717306777834892,-0.0006974231800995767,-0.01130662951618433
0.028467664495110512,0.0046906801871955395,-0.017403526231646538,0.014253257773816586,-0.0006406870670616627,-0.011335146613419056
0.028609944507479668,0.004688188899308443,-0.017853649333119392,0.013576018624007702,-0.0005467250593937933,-0.0117269828915596
0.028818480670452118,0.004738049115985632,-0.01780693605542183,0.014107057824730873,-0.0005546354805119336,-0.01219110656529665
0.028778618201613426,0.004711623303592205,-0.017914151772856712,0.013810094445943832,-0.0005644362536258996,-0.011957569979131222
0.028876299038529396,0.0043580178171396255,-0.01815708354115486,0.014283456839621067,-0.0005926178419031203,-0.011874286457896233
0.029121840372681618,0.004022431094199419,-0.01756136305630207,0.01427987776696682,-0.0005862456164322793,-0.012228736653923988
0.029406750574707985,0.004104206338524818,-0.018108012154698372,0.01459450088441372,-0.0008452744223177433,-0.01224434468895197
0.027312500402331352,0.004277962725609541,-0.017859581857919693,0.014482410624623299,-0.0008033157209865749,-0.012487226165831089
0.029603511095046997,0.0048394231125712395,-0.01765093393623829,0.014651201665401459,-0.0008044912829063833,-0.01186539139598608
0.02904960885643959,0.004923917353153229,-0.018418900668621063,0.014267590828239918,-0.000814756378531456,-0.011946257203817368
0.02874249778687954,0.004551442340016365,-0.019183849915862083,0.01461700163781643,-0.0008581032743677497,-0.011693370528519154
0.029151927679777145,0.004347420763224363,-0.018718592822551727,0.01443652343004942,-0.0008691593538969755,-0.012169094756245613
0.029312660917639732,0.004063403699547052,-0.0184304341673851,0.014852252788841724,-0.0007795194396749139,-0.012086334638297558
0.029454568400979042,0.003915427718311548,-0.017740299925208092,0.014662092551589012,-0.0006830530473962426,-0.01202153880149126
0.029977813363075256,0.004319871310144663,-0.018288766965270042,0.015005229972302914,-0.0006800291012041271,-0.012249378487467766
0.029609113931655884,0.004620052408427,-0.018906131386756897,0.014198373071849346,-0.0006340985419228673,-0.011890520341694355
0.02974581904709339,0.004226975608617067,-0.018554454669356346,0.014753407798707485,-0.0005773978191427886,-0.012026856653392315
0.02992841601371765,0.00437626289203763,-0.01905433088541031,0.014549238607287407,-0.0005941083654761314,-0.012171727605164051
0.029941564425826073,0.004159103613346815,-0.01863287389278412,0.015180873684585094,-0.0005569871864281595,-0.012138771824538708
0.030104901641607285,0.003942799288779497,-0.01774989813566208,0.014613538980484009,-0.0005012289038859308,-0.012341517955064774
0.03007970191538334,0.004619070328772068,-0.018873073160648346,0.014596912078559399,-0.0004735534021165222,-0.012549511156976223
0.03006407991051674,0.0047438438050448895,-0.018922198563814163,0.014661838300526142,-0.00043974528671242297,-0.012380491010844707
0.029946964234113693,0.004428771790117025,-0.01906258799135685,0.014443968422710896,-0.0004699264245573431,-0.012475096620619297
0.030393194407224655,0.0045447321608662605,-0.01856232061982155,0.014926979318261147,-0.00044113420881330967,-0.012516607530415058
0.030393194407224655,0.0045447321608662605,-0.01856232061982155,0.014926979318261147,-0.00044113420881330967,-0.012516607530415058
0.031178129836916924,0.004131287802010775,-0.01804221048951149,0.014730510301887989,-0.00046731968177482486,-0.012692591175436974
0.031064534559845924,0.003858584677800536,-0.020005688071250916,0.015085926279425621,-0.00044219792471267283,-0.012819281779229641
0.02926221489906311,0.0040014078840613365,-0.01792137138545513,0.014861954376101494,-0.0005306306411512196,-0.013002846390008926
0.03015933185815811,0.004028192721307278,-0.018033625558018684,0.015340212732553482,-0.0005624772165901959,-0.01295164879411459
0.031063079833984375,0.004339567385613918,-0.019702866673469543,0.015546631999313831,-0.0005303965881466866,-0.013112181797623634
0.030726125463843346,0.0045290496200323105,-0.018912095576524734,0.015500040724873543,-0.0005232744733802974,-0.012687930837273598
0.031449347734451294,0.004413186106830835,-0.018566828221082687,0.015345636755228043,-0.0005158497951924801,-0.012353533878922462
0.03205937147140503,0.004061070270836353,-0.018752090632915497,0.015291117131710052,-0.0005121009889990091,-0.012706954963505268
0.03144851699471474,0.004176132380962372,-0.018221423029899597,0.015019090846180916,-0.0005065158475190401,-0.012836653739213943
0.030801896005868912,0.004255608189851046,-0.018828311935067177,0.014717286452651024,-0.0005246571963652968,-0.01295712310820818
0.03078646771609783,0.004080425016582012,-0.01910259947180748,0.01520256046205759,-0.0005137676489539444,-0.01313926000148058
0.031846821308135986,0.004218961112201214,-0.018565207719802856,0.015093967318534851,-0.0005317858303897083,-0.013341878540813923
0.03155359998345375,0.004099249839782715,-0.019144361838698387,0.01589270308613777,-0.0005032478948123753,-0.013500089757144451
0.031159963458776474,0.0043195015750825405,-0.019382547587156296,0.015513632446527481,-0.0005278982571326196,-0.01352220680564642
0.03219939023256302,0.004579305183142424,-0.01869914121925831,0.016268465667963028,-0.0005297873867675662,-0.013514486141502857
0.03161827474832535,0.0045441738329827785,-0.01909368857741356,0.015721376985311508,-0.0005231873947195709,-0.013249491341412067
0.03127988427877426,0.004327770322561264,-0.019123775884509087,0.015247984789311886,-0.0006073990953154862,-0.012914511375129223
0.03221910446882248,0.004043168853968382,-0.01886574737727642,0.014630782417953014,-0.0006546552176587284,-0.01297028362751007
0.03267336264252663,0.0041697365231812,-0.019598009064793587,0.015288259834051132,-0.000675610383041203,-0.01287760864943266
0.031898126006126404,0.004615652374923229,-0.019352061673998833,0.015462958253920078,-0.0006859065615572035,-0.01300857961177826
0.03266972303390503,0.004751476459205151,-0.018803896382451057,0.015906188637018204,-0.0006465164478868246,-0.01294516958296299
0.03140993416309357,0.0040268790908157825,-0.018962781876325607,0.015777045860886574,-0.0007893807487562299,-0.013057881034910679
0.031744059175252914,0.003907929174602032,-0.018734637647867203,0.01612181030213833,-0.0007590195746161044,-0.013643315061926842
0.031704727560281754,0.0039175888523459435,-0.019617227837443352,0.01568792015314102,-0.0007226410089060664,-0.01335017941892147
0.033369485288858414,0.0039147017523646355,-0.019380172714591026,0.016993988305330276,-0.0007312098750844598,-0.0131237106397748
0.03348512947559357,0.004342004656791687,-0.018741725012660027,0.016801806166768074,-0.0006737814983353019,-0.012910605408251286
0.03197731450200081,0.004524125251919031,-0.019087376073002815,0.016723359003663063,-0.0006540159229189157,-0.013363150879740715
0.032153140753507614,0.004665063694119453,-0.01935175061225891,0.01628132164478302,-0.0006775031215511262,-0.013573811389505863
0.03312905877828598,0.0042439852841198444,-0.01892090030014515,0.015685301274061203,-0.0007023538346402347,-0.013939106836915016
0.03312905877828598,0.0042439852841198444,-0.01892090030014515,0.015685301274061203,-0.0007023538346402347,-0.013939106836915016
0.032201219350099564,0.003946640994399786,-0.019592586904764175,0.01609896682202816,-0.0007225575391203165,-0.01373632624745369
0.032648585736751556,0.004253752529621124,-0.01964889094233513,0.015696391463279724,-0.0007960147922858596,-0.013536126352846622
0.03363966941833496,0.004295208025723696,-0.018794866278767586,0.016141774132847786,-0.000895777135156095,-0.013913487084209919
0.03416157886385918,0.004001201596111059,-0.019224951043725014,0.01638484001159668,-0.0008045315626077354,-0.014081212691962719
0.032413169741630554,0.0043677669018507,-0.019495664164423943,0.017312537878751755,-0.0008107301546260715,-0.01407634001225233
0.0324883759021759,0.00411082711070776,-0.01934174820780754,0.017150182276964188,-0.0008205297635868192,-0.013781478628516197
0.033601656556129456,0.0038140632677823305,-0.02019011601805687,0.01648249663412571,-0.0008476657676510513,-0.013856393285095692
0.03358421102166176,0.0037208101712167263,-0.019957637414336205,0.016753926873207092,-0.0008660581661388278,-0.014281378127634525
0.033086735755205154,0.0037564020603895187,-0.019471295177936554,0.016576949506998062,-0.0008627174538560212,-0.014279193244874477
0.03388148173689842,0.0037802669685333967,-0.019040700048208237,0.0169795174151659,-0.000852385361213237,-0.01421783585101366
0.03374536707997322,0.0037783337756991386,-0.019136296585202217,0.016596216708421707,-0.0007934056920930743,-0.014082870446145535
0.033995822072029114,0.004018761217594147,-0.01893121935427189,0.016887275502085686,-0.0007949417340569198,-0.014333635568618774
0.033553313463926315,0.004605159163475037,-0.020038563758134842,0.016781402751803398,-0.0008001746609807014,-0.014471830800175667
0.03380336984992027,0.004257766995579004,-0.020291943103075027,0.01662689447402954,-0.0007109441212378442,-0.014478861354291439
0.03394725173711777,0.003917056601494551,-0.019513629376888275,0.01673668995499611,-0.0007261220598593354,-0.01455632783472538
0.03416058048605919,0.003789952490478754,-0.019892645999789238,0.016539964824914932,-0.000656735326629132,-0.014630153775215149
0.034238301217556,0.0043196589685976505,-0.020544523373246193,0.01695568487048149,-0.0006739243399351835,-0.014745496213436127
0.034499313682317734,0.004592601675540209,-0.019966036081314087,0.016779901459813118,-0.0006255179760046303,-0.01491430215537548
0.03442669287323952,0.0042272936552762985,-0.019329197704792023,0.016397204250097275,-0.0005657387664541602,-0.014919408597052097
0.034555088728666306,0.004310547839850187,-0.020191075280308723,0.015970539301633835,-0.000620443606749177,-0.014437257312238216
0.03327428549528122,0.004489419516175985,-0.019736336544156075,0.016185181215405464,-0.0006459694704972208,-0.014123387634754181
0.035416129976511,0.004130314104259014,-0.020020239055156708,0.01614154875278473,-0.000742649135645479,-0.014513924717903137
0.03542901575565338,0.004441944882273674,-0.02043744921684265,0.016587335616350174,-0.0007516656187362969,-0.014716723933815956
0.03493804857134819,0.004210411570966244,-0.019591262564063072,0.01630190759897232,-0.000745899451430887,-0.014795244671404362
0.0347893089056015,0.003969776909798384,-0.020208146423101425,0.016735892742872238,-0.0006808873149566352,-0.014718413352966309
0.03516165912151337,0.004312945529818535,-0.02071535959839821,0.017095739021897316,-0.000693027803208679,-0.014717287383973598
0.034885067492723465,0.004367336630821228,-0.019959885627031326,0.01672830618917942,-0.0007013645954430103,-0.014896855689585209
0.034885067492723465,0.004367336630821228,-0.019959885627031326,0.01672830618917942,-0.0007013645954430103,-0.014896855689585209
0.035323988646268845,0.0044375332072377205,-0.01994011178612709,0.016628215089440346,-0.0006583821959793568,-0.014692955650389194
0.035507578402757645,0.00450724083930254,-0.020029397681355476,0.016400158405303955,-0.0006182100623846054,-0.014916998334228992
0.03539638593792915,0.004221523646265268,-0.019870569929480553,0.01689894124865532,-0.0006034606485627592,-0.015189502388238907
0.03565172478556633,0.004514047876000404,-0.019922256469726562,0.01665109023451805,-0.0005855075432918966,-0.015505257993936539
0.03483501449227333,0.004517971072345972,-0.02001240663230419,0.01636212319135666,-0.0005957314278930426,-0.015168808400630951
0.03654564544558525,0.004380919970571995,-0.02038494497537613,0.01675223559141159,-0.0005626308848150074,-0.0156564861536026
0.0370449498295784,0.0044390191324055195,-0.020096035674214363,0.016758132725954056,-0.0005814656033180654,-0.015350804664194584
0.034510623663663864,0.004229246638715267,-0.02012207917869091,0.017166418954730034,-0.0005492239724844694,-0.015480728819966316
0.03445000201463699,0.004275193437933922,-0.01974051259458065,0.01677139848470688,-0.0005984235322102904,-0.015719451010227203
0.035915520042181015,0.004439221695065498,-0.019713805988430977,0.017296139150857925,-0.0006344437715597451,-0.01583397202193737
0.03620327264070511,0.00423978827893734,-0.020314039662480354,0.01761431246995926,-0.0006626974209211767,-0.015631500631570816
0.03706059232354164,0.0042393202893435955,-0.020524166524410248,0.017666412517428398,-0.0006797008099965751,-0.015350946225225925
0.036743003875017166,0.004243521485477686,-0.020354200154542923,0.01822778582572937,-0.0007579481462016702,-0.015186168253421783
0.035270724445581436,0.004059145227074623,-0.020098630338907242,0.017615972086787224,-0.0008858039509505033,-0.01469049509614706
0.03530518710613251,0.004081540275365114,-0.020204704254865646,0.017226824536919594,-0.0009659777861088514,-0.015362550504505634
0.036545246839523315,0.004104279447346926,-0.020076321437954903,0.016799388453364372,-0.0011485764989629388,-0.01574617065489292
0.03619948774576187,0.004016437567770481,-0.01951858587563038,0.016069451346993446,-0.0012866791803389788,-0.016194000840187073
0.03616974130272865,0.004247159697115421,-0.019878873601555824,0.01767466403543949,-0.0011548108886927366,-0.016078703105449677
0.03624219819903374,0.0035308003425598145,-0.019813377410173416,0.017818788066506386,-0.0010046460665762424,-0.015353537164628506
0.03619494289159775,0.004146964754909277,-0.02018768899142742,0.017713233828544617,-0.0008731216075830162,-0.01572636514902115
0.03656236082315445,0.0040864828042685986,-0.020494097843766212,0.017345357686281204,-0.0008383832755498588,-0.015863848850131035
0.03619915992021561,0.0039618415758013725,-0.01994387060403824,0.018289538100361824,-0.0007531476439908147,-0.016415007412433624
0.036476410925388336,0.003903125412762165,-0.01975320279598236,0.0185832642018795,-0.0007648548344150186,-0.016196928918361664
0.03594539314508438,0.0034639891237020493,-0.019907573238015175,0.01865333318710327,-0.0007597894291393459,-0.015191014856100082
0.03594539314508438,0.0034639891237020493,-0.019907573238015175,0.01865333318710327,-0.0007597894291393459,-0.015191014856100082
0.03652327135205269,0.004060045816004276,-0.019889293238520622,0.018675778061151505,-0.0007089715800248086,-0.015122559852898121
0.037546198815107346,0.0041305748745799065,-0.019411465153098106,0.017971789464354515,-0.0006989130051806569,-0.015455496497452259
0.037013038992881775,0.0035746730864048004,-0.02019946463406086,0.01745384931564331,-0.000715126225259155,-0.0162446778267622
0.03529753535985947,0.0034556749742478132,-0.020327318459749222,0.017764631658792496,-0.0006957147270441055,-0.01625644788146019
0.03623552992939949,0.003513231175020337,-0.019667724147439003,0.01741393283009529,-0.0006686989800073206,-0.016281409189105034
0.03661191463470459,0.003693357575684786,-0.02035830356180668,0.017933793365955353,-0.0006819448317401111,-0.016649773344397545
0.03622002527117729,0.004241202492266893,-0.020749792456626892,0.018404096364974976,-0.000695908151101321,-0.015712948516011238
0.03792157024145126,0.0040404605679214,-0.020819658413529396,0.0181051604449749,-0.0007227672613225877,-0.01570846699178219
0.03727208077907562,0.003548659849911928,-0.020771315321326256,0.018337100744247437,-0.0007455149898305535,-0.01586054638028145
0.03530328720808029,0.003446825547143817,-0.0208442285656929,0.018040483817458153,-0.0007140258094295859,-0.016113685443997383
0.03658265992999077,0.0035721571184694767,-0.020711906254291534,0.01761169172823429,-0.0007322306628338993,-0.015993332490324974
0.03738987445831299,0.0043197013437747955,-0.019825199618935585,0.017895525321364403,-0.0009486498311161995,-0.016214653849601746
0.03743647783994675,0.004041697829961777,-0.020670633763074875,0.017399605363607407,-0.000953255221247673,-0.016498828306794167
0.03715283423662186,0.003868343308568001,-0.02115473337471485,0.01751135103404522,-0.0009466620394960046,-0.01675255037844181
0.036994438618421555,0.003956757951527834,-0.02100519649684429,0.01765030436217785,-0.0008928872994147241,-0.016333449631929398
0.037514250725507736,0.004066923633217812,-0.01998043619096279,0.017618568614125252,-0.0010098168859258294,-0.015897465869784355
0.037514250725507736,0.004066923633217812,-0.01998043619096279,0.017618568614125252,-0.0010098168859258294,-0.015897465869784355
