davideferrari95/blind_handover_controller/data/Test 74 - [2024-02-07 -- 15-51-40]/joint_states_data.csv
shoulder_pan_joint,shoulder_lift_joint,elbow_joint,wrist_1_joint,wrist_2_joint,wrist_3_joint
0.002957040211185813,-1.6648042319711287e-11,-0.005808153189718723,0.00554954307153821,0.00026331463595852256,0.002310513285920024
0.002857891609892249,-2.2335472772520848e-13,-0.005985728465020657,0.005262395367026329,0.00027073206729255617,0.002818070352077484
0.002857891609892249,-2.2335472772520848e-13,-0.005985728465020657,0.005262395367026329,0.00027073206729255617,0.002818070352077484
0.002441381337121129,0.00037405264447443187,-0.0061663188971579075,0.005841976497322321,0.0002768384583760053,0.0029400517232716084
0.002331166062504053,0.0003021025622729212,-0.0054624066688120365,0.005771203897893429,0.0002676268049981445,0.00288195488974452
0.0025486645754426718,0.00025852822000160813,-0.005736860446631908,0.005404472816735506,0.0002581027802079916,0.0026930859312415123
0.0025761460419744253,0.00029933007317595184,-0.005861004814505577,0.0050046625547111034,0.00024964564363472164,0.0027183471247553825
0.0026371891144663095,0.00030071064247749746,-0.006243975833058357,0.005123215727508068,0.0003012791567016393,0.0026551124174147844
0.002680867677554488,0.0002709468826651573,-0.006538210902363062,0.005557401571422815,0.0002865630085580051,0.0025170445442199707
0.0027275194879621267,0.000246230949414894,-0.006064633838832378,0.005302649922668934,0.000309404858853668,0.002381604164838791
0.002382088452577591,0.00022564626124221832,-0.005614417139440775,0.005169286392629147,0.0003043995820917189,0.002192823914811015
0.0025124133098870516,0.00020823715021833777,-0.005462752189487219,0.005021268036216497,0.0002889224560931325,0.0023764988873153925
0.0028123005758970976,0.0002568587369751185,-0.004887035582214594,0.0048555005341768265,0.0002966028987430036,0.0027405377477407455
0.0026016084011644125,0.00022548987180925906,-0.00683971494436264,0.005101048853248358,0.00029039496439509094,0.0027934431564062834
0.002424377016723156,0.0001657900575082749,-0.006140593905001879,0.005155972205102444,0.0003120505134575069,0.002649015747010708
0.0023001418448984623,0.0001314499240834266,-0.005437979009002447,0.0054898750968277454,0.00030360979144461453,0.002504851669073105
0.0022466061636805534,0.0001621828123461455,-0.005778559949249029,0.00522598996758461,0.00029161988641135395,0.0026124303694814444
0.0024503448512405157,0.0001713854435365647,-0.0056724813766777515,0.005229713395237923,0.0002802848757710308,0.0025353331584483385
0.0023854062892496586,0.00021299846412148327,-0.005969818215817213,0.004918043036013842,0.0002697826421353966,0.002372350310906768
0.002637272933498025,0.0002030517061939463,-0.006118156015872955,0.004730051849037409,0.00026003821403719485,0.0021596045698970556
0.0027972094248980284,0.00023961096303537488,-0.005512877367436886,0.004632141441106796,0.0002755286986939609,0.002157246693968773
0.002639259211719036,0.00022810387599747628,-0.006003811955451965,0.005020914599299431,0.0002821484813466668,0.0025845570489764214
0.0026593543589115143,0.0005357436602935195,-0.0058670868165791035,0.005050348117947578,0.0002669683890417218,0.0029392153955996037
0.0025124738458544016,0.0004904605448246002,-0.0063104452565312386,0.004880949389189482,0.00025210806052200496,0.002948097186163068
0.0024499332066625357,0.0005295537994243205,-0.00609551789239049,0.0051537854596972466,0.00023873486497905105,0.002734584966674447
0.0026318200398236513,0.00048332236474379897,-0.00601443974301219,0.00516664981842041,0.00022670371981803328,0.002497053472325206
0.002791815670207143,0.0005085642333142459,-0.006019363179802895,0.005361998453736305,0.0002532085054554045,0.002430802909657359
0.002791815670207143,0.0005085642333142459,-0.006019363179802895,0.005361998453736305,0.0002532085054554045,0.002430802909657359
0.0028408828657120466,0.00047813268611207604,-0.005868518725037575,0.005637413822114468,0.0002467591257300228,0.002482874318957329
0.0025592786259949207,0.0005701174377463758,-0.006271463818848133,0.004795028828084469,0.00022640678798779845,0.002980409888550639
0.0025592786259949207,0.0005701174377463758,-0.006271463818848133,0.004795028828084469,0.00022640678798779845,0.002980409888550639
0.0024709999561309814,0.0006168283289298415,-0.006058103870600462,0.004772640764713287,0.00021729549916926771,0.0027725312393158674
0.0024645747616887093,0.0006461780285462737,-0.006283245049417019,0.004924260079860687,0.00020888868311885744,0.0026673877146095037
0.0027877057436853647,0.0006699241930618882,-0.006790328770875931,0.005746216978877783,0.0002011079923249781,0.0025121811777353287
0.0028831243980675936,0.0009363701683469117,-0.006234924308955669,0.005494044162333012,0.00021779158851131797,0.002615472534671426
0.00282697519287467,0.0009524630149826407,-0.005687883589416742,0.005105146206915379,0.00021781001123599708,0.0029531086329370737
0.0025638926308602095,0.0009133679559454322,-0.005226690787822008,0.005118964239954948,0.00021100796584505588,0.002887095557525754
0.002494059968739748,0.0008340438362210989,-0.00581746781244874,0.005385782569646835,0.00020420001237653196,0.00306242355145514
0.002637996803969145,0.0008406475535593927,-0.0064958385191857815,0.005578333977609873,0.00019779021386057138,0.0027376345824450254
0.0025384253822267056,0.0009329255553893745,-0.006176905240863562,0.005232551135122776,0.0001917694607982412,0.002578465035185218
0.0026552360504865646,0.0009636340546421707,-0.005846761632710695,0.005384592339396477,0.00018610362894833088,0.00267586437985301
0.0024774796329438686,0.0013052655849605799,-0.005774552468210459,0.0051224976778030396,0.00017572146316524595,0.002855928847566247
0.0024842675775289536,0.001236062846146524,-0.007181587163358927,0.005200912244617939,0.0001709528296487406,0.0027145512867718935
0.002665850566700101,0.0010793600231409073,-0.006526573561131954,0.004987720865756273,0.00018707920389715582,0.0027706953696906567
0.002725860569626093,0.0010515792528167367,-0.006162581965327263,0.005073562264442444,0.0001851118286140263,0.0026442897506058216
0.0028490698896348476,0.0009348920430056751,-0.005965177435427904,0.005306135397404432,0.00018065315089188516,0.002656823256984353
0.0030961507000029087,0.0009261621162295341,-0.005969447549432516,0.005074514076113701,0.0001762427855283022,0.0028302385471761227
0.0027551227249205112,0.0010117144556716084,-0.006648346781730652,0.0048467060551047325,0.00017203227616846561,0.003117661690339446
0.0025862976908683777,0.0009435898973606527,-0.006052733864635229,0.0049652415327727795,0.00016801785386633128,0.0032118435483425856
0.0025862976908683777,0.0009435898973606527,-0.006052733864635229,0.0049652415327727795,0.00016801785386633128,0.0032118435483425856
0.0028506724629551172,0.001267093583010137,-0.006153833586722612,0.005376693792641163,0.0001605254947207868,0.003127848729491234
0.0029119078535586596,0.0015707430429756641,-0.007110887207090855,0.005482945591211319,0.00015702455129940063,0.002878630766645074
0.0027606517542153597,0.001501918421126902,-0.006860710680484772,0.0048764231614768505,0.00014348393597174436,0.0029399474151432514
0.002823305083438754,0.0013998020440340042,-0.006054982542991638,0.004607710521668196,0.00013607670553028584,0.002742936136201024
0.002880408661440015,0.0012652421137318015,-0.005889332387596369,0.004905508831143379,0.00013188752927817404,0.002590780146420002
0.002967093139886856,0.0011964694131165743,-0.005852302070707083,0.005438064690679312,0.00012811904889531434,0.002468125894665718
0.0033505416940897703,0.001247564796358347,-0.006338727194815874,0.005614536814391613,0.0001245714956894517,0.002402965445071459
0.0033505416940897703,0.001247564796358347,-0.006338727194815874,0.005614536814391613,0.0001245714956894517,0.002402965445071459
0.002978247357532382,0.0012357828672975302,-0.006804997567087412,0.005249539390206337,0.00012121562758693472,0.002321555744856596
0.003021650481969118,0.0013533231103792787,-0.006645882967859507,0.005057076457887888,0.00011803599045379087,0.00256827799603343
0.0030351027380675077,0.0015971774701029062,-0.0061907391063869,0.005531673319637775,0.00011501865810714662,0.0026464792899787426
0.0030409954488277435,0.0017081323312595487,-0.0062603093683719635,0.005634956527501345,0.00013162987306714058,0.002827441319823265
0.0028626995626837015,0.0015844034496694803,-0.006592688150703907,0.005797754507511854,0.00013111687439959496,0.002978714881464839
0.002960373880341649,0.0014143872540444136,-0.006254405714571476,0.005539514124393463,0.00012817964307032526,0.0031315297819674015
0.0029017385095357895,0.0014453137991949916,-0.006327636539936066,0.005620680749416351,0.0001252189395017922,0.003242304315790534
0.002999943681061268,0.0013959690695628524,-0.006441254634410143,0.005215619690716267,0.00012238150520715863,0.0030692603904753923
0.002797819906845689,0.0015201530186459422,-0.00619296170771122,0.005361576098948717,0.00011966942838625982,0.0028325507882982492
0.00287453131750226,0.0015876276884227991,-0.006406304892152548,0.005778858438134193,0.00011707495286827907,0.0027397761587053537
0.002907384419813752,0.0018437779508531094,-0.006022270768880844,0.005536666139960289,0.00013241473061498255,0.0028411573730409145
0.002914631739258766,0.0018367574084550142,-0.006179696414619684,0.005487472750246525,0.00012824041186831892,0.0030771458987146616
0.003023881698027253,0.0016679817344993353,-0.006608287338167429,0.0052553461864590645,0.00012568689999170601,0.0028444526251405478
0.003182923188433051,0.0016790295485407114,-0.006618585903197527,0.005689240992069244,0.00012322861584834754,0.0029095911886543036
0.003134561236947775,0.0017670022789388895,-0.006079881452023983,0.005777700338512659,0.00012086460628779605,0.002955022966489196
0.0028064860962331295,0.0022493251599371433,-0.005610598251223564,0.005680699832737446,0.00013440332259051502,0.0029939820524305105
0.00283356592990458,0.0022361932788044214,-0.005726045463234186,0.005683326628059149,0.0001329530350631103,0.0030180427711457014
0.0029215184040367603,0.002399784279987216,-0.006262751296162605,0.005532716866582632,0.00013060853234492242,0.003092084778472781
0.003153103170916438,0.0021116845309734344,-0.006490426603704691,0.005505820270627737,0.0001282859011553228,0.0031556463800370693
0.003491175128147006,0.0021189332474023104,-0.006223874632269144,0.005454428028315306,0.00012604042422026396,0.0030678363982588053
0.003218988887965679,0.0018929524812847376,-0.006020489148795605,0.005479763261973858,0.0001238719851244241,0.0033935033716261387
0.0030691216234117746,0.0020339724142104387,-0.005721206311136484,0.005654747132211924,0.00012177686585346237,0.0032419206108897924
0.0033710566349327564,0.0019082758808508515,-0.005731627345085144,0.005647873971611261,0.00011975148663623258,0.0030719153583049774
0.0033710566349327564,0.0019082758808508515,-0.005731627345085144,0.005647873971611261,0.00011975148663623258,0.0030719153583049774
0.003099987516179681,0.0021367992740124464,-0.0059553212486207485,0.005473817698657513,0.00014361274952534586,0.002959028584882617
0.003120885929092765,0.0023312424309551716,-0.0061134276911616325,0.005511400289833546,0.00014738306344952434,0.0031787410844117403
0.0029198694974184036,0.0022619788069278,-0.006119904108345509,0.00546047231182456,0.0001432449062122032,0.00318341632373631
0.0033238353207707405,0.0024176735896617174,-0.006045535206794739,0.005735632032155991,0.00013886041415389627,0.0032659934367984533
0.003762312699109316,0.0021771874744445086,-0.006036998238414526,0.006104138679802418,0.00013470575504470617,0.003292134730145335
0.00389712187461555,0.002221704926341772,-0.005675547290593386,0.006185505539178848,0.0001307905768044293,0.0030095370020717382
0.0033465162850916386,0.0023473806213587523,-0.005770457908511162,0.005869597662240267,0.00012709615111816674,0.003048781305551529
0.0029317017178982496,0.0022429523523896933,-0.005675148218870163,0.005610196851193905,0.00012360504479147494,0.003045886754989624
0.002989024156704545,0.0025319510605186224,-0.005758446641266346,0.005277443677186966,0.00012030045036226511,0.0032908704597502947
0.003378205467015505,0.0023933087941259146,-0.006030576769262552,0.005066136363893747,0.00011716764856828377,0.0032524154521524906
0.0032914376351982355,0.002499127062037587,-0.005813488271087408,0.005303442943841219,0.00011419433576520532,0.0033959534484893084
0.0033111507073044777,0.0028215753845870495,-0.0053285048343241215,0.005708823911845684,0.00010867828677874058,0.00311827240511775
0.003537972690537572,0.0025581636000424623,-0.0058229961432516575,0.00521798525005579,0.00010611548350425437,0.002954822964966297
0.0033842974808067083,0.0023303856141865253,-0.005937587469816208,0.0048569971695542336,0.0001190448529087007,0.003197649959474802
0.003333446104079485,0.002181694842875004,-0.006094022653996944,0.005075925029814243,0.00012125323701184243,0.003679518122226
0.0032029924914240837,0.0022778529673814774,-0.005512611009180546,0.005099588073790073,0.00011890222958754748,0.003926373552531004
0.003352668136358261,0.0022021562326699495,-0.005416516680270433,0.005828480701893568,0.00011636075214482844,0.0035039905924350023
0.0033435283694416285,0.0023692480754107237,-0.00534787867218256,0.005892866291105747,0.00011390764848329127,0.0032451713923364878
0.003398914122954011,0.002639773767441511,-0.005979721900075674,0.0056117381900548935,0.00011155448009958491,0.00313941715285182
0.0031722753774374723,0.00249513890594244,-0.006380291189998388,0.0051332153379917145,0.00010929669952020049,0.003267318941652775
0.003387243952602148,0.0025906835217028856,-0.005857763346284628,0.00519953528419137,0.00010712833318393677,0.0034403540194034576
0.0036968509666621685,0.0024552149698138237,-0.005567327607423067,0.005635082256048918,0.00010504433157620952,0.0034168746788054705
0.0038620303384959698,0.0022767684422433376,-0.005257805809378624,0.006074072327464819,0.00010304000898031518,0.003449611831456423
0.0034598088823258877,0.0022678470704704523,-0.005104993935674429,0.005767427384853363,0.00010111054871231318,0.0036030258052051067
0.003294536145403981,0.0020505227148532867,-0.00581519678235054,0.0056928545236587524,9.925213817041367e-05,0.0038293541874736547
0.0033857710659503937,0.002124942373484373,-0.006490302737802267,0.005323230754584074,9.746074647409841e-05,0.0034612317103892565
0.0033857710659503937,0.002124942373484373,-0.006490302737802267,0.005323230754584074,9.746074647409841e-05,0.0034612317103892565
0.0034405088517814875,0.0020429722499102354,-0.005601154640316963,0.005393553990870714,9.573288116371259e-05,0.003569131949916482
0.003568544052541256,0.0022334917448461056,-0.005358975846320391,0.005314041394740343,9.406528261024505e-05,0.0033155609853565693
0.0036857163067907095,0.001938289380632341,-0.005619019735604525,0.006088492926210165,9.245474939234555e-05,0.0034025865606963634
0.0038916519843041897,0.0011407124111428857,-0.005617914721369743,0.006141331046819687,9.089843661058694e-05,0.003498279256746173
0.004008959047496319,0.00064340780954808,-0.005948245525360107,0.005827557761222124,8.939375402405858e-05,0.0033888474572449923
0.0038658599369227886,-0.000469595572212711,-0.005914090666919947,0.005171020049601793,8.793792949290946e-05,0.0034717379603534937
0.0036509877536445856,-0.0002271173580083996,-0.005582344252616167,0.005269790068268776,8.652880933368579e-05,0.003301989985629916
0.0036208382807672024,-3.0470694127870956e-06,-0.005457988474518061,0.005675872787833214,8.516417437931523e-05,0.0035151962656527758
0.0036845572758466005,-4.088032312665746e-08,-0.005491521209478378,0.00588919036090374,8.384184184251353e-05,0.004168626852333546
0.0037520769983530045,-5.484616649731322e-10,-0.006395635660737753,0.0052501363679766655,9.540766041027382e-05,0.004126210696995258
0.003789655165746808,0.001271096058189869,-0.006473367568105459,0.004905404057353735,9.481008601142094e-05,0.003978276159614325
0.003828460583463311,0.0006912740063853562,-0.006155462469905615,0.0056477924808859825,9.209570271195844e-05,0.0034751815255731344
0.0038376604206860065,0.0005777888582088053,-0.006538142450153828,0.0057441373355686665,9.076901915250346e-05,0.003402214264497161
0.0037710294127464294,0.0004977654898539186,-0.0068038408644497395,0.005266210064291954,8.947990863816813e-05,0.003399335313588381
0.0042096031829714775,0.00043725516297854483,-0.006269944831728935,0.004935780074447393,8.822674863040447e-05,0.0036045503802597523
0.003578166477382183,0.00039401627145707607,-0.006291314493864775,0.005043441895395517,8.700828766450286e-05,0.00342002441175282
0.00343350600451231,0.00012318050721660256,-0.006798190530389547,0.005295444279909134,8.582310692872852e-05,0.0034184055402874947
0.0035054730251431465,0.00010572215251158923,-0.006863794755190611,0.0057859597727656364,8.46696348162368e-05,0.0035928497090935707
0.004284356255084276,9.456533007323742e-05,-0.006438962183892727,0.005483964923769236,8.354671444976702e-05,0.004154128488153219
0.004284356255084276,9.456533007323742e-05,-0.006438962183892727,0.005483964923769236,8.354671444976702e-05,0.004154128488153219
0.004673582036048174,8.556953980587423e-05,-0.006056348327547312,0.005263361614197493,8.245334174716845e-05,0.004107267130166292
0.0040882970206439495,7.189323514467105e-05,-0.006802481599152088,0.004955217242240906,8.03501607151702e-05,0.0034810169599950314
0.0040882970206439495,7.189323514467105e-05,-0.006802481599152088,0.004955217242240906,8.03501607151702e-05,0.0034810169599950314
0.003961544018238783,6.657394260400906e-05,-0.007390860468149185,0.005827941466122866,7.933830784168094e-05,0.0033568432554602623
0.004278452135622501,0.00011588592315092683,-0.006303146481513977,0.005713487975299358,7.738920976407826e-05,0.0036545402836054564
0.004039399791508913,0.00010896170715568587,-0.006379751954227686,0.00574462441727519,7.645006553502753e-05,0.004154302179813385
0.004039399791508913,0.00010896170715568587,-0.006379751954227686,0.00574462441727519,7.645006553502753e-05,0.004154302179813385
0.004154916387051344,0.00014798800111748278,-0.007337212562561035,0.005861635785549879,7.553346222266555e-05,0.004182765260338783
0.0040664030238986015,0.00014570928760804236,-0.006937672384083271,0.006110475864261389,7.463853398803622e-05,0.003982885275036097
0.0038312815595418215,0.0001789465022739023,-0.006156719755381346,0.006005571689456701,7.376470603048801e-05,0.00343545014038682
0.004235177766531706,0.000175366600160487,-0.005971930455416441,0.0057955156080424786,7.29110324755311e-05,0.0033729441929608583
0.004068517591804266,0.000283613073406741,-0.005833603907376528,0.005636219866573811,7.207684393506497e-05,0.0035701452288776636
0.0035846075043082237,0.00028073828434571624,-0.006554395891726017,0.005684377159923315,7.12616165401414e-05,0.003787888679653406
0.004110637120902538,0.0003165723755955696,-0.006781680043786764,0.0059934877790510654,7.046455721138045e-05,0.0038594063371419907
0.004576726816594601,0.0003476021811366081,-0.006415596231818199,0.006097365170717239,6.968517118366435e-05,0.004290588200092316
0.004617541097104549,0.0003766331938095391,-0.005758162587881088,0.006085988134145737,4.549944151222007e-06,0.00412845890969038
0.004362826235592365,0.0006620818749070168,-0.006480839103460312,0.006012385245412588,2.970788557377091e-07,0.004420712124556303
0.0042044329456985,0.000702253426425159,-0.006628914270550013,0.006346437148749828,1.939712390708337e-08,0.0038809911347925663
0.004131068009883165,0.0007289891946129501,-0.006271710619330406,0.006411024834960699,1.266493576679295e-09,0.0035532896872609854
0.004458514973521233,0.0005751100834459066,-0.00615588016808033,0.0060196672566235065,5.399260899485725e-12,0.0042553977109491825
0.004279016517102718,0.0005957995308563113,-0.006184864789247513,0.005981392692774534,3.5253316108332933e-13,0.004037406295537949
0.0040010716766119,0.0005529510090127587,-0.006392794661223888,0.0060024322010576725,2.3017893336805748e-14,0.004259656183421612
0.004103472456336021,0.0005780208157375455,-0.006340205203741789,0.006483450997620821,1.5029038990822243e-15,0.004190762061625719
0.004046328365802765,0.000539024593308568,-0.005565917585045099,0.006089875474572182,9.81288860534189e-17,0.003775020595639944
0.004531963262706995,0.0005666359793394804,-0.005964220035821199,0.00589152704924345,6.407114790938219e-18,0.0034668592270463705
0.004253180231899023,0.0005987678887322545,-0.007323437836021185,0.005281349178403616,4.183388141310569e-19,0.0035966108553111553
0.004360924940556288,0.0006073410622775555,-0.006571359466761351,0.0051488131284713745,2.73145345710924e-20,0.004218675196170807
0.004320453852415085,0.0005832561873830855,-0.006241632159799337,0.005502851214259863,1.7834438098265923e-21,0.0042337337508797646
0.004320453852415085,0.0005832561873830855,-0.006241632159799337,0.005502851214259863,1.7834438098265923e-21,0.0042337337508797646
0.004616114776581526,0.0007087166304700077,-0.006054088473320007,0.00611402140930295,7.603100569088003e-24,0.004148297943174839
0.004616114776581526,0.0007087166304700077,-0.006054088473320007,0.00611402140930295,7.603100569088003e-24,0.004148297943174839
0.004712661262601614,0.0007332146633416414,-0.006854033563286066,0.005949962884187698,4.964281461995131e-25,0.003984919749200344
0.004753409419208765,0.0006469556828960776,-0.006611678283661604,0.005388949066400528,3.241321299327461e-26,0.003871070919558406
0.004393748939037323,0.0006403068546205759,-0.0060605499893426895,0.005830700974911451,2.116351067627674e-27,0.0041890270076692104
0.004479249007999897,0.0006083790794946253,-0.006029563490301371,0.006334896199405193,1.3818259665192974e-28,0.004046334885060787
0.004254255443811417,0.0006311102188192308,-0.006401651073247194,0.00635345745831728,9.022336301996276e-30,0.003953241743147373
0.004374744836241007,0.0005873680929653347,-0.0064346701838076115,0.0061811828054487705,5.8909410385809e-31,0.004023790825158358
0.0049585276283323765,0.0005306346574798226,-0.006295141763985157,0.005371610634028912,3.8463635710636144e-32,0.0040740566328167915
0.004914844874292612,0.0005683134659193456,-0.006091790739446878,0.005700406618416309,2.5114007015196153e-33,0.004344650078564882
0.00449382746592164,0.0005975629319436848,-0.00595167838037014,0.006434965413063765,1.6397650282291658e-34,0.004359518177807331
0.0044568805024027824,0.0006238773930817842,-0.006324628368020058,0.006382153835147619,1.0706492804362962e-35,0.004559003282338381
0.004519758280366659,0.0007799671730026603,-0.0062523880042135715,0.006002774462103844,6.990574916315881e-37,0.0044962079264223576
0.0045685479417443275,0.0008791943546384573,-0.005831063259392977,0.0054350546561181545,4.5643460720185595e-38,0.004143865779042244
0.004689773544669151,0.0007853896240703762,-0.0061915055848658085,0.006460059899836779,1.9458570605460842e-40,0.004233513958752155
0.0047793216072022915,0.0007645548321306705,-0.007268437650054693,0.0064400965347886086,1.2705573176033116e-41,0.004487545695155859
0.004831176251173019,0.0007191615295596421,-0.0066225710324943066,0.006386641412973404,8.295686908802917e-43,0.004849938675761223
0.004767086356878281,0.0007084939279593527,-0.005988124758005142,0.006323459092527628,5.465064010866787e-44,0.004453712143003941
0.004673558287322521,0.0007360531017184258,-0.005733918398618698,0.006619297433644533,4.203895392974451e-45,0.004315715748816729
0.0047737532295286655,0.0008259559399448335,-0.0062633296474814415,0.006666656583547592,0.0,0.004136151634156704
0.004671061411499977,0.0007753087556920946,-0.006809219252318144,0.006451893597841263,0.0,0.003974963910877705
0.004945011809468269,0.001069278223440051,-0.006854839622974396,0.005533123854547739,0.0,0.004911563824862242
0.0050272694788873196,0.001043649041093886,-0.005865106359124184,0.00562501884996891,0.0,0.00472757825627923
0.004819841589778662,0.0009360073017887771,-0.0060791997238993645,0.006586827803403139,0.0,0.004156653769314289
0.004819841589778662,0.0009360073017887771,-0.0060791997238993645,0.006586827803403139,0.0,0.004156653769314289
0.004750858526676893,0.0009300711681134999,-0.00687587121501565,0.00677306205034256,0.0,0.0035399659536778927
0.004780718125402927,0.0008810645085759461,-0.007578653749078512,0.006312175653874874,0.0,0.004131408408284187
0.004950406961143017,0.0008924801950342953,-0.007006610743701458,0.005838718265295029,0.0,0.004666820168495178
0.004944634158164263,0.0009042149758897722,-0.005895307753235102,0.006307972129434347,0.0,0.004693451803177595
0.005325705744326115,0.0009037979179993272,-0.006433784496039152,0.0074765486642718315,0.0,0.004570368677377701
0.004970541223883629,0.0011540894629433751,-0.006911114323884249,0.0068189301528036594,0.0,0.004630518611520529
0.004879558924585581,0.0011557356920093298,-0.0073416209779679775,0.0056929802522063255,0.0,0.004671794828027487
0.004736884497106075,0.0011276229051873088,-0.00646887207403779,0.005372374784201384,0.0,0.004359737504273653
0.004745342768728733,0.0013257061364129186,-0.0063133505173027515,0.006001150235533714,0.0,0.004379040561616421
0.004742539022117853,0.0012475554831326008,-0.006453269626945257,0.006441641133278608,0.0,0.00460349814966321
0.0048811174929142,0.001223422004841268,-0.007152846083045006,0.00635939696803689,0.0,0.004637506790459156
0.0048592290841042995,0.0011899375822395086,-0.007294228300452232,0.006265269126743078,0.0,0.004373881500214338
0.004966021981090307,0.001142349443398416,-0.006685147061944008,0.005736479535698891,0.0,0.0045187026262283325
0.005001867190003395,0.001099761575460434,-0.006301915273070335,0.005945454817265272,0.0,0.004653138108551502
0.004841487389057875,0.0010814947308972478,-0.007091345731168985,0.006453337147831917,0.0,0.004663967993110418
0.004774885717779398,0.0011661166790872812,-0.006606375798583031,0.005631707608699799,0.0,0.0045854621566832066
0.004858152940869331,0.0011243992485105991,-0.007140107452869415,0.00531448470428586,0.0,0.004564241971820593
0.005101972259581089,0.0012781847035512328,-0.006807007826864719,0.006217991001904011,0.0,0.005104111507534981
0.0054068369790911674,0.0012519259471446276,-0.007152126170694828,0.006844664458185434,0.0,0.005137057043612003
0.005077955778688192,0.0012081755558028817,-0.006981964223086834,0.006249288562685251,0.0,0.004750693216919899
0.004989823326468468,0.0013750892831012607,-0.006606291979551315,0.005896994844079018,0.0,0.004767218139022589
0.005289330147206783,0.0012954771518707275,-0.006902047898620367,0.0053501371294260025,0.0,0.004855630453675985
0.004775092471390963,0.00123216665815562,-0.0073776571080088615,0.005673786159604788,0.0,0.0048589035868644714
0.005069756880402565,0.0013001015176996589,-0.007360158488154411,0.006387029774487019,0.0,0.005133182741701603
0.005069756880402565,0.0013001015176996589,-0.007360158488154411,0.006387029774487019,0.0,0.005133182741701603
0.005431806202977896,0.0012664789101108909,-0.006851864513009787,0.006194370798766613,0.0,0.005262487102299929
0.005433453246951103,0.0012282271636649966,-0.006428160239011049,0.006251944694668055,0.0,0.005115912761539221
0.005463060922920704,0.0013691589701920748,-0.007315573748201132,0.0057678199373185635,0.0,0.0048586525954306126
0.005228396039456129,0.0014152707299217582,-0.008143730461597443,0.005782132036983967,0.0,0.004747684113681316
0.005313804838806391,0.0016694780206307769,-0.00709847966209054,0.0061570582911372185,0.0,0.004749785177409649
0.0054191965609788895,0.001567241852171719,-0.006734738126397133,0.006053938530385494,0.0,0.005525319371372461
0.005659251939505339,0.0016661850968375802,-0.007077224086970091,0.005950408522039652,0.0,0.005209395661950111
0.005613221321254969,0.0015535744605585933,-0.007159773726016283,0.005518593825399876,0.0,0.004880860447883606
0.005562616046518087,0.0015427930047735572,-0.007013760972768068,0.006053333170711994,0.0,0.0049035572446882725
0.005395784042775631,0.0013921076897531748,-0.006910866592079401,0.006874228361994028,0.0,0.005204556975513697
0.0055231875739991665,0.0013011246919631958,-0.007507333066314459,0.006453406065702438,0.0,0.005341127514839172
0.005692595150321722,0.0013812644174322486,-0.007660591974854469,0.005902918055653572,0.0,0.005684258881956339
0.005392388440668583,0.0013885855441913009,-0.00735616497695446,0.006140053737908602,0.0,0.005243667867034674
0.005478364881128073,0.0013376334682106972,-0.006808583624660969,0.006786372512578964,0.0,0.005065087229013443
0.005456484854221344,0.0012339209206402302,-0.007075095549225807,0.006624987348914146,0.0,0.0047919899225234985
0.005685728974640369,0.0013220371911302209,-0.0071815913543105125,0.006411264650523663,0.0,0.005374162457883358
0.005692321341484785,0.00129010621458292,-0.006771088112145662,0.00622811634093523,0.0,0.005698535591363907
0.005627957172691822,0.0014764242805540562,-0.006892426870763302,0.0069369785487651825,0.0,0.005660866387188435
0.005733598954975605,0.0014209769433364272,-0.007074426393955946,0.006735846400260925,0.0,0.005137261934578419
0.005978731904178858,0.0013383168261498213,-0.006627650465816259,0.006427205633372068,0.0,0.00508179422467947
0.005752404686063528,0.0012274357723072171,-0.00712852505967021,0.00601861160248518,0.0,0.005276597570627928
0.005995697341859341,0.0012937235878780484,-0.007703566923737526,0.006247176788747311,0.0,0.005751000251621008
0.006017571780830622,0.001262371544726193,-0.007106468081474304,0.006822770927101374,0.0,0.005806323140859604
0.005520275328308344,0.0013818584848195314,-0.006562009919434786,0.0073644015938043594,0.0,0.005197741091251373
0.005520275328308344,0.0013818584848195314,-0.006562009919434786,0.0073644015938043594,0.0,0.005197741091251373
0.005768362898379564,0.0013434677384793758,-0.006661517079919577,0.0070228055119514465,0.0,0.005003642290830612
0.005914022214710712,0.001278258627280593,-0.00705375662073493,0.0063095116056501865,0.0,0.004972660448402166
0.006297648418694735,0.001393542275764048,-0.00753025384619832,0.006370801944285631,0.0,0.00489743473008275
0.006147794891148806,0.0013528151903301477,-0.007366474252194166,0.006607523187994957,0.0,0.005561486352235079
0.0060900975950062275,0.0013207418378442526,-0.0067785135470330715,0.0065615116618573666,0.0,0.005741976201534271
0.006125533487647772,0.001643845345824957,-0.006467544939368963,0.006720529403537512,0.0,0.005750633776187897
0.006327769719064236,0.0015610430855304003,-0.007067742757499218,0.006798527203500271,0.0,0.005431960336863995
0.006182475946843624,0.0017200704896822572,-0.00713663175702095,0.006828049663454294,0.0,0.005217323079705238
0.006212563719600439,0.00168942182790488,-0.006585002411156893,0.006598943378776312,0.0,0.00520706782117486
0.006461956072598696,0.0014947222080081701,-0.006792878266423941,0.006193643901497126,0.0,0.006313924677670002
0.006064501591026783,0.0013600540114566684,-0.006809709593653679,0.006090224254876375,0.0,0.00650546932592988
0.00641227001324296,0.0011054343776777387,-0.007383294403553009,0.006510959006845951,0.0,0.0061955759301781654
0.006500796414911747,0.0009175579762086272,-0.007420530542731285,0.006526790093630552,0.0,0.005667395889759064
0.005842215847223997,0.0009090350358746946,-0.006624894682317972,0.006326788570731878,0.0,0.005378025118261576
0.005843662191182375,0.0007550148875452578,-0.0071500190533697605,0.006236470770090818,0.0,0.005948291625827551
0.0064514800906181335,0.0007461656932719052,-0.007173995021730661,0.006608666852116585,0.0,0.006045113783329725
0.006667773239314556,0.000863982189912349,-0.006997426971793175,0.0066072698682546616,0.0,0.0059975082986056805
0.006375288590788841,0.0014847444836050272,-0.006764768157154322,0.0067641097120940685,0.0,0.00572699261829257
0.005970380734652281,0.0014651584206148982,-0.00745976809412241,0.006347214803099632,0.0,0.005912464577704668
0.006199889350682497,0.0013186350697651505,-0.007455801125615835,0.006537984125316143,0.0,0.005849748384207487
0.006670067086815834,0.0011574400123208761,-0.0065850079990923405,0.006621683947741985,0.0,0.0060401796363294125
0.006769303232431412,0.0009877111297100782,-0.006524604745209217,0.006786142475903034,0.0,0.005628530401736498
0.006481886375695467,0.000912895891815424,-0.00709061324596405,0.006307575386017561,0.0,0.005693294573575258
0.006395531818270683,0.0009102721232920885,-0.007170630618929863,0.00608085049316287,0.0,0.006246136501431465
0.006642183288931847,0.000909013906493783,-0.006920819170773029,0.00654451921582222,0.0,0.006283630151301622
0.006717501673847437,0.0008500805124640465,-0.0066764685325324535,0.00671746488660574,0.0,0.006432668771594763
0.0067133489064872265,0.0009625888196751475,-0.007127220742404461,0.0071025025099515915,0.0,0.006318611558526754
0.0067133489064872265,0.0009625888196751475,-0.007127220742404461,0.0071025025099515915,0.0,0.006318611558526754
0.006368550937622786,0.000987087725661695,-0.007504743058234453,0.006565244868397713,0.0,0.006039213389158249
0.006259227637201548,0.000975601898971945,-0.007268992252647877,0.0065572019666433334,0.0,0.006326492875814438
0.007187593728303909,0.0010226726299151778,-0.00719342241063714,0.006811232306063175,0.0,0.006537870038300753
0.006798220332711935,0.0010515126632526517,-0.0075472500175237656,0.006804132834076881,0.0,0.006444149650633335
0.0069436184130609035,0.0010270964121446013,-0.007972698658704758,0.007096062880009413,0.0,0.006196171976625919
0.006602487526834011,0.0009797646198421717,-0.006845888681709766,0.006597320549190044,0.0,0.006257158238440752
0.006663714535534382,0.0009006903856061399,-0.006789964158087969,0.00681877788156271,0.0,0.006268425844609737
0.007163290400058031,0.0009642447694204748,-0.006835625972598791,0.006885357201099396,0.0,0.006250955164432526
0.007518015336245298,0.0009996223961934447,-0.0074187046848237514,0.006842583883553743,7.285148512892192e-06,0.00620255246758461
0.007049087900668383,0.001321766758337617,-0.007194578647613525,0.006599093321710825,4.7566814487254305e-07,0.006298591382801533
0.006543353199958801,0.0015132719418033957,-0.006903413683176041,0.0064774490892887115,3.105773060951833e-08,0.0067314887419342995
0.0070695155300199986,0.001440542284399271,-0.0069276113063097,0.006922416388988495,2.0278481116520197e-09,0.006542138755321503
0.00690734526142478,0.001377659267745912,-0.007474677171558142,0.00687421066686511,1.324039905492569e-10,0.006273071747273207
0.006776140537112951,0.0012635535094887018,-0.00734306313097477,0.006814610678702593,8.645034341170366e-12,0.005922119133174419
0.006949097383767366,0.0011933050118386745,-0.007178834639489651,0.007087822072207928,5.64458961342662e-13,0.006256313528865576
0.007366381585597992,0.001145827118307352,-0.006541109178215265,0.007451880257576704,3.6855135371501035e-14,0.006710520014166832
0.007548216730356216,0.0009899282595142722,-0.007489532697945833,0.007489318959414959,1.5711922511552377e-16,0.006104663480073214
0.007043641526252031,0.0010704353917390108,-0.006917536724358797,0.00680080521851778,1.0258761785692879e-17,0.00652777636423707
0.0073476629331707954,0.001501172431744635,-0.00689725112169981,0.006741207558661699,6.698238732779573e-19,0.006937512196600437
0.007455360610038042,0.00145920948125422,-0.007366733159869909,0.0066689252853393555,4.373470950277502e-20,0.007116968277841806
0.007501556072384119,0.0013677189126610756,-0.007382635027170181,0.006612885277718306,2.8555637896974737e-21,0.00684851361438632
0.007501556072384119,0.0013677189126610756,-0.007382635027170181,0.006612885277718306,2.8555637896974737e-21,0.00684851361438632
0.0071291555650532246,0.0012686712434515357,-0.0070430519990623,0.006310942117124796,1.864479186594848e-22,0.006743177305907011
0.007670037914067507,0.0011961773270741105,-0.007119857240468264,0.006191851105540991,1.2173715688866948e-23,0.006892805453389883
0.007783911190927029,0.0011285747168585658,-0.0075597502291202545,0.006932706106454134,7.948567411387573e-25,0.007011790294200182
0.007470599375665188,0.0010931339347735047,-0.008016223087906837,0.00686890073120594,5.189846253822248e-26,0.006881500128656626
0.007953068241477013,0.0009655900648795068,-0.007124540861696005,0.006660684943199158,2.2125128941956745e-28,0.0070882998406887054
0.00836814846843481,0.0009555469732731581,-0.007272501941770315,0.0072760190814733505,1.4446128174317458e-29,0.007581064011901617
0.0075941202230751514,0.00096196896629408,-0.008012614212930202,0.0075111230835318565,9.432289862806001e-31,0.0068583558313548565
0.007617583964020014,0.001236304291523993,-0.008135547861456871,0.0071036661975085735,6.158610623767376e-32,0.006599955260753632
0.007648547179996967,0.0011370558058843017,-0.007645938079804182,0.006822045426815748,4.021132912002804e-33,0.006789540871977806
0.008196426555514336,0.001006025937385857,-0.008348487317562103,0.007162809371948242,2.6255123207209177e-34,0.006979427766054869
0.00786238256841898,0.000990009866654873,-0.00811227411031723,0.007063370663672686,1.7142719698227354e-35,0.0072074225172400475
0.007762768305838108,0.0008983791340142488,-0.007838050834834576,0.007315544877201319,1.1192970359414119e-36,0.007685023359954357
0.007691535633057356,0.0008949040784500539,-0.007663464639335871,0.007495942525565624,7.308210378132948e-38,0.007561992388218641
0.007909067906439304,0.0009824747685343027,-0.008740213699638844,0.007238272577524185,4.771739365777404e-39,0.007109326776117086
0.007909067906439304,0.0009824747685343027,-0.008740213699638844,0.007238272577524185,4.771739365777404e-39,0.007109326776117086
0.007492085453122854,0.001343535608612001,-0.007588379550725222,0.006953084841370583,3.1156049666258685e-40,0.0072681657038629055
0.007815086282789707,0.0013336717383936048,-0.008067370392382145,0.007155310362577438,2.034264980660337e-41,0.007529647089540958
0.007848193868994713,0.0012763033155351877,-0.008634469471871853,0.007078235503286123,1.3284309441799266e-42,0.007109774276614189
0.00814803596585989,0.001452794997021556,-0.008012347854673862,0.0069230240769684315,8.688050478813866e-44,0.007171566132456064
0.008250001817941666,0.0013335315743461251,-0.007297326810657978,0.007309492211788893,5.605193857299268e-45,0.006916984915733337
0.007932538166642189,0.0011489450698718429,-0.008074427954852581,0.0067886230535805225,0.0,0.006905777845531702
0.008087176829576492,0.0011088436003774405,-0.008510231040418148,0.006814396008849144,0.0,0.00717092165723443
0.007904795929789543,0.0009275642223656178,-0.008007544092833996,0.00662575988098979,0.0,0.00725602637976408
0.007825714536011219,0.0010169721208512783,-0.007521521765738726,0.006885168608278036,0.0,0.006860766094177961
0.008797476068139076,0.0010313071543350816,-0.00745881674811244,0.007433694321662188,0.0,0.006800543982535601
0.008196184411644936,0.001366275828331709,-0.008253795094788074,0.007047290913760662,0.0,0.007178311236202717
0.007975961081683636,0.001350601320154965,-0.007868625223636627,0.007335721980780363,0.0,0.00751019362360239
0.008914566598832607,0.001284077763557434,-0.008055871352553368,0.007571360096335411,0.0,0.007655331399291754
0.008722147904336452,0.001409574062563479,-0.00835395511239767,0.006888614036142826,0.0,0.007042579352855682
0.008223277516663074,0.001352733583189547,-0.008164332248270512,0.007017557043582201,0.0,0.007219067309051752
0.007823925465345383,0.0012720844242721796,-0.007728753611445427,0.007010120432823896,0.0,0.007404891774058342
0.008661134168505669,0.0011703342897817492,-0.007367458660155535,0.007611114997416735,0.0,0.0075738029554486275
0.008787517435848713,0.0011210929369553924,-0.007848766632378101,0.007504145614802837,0.0,0.0074014863930642605
0.009230039082467556,0.0012178774923086166,-0.008479900658130646,0.007193245459347963,0.0,0.007216045167297125
0.008844726718962193,0.0012238351628184319,-0.00802578404545784,0.007540467195212841,0.0,0.0074600097723305225
0.00845230370759964,0.0013154128100723028,-0.007983176968991756,0.007075570523738861,0.0,0.007892617024481297
0.008866088464856148,0.0016705626621842384,-0.008312857709825039,0.00709422817453742,-6.947655492695048e-05,0.007549191825091839
0.008632845245301723,0.0016578605864197016,-0.00790121778845787,0.007506567519158125,-0.0003111319674644619,0.007744723465293646
0.00912733469158411,0.0015442604199051857,-0.008217181079089642,0.007767577189952135,-0.00033592520048841834,0.007543689105659723
0.008562467992305756,0.0015899770660325885,-0.008747199550271034,0.007699273526668549,-0.0003430273791309446,0.007409155834466219
0.008933572098612785,0.001512782066129148,-0.008124954998493195,0.0070740277878940105,-0.0003242829698137939,0.00739264627918601
0.009125925600528717,0.001625727629289031,-0.007636862341314554,0.0071496679447591305,-0.00034361067810095847,0.008642484433948994
0.008755126036703587,0.0014806394465267658,-0.00858752429485321,0.007756400853395462,-0.0003370023623574525,0.008264864794909954
0.008755126036703587,0.0014806394465267658,-0.00858752429485321,0.007756400853395462,-0.0003370023623574525,0.008264864794909954
0.0095243314281106,0.001394770690239966,-0.008558295667171478,0.007620447315275669,-0.00036027576425112784,0.007983125746250153
0.0092850336804986,0.0013791859382763505,-0.007981810718774796,0.007512071169912815,-0.0003483232285361737,0.0074575901962816715
0.008600454777479172,0.0014162269653752446,-0.008148854598402977,0.007008938118815422,-0.0003341494011692703,0.008097166195511818
0.008797744289040565,0.0016512651927769184,-0.008517920970916748,0.007107444107532501,-0.0004402546619530767,0.008536982350051403
0.009476223029196262,0.0015525419730693102,-0.008480381220579147,0.008074536919593811,-0.0004488843842409551,0.008063589222729206
0.009230444207787514,0.0016727206530049443,-0.00807068683207035,0.008159875869750977,-0.0004480764036998153,0.008327199146151543
0.009911637753248215,0.0017265195492655039,-0.008855974301695824,0.0076026832684874535,-0.00047577673103660345,0.008738680742681026
0.009205861017107964,0.001597092137672007,-0.008627454750239849,0.007523346692323685,-0.0004500799404922873,0.007964818738400936
0.009481862187385559,0.001579137402586639,-0.007818058133125305,0.007994837127625942,-0.00042056094389408827,0.008040938526391983
0.00909535400569439,0.0014811771688982844,-0.008001134730875492,0.0079173119738698,-0.0004466610262170434,0.007929259911179543
0.00985678005963564,0.0014027314027771354,-0.008443858474493027,0.0071591660380363464,-0.00042479089461266994,0.008230720646679401
0.009538496844470501,0.001499524456448853,-0.008730784058570862,0.00761547964066267,-0.0004942281520925462,0.008572111837565899
0.00904669240117073,0.0015483477618545294,-0.008190441876649857,0.007754677440971136,-0.00045216205762699246,0.00846986286342144
0.009991196915507317,0.0017613759264349937,-0.008445007726550102,0.00748848682269454,-0.00048214528942480683,0.008067797869443893
0.009897579438984394,0.0017282648477703333,-0.00893320981413126,0.007338237017393112,-0.00045146342017687857,0.008073991164565086
0.009812346659600735,0.0016460339538753033,-0.008469732478260994,0.0078620919957757,-0.0004506297700572759,0.00962814874947071
0.009729525074362755,0.0017091035842895508,-0.008891811594367027,0.006937131285667419,-0.0004215042863506824,0.008841775357723236
0.009487771429121494,0.0018102272879332304,-0.008714173920452595,0.007072483655065298,-0.00039512140210717916,0.007958528585731983
0.01002963725477457,0.0016840636963024735,-0.008541862480342388,0.007561951410025358,-0.0003717964282259345,0.00812236312776804
0.010535693727433681,0.0018877156544476748,-0.009211165830492973,0.007922010496258736,-0.00035106821451336145,0.008526637218892574
0.009343555197119713,0.0017305444926023483,-0.00972692109644413,0.007632067892700434,-0.00033253306173719466,0.008709946647286415
0.009584307670593262,0.001699212472885847,-0.008578818291425705,0.007664534728974104,-0.00035491999005898833,0.008829212747514248
0.009584307670593262,0.001699212472885847,-0.008578818291425705,0.007664534728974104,-0.00035491999005898833,0.008829212747514248
0.010556360706686974,0.001722667133435607,-0.00835986528545618,0.00780788017436862,-0.0003433430101722479,0.008758952841162682
0.009489518590271473,0.0017406969564035535,-0.008990944363176823,0.007688470184803009,-0.0003280458622612059,0.008539518341422081
0.010042933747172356,0.0016206216532737017,-0.009092812426388264,0.007100359071046114,-0.00031376921106129885,0.00886515062302351
0.010150161571800709,0.0016370140947401524,-0.00916934385895729,0.006949516013264656,-0.0003020258736796677,0.008946598507463932
0.00956902839243412,0.001671479782089591,-0.010207334533333778,0.007444328628480434,-0.00026868516579270363,0.009004400111734867
0.009834611788392067,0.0015734024345874786,-0.00852869637310505,0.008006666786968708,-0.00025259453104808927,0.00887590367347002
0.010059984400868416,0.0016586411511525512,-0.00855395756661892,0.0076245712116360664,-0.0002624216431286186,0.00839013047516346
0.009765811264514923,0.001640939386561513,-0.009638259187340736,0.007066658232361078,-0.00027083646273240447,0.00848807580769062
0.010128947906196117,0.0017644298495724797,-0.009248136542737484,0.007140980567783117,-0.0002592432720120996,0.008639845065772533
0.010362970642745495,0.0017939760582521558,-0.00855797715485096,0.007483235560357571,-0.0002474521170370281,0.009067024104297161
0.009844966232776642,0.001992997480556369,-0.009166916832327843,0.007046503480523825,-0.0002366130647715181,0.009288795292377472
0.010758262127637863,0.0019715894013643265,-0.009333026595413685,0.007276169024407864,-0.00022667927260044962,0.009182946756482124
0.010211355984210968,0.0017989808693528175,-0.00900110974907875,0.008036552928388119,-0.00025133605231530964,0.00921272486448288
0.010495110414922237,0.0017962128622457385,-0.009297574870288372,0.008248737081885338,-0.00024381162074860185,0.00903063639998436
0.010106920264661312,0.0015972208930179477,-0.00971135776489973,0.007934640161693096,-0.0002348641719436273,0.009464314207434654
0.009994705207645893,0.0014803421217948198,-0.009172298014163971,0.007813741452991962,-0.00025448447559028864,0.009579190984368324
0.01104113832116127,0.0015608944231644273,-0.009458431042730808,0.008276506327092648,-0.00024140445748344064,0.009574535302817822
0.010172138921916485,0.0017146682366728783,-0.00948364194482565,0.00777802150696516,-0.00023358847829513252,0.009488671086728573
0.010654284618794918,0.0018389197066426277,-0.00924661010503769,0.007981935515999794,-0.00022624887060374022,0.009706700220704079
0.010985852219164371,0.0018595291767269373,-0.00963540282100439,0.008427925407886505,-0.00021935510449111462,0.010586358606815338
0.010679205879569054,0.001709026750177145,-0.009666649624705315,0.007801643572747707,-0.0002449954336043447,0.010002829134464264
0.010584297589957714,0.00160580116789788,-0.009330851025879383,0.007473669946193695,-0.0002369909780099988,0.00975834485143423
0.01060323417186737,0.0015087778447195888,-0.009879764169454575,0.008104555308818817,-0.00022543560771737248,0.010301795788109303
0.010545721277594566,0.0015263822861015797,-0.00958496704697609,0.008155309595167637,-0.0002146976039512083,0.00997590459883213
0.01080579124391079,0.0015792183112353086,-0.00941558089107275,0.00811862014234066,-0.00020491912437137216,0.00983227789402008
0.01080579124391079,0.0015792183112353086,-0.00941558089107275,0.00811862014234066,-0.00020491912437137216,0.00983227789402008
0.01039041019976139,0.0014990089694038033,-0.010191519744694233,0.008291874080896378,-0.0001959927612915635,0.01004069671034813
0.010706229135394096,0.0016099732602015138,-0.009529543109238148,0.00817352719604969,-0.00018781042308546603,0.010246184654533863
0.010675791651010513,0.0016106972470879555,-0.009372184984385967,0.008063135668635368,-0.00018028498743660748,0.009499561972916126
0.010593927465379238,0.001495750853791833,-0.009578187949955463,0.0075234235264360905,-0.00017333899450022727,0.00959780067205429
0.010746686719357967,0.0015482344897463918,-0.00936655979603529,0.0077631911262869835,-0.0001669089397182688,0.009697958827018738
0.010822671465575695,0.0014777614269405603,-0.010253840126097202,0.008399032056331635,-0.00017670811212155968,0.010186335071921349
0.011292219161987305,0.0015796080697327852,-0.010112699121236801,0.008428355678915977,-0.00018538508447818458,0.009976423345506191
0.011614061892032623,0.001630433020181954,-0.009311490692198277,0.00793358776718378,-0.0001801633188733831,0.009914357215166092
0.010323172435164452,0.0018212564755231142,-0.009001463651657104,0.00808172207325697,-0.00017440624651499093,0.009762021712958813
0.010942546650767326,0.0018259263597428799,-0.009874293580651283,0.007896285504102707,-0.00016895362932700664,0.009811794385313988
0.011133996769785881,0.0019649772439152002,-0.010466513223946095,0.008121400140225887,-0.00016382738249376416,0.009855774231255054
0.010410667397081852,0.0018657363252714276,-0.009339082054793835,0.008307211101055145,-0.00018200287013314664,0.009962094947695732
0.011002276092767715,0.0016123029636219144,-0.009813530370593071,0.008341310545802116,-0.00017996881797444075,0.010437611490488052
0.011332613416016102,0.0014614014653488994,-0.009663362056016922,0.008536353707313538,-0.00017517119704280049,0.010230883955955505
0.010522193275392056,0.0014702946646139026,-0.00943866465240717,0.007721847388893366,-0.00017044493870344013,0.01044023409485817
0.011444611474871635,0.001590500702150166,-0.00990223791450262,0.00821580272167921,-0.0001659559493418783,0.009970325045287609
0.01108891423791647,0.0014994438970461488,-0.009702314622700214,0.008557035587728024,-0.00016169622540473938,0.01063902210444212
0.011601146310567856,0.001718593412078917,-0.010442468337714672,0.00879430677741766,-0.00017502432456240058,0.01073974184691906
0.011601146310567856,0.001718593412078917,-0.010442468337714672,0.00879430677741766,-0.00017502432456240058,0.01073974184691906
0.011559478007256985,0.0018972016405314207,-0.010450651869177818,0.009191015735268593,-0.00016758624406065792,0.010856234468519688
0.01150108315050602,0.0017375019378960133,-0.010398843325674534,0.008971095085144043,-0.0001637770765228197,0.009566690772771835
0.011458616703748703,0.001725851441733539,-0.009691651910543442,0.009194222278892994,-0.0001617464586161077,0.010397376492619514
0.012533619999885559,0.0016952669247984886,-0.009552492760121822,0.008776248432695866,-0.00015690170403104275,0.010428901761770248
0.012985656969249249,0.0017536691157147288,-0.0101631423458457,0.009008830413222313,-0.00015166484809014946,0.010548082180321217
0.013739485293626785,0.0016105447430163622,-0.010235217399895191,0.008886578492820263,-0.00017408635176252574,0.010969783179461956
0.014153650030493736,0.00165885454043746,-0.009890480898320675,0.008810958825051785,-0.0001703784364508465,0.011030716821551323
0.013414344750344753,0.0019175420748069882,-0.010342415422201157,0.00834350660443306,-0.0001652795181144029,0.010663324035704136
0.01222623884677887,0.0021863484289497137,-0.010254180058836937,0.008572029881179333,-0.00018530877423472703,0.010699772275984287
0.012975030578672886,0.002110216533765197,-0.010203561745584011,0.009044403210282326,-0.00018159329192712903,0.010731923393905163
0.013514515943825245,0.0019986203406006098,-0.010801929049193859,0.008937557227909565,-0.0001766086497809738,0.010608009994029999
0.013556130230426788,0.0017856513150036335,-0.009498490020632744,0.00898194033652544,-0.00018385006114840508,0.01091042347252369
0.01361957285553217,0.0016828939551487565,-0.010263669304549694,0.009172774851322174,-0.0001903145748656243,0.010715621523559093
0.013605511747300625,0.0016672948841005564,-0.010053996928036213,0.008686118759214878,-0.00018613449356053025,0.010736196301877499
0.013605511747300625,0.0016672948841005564,-0.010053996928036213,0.008686118759214878,-0.00018613449356053025,0.010736196301877499
0.014020578935742378,0.0016104400856420398,-0.00988925714045763,0.00868916604667902,-0.00018149013340007514,0.01102448906749487
0.013523767702281475,0.0018348345765843987,-0.010558496229350567,0.008756100200116634,-0.00029326038202270865,0.010896224528551102
0.013998918235301971,0.0019759247079491615,-0.010211361572146416,0.00917865987867117,-0.00031053804559633136,0.011018496006727219
0.013359716162085533,0.0019586358685046434,-0.009730760008096695,0.008996019139885902,-0.00032126583391800523,0.011014717631042004
0.014113257639110088,0.001771030481904745,-0.010604056529700756,0.009103916585445404,-0.0003280853561591357,0.0106592308729887
0.013621396385133266,0.0016078036278486252,-0.010107186622917652,0.009289835579693317,-0.00034911336842924356,0.011043170467019081
0.013958987779915333,0.0016472747083753347,-0.009685599245131016,0.008871997706592083,-0.000342212850227952,0.011131727136671543
0.013513431884348392,0.0015443440061062574,-0.01015780121088028,0.008655223064124584,-0.00032532523619011045,0.011148640885949135
0.014205499552190304,0.0016468408284708858,-0.010072020813822746,0.008811214938759804,-0.0003476665879134089,0.01133830938488245
0.013872443698346615,0.0017449628794565797,-0.009535850957036018,0.008833511732518673,-0.0003366544842720032,0.0115210535004735
0.014247010461986065,0.0020344150252640247,-0.010307823307812214,0.00888371467590332,-0.0004601057735271752,0.011947030201554298
0.014320682734251022,0.0021772461477667093,-0.009298380464315414,0.009166829288005829,-0.00047564535634592175,0.011764677241444588
0.013952599838376045,0.0020838521886616945,-0.009825869463384151,0.008953661657869816,-0.0004749577783513814,0.012027599848806858
0.014426042325794697,0.0019408281659707427,-0.01002551894634962,0.009349669329822063,-0.0004718391573987901,0.01145543996244669
0.014029067009687424,0.0016237954841926694,-0.010288411751389503,0.00944449845701456,-0.0004409245739225298,0.011602812446653843
0.014070242643356323,0.00164809450507164,-0.009997737593948841,0.009635692462325096,-0.00041219990816898644,0.011550413444638252
0.014254583977162838,0.0015655193710699677,-0.009555557742714882,0.009287658147513866,-0.0004137739597354084,0.011888994835317135
0.014407599344849586,0.0017621571896597743,-0.009763752110302448,0.009560542181134224,-0.0004147052823100239,0.011991490609943867
0.01409450825303793,0.0016989398282021284,-0.010832512751221657,0.009436866268515587,-0.0003936449938919395,0.012023410759866238
0.014194373041391373,0.0019839738961309195,-0.009695552289485931,0.009083316661417484,-0.0003733334015123546,0.012509570457041264
0.014044143259525299,0.0019640594255179167,-0.009448548778891563,0.009025237523019314,-0.00035493061295710504,0.012128017842769623
0.014332154765725136,0.0019168196013197303,-0.009884634986519814,0.009328964166343212,-0.00035094277700409293,0.012325610034167767
0.013926898129284382,0.001749664545059204,-0.009648674167692661,0.008986755274236202,-0.00032794926664792,0.012578258290886879
0.013926898129284382,0.001749664545059204,-0.009648674167692661,0.008986755274236202,-0.00032794926664792,0.012578258290886879
0.014242378994822502,0.0016818542499095201,-0.009850220754742622,0.009558958932757378,-0.0003586580278351903,0.01198916882276535
0.014039365574717522,0.0016586858546361327,-0.009765165857970715,0.009088273160159588,-0.00034308459726162255,0.012174377217888832
0.014398792758584023,0.001735245925374329,-0.009313810616731644,0.009411757811903954,-0.0003230262373108417,0.012289202772080898
0.01430186815559864,0.0018208628753200173,-0.009482983499765396,0.00986224040389061,-0.0003487647627480328,0.012808548286557198
0.014565885998308659,0.002425316721200943,-0.010091917589306831,0.009644054807722569,-0.00033616332802921534,0.01271794829517603
0.014228841289877892,0.0028657265938818455,-0.009611960500478745,0.008979002013802528,-0.00034177833003923297,0.011975094676017761
0.014466035179793835,0.002574577694758773,-0.010510996915400028,0.009321616031229496,-0.000346019136486575,0.012214800342917442
0.01413699146360159,0.002177055925130844,-0.010259869508445263,0.009892932139337063,-0.000332366005750373,0.012782899662852287
0.014477777294814587,0.0020417526829987764,-0.009845081716775894,0.009560455568134785,-0.00041103933472186327,0.013447941280901432
0.01444113627076149,0.002011918229982257,-0.009886296465992928,0.009748613461852074,-0.00038317780126817524,0.013450860977172852
0.014790001325309277,0.0019106253748759627,-0.010636189952492714,0.009833342395722866,-0.00041452349978499115,0.013445732183754444
0.014433943666517735,0.002464722376316786,-0.009749731048941612,0.00940646231174469,-0.00039270351408049464,0.013260968960821629
0.014743163250386715,0.002477104077115655,-0.009868384338915348,0.00979457888752222,-0.0004115095071028918,0.013528600335121155
0.014639127068221569,0.0023308086674660444,-0.01001643668860197,0.009716366417706013,-0.00039945312892086804,0.013040482066571712
0.014616074040532112,0.001981389941647649,-0.010468244552612305,0.009606195613741875,-0.00035530782770365477,0.013465656898915768
0.014705573208630085,0.002020888030529022,-0.010736160911619663,0.009766822680830956,-0.0003363363503012806,0.013469001278281212
0.014402278698980808,0.001892958185635507,-0.009760581888258457,0.009444303810596466,-0.0003587727260310203,0.012706097215414047
0.01493918802589178,0.002358655445277691,-0.010297334752976894,0.009375537745654583,-0.00034689006861299276,0.012824426405131817
0.014623500406742096,0.0027569059748202562,-0.010730160400271416,0.009722301736474037,-0.0003312795888632536,0.013259585946798325
0.015302331186830997,0.0024519520811736584,-0.011025152169167995,0.009507467970252037,-0.00031672650948166847,0.01393034402281046
0.015145107172429562,0.0022655960638076067,-0.011631540954113007,0.009782879613339901,-0.00030419701943174005,0.014060749672353268
0.015580826438963413,0.0019963716622442007,-0.011332974769175053,0.010424833744764328,-0.00030148596852086484,0.013682542368769646
0.015130064450204372,0.0021098158322274685,-0.01138787530362606,0.00974252913147211,-0.0002836336207110435,0.013497574254870415
0.01531343162059784,0.0021558483131229877,-0.011867490597069263,0.010109291411936283,-0.00031304144067689776,0.013262933120131493
0.014919166453182697,0.002145481528714299,-0.011475694365799427,0.010309693403542042,-0.00030185203650034964,0.013898166827857494
0.015078205615282059,0.002365518594160676,-0.012031065300107002,0.01021952647715807,-0.0002862590772565454,0.013587533496320248
0.015092603862285614,0.002145329723134637,-0.011169372126460075,0.01003093272447586,-0.0003110988764092326,0.014079835265874863
0.01535977702587843,0.002181574935093522,-0.01137547567486763,0.010268238373100758,-0.0003015778784174472,0.013916006311774254
0.01535977702587843,0.002181574935093522,-0.01137547567486763,0.010268238373100758,-0.0003015778784174472,0.013916006311774254
0.01510764192789793,0.0020172290969640017,-0.012326177209615707,0.009320417419075966,-0.0003082477778661996,0.014196494594216347
0.015477749519050121,0.0019876982551068068,-0.012357322499155998,0.009501468390226364,-0.00031354057136923075,0.013711884617805481
0.015494502149522305,0.002165714045986533,-0.012508463114500046,0.009969045408070087,-0.00037416635314002633,0.01361154019832611
0.014666630886495113,0.002119079465046525,-0.012107346206903458,0.009905713610351086,-0.00040888410876505077,0.01335758063942194
0.015107330866158009,0.0022293739020824432,-0.012670277617871761,0.010162612423300743,-0.0004493905580602586,0.013312894850969315
0.015079965814948082,0.002202325500547886,-0.012583930976688862,0.009977869689464569,-0.0004193610220681876,0.013315876014530659
0.01564783789217472,0.0023113866336643696,-0.012198924086987972,0.009338554926216602,-0.00038941926322877407,0.013974519446492195
0.015134639106690884,0.0021054577082395554,-0.012267698533833027,0.009864425286650658,-0.00041553060873411596,0.013877521269023418
0.015076429583132267,0.002042763400822878,-0.011731541715562344,0.009709508158266544,-0.0003965079376939684,0.0143890967592597
0.015118488110601902,0.0019051139242947102,-0.012458116747438908,0.009259207174181938,-0.00041276475531049073,0.014342157170176506
0.01601468399167061,0.0019098183838650584,-0.012368960306048393,0.009682504460215569,-0.00040203280514106154,0.01556001789867878
0.015319237485527992,0.001911304658278823,-0.012585886754095554,0.009460731409490108,-0.0003815284580923617,0.014539940282702446
0.015454346314072609,0.0021465434692800045,-0.011675025336444378,0.009561927989125252,-0.0004310052318032831,0.014057440683245659
0.015477638691663742,0.0021706828847527504,-0.011608959175646305,0.009939084760844707,-0.00040341191925108433,0.014072687365114689
0.016022175550460815,0.0019750334322452545,-0.012280836701393127,0.009354989975690842,-0.00041050658910535276,0.014325985684990883
0.014054319821298122,0.0019318496342748404,-0.012737229466438293,0.010421744547784328,-0.0003820215933956206,0.01441202312707901
0.01623094640672207,0.0019516869215294719,-0.011789247393608093,0.01066925935447216,-0.000412110413890332,0.01454119198024273
0.01589776575565338,0.0019848630763590336,-0.011988869868218899,0.010443983599543571,-0.0004173214838374406,0.014580655843019485
0.015838131308555603,0.002319975523278117,-0.012326844967901707,0.010311785154044628,-0.000418293901020661,0.014554949477314949
0.01568893902003765,0.0023464306723326445,-0.011890635825693607,0.010210593231022358,-0.000396879855543375,0.014995039440691471
0.01595022901892662,0.002485724864527583,-0.013046140782535076,0.00950541626662016,-0.0004425987135618925,0.014810699038207531
0.01602405682206154,0.0022268809843808413,-0.012058805674314499,0.010182911530137062,-0.0004240968555677682,0.01464023720473051
0.016292598098516464,0.0021009647753089666,-0.011976710520684719,0.010154482908546925,-0.0003889330546371639,0.014481271617114544
0.01639905385673046,0.0020740763284265995,-0.012780397199094296,0.00989713054150343,-0.0004245900781825185,0.014710603281855583
0.016375895589590073,0.0020030695013701916,-0.012071464210748672,0.01016101986169815,-0.00039765311521478,0.01469806395471096
0.016315752640366554,0.0022392473183572292,-0.01248564850538969,0.010385246947407722,-0.0003706261923070997,0.014630742371082306
0.01623367704451084,0.002027459442615509,-0.012168881483376026,0.009889689274132252,-0.0003468275535851717,0.014385872520506382
0.01623367704451084,0.002027459442615509,-0.012168881483376026,0.009889689274132252,-0.0003468275535851717,0.014385872520506382
0.01667937822639942,0.002072866540402174,-0.011959596537053585,0.01028483733534813,-0.0003764259454328567,0.014872435480356216
0.017432404682040215,0.0018843866419047117,-0.011932342313230038,0.01072798389941454,-0.0003583060170058161,0.015001311898231506
0.017641784623265266,0.0019594349432736635,-0.012215168215334415,0.011293597519397736,-0.00037495672586373985,0.015247677452862263
0.01751355640590191,0.0018227475229650736,-0.011953874491155148,0.011091267690062523,-0.00036705174716189504,0.014945908449590206
0.01707117073237896,0.002003237372264266,-0.01170023437589407,0.01059794146567583,-0.0003502790932543576,0.01480020023882389
0.017712954431772232,0.0020296857692301273,-0.012368523515760899,0.011212858371436596,-0.0003619983035605401,0.014490479603409767
0.017507068812847137,0.0020468314178287983,-0.011679337359964848,0.01112231146544218,-0.00038705175393261015,0.014487501233816147
0.017519714310765266,0.002307465998455882,-0.012100866064429283,0.010956287384033203,-0.00037570158019661903,0.014491722919046879
0.017507461830973625,0.0022512939758598804,-0.012283875606954098,0.010960671119391918,-0.00040294311475008726,0.015209874138236046
0.01740783266723156,0.0024707915727049112,-0.012156094424426556,0.010706628672778606,-0.0004121056408621371,0.01526555884629488
0.017844533547759056,0.0022873759735375643,-0.012387426570057869,0.01090956013649702,-0.00041359031456522644,0.01578194834291935
0.017870325595140457,0.002361225662752986,-0.012423430569469929,0.010863758623600006,-0.0005854113260284066,0.015736049041152
0.017909223213791847,0.0022116568870842457,-0.01244425866752863,0.010799146257340908,-0.0006734488415531814,0.015744315460324287
0.01794390007853508,0.002406662330031395,-0.012462246231734753,0.010586416348814964,-0.0006411733338609338,0.01488474104553461
0.01844094693660736,0.0023212789092212915,-0.012291869148612022,0.010461658239364624,-0.0006457340205088258,0.015045140869915485
0.018179459497332573,0.0024667808320373297,-0.011730778031051159,0.010481372475624084,-0.000610051560215652,0.016008034348487854
0.01810285821557045,0.00240010442212224,-0.01209435798227787,0.010385755449533463,-0.0006225663819350302,0.01521223969757557
0.018736841157078743,0.002312768716365099,-0.011834562756121159,0.010825206525623798,-0.0006553503917530179,0.015421456657350063
0.018486034125089645,0.002356284763664007,-0.0123647041618824,0.010792380198836327,-0.0006840816931799054,0.015946244820952415
0.01817760430276394,0.0024852242786437273,-0.011680449359118938,0.009883915074169636,-0.0007069581770338118,0.015248484909534454
0.018453974276781082,0.0025225623976439238,-0.011637935414910316,0.010868438519537449,-0.0006903783068992198,0.015646927058696747
0.018471432849764824,0.002898734761402011,-0.01219059806317091,0.010986593551933765,-0.0009751232573762536,0.015898097306489944
0.018574800342321396,0.002916584722697735,-0.012209335342049599,0.010744575411081314,-0.0009795863879844546,0.01623658835887909
0.018574800342321396,0.002916584722697735,-0.012209335342049599,0.010744575411081314,-0.0009795863879844546,0.01623658835887909
0.01833384297788143,0.002486937679350376,-0.011782740242779255,0.010865351185202599,-0.00098955980502069,0.015592954121530056
0.01833384297788143,0.002486937679350376,-0.011782740242779255,0.010865351185202599,-0.00098955980502069,0.015592954121530056
0.018650637939572334,0.002526691649109125,-0.011830776929855347,0.011157821863889694,-0.000990552012808621,0.01562614180147648
0.018864285200834274,0.0026528723537921906,-0.01205976027995348,0.011285229586064816,-0.0009049492655321956,0.0161368940025568
0.0190909281373024,0.0025317715480923653,-0.011671221815049648,0.010625234805047512,-0.0008904217393137515,0.016097165644168854
0.01943594217300415,0.003006716724485159,-0.012386701069772243,0.010943782515823841,-0.0007933728047646582,0.015809932723641396
0.01966795139014721,0.0027937092818319798,-0.011871086433529854,0.010902194306254387,-0.0007054058369249105,0.016139624640345573
0.01908686012029648,0.002632328076288104,-0.012119380757212639,0.010825895704329014,-0.0007183323032222688,0.016153156757354736
0.018684199079871178,0.0026336642913520336,-0.012110794894397259,0.011496036313474178,-0.0006581189227290452,0.017009299248456955
0.019061492756009102,0.0027782220859080553,-0.01176864467561245,0.011105360463261604,-0.0005813050083816051,0.016842514276504517
0.0190788172185421,0.002898361999541521,-0.012194478884339333,0.011767609044909477,-0.0005010894383303821,0.016561925411224365
0.019701041281223297,0.00281434110365808,-0.011974453926086426,0.011501342989504337,-0.00044995362986810505,0.016636215150356293
0.0194084495306015,0.0029000958893448114,-0.01279563456773758,0.011328446678817272,-0.00044836357119493186,0.016347939148545265
0.01930306851863861,0.0028604702092707157,-0.012296090833842754,0.011563588865101337,-0.0004469873965717852,0.016538744792342186
0.019902901723980904,0.002850327407941222,-0.012326372787356377,0.011483961716294289,-0.0004149609012529254,0.01647239364683628
0.01998116634786129,0.0026679534930735826,-0.012591900303959846,0.011510919779539108,-0.0004409831890370697,0.016954082995653152
0.019701668992638588,0.0029594723600894213,-0.012713578529655933,0.011762470006942749,-0.0004192159103695303,0.01698722504079342
0.019949721172451973,0.0030065185856074095,-0.013155828230082989,0.011289075016975403,-0.00043485534843057394,0.01711362972855568
0.020326899364590645,0.002951872767880559,-0.01226979773491621,0.01147269643843174,-0.0004223049618303776,0.01722814328968525
0.019418245181441307,0.0025975999888032675,-0.012774762697517872,0.011518770828843117,-0.0004212202620692551,0.01709369570016861
0.019941329956054688,0.002904440276324749,-0.013095540925860405,0.011813737452030182,-0.000409420405048877,0.016476022079586983
0.020723555237054825,0.0027300447691231966,-0.013313502073287964,0.011709214188158512,-0.0004112064780201763,0.016524648293852806
0.019950928166508675,0.002763422904536128,-0.013471020385622978,0.011533142067492008,-0.0003841029538307339,0.018487345427274704
0.020372770726680756,0.0025004472117871046,-0.012996435165405273,0.011289655230939388,-0.000410369859309867,0.016784287989139557
0.0206709373742342,0.0023153203073889017,-0.013203537091612816,0.010968121699988842,-0.0003918962611351162,0.016507524996995926
0.02038123831152916,0.002434814814478159,-0.013674739748239517,0.011359293945133686,-0.00041500263614580035,0.016452832147479057
0.02040615864098072,0.002680488396435976,-0.013158106245100498,0.010748356580734253,-0.00039831732283346355,0.017058255150914192
0.020863834768533707,0.002547432901337743,-0.013851281255483627,0.011278875172138214,-0.0003778188256546855,0.01714172214269638
0.020894696936011314,0.0024769955780357122,-0.012985344976186752,0.011902778409421444,-0.00035900011425837874,0.017329977825284004
0.020445767790079117,0.0024360946845263243,-0.013597985729575157,0.011223743669688702,-0.0003419487620703876,0.0173652321100235
0.02063373476266861,0.002247844822704792,-0.013338571414351463,0.011813893914222717,-0.0003641798684839159,0.017180724069476128
0.020981358364224434,0.0024149834644049406,-0.014071348123252392,0.011288260109722614,-0.00034274690551683307,0.017484504729509354
0.020981358364224434,0.0024149834644049406,-0.014071348123252392,0.011288260109722614,-0.00034274690551683307,0.017484504729509354
0.021050265058875084,0.002745347563177347,-0.01332826167345047,0.011386019177734852,-0.00031885720090940595,0.017194008454680443
0.020876053720712662,0.002631914569064975,-0.013823672197759151,0.011788449250161648,-0.0003531535330694169,0.01746157929301262
0.021250203251838684,0.0026372713036835194,-0.013278077356517315,0.011199967935681343,-0.000334866635967046,0.01728248782455921
0.02105461247265339,0.0022992612794041634,-0.013575142249464989,0.0119481161236763,-0.00036446540616452694,0.01696951314806938
0.02108103223145008,0.0020999684929847717,-0.013544400222599506,0.011911584995687008,-0.00034756612149067223,0.017604928463697433
0.021126149222254753,0.0020280980970710516,-0.01394785288721323,0.01148955151438713,-0.00036428796011023223,0.017604494467377663
0.021762588992714882,0.002228011842817068,-0.013429735787212849,0.012105070985853672,-0.00035714643308892846,0.017513059079647064
0.021482372656464577,0.0026858611963689327,-0.014177021570503712,0.012185021303594112,-0.0003409444761928171,0.017863944172859192
0.02119363099336624,0.0028081140480935574,-0.01394470501691103,0.012008416466414928,-0.0003255699703004211,0.01803659275174141
0.021460875868797302,0.002604868495836854,-0.013407623395323753,0.011560510843992233,-0.00036628643283620477,0.01824987679719925
0.02168932557106018,0.0022790676448494196,-0.013935266062617302,0.01147384475916624,-0.0003559697070159018,0.018377259373664856
0.021533554419875145,0.0022520702332258224,-0.013632041402161121,0.01191483624279499,-0.00033099300344474614,0.017983319237828255
0.021672848612070084,0.00247567193582654,-0.013892196118831635,0.01180003210902214,-0.000308376329485327,0.018208103254437447
0.021367285400629044,0.002786444965749979,-0.013471524231135845,0.01169789768755436,-0.00028859192389063537,0.018104083836078644
0.021825289353728294,0.00308205490000546,-0.013920171186327934,0.011615180410444736,-0.0003180915373377502,0.0180006492882967
0.02149168960750103,0.0027787070721387863,-0.013838930055499077,0.012006320990622044,-0.00029038096545264125,0.01804838515818119
0.021506456658244133,0.0027537611313164234,-0.013360721059143543,0.012310183607041836,-0.0003094683343078941,0.01820194162428379
0.0220103170722723,0.0029388179536908865,-0.014027789235115051,0.012673461809754372,-0.0003051134408451617,0.018417183309793472
0.022849006578326225,0.0028336853720247746,-0.01353528443723917,0.011661789380013943,-0.00029168068431317806,0.01829524151980877
0.02209387719631195,0.003061810042709112,-0.014126825146377087,0.012414379976689816,-0.0002982821606565267,0.018839215859770775
0.022278282791376114,0.0030500127468258142,-0.013818246312439442,0.01235543005168438,-0.0003038102586288005,0.019536953419446945
0.021578043699264526,0.002793795894831419,-0.014241687022149563,0.012442496605217457,-0.00029264463228173554,0.017976369708776474
0.02175910398364067,0.002675172407180071,-0.013590031303465366,0.012227688916027546,-0.0003068033547606319,0.018079498782753944
0.02318734861910343,0.002755030058324337,-0.014471273869276047,0.01186652947217226,-0.0003341379633639008,0.018919160589575768
0.022562475875020027,0.00285257026553154,-0.013955856673419476,0.01253274641931057,-0.0003275355265941471,0.019037479534745216
0.02213488146662712,0.002909243805333972,-0.014419149607419968,0.012543105520308018,-0.00035429198760539293,0.01940416917204857
0.023178962990641594,0.002854621736332774,-0.01384526863694191,0.01276309508830309,-0.0003772553172893822,0.019592177122831345
0.02254405990242958,0.002990592736750841,-0.014020049013197422,0.012790892273187637,-0.00036979615106247365,0.01927011087536812
0.02234816551208496,0.00291935121640563,-0.014136341400444508,0.01270886231213808,-0.000652915914542973,0.01931375078856945
0.02262691780924797,0.0028719850815832615,-0.014287644065916538,0.012787766754627228,-0.0006908713839948177,0.018567685037851334
0.02262691780924797,0.0028719850815832615,-0.014287644065916538,0.012787766754627228,-0.0006908713839948177,0.018567685037851334
0.021871326491236687,0.002763967029750347,-0.01451154612004757,0.012349438853561878,-0.0006421348662115633,0.0187215693295002
0.021871326491236687,0.002763967029750347,-0.01451154612004757,0.012349438853561878,-0.0006421348662115633,0.0187215693295002
0.021781248971819878,0.002761963289231062,-0.01441769115626812,0.01229521632194519,-0.0005926464218646288,0.01877414435148239
0.0225252415984869,0.002836100058630109,-0.014561589807271957,0.013114203698933125,-0.0006142387865111232,0.019265156239271164
0.023122524842619896,0.002719471463933587,-0.014499559067189693,0.013192106038331985,-0.0005706239026039839,0.019520144909620285
0.023257773369550705,0.0029134396463632584,-0.01451440341770649,0.013226008974015713,-0.0005744638619944453,0.01917872205376625
0.023125162348151207,0.0033091073855757713,-0.014452076517045498,0.012598165310919285,-0.0006021378794685006,0.019367283210158348
0.02283363975584507,0.0032522790133953094,-0.01452736184000969,0.012613248080015182,-0.0005527237080968916,0.019725006073713303
0.022497020661830902,0.0030970750376582146,-0.014460928738117218,0.012886038981378078,-0.0005741362692788243,0.020050959661602974
0.02296641282737255,0.00302776787430048,-0.014781319536268711,0.012183040380477905,-0.0005351713043637574,0.01979014463722706
0.023316001519560814,0.0030295385513454676,-0.0148197365924716,0.012631099671125412,-0.000493830069899559,0.01944245956838131
0.023308340460062027,0.003154999576508999,-0.014917444437742233,0.012188559398055077,-0.0005144273745827377,0.01899861730635166
0.023481080308556557,0.003216307144612074,-0.014498335309326649,0.012613941915333271,-0.0004872985009569675,0.01922689564526081
0.023350141942501068,0.0036704002413898706,-0.014846518635749817,0.0131282489746809,-0.0005050832405686378,0.020032495260238647
0.02350548282265663,0.0033678067848086357,-0.015169165097177029,0.0132104167714715,-0.0004993549664504826,0.01992076449096203
0.023960309103131294,0.003104867646470666,-0.014700288884341717,0.012860005721449852,-0.0005255649448372424,0.02015831507742405
0.023874731734395027,0.0030868009198457003,-0.015165244229137897,0.013084123842418194,-0.0005453508929349482,0.0202447772026062
0.023346759378910065,0.003247532295063138,-0.014918558299541473,0.01269215252250433,-0.0005236663273535669,0.019911618903279305
0.0236679594963789,0.0031383787281811237,-0.0154639333486557,0.01313005667179823,-0.0006824082811363041,0.01982254534959793
0.024278787896037102,0.0029095755890011787,-0.014543136581778526,0.013002702966332436,-0.0006061268504709005,0.021129881963133812
0.024495184421539307,0.002871828619390726,-0.015443015843629837,0.01370010245591402,-0.0006340209511108696,0.019900448620319366
0.02420923486351967,0.0029149234760552645,-0.01456898357719183,0.0132449921220541,-0.00057317188475281,0.01991618424654007
0.024882446974515915,0.003163596149533987,-0.015273128636181355,0.013257928192615509,-0.0005928791360929608,0.020480401813983917
0.024097735062241554,0.0031346005853265524,-0.015217319130897522,0.013215123675763607,-0.0005510978517122567,0.020455557852983475
0.024097735062241554,0.0031346005853265524,-0.015217319130897522,0.013215123675763607,-0.0005510978517122567,0.020455557852983475
0.024415459483861923,0.0028633035253733397,-0.015318240039050579,0.01325414702296257,-0.0005020562093704939,0.020483262836933136
0.02497200295329094,0.002952311187982559,-0.015523809008300304,0.01320469006896019,-0.000497117405757308,0.020709754899144173
0.02497200295329094,0.002952311187982559,-0.015523809008300304,0.01320469006896019,-0.000497117405757308,0.020709754899144173
0.024872180074453354,0.0032413925509899855,-0.015595559030771255,0.013388191349804401,-0.00046681842650286853,0.020721541717648506
0.024697482585906982,0.0033822336699813604,-0.01566379703581333,0.013010138645768166,-0.00042137946002185345,0.020801957696676254
0.024828584864735603,0.0031314746011048555,-0.016049861907958984,0.013057248666882515,-0.0003817306424025446,0.02088499628007412
0.024818439036607742,0.003132391022518277,-0.015809807926416397,0.012473191134631634,-0.0004122879763599485,0.020856153219938278
0.024819983169436455,0.003311567008495331,-0.016149546951055527,0.01285195630043745,-0.00039069147896952927,0.020491018891334534
0.02426583133637905,0.003075801534578204,-0.015383204445242882,0.012830755673348904,-0.00041735570994205773,0.020945725962519646
0.025304971262812614,0.003187886904925108,-0.016371453180909157,0.013473878614604473,-0.0003981743648182601,0.021063828840851784
0.025399746373295784,0.0032636828254908323,-0.016396978870034218,0.013632873073220253,-0.0004143951809965074,0.020905232056975365
0.025623038411140442,0.00324643193744123,-0.016415297985076904,0.013426536694169044,-0.0004035342135466635,0.020669911056756973
0.02562904916703701,0.0034181158989667892,-0.016011832281947136,0.013248381204903126,-0.00045304768718779087,0.020864015445113182
0.02527608722448349,0.003664740128442645,-0.016191819682717323,0.012963252142071724,-0.0005179726285859942,0.021650925278663635
0.024289390072226524,0.0033469777554273605,-0.016771774739027023,0.01322320755571127,-0.0005142593872733414,0.02144721895456314
0.025560766458511353,0.0032267922069877386,-0.016576990485191345,0.013315758667886257,-0.0005061061820015311,0.02058364823460579
0.02525174245238304,0.0032479309011250734,-0.016435770317912102,0.013045797124505043,-0.0005312957800924778,0.02053491584956646
0.025664430111646652,0.0033711018040776253,-0.016710646450519562,0.013587233610451221,-0.0004985911655239761,0.020793093368411064
0.026811916381120682,0.003420641180127859,-0.016382725909352303,0.013226303271949291,-0.0005991542129777372,0.021479059010744095
0.025745557621121407,0.0031994227319955826,-0.015681201592087746,0.013718546368181705,-0.0006276046624407172,0.021651381626725197
0.02583245187997818,0.003427121788263321,-0.01636042259633541,0.01340462826192379,-0.0005853376933373511,0.02111886255443096
0.02591073140501976,0.0034550693817436695,-0.016504602506756783,0.013624986633658409,-0.0006114506395533681,0.02145276591181755
0.02546064741909504,0.0034420734737068415,-0.016878915950655937,0.013614380732178688,-0.0006010903161950409,0.021977920085191727
0.02556782215833664,0.003659535199403763,-0.016422539949417114,0.013802355155348778,-0.0005875711794942617,0.022064926102757454
0.025927914306521416,0.003226718632504344,-0.016042253002524376,0.014169988222420216,-0.0005453639314509928,0.021476566791534424
0.026034142822027206,0.0032657261472195387,-0.015141996555030346,0.014134694822132587,-0.0005457044462673366,0.020733268931508064
0.02623647451400757,0.0033535484690219164,-0.01719769649207592,0.014033864252269268,-0.0005234743002802134,0.02140173129737377
0.02641684003174305,0.003591312561184168,-0.018073629587888718,0.013777683489024639,-0.0004712944501079619,0.02089681290090084
0.02685941569507122,0.003338473616167903,-0.017018217593431473,0.013795915991067886,-0.0005059050163254142,0.020942622795701027
0.02685941569507122,0.003338473616167903,-0.017018217593431473,0.013795915991067886,-0.0005059050163254142,0.020942622795701027
0.026428161188960075,0.0035703603643924,-0.01726437732577324,0.013726782985031605,-0.0004672713403124362,0.021794328466057777
0.026456521824002266,0.003362041199579835,-0.016966691240668297,0.014232206158339977,-0.0004922082298435271,0.02228739857673645
0.027207037433981895,0.003499097190797329,-0.017124002799391747,0.014311256818473339,-0.0004643564170692116,0.02214737981557846
0.026496505364775658,0.0036197665613144636,-0.01726883091032505,0.014458592981100082,-0.0004864077200181782,0.021815532818436623
0.026024766266345978,0.0033306884579360485,-0.016784658655524254,0.014595233835279942,-0.000462481431895867,0.02185818739235401
0.026799367740750313,0.00327769061550498,-0.0174958948045969,0.014442523010075092,-0.0004890409763902426,0.022254450246691704
0.026564259082078934,0.0033589471131563187,-0.01715300977230072,0.01426352933049202,-0.000527239462826401,0.021976293995976448
0.02650175243616104,0.003413703292608261,-0.017172180116176605,0.014531721360981464,-0.000529979937709868,0.022140149027109146
0.026727773249149323,0.003493896219879389,-0.017240677028894424,0.014388296753168106,-0.0005225435015745461,0.02219972014427185
0.02699248678982258,0.0036850348114967346,-0.01692432537674904,0.014227841049432755,-0.0005355689791031182,0.022449923679232597
0.027528854086995125,0.003422184381633997,-0.017738601192831993,0.013860102742910385,-0.0005133175291121006,0.02272283472120762
0.027154160663485527,0.003253163769841194,-0.01705222949385643,0.01438054721802473,-0.0006538753514178097,0.022682378068566322
0.027249787002801895,0.003341895993798971,-0.017094649374485016,0.013831403106451035,-0.0006973473937250674,0.022701838985085487
0.027516812086105347,0.0036460987757891417,-0.017502853646874428,0.014360455796122551,-0.0007081488147377968,0.02269277535378933
0.02716044895350933,0.0032828431576490402,-0.017145801335573196,0.01406419649720192,-0.0007396928849630058,0.023221652954816818
0.02776816487312317,0.00328252580948174,-0.018017951399087906,0.014098684303462505,-0.0008153555681928992,0.02353585511445999
0.02878705784678459,0.003515243297442794,-0.01742217130959034,0.014753386378288269,-0.0008169031352736056,0.022750873118638992
0.027500543743371964,0.0037630919832736254,-0.018012715503573418,0.014519145712256432,-0.0007136088679544628,0.02304239757359028
0.027470385655760765,0.0038141298573464155,-0.017316259443759918,0.015283896587789059,-0.0007277326658368111,0.023282065987586975
0.028455743566155434,0.003384763840585947,-0.017916301265358925,0.014510266482830048,-0.0006579924956895411,0.02324681542813778
0.02851148694753647,0.003446775022894144,-0.018010687083005905,0.014485274441540241,-0.0006583771319128573,0.023542828857898712
0.027917183935642242,0.0032519730739295483,-0.01749546267092228,0.013846357353031635,-0.0006208130507729948,0.023442311212420464
0.028409946709871292,0.0034963900689035654,-0.018018942326307297,0.01472476776689291,-0.0005612164386548102,0.02353638783097267
0.02920089103281498,0.0037332538049668074,-0.017534350976347923,0.01436089538037777,-0.0005642701871693134,0.023516744375228882
0.029163938015699387,0.0032690931111574173,-0.017913013696670532,0.014828598126769066,-0.000573051511310041,0.023835867643356323
0.02807903289794922,0.0032914113253355026,-0.018199045211076736,0.014382680878043175,-0.000561863009352237,0.0239217821508646
0.02807903289794922,0.0032914113253355026,-0.018199045211076736,0.014382680878043175,-0.000561863009352237,0.0239217821508646
0.02810979075729847,0.003413635538890958,-0.01748882234096527,0.014812985435128212,-0.0005540542188100517,0.02408752590417862
0.028891177847981453,0.0035430483985692263,-0.017964664846658707,0.014734330587089062,-0.0005448980955407023,0.023943306878209114
0.0295709241181612,0.0036679310724139214,-0.017873896285891533,0.014707419089972973,-0.0005085397278890014,0.023937197402119637
0.0291784405708313,0.0033956808038055897,-0.018108459189534187,0.014983930625021458,-0.0006059882580302656,0.024286597967147827
0.029281357303261757,0.0035369289107620716,-0.018770137801766396,0.015044008381664753,-0.0005524854059331119,0.024500353261828423
0.02927319146692753,0.0037141749635338783,-0.01822519488632679,0.014818093739449978,-0.00057797267800197,0.02428915910422802
0.029656916856765747,0.003750220872461796,-0.018053913488984108,0.014850824140012264,-0.0005753010627813637,0.02433590777218342
0.029713818803429604,0.0037658095825463533,-0.01796603947877884,0.015018151141703129,-0.0005632298998534679,0.025201154872775078
0.028953656554222107,0.0038712520617991686,-0.017286809161305428,0.014725012704730034,-0.0005882832920178771,0.023579806089401245
0.03042842634022236,0.0039926148019731045,-0.018327198922634125,0.014388774521648884,-0.0006017228588461876,0.023615384474396706
0.029767537489533424,0.003494089236482978,-0.018827049061655998,0.01444273628294468,-0.0005796041805297136,0.02445944771170616
0.029939211905002594,0.0036195539869368076,-0.018686674535274506,0.014604797586798668,-0.0006123533239588141,0.025254320353269577
0.030083859339356422,0.0041983299888670444,-0.018812725320458412,0.014927204698324203,-0.0006003458984196186,0.02474946342408657
0.030312689021229744,0.00430190097540617,-0.018430879339575768,0.014933459460735321,-0.0005851180758327246,0.023886768147349358
0.03027966432273388,0.004034022800624371,-0.018453901633620262,0.01472561527043581,-0.0006091571995057166,0.024340173229575157
0.030456647276878357,0.004244634881615639,-0.019235141575336456,0.014634741470217705,-0.0006972980918362737,0.024670884013175964
0.030447959899902344,0.004090788774192333,-0.018917018547654152,0.014786547049880028,-0.0006676159682683647,0.024748995900154114
0.03060370869934559,0.0036066470202058554,-0.019440907984972,0.01468524057418108,-0.0006829426274634898,0.025780418887734413
0.030516404658555984,0.0034498670138418674,-0.01882292330265045,0.015301489271223545,-0.0007039023912511766,0.026520734652876854
0.030514664947986603,0.0036274425219744444,-0.018397662788629532,0.014835555106401443,-0.0007713185041211545,0.02549157664179802
0.030720243230462074,0.003787677502259612,-0.019203966483473778,0.015106355771422386,-0.0007634969661012292,0.02433030493557453
0.03124559111893177,0.003762013278901577,-0.019832167774438858,0.014482909813523293,-0.0007223901338875294,0.0240170881152153
0.031214583665132523,0.00363350217230618,-0.01936320587992668,0.014868922531604767,-0.0007906088721938431,0.024931078776717186
0.031505703926086426,0.003633152926340699,-0.019727472215890884,0.014919202774763107,-0.0008797751506790519,0.02605566382408142
0.031811922788619995,0.0037254898343235254,-0.019446630030870438,0.015495446510612965,-0.0009610807755962014,0.02622862532734871
0.03164215758442879,0.0037757062818855047,-0.019057685509324074,0.015229824930429459,-0.0009754360653460026,0.026139821857213974
0.031672146171331406,0.0033461404964327812,-0.019545244053006172,0.0155588174238801,-0.0009666513651609421,0.025926534086465836
0.031672146171331406,0.0033461404964327812,-0.019545244053006172,0.0155588174238801,-0.0009666513651609421,0.025926534086465836
0.03190143033862114,0.003508977359160781,-0.019609151408076286,0.01517554558813572,-0.0010624084388837218,0.02605544403195381
0.03282520920038223,0.0037237710785120726,-0.01956329308450222,0.015178595669567585,-0.0010421513579785824,0.02596120536327362
0.03251359611749649,0.0041639357805252075,-0.01970556005835533,0.014957576990127563,-0.0008922186098061502,0.026111073791980743
0.03012392856180668,0.004229830577969551,-0.019531067460775375,0.01522025279700756,-0.0008592300000600517,0.026099303737282753
0.03226527199149132,0.004117636475712061,-0.01934119313955307,0.015494157560169697,-0.0007807218353264034,0.026021311059594154
0.033008188009262085,0.003537526587024331,-0.01966325379908085,0.01546616293489933,-0.0007815993740223348,0.026476571336388588
0.032562196254730225,0.003577872645109892,-0.02002108283340931,0.015432983636856079,-0.0007155263447202742,0.026604149490594864
0.03302828222513199,0.003644861513748765,-0.019219184294342995,0.015318302437663078,-0.0006514720735140145,0.02629217691719532
0.03362333029508591,0.004252769518643618,-0.019740918651223183,0.01583898440003395,-0.0005375489126890898,0.026447782292962074
0.032548874616622925,0.0036159404553472996,-0.020041314885020256,0.015712497755885124,-0.00047452945727854967,0.02662796527147293
0.03145989403128624,0.003608300816267729,-0.018807508051395416,0.01628793030977249,-0.0005026539438404143,0.02639666013419628
0.03307818993926048,0.0036837318912148476,-0.019560039043426514,0.016039753332734108,-0.0005263346247375011,0.026343511417508125
0.033593710511922836,0.0037885454948991537,-0.02029988542199135,0.016121476888656616,-0.0005027130828239024,0.026377731934189796
0.03385138139128685,0.004358590114861727,-0.01965438760817051,0.016232026740908623,-0.000528633885551244,0.026258978992700577
0.033223025500774384,0.004067685920745134,-0.019436044618487358,0.016569534316658974,-0.0004962976672686636,0.02581988275051117
0.03252692148089409,0.0038461042568087578,-0.01956881769001484,0.016761884093284607,-0.0005538794212043285,0.02589852176606655
0.032660242170095444,0.0038496556226164103,-0.01935505121946335,0.016507012769579887,-0.0005711053963750601,0.0265689417719841
0.033092573285102844,0.0035811078269034624,-0.020018471404910088,0.01666516624391079,-0.0005879763048142195,0.027076130732893944
0.03303612768650055,0.003570693079382181,-0.01935209333896637,0.016918927431106567,-0.0006094970158301294,0.0262634065002203
0.03335839509963989,0.0036506575997918844,-0.019080452620983124,0.01696820743381977,-0.0006858032429590821,0.02568122185766697
0.033429358154535294,0.00429593026638031,-0.01986064948141575,0.016871605068445206,-0.000757784117013216,0.026801548898220062
0.0333404541015625,0.004105674102902412,-0.01983998529613018,0.01783517375588417,-0.000721915508620441,0.027547158300876617
0.03346657380461693,0.0034788097254931927,-0.019328081980347633,0.01657046563923359,-0.0007182377157732844,0.027715425938367844
0.033394649624824524,0.0035756134893745184,-0.01944771781563759,0.01665978692471981,-0.0007121145608834922,0.027941012755036354
0.03325294703245163,0.003847917076200247,-0.019400915130972862,0.016472985967993736,-0.0006869322969578207,0.02788030542433262
0.03433024138212204,0.003993390593677759,-0.018849877640604973,0.016553720459342003,-0.0007155996281653643,0.027629606425762177
0.03503008559346199,0.003561892779543996,-0.01939643919467926,0.016417570412158966,-0.0007233931100927293,0.026576898992061615
0.03455159068107605,0.0034588645212352276,-0.019607631489634514,0.01605040952563286,-0.0007163917762227356,0.026508774608373642
0.03455159068107605,0.0034588645212352276,-0.019607631489634514,0.01605040952563286,-0.0007163917762227356,0.026508774608373642
0.0330205000936985,0.004237141460180283,-0.019655568525195122,0.016306785866618156,-0.0006873169331811368,0.027354583144187927
0.034219976514577866,0.004189368803054094,-0.019648171961307526,0.016375306993722916,-0.0006875942926853895,0.028099674731492996
0.03542501851916313,0.0039854454807937145,-0.019989175722002983,0.016830354928970337,-0.0006460853037424386,0.028205569833517075
0.0348895788192749,0.003912331536412239,-0.019686542451381683,0.01666145585477352,-0.000668880355078727,0.027697185054421425
0.03569696098566055,0.003934415988624096,-0.020199915394186974,0.01648811623454094,-0.0005948416655883193,0.027837390080094337
0.035702984780073166,0.003957123961299658,-0.020324038341641426,0.01650555059313774,-0.0006164349615573883,0.028088403865695
0.03473731130361557,0.004314672667533159,-0.02021765522658825,0.016301339492201805,-0.000633019080851227,0.028134912252426147
0.03447829559445381,0.004376542288810015,-0.02023117057979107,0.016753841191530228,-0.0005951209459453821,0.028269730508327484
0.03520005941390991,0.00404100539162755,-0.0203584972769022,0.01618228107690811,-0.0006173326983116567,0.028501566499471664
0.03555895388126373,0.0037820495199412107,-0.02004244364798069,0.016682088375091553,-0.0005741296336054802,0.028589975088834763
0.03589774668216705,0.0041809165850281715,-0.02099134959280491,0.01596538908779621,-0.0005915866349823773,0.028684096410870552
0.035654809325933456,0.00412596482783556,-0.020618721842765808,0.01605990342795849,-0.0006052061798982322,0.028144070878624916
0.03544457256793976,0.003941891714930534,-0.02134939655661583,0.01654002070426941,-0.0006111677503213286,0.029514817520976067
0.035891950130462646,0.003877080511301756,-0.02072279341518879,0.016767308115959167,-0.0005958030233159661,0.028219137340784073
0.03595427796244621,0.003779057879000902,-0.02056594379246235,0.017719866707921028,-0.0006193894660100341,0.027941100299358368
0.03622464835643768,0.004068845417350531,-0.020661674439907074,0.01757003739476204,-0.00071537378244102,0.028380412608385086
0.03687775880098343,0.004337084945291281,-0.02062857523560524,0.016201555728912354,-0.0008004806586541235,0.02861545979976654
0.03571600839495659,0.004084435291588306,-0.02114325761795044,0.016102507710456848,-0.0008119391859509051,0.028507830575108528
0.03691122308373451,0.003932201769202948,-0.020972568541765213,0.016937732696533203,-0.0009726957068778574,0.028620602563023567
0.03720129653811455,0.003918500617146492,-0.020837781950831413,0.016905982047319412,-0.0009871158981695771,0.028779074549674988
0.0367903895676136,0.0039329975843429565,-0.020478075370192528,0.01711900718510151,-0.0009750900790095329,0.02887236885726452
0.037123847752809525,0.003924685530364513,-0.02149933949112892,0.01666192337870598,-0.0009565366781316698,0.02887655980885029
0.03736346587538719,0.004396452102810144,-0.021884150803089142,0.016993895173072815,-0.0008593064267188311,0.029147503897547722
0.03721057251095772,0.0040654828771948814,-0.021048687398433685,0.01722167432308197,-0.0007847591768950224,0.02915450558066368
0.03764723241329193,0.003793045412749052,-0.02054755575954914,0.016856003552675247,-0.0006721726385876536,0.028868800029158592
0.03764723241329193,0.003793045412749052,-0.02054755575954914,0.016856003552675247,-0.0006721726385876536,0.028868800029158592
0.03718928247690201,0.0037424617912620306,-0.0208499263972044,0.017065847292542458,-0.0006930660456418991,0.02873886749148369
0.037456512451171875,0.0037606062833219767,-0.021418500691652298,0.016826387494802475,-0.0006203946541063488,0.028986001387238503
0.03793788328766823,0.0037817340344190598,-0.02138804830610752,0.0170175489038229,-0.0006428341730497777,0.02935599721968174
0.03804754838347435,0.003801309270784259,-0.021248696371912956,0.0173609908670187,-0.0006608054391108453,0.030034910887479782
0.03750138357281685,0.0038838533218950033,-0.02130012772977352,0.01736057922244072,-0.0006466915947385132,0.029537653550505638
0.03716402128338814,0.0037955453153699636,-0.020974846556782722,0.017864011228084564,-0.0007404664647765458,0.02824845165014267
0.03900077939033508,0.003714586840942502,-0.020391440019011497,0.017572879791259766,-0.0007136338972486556,0.028572946786880493
0.039070431143045425,0.0036586946807801723,-0.02102738805115223,0.01708700694143772,-0.0007296918774954975,0.029582783579826355
0.036532629281282425,0.0036199127789586782,-0.021754708141088486,0.016696494072675705,-0.0009474031394347548,0.02953803725540638
0.03790583461523056,0.0041395798325538635,-0.021693160757422447,0.016548719257116318,-0.0009724688134156168,0.03007524088025093
0.038201507180929184,0.003600240917876363,-0.021481240168213844,0.01719152182340622,-0.0009632681612856686,0.03146577998995781
0.03828643262386322,0.003617481328547001,-0.021774839609861374,0.0169406495988369,-0.0009547787485644221,0.0307445265352726
0.03913073614239693,0.003823649138212204,-0.021845297887921333,0.017512213438749313,-0.0009392965584993362,0.02900020033121109
0.03823482245206833,0.004382016137242317,-0.021550782024860382,0.01786024682223797,-0.0009079512092284858,0.030033396556973457
0.037193797528743744,0.004112863913178444,-0.02153119072318077,0.017832618206739426,-0.0008715540170669556,0.03111184388399124
0.03845762088894844,0.0038366878870874643,-0.02192935347557068,0.017774783074855804,-0.0009022843441925943,0.03094455972313881
0.0389704667031765,0.0037443735636770725,-0.02225404605269432,0.017342472448945045,-0.0008867083233781159,0.030160894617438316
0.03844020888209343,0.0040124389342963696,-0.021878913044929504,0.017892664298415184,-0.0008699299651198089,0.03045058064162731
0.038480330258607864,0.003870670683681965,-0.021930821239948273,0.017342906445264816,-0.0007929838611744344,0.03063245303928852
0.038817498832941055,0.004367101937532425,-0.02230401523411274,0.017884481698274612,-0.0007775896810926497,0.03040865808725357
0.03948105871677399,0.004514423664659262,-0.022175302729010582,0.018054412677884102,-0.0007974954205565155,0.030582886189222336
0.03903429955244064,0.004316279664635658,-0.02180914208292961,0.018081702291965485,-0.0008013910264708102,0.03067493438720703
0.03927408903837204,0.0040791635401546955,-0.02172938734292984,0.01795591413974762,-0.0007543204701505601,0.030686911195516586
0.03940391540527344,0.004009686876088381,-0.022639593109488487,0.017820114269852638,-0.000760626164264977,0.03117411397397518
0.03924103081226349,0.003961953334510326,-0.023597093299031258,0.018581325188279152,-0.0007377142319455743,0.031037883833050728
0.03937980905175209,0.003841621335595846,-0.022758129984140396,0.019195551052689552,-0.0007133411127142608,0.03124740533530712
0.04074699431657791,0.004311359021812677,-0.02243036963045597,0.01865656115114689,-0.0008488987223245203,0.03138080611824989
0.04002631455659866,0.004136235918849707,-0.022460095584392548,0.01889212615787983,-0.0008312230929732323,0.03125162795186043
0.038948602974414825,0.004083532840013504,-0.022642673924565315,0.018166836351156235,-0.0008382722735404968,0.031700264662504196
0.038948602974414825,0.004083532840013504,-0.022642673924565315,0.018166836351156235,-0.0008382722735404968,0.031700264662504196
0.0402846559882164,0.003974550869315863,-0.023339856415987015,0.017190927639603615,-0.0009507579961791635,0.03161646053195
0.04019412770867348,0.003944770898669958,-0.023287078365683556,0.01784994825720787,-0.001044812728650868,0.03138333559036255
0.041120052337646484,0.0043525998480618,-0.022544175386428833,0.017968231812119484,-0.0010272689396515489,0.031082680448889732
0.041366614401340485,0.004077686928212643,-0.02348415181040764,0.018415095284581184,-0.000976594048552215,0.03193136304616928
0.039472904056310654,0.004327133297920227,-0.024405092000961304,0.01847786456346512,-0.0009134370484389365,0.03298729658126831
0.039498962461948395,0.004350407514721155,-0.024401040747761726,0.017725232988595963,-0.0008809241699054837,0.03235755115747452
0.04116519168019295,0.004512918647378683,-0.02407693676650524,0.018351687118411064,-0.000881803163792938,0.03086972050368786
0.04037422686815262,0.004522374831140041,-0.023045558482408524,0.01860230602324009,-0.0009448635973967612,0.031180638819932938
0.04040128365159035,0.004752621985971928,-0.023462863638997078,0.01848665624856949,-0.0009012948721647263,0.032160576432943344
0.04073198884725571,0.004298157058656216,-0.024148475378751755,0.01845720410346985,-0.0010587825672701001,0.03196749463677406
0.04078333079814911,0.003949770238250494,-0.024604499340057373,0.017624255269765854,-0.0010625564027577639,0.032846931368112564
0.04117872193455696,0.004363585729151964,-0.024812353774905205,0.01741020753979683,-0.001040564151480794,0.03321118280291557
0.040902044624090195,0.004669296555221081,-0.02422686107456684,0.018358245491981506,-0.001065653981640935,0.03246011957526207
0.0411682166159153,0.0044255610555410385,-0.023967931047081947,0.018407076597213745,-0.000908035202883184,0.0319555439054966
0.0417277067899704,0.004095898941159248,-0.02389167994260788,0.018544020131230354,-0.0008674903074279428,0.03276701644062996
0.041788794100284576,0.004443519748747349,-0.024168286472558975,0.018926681950688362,-0.0007756495615467429,0.03392334282398224
