davideferrari95/blind_handover_controller/data/Test 247 - [2024-02-08 -- 12-37-46]/joint_states_data.csv
shoulder_pan_joint,shoulder_lift_joint,elbow_joint,wrist_1_joint,wrist_2_joint,wrist_3_joint
0.004334317985922098,0.007256600074470043,-0.012622255831956863,0.0034666615538299084,-0.0,0.004201450385153294
0.004334317985922098,0.007256600074470043,-0.012622255831956863,0.0034666615538299084,-0.0,0.004201450385153294
0.004334317985922098,0.007256600074470043,-0.012622255831956863,0.0034666615538299084,-0.0,0.004201450385153294
0.004540244583040476,0.007293014321476221,-0.011177177540957928,0.003622103948146105,-0.0,0.004131185356527567
0.004760998301208019,0.006927420385181904,-0.011096513830125332,0.0037491419352591038,-0.0,0.0035551884211599827
0.004602750763297081,0.007166793569922447,-0.01132681779563427,0.003784126602113247,-0.0,0.0035903784446418285
0.004395055118948221,0.007386295590549707,-0.01144477166235447,0.003982406575232744,-0.0,0.004217023029923439
0.004461735486984253,0.006700532045215368,-0.012039841152727604,0.0036199127789586782,-0.0,0.004271876532584429
0.004383334424346685,0.0070342738181352615,-0.011959041468799114,0.003575448878109455,-0.0,0.004006716888397932
0.004453837871551514,0.007526847533881664,-0.011717040091753006,0.0038144607096910477,-0.0,0.003532540751621127
0.004360928200185299,0.007196225691586733,-0.01173449121415615,0.0038844707887619734,-0.0,0.003492078511044383
0.004513155203312635,0.006909332703799009,-0.011143738403916359,0.003974188584834337,-0.0,0.0036266588140279055
0.0045082662254571915,0.007095895707607269,-0.011441588401794434,0.004052815493196249,-0.0,0.0037664955016225576
0.004588855896145105,0.007956352084875107,-0.01150362566113472,0.003576272865757346,-0.0,0.004223582800477743
0.004722415003925562,0.007441766560077667,-0.011551366187632084,0.003574331756681204,-0.0,0.004188610706478357
0.004589924123138189,0.0068340119905769825,-0.011502483859658241,0.003831639653071761,-0.0,0.003953573293983936
0.004858694039285183,0.007057474926114082,-0.010877113789319992,0.003463514382019639,-0.0,0.0034169796854257584
0.0048256320878863335,0.00764230452477932,-0.011263730935752392,0.0036030919291079044,-0.0,0.0035461948718875647
0.004459296818822622,0.007265207823365927,-0.010996128432452679,0.003714677644893527,-0.0,0.0038326506037265062
0.004456172697246075,0.006958996877074242,-0.01097535714507103,0.0037336021196097136,-0.0,0.003945310600101948
0.004294972401112318,0.0072794100269675255,-0.011421652510762215,0.004050749819725752,-0.0,0.0035311987157911062
0.00413855304941535,0.007576238363981247,-0.010709100402891636,0.0042711589485406876,-0.0,0.0035167213063687086
0.003981839865446091,0.007596399635076523,-0.011305040679872036,0.004066951107233763,-0.0,0.003982943948358297
0.004323454108089209,0.007065724115818739,-0.011585106141865253,0.003974548075348139,-0.0,0.004241901449859142
0.004345663357526064,0.007579654920846224,-0.01134062372148037,0.004103000741451979,-0.0,0.003568751970306039
0.003975515719503164,0.007572725415229797,-0.011908214539289474,0.0036015668883919716,-0.0,0.0039165448397397995
0.003975515719503164,0.007572725415229797,-0.011908214539289474,0.0036015668883919716,-0.0,0.0039165448397397995
0.004300585947930813,0.006915954872965813,-0.011662003584206104,0.0035410712007433176,-0.0,0.004166614729911089
0.004187553655356169,0.00715942308306694,-0.011403804644942284,0.0042471191845834255,-0.0,0.004049776587635279
0.004212529398500919,0.0077332183718681335,-0.010630514472723007,0.004600625019520521,-0.0,0.0038935504853725433
0.004146129358559847,0.0077245282009243965,-0.011401400901377201,0.004603357519954443,-0.0,0.003821359947323799
0.0044117881916463375,0.007308860309422016,-0.01124147605150938,0.004185033496469259,-0.0,0.0037626333069056273
0.004677383694797754,0.007470172364264727,-0.011131709441542625,0.0037513598799705505,-0.0,0.0037616391200572252
0.004663208965212107,0.008387189358472824,-0.01151711493730545,0.003476940095424652,-0.0,0.004143405705690384
0.004266479983925819,0.007784425746649504,-0.01093878410756588,0.0035641957074403763,-0.0,0.004160926677286625
0.004188998602330685,0.007401234935969114,-0.01187458261847496,0.0037675099447369576,-0.0,0.0039361026138067245
0.004091560374945402,0.008057628758251667,-0.01142187975347042,0.003934888169169426,-0.0,0.0037561124190688133
0.004439083393663168,0.007852909155189991,-0.010992337949573994,0.004119415767490864,-0.0,0.0037125837989151478
0.004600443411618471,0.007806325331330299,-0.011395583860576153,0.004038661252707243,-0.0,0.0037705490831285715
0.004857140593230724,0.0068090977147221565,-0.01112310215830803,0.0038533902261406183,-0.0,0.003450200892984867
0.004322126042097807,0.00898410752415657,-0.011969744227826595,0.003783050226047635,-0.0,0.003427370684221387
0.003947041463106871,0.007731900550425053,-0.011564369313418865,0.0036492724902927876,-0.0,0.0032460885122418404
0.0038096352946013212,0.007947455160319805,-0.011216318234801292,0.0036235759034752846,-0.0,0.0034541983623057604
0.003811879316344857,0.008026166819036007,-0.011595765128731728,0.004043369088321924,-0.0,0.0036458789836615324
0.004157152026891708,0.00808015838265419,-0.01105209905654192,0.004543065559118986,-0.0,0.003756736870855093
0.004492884036153555,0.007439649198204279,-0.011491275392472744,0.004591348581016064,-0.0,0.0034195142798125744
0.004101227503269911,0.007438085973262787,-0.01158246397972107,0.004225356969982386,-0.0,0.003384986659511924
0.004322162829339504,0.008081337437033653,-0.011185310781002045,0.003920546732842922,-0.0,0.0035068215802311897
0.004163616336882114,0.00840576458722353,-0.011939478106796741,0.00435275211930275,-0.0,0.0036023608408868313
0.00402494752779603,0.00796108040958643,-0.011126266792416573,0.004146170802414417,-0.0,0.0034545501694083214
0.004418194759637117,0.007653860375285149,-0.01149072591215372,0.004301333799958229,-0.0,0.003532643895596266
0.004531205631792545,0.007989931851625443,-0.011459802277386189,0.004155798349529505,-0.0,0.003793732961639762
0.0047439453192055225,0.008084763772785664,-0.010821032337844372,0.004667787346988916,-0.0,0.003458969760686159
0.00477922149002552,0.007693544961512089,-0.011318389326334,0.0044973804615437984,-0.0,0.0035514370538294315
0.0044183447025716305,0.008690867573022842,-0.01141846738755703,0.00421762652695179,-0.0,0.003667894285172224
0.0044183447025716305,0.008690867573022842,-0.01141846738755703,0.00421762652695179,-0.0,0.003667894285172224
0.004175378009676933,0.00773719884455204,-0.011322061531245708,0.004214662592858076,-0.0,0.003244903637096286
0.0046006436459720135,0.007926366291940212,-0.01168378721922636,0.004449479281902313,-0.0,0.003231264650821686
0.0046006436459720135,0.007926366291940212,-0.01168378721922636,0.004449479281902313,-0.0,0.003231264650821686
0.004736717790365219,0.00891492422670126,-0.011372747831046581,0.004595144186168909,-0.0,0.003512508701533079
0.004900362808257341,0.007856633514165878,-0.011630818247795105,0.00441623805090785,-0.0,0.003785515669733286
0.004528164863586426,0.007744277827441692,-0.011739692650735378,0.004458411131054163,-0.0,0.003705675946548581
0.004367029294371605,0.007751761004328728,-0.011310569941997528,0.004291647579520941,-0.0,0.00359364808537066
0.004894173238426447,0.007876145653426647,-0.011812062934041023,0.00401084590703249,-0.0,0.0034176730550825596
0.004472972359508276,0.007461847737431526,-0.011852297000586987,0.004266689997166395,-0.0,0.0034091100096702576
0.00451282225549221,0.007459560874849558,-0.012237350456416607,0.004585455171763897,-0.0,0.00342710898257792
0.004663829691708088,0.00826091319322586,-0.011710860766470432,0.004663515370339155,-0.0,0.003585491329431534
0.005000869743525982,0.007583812810480595,-0.011470728553831577,0.00417797127738595,-0.0,0.0037566411774605513
0.004921525716781616,0.006566268391907215,-0.012027811259031296,0.004180578980594873,-0.0,0.0038346932269632816
0.004650831688195467,0.00668381480500102,-0.011905768886208534,0.004147757776081562,-0.0,0.0037867536302655935
0.004674849100410938,0.007310008630156517,-0.011803785338997841,0.004004174843430519,-0.0,0.0037462017498910427
0.004779239185154438,0.00722728343680501,-0.011598511599004269,0.00418974319472909,-0.0,0.004119399003684521
0.004921673331409693,0.006829158402979374,-0.011165640316903591,0.0042190090753138065,-0.0,0.004197943489998579
0.0048256549052894115,0.007014930713921785,-0.011824123561382294,0.004403002560138702,-0.0,0.003598348004743457
0.0047407811507582664,0.007047752849757671,-0.01187487319111824,0.0044185202568769455,-0.0,0.0031729789916425943
0.005144703667610884,0.00723807280883193,-0.011871721595525742,0.004574120044708252,-0.0,0.00295973289757967
0.004691679496318102,0.006777633912861347,-0.010124843567609787,0.004683899227529764,-0.0,0.003198556136339903
0.004691679496318102,0.006777633912861347,-0.010124843567609787,0.004683899227529764,-0.0,0.003198556136339903
0.0053691682405769825,0.006669978611171246,-0.011780992150306702,0.004446347709745169,-0.0,0.004190152045339346
0.0051353368908166885,0.007177617400884628,-0.010852332226932049,0.004652488976716995,-0.0,0.004009647760540247
0.004860332235693932,0.006685287691652775,-0.011190958321094513,0.0047347890213131905,-0.0,0.003806318622082472
0.004790768958628178,0.007016478106379509,-0.012280144728720188,0.0046152896247804165,-0.0,0.003407368902117014
0.004836780019104481,0.0070623308420181274,-0.011214097030460835,0.004313253331929445,-0.0,0.0032506000716239214
0.005294788163155317,0.006703995168209076,-0.011812152341008186,0.0045697931200265884,-0.0,0.0033838176168501377
0.005294788163155317,0.006703995168209076,-0.011812152341008186,0.0045697931200265884,-0.0,0.0033838176168501377
0.004945937544107437,0.00654861843213439,-0.01130909938365221,0.0047993408516049385,-0.0,0.0035897414200007915
0.004861944820731878,0.006845911964774132,-0.011362145654857159,0.0047544315457344055,-0.0,0.004006823059171438
0.004908599425107241,0.006836531218141317,-0.011526393704116344,0.0045437621884047985,-0.0,0.003868055995553732
0.004854646511375904,0.00675036059692502,-0.011568463407456875,0.0043932534754276276,-0.0,0.003523445688188076
0.004776418674737215,0.006067741196602583,-0.011006895452737808,0.004750637337565422,-0.0,0.00317922024987638
0.0051040202379226685,0.006678007077425718,-0.010892156511545181,0.004724033176898956,-0.0,0.0030299241188913584
0.005250600166618824,0.006931700278073549,-0.011309133842587471,0.004788805264979601,-0.0,0.002922752173617482
0.004958137404173613,0.006829230580478907,-0.010946211405098438,0.004921487998217344,-0.0,0.00304081360809505
0.004752852953970432,0.00672916928306222,-0.011384567245841026,0.004813435487449169,-0.0,0.0032211560755968094
0.004751559812575579,0.0064247166737914085,-0.010892339050769806,0.004660768434405327,-0.0,0.003120590001344681
0.005149779841303825,0.0061694360338151455,-0.010743798688054085,0.004645287990570068,-0.0,0.003000828204676509
0.005437161773443222,0.007063381839543581,-0.011600828729569912,0.004686456639319658,-0.0,0.003281657351180911
0.005192047916352749,0.006850720848888159,-0.010982685722410679,0.004241892136633396,-0.0,0.003663137089461088
0.005163365043699741,0.006498970091342926,-0.01084345206618309,0.004713698290288448,-0.0,0.0038129338063299656
0.0049292887561023235,0.006334361620247364,-0.011143587529659271,0.005417967215180397,-0.0,0.003515412798151374
0.005120501853525639,0.006593320518732071,-0.010991912335157394,0.004809008911252022,-0.0,0.0032647461630403996
0.0054451050236821175,0.00753465760499239,-0.012077654711902142,0.004490076098591089,-0.0,0.0029833572916686535
0.005860157310962677,0.006732476409524679,-0.01132756657898426,0.004147414118051529,-0.0,0.0027110236696898937
0.005635901819914579,0.006219902075827122,-0.011272980831563473,0.004648718051612377,-0.0,0.0027951523661613464
0.005234497599303722,0.0063020833767950535,-0.011359365656971931,0.004557071719318628,-0.0,0.0029636286199092865
0.004791410639882088,0.007348666898906231,-0.010932225733995438,0.004591794218868017,-0.0,0.0032264902256429195
0.005049440078437328,0.006821489427238703,-0.010958350263535976,0.004335489124059677,-0.0,0.0033986023627221584
0.005038883537054062,0.006537892390042543,-0.010815895162522793,0.004199729301035404,-0.0,0.003612891072407365
0.005498364567756653,0.006615629885345697,-0.010902397334575653,0.0044668568298220634,-0.0,0.003339548595249653
0.005534827243536711,0.0066252099350094795,-0.011456791311502457,0.0045860204845666885,-0.0,0.0035202091094106436
0.005110754631459713,0.006665414664894342,-0.010289806872606277,0.004604810383170843,-0.0,0.003090114798396826
0.00519599998369813,0.006291989702731371,-0.011105485260486603,0.004694876726716757,-0.0,0.0029236143454909325
0.00519599998369813,0.006291989702731371,-0.011105485260486603,0.004694876726716757,-0.0,0.0029236143454909325
0.005475503392517567,0.006704998668283224,-0.010973293334245682,0.005022046621888876,-0.0,0.0029249400831758976
0.005530558992177248,0.007022030185908079,-0.0109146349132061,0.004582283552736044,-0.0,0.0029054544866085052
0.0055783833377063274,0.007762298919260502,-0.010834043845534325,0.004509489517658949,-0.0,0.003126041032373905
0.005101151764392853,0.00669438298791647,-0.010591568425297737,0.004554701503366232,-0.0,0.0035777846351265907
0.0048527964390814304,0.00639796257019043,-0.010805967263877392,0.005177204962819815,-0.0,0.003469333751127124
0.005353676155209541,0.00693485839292407,-0.010690577328205109,0.005234316922724247,-0.0,0.003259559627622366
0.005670298356562853,0.00775199243798852,-0.010314789600670338,0.004764189478009939,-0.0,0.002955106319859624
0.005602736957371235,0.007064030971378088,-0.01095879077911377,0.004475425463169813,-0.0,0.00284298462793231
0.005353960208594799,0.006749749183654785,-0.010559670627117157,0.004802692215889692,-0.0,0.0030711146537214518
0.005233053117990494,0.006594704929739237,-0.01062289159744978,0.0048263357020914555,-0.0,0.0029826187528669834
0.0052399421110749245,0.006837026681751013,-0.011110794730484486,0.004806081298738718,-0.0,0.0030971975065767765
0.005549316294491291,0.00713843759149313,-0.010270493105053902,0.004923677071928978,-0.0,0.002937003504484892
0.0056465198285877705,0.006981721147894859,-0.010711509734392166,0.004884672816842794,-0.0,0.002783270552754402
0.00605459650978446,0.0072935218922793865,-0.01074214931577444,0.004817950073629618,-0.0,0.0025878287851810455
0.0055597564205527306,0.007030488923192024,-0.010671032592654228,0.004609397146850824,-0.0,0.002899011131376028
0.00527220917865634,0.007190704345703125,-0.011451313272118568,0.004630358889698982,-0.0,0.003070681355893612
0.0052163200452923775,0.00667745154350996,-0.010427040979266167,0.004602448083460331,-0.0,0.003046794096007943
0.005892543122172356,0.006624514702707529,-0.0100955069065094,0.005001697689294815,-0.0,0.002773870946839452
0.005794034339487553,0.006690550595521927,-0.011156647466123104,0.004979277029633522,-0.0,0.002682722406461835
0.006082437001168728,0.007008116226643324,-0.010434911586344242,0.004848097916692495,-0.0,0.0027849620673805475
0.005352336447685957,0.007180315442383289,-0.010327761992812157,0.004646171350032091,-0.0,0.003065813332796097
0.005421869456768036,0.00695973401889205,-0.010715793818235397,0.004728971514850855,-0.0,0.002895585959777236
0.005298464559018612,0.00737319840118289,-0.010308189317584038,0.0046973079442977905,-0.0,0.002818657085299492
0.00604225741699338,0.007625460159033537,-0.010702366940677166,0.004811449442058802,-0.0,0.0026604810263961554
0.005584442522376776,0.00757960882037878,-0.010862230323255062,0.00520012341439724,-0.0,0.002769513987004757
0.005584442522376776,0.00757960882037878,-0.010862230323255062,0.00520012341439724,-0.0,0.002769513987004757
0.005658868700265884,0.006951105315238237,-0.011028662323951721,0.004930595867335796,-0.0,0.0031658175867050886
0.006161884404718876,0.006976498756557703,-0.0108037069439888,0.004755847621709108,-0.0,0.0031980599742382765
0.005806670989841223,0.00707875844091177,-0.010508147068321705,0.0044308309443295,-0.0,0.002858363091945648
0.006069967057555914,0.007016818504780531,-0.01122357789427042,0.004606169648468494,-0.0,0.0027693533338606358
0.00637081591412425,0.0068959943018853664,-0.010975152254104614,0.005705173127353191,-0.0,0.0028912550769746304
0.005641214549541473,0.006770730018615723,-0.010949959978461266,0.005498634651303291,-0.0,0.0029371846467256546
0.005891350097954273,0.007189982570707798,-0.010936451144516468,0.005027572624385357,-0.0,0.002747137099504471
0.006108418572694063,0.007224262226372957,-0.01051362231373787,0.005007518455386162,-0.0,0.0025405529886484146
0.006164163816720247,0.0072880638763308525,-0.011767536401748657,0.004986579995602369,-0.0,0.0025088265538215637
0.006232964340597391,0.007527071516960859,-0.012135482393205166,0.004833027720451355,-0.0,0.0025815602857619524
0.005818773061037064,0.00756679056212306,-0.011497845873236656,0.005254145711660385,-0.0,0.0025853898841887712
0.006286267191171646,0.006848280783742666,-0.011404529213905334,0.0051454766653478146,-0.0,0.002837684005498886
0.006685208063572645,0.006728124339133501,-0.011003348045051098,0.005061407573521137,-0.0,0.0026396494358778
0.006412646733224392,0.006747821811586618,-0.011349404230713844,0.005085885524749756,-0.0,0.0025187782011926174
0.006265603471547365,0.006930942181497812,-0.011239095591008663,0.004896149039268494,-0.0,0.0026007909327745438
0.006240443326532841,0.006788016762584448,-0.01101153064519167,0.004330831114202738,-0.0,0.0025279971305280924
0.006519689224660397,0.0061595323495566845,-0.011381451040506363,0.004858612082898617,-0.0,0.00243998016230762
0.006472916807979345,0.00602774927392602,-0.01094486191868782,0.005422864109277725,-0.0,0.002437006216496229
0.006368749774992466,0.006648351438343525,-0.010609735734760761,0.005163427442312241,-0.0,0.0024078034330159426
0.006448142696171999,0.006798267364501953,-0.011651691049337387,0.005030201748013496,-0.0,0.0023558728862553835
0.006365135777741671,0.006380140781402588,-0.01116990763694048,0.0048281000927090645,-0.0,0.002517691347748041
0.006597477477043867,0.006186746060848236,-0.011948032304644585,0.004755381494760513,-0.0,0.0026644072495400906
0.006716827861964703,0.006591807585209608,-0.011202731169760227,0.00518021360039711,-0.0,0.0025481833145022392
0.00640875706449151,0.006843050010502338,-0.011092589236795902,0.005646209232509136,-0.0,0.0024919502902776003
0.006131009664386511,0.006473076064139605,-0.01008668728172779,0.005344833247363567,-0.0,0.0021890478674322367
0.006465688813477755,0.006140176672488451,-0.011346366256475449,0.005173998884856701,-0.0,0.002092976588755846
0.006556767039000988,0.006647179834544659,-0.01165622379630804,0.004863571375608444,-0.0,0.0023480721283704042
0.0064272466115653515,0.00651085888966918,-0.010744977742433548,0.005068030674010515,-0.0,0.0025109739508479834
0.006715529132634401,0.006380465812981129,-0.01175971794873476,0.005215412471443415,-0.0,0.002317908452823758
0.007103918585926294,0.006159766111522913,-0.011726251803338528,0.005469613708555698,-0.0,0.0021908562630414963
0.007103918585926294,0.006159766111522913,-0.011726251803338528,0.005469613708555698,-0.0,0.0021908562630414963
0.006663000676780939,0.0061740209348499775,-0.01156956609338522,0.0052338107489049435,-0.0,0.002009077463299036
0.00682439561933279,0.006653589196503162,-0.01119711622595787,0.0047914101742208,-0.0,0.0020032799802720547
0.006693659815937281,0.0065837944857776165,-0.010953081771731377,0.005227615125477314,-0.0,0.00217261491343379
0.007333121262490749,0.006317863240838051,-0.011649338528513908,0.005355645436793566,-0.0,0.0022046715021133423
0.006725945509970188,0.006223744247108698,-0.01142254937440157,0.0053146593272686005,-0.0,0.002489142818376422
0.006283285561949015,0.006193565670400858,-0.010764538310468197,0.004961020778864622,-0.0,0.0023212158121168613
0.006655013654381037,0.006721454672515392,-0.011095820926129818,0.004811026155948639,-0.0,0.002356375567615032
0.007386585231870413,0.006644408218562603,-0.010689619928598404,0.004801595583558083,-0.0,0.0023304817732423544
0.006973997224122286,0.006141765974462032,-0.011196537874639034,0.005126037169247866,-0.0,0.00206222222186625
0.006649504415690899,0.006381486542522907,-0.01095204520970583,0.0052418215200304985,-0.0,0.0018675201572477818
0.006595713086426258,0.006576220039278269,-0.010617295280098915,0.005594664253294468,-0.0,0.0018457354744896293
0.006419874727725983,0.007205610629171133,-0.011407965794205666,0.005361219402402639,-0.0,0.001818374847061932
0.0071580116637051105,0.0064087375067174435,-0.01119043119251728,0.0053243390284478664,-0.0,0.0018795817159116268
0.007493308745324612,0.00620574364438653,-0.01111895963549614,0.0052671656012535095,-0.0,0.0018623524811118841
0.007018204778432846,0.006501431111246347,-0.011130589991807938,0.0052457223646342754,-0.0,0.0019144108518958092
0.006508517544716597,0.006657606456428766,-0.010714278556406498,0.005408090073615313,-0.0,0.0018439721316099167
0.006945314351469278,0.0065931170247495174,-0.01221580058336258,0.005385871045291424,-0.0,0.0017912471666932106
0.007202658336609602,0.006463708821684122,-0.011420313268899918,0.0054700314067304134,-0.0,0.001661781338043511
0.007198883220553398,0.006875318009406328,-0.011215917766094208,0.0051958453841507435,-0.0,0.0016518250340595841
0.006837670225650072,0.006906730122864246,-0.011378875002264977,0.004968211054801941,-0.0,0.0016928670229390264
0.007211746647953987,0.007411476224660873,-0.010967141017317772,0.005156157072633505,-0.0,0.0020560503471642733
0.007299442775547504,0.006611706223338842,-0.011209655553102493,0.005102808121591806,-0.0,0.0019690562039613724
0.006828797981142998,0.006688963156193495,-0.011081594042479992,0.00553771061822772,-0.0,0.001986740855500102
0.007279806304723024,0.007342298980802298,-0.011824843473732471,0.005797103513032198,-0.0,0.002011801116168499
0.007279806304723024,0.007342298980802298,-0.011824843473732471,0.005797103513032198,-0.0,0.002011801116168499
0.007831722497940063,0.00748216500505805,-0.011315684765577316,0.005830797832459211,-0.0,0.0018549145897850394
0.007098303642123938,0.006014958489686251,-0.011357229202985764,0.005822423845529556,-0.0,0.0017635202966630459
0.007098303642123938,0.006014958489686251,-0.011357229202985764,0.005822423845529556,-0.0,0.0017635202966630459
0.0074779740534722805,0.006583173759281635,-0.010813099332153797,0.005889069754630327,-0.0,0.0017416994087398052
0.007858619093894958,0.0067728073336184025,-0.011368262581527233,0.005362248048186302,-0.0,0.001643081079237163
0.008287844248116016,0.006207061465829611,-0.011201487854123116,0.005436061415821314,-0.0,0.0015221145004034042
0.007926924154162407,0.00627678819000721,-0.01106676273047924,0.0059057497419416904,-0.0,0.0015005143359303474
0.007941778749227524,0.006342817563563585,-0.011815711855888367,0.006147461477667093,-0.0,0.001483594998717308
0.0078363586217165,0.006228292360901833,-0.011340000666677952,0.0060945795848965645,-0.0,0.0014724875800311565
0.0085549121722579,0.006508440710604191,-0.01141888927668333,0.0059883431531488895,-0.0,0.0014554981607943773
0.0085549121722579,0.006508440710604191,-0.01141888927668333,0.0059883431531488895,-0.0,0.0014554981607943773
0.007919205352663994,0.006689582020044327,-0.01137313712388277,0.0058966875076293945,-0.0,0.0015475597465410829
0.007827580906450748,0.006371739320456982,-0.0117982542142272,0.0059156110510230064,-0.0,0.0014515563379973173
0.007601674180477858,0.0066940137185156345,-0.011379229836165905,0.005959345493465662,-0.0,0.001384288421832025
0.007374646607786417,0.006754316855221987,-0.011870061978697777,0.005773243494331837,-0.0,0.0013875780859962106
0.00801355205476284,0.007049231324344873,-0.011498145759105682,0.005991789512336254,-0.0,0.0013173416955396533
0.008390199393033981,0.007002113852649927,-0.011355655267834663,0.006364848464727402,-0.0,0.0012744968989863992
0.008359730243682861,0.0076623717322945595,-0.011841574683785439,0.006175031885504723,-0.0,0.0013012040872126818
0.007920512929558754,0.006709135603159666,-0.012157735414803028,0.006278947927057743,-0.0,0.0013504663947969675
0.008158215321600437,0.00633992301300168,-0.01193932257592678,0.005904863588511944,-0.0,0.0013372231042012572
0.008082626387476921,0.006406534928828478,-0.011626004241406918,0.006131878588348627,-0.0,0.0013106149854138494
0.007630683481693268,0.006217004731297493,-0.011523245833814144,0.006508178077638149,-0.0,0.00123208062723279
0.007623198442161083,0.006540381815284491,-0.012227695435285568,0.006080110557377338,-0.0,0.0011759443441405892
0.008753761649131775,0.006664814427495003,-0.011293662711977959,0.005922249052673578,-0.0,0.0010892096906900406
0.008753761649131775,0.006664814427495003,-0.011293662711977959,0.005922249052673578,-0.0,0.0010892096906900406
0.008247822523117065,0.006617479957640171,-0.011434223502874374,0.005835207179188728,-0.0,0.001011789427138865
0.008247822523117065,0.006617479957640171,-0.011434223502874374,0.005835207179188728,-0.0,0.001011789427138865
0.008427619002759457,0.006735640112310648,-0.012222952209413052,0.0062963636592030525,-0.0,0.0009647489641793072
0.008262595161795616,0.006358696613460779,-0.011721027083694935,0.006370555143803358,-0.0,0.0009354798239655793
0.008423954248428345,0.006151106208562851,-0.011073793284595013,0.005914926528930664,-0.0,0.0008612465462647378
0.008423954248428345,0.006151106208562851,-0.011073793284595013,0.005914926528930664,-0.0,0.0008612465462647378
0.008618342690169811,0.007095969747751951,-0.011220206506550312,0.0061765750870108604,-0.0,0.0008438447839580476
0.008345740847289562,0.006647640373557806,-0.011912749148905277,0.006137588992714882,-0.0,0.0007774067344143987
0.008525685407221317,0.006115132477134466,-0.011517591774463654,0.006116331089287996,-0.0,0.0007222132408060133
0.008957448415458202,0.006299053318798542,-0.0124260438606143,0.005648142192512751,-0.0,0.0006398760015144944
0.008030286990106106,0.006028182338923216,-0.011634756810963154,0.0057675642892718315,-0.0,0.0005614148103632033
0.008278090506792068,0.0065354169346392155,-0.011853338219225407,0.006614290177822113,-0.0,0.0005914298817515373
0.008785427547991276,0.006296898238360882,-0.012029566802084446,0.0063756657764315605,-0.0,0.0005816636839881539
0.008410925976932049,0.006344709079712629,-0.012090855278074741,0.006060128565877676,-0.0,0.0006080988678149879
0.008265799842774868,0.0059845298528671265,-0.012383024208247662,0.005859435070306063,-0.0,0.000598537502810359
0.008733495138585567,0.006101691629737616,-0.012083358131349087,0.006084377411752939,-0.0,0.0006761671393178403
0.008994176052510738,0.00622970936819911,-0.012325369752943516,0.006199757568538189,-0.0,0.0007059829076752067
0.008605980314314365,0.006042152177542448,-0.011940071359276772,0.006079415325075388,-0.0,0.0007273202063515782
0.008806022815406322,0.006156425457447767,-0.012218275107443333,0.006040678359568119,-0.0,0.0007020392222329974
0.008439164608716965,0.005703822243958712,-0.012453572824597359,0.005935574881732464,-0.0,0.0008800438372418284
0.008317324332892895,0.005937651265412569,-0.012021851725876331,0.006352079566568136,-0.0,0.0007691990467719734
0.00881066732108593,0.006008075084537268,-0.012175621464848518,0.0063168685883283615,-0.0,0.0006588288233615458
0.009211224503815174,0.005924109369516373,-0.011556346900761127,0.006273613311350346,-0.0,0.0005746239330619574
0.009277512319386005,0.005500700790435076,-0.011945176869630814,0.006261390168219805,-0.0,0.0005094414227642119
0.008589837700128555,0.00582992285490036,-0.012586117722094059,0.006016272585839033,-0.0,0.0005014403141103685
0.009118626825511456,0.006580767221748829,-0.012322082184255123,0.006405757274478674,-0.0,0.0004952119197696447
0.008759500458836555,0.00572786433622241,-0.011925212107598782,0.006193779408931732,-0.0,0.0004205990699119866
0.00897159706801176,0.005596870090812445,-0.012774479575455189,0.006190712563693523,-0.0,0.000437983893789351
0.009175260551273823,0.006128828041255474,-0.012161965481936932,0.0068772174417972565,-0.0,0.00042340654181316495
0.009175260551273823,0.006128828041255474,-0.012161965481936932,0.0068772174417972565,-0.0,0.00042340654181316495
0.00923585332930088,0.005755229387432337,-0.01306856982409954,0.006941012106835842,-0.0,0.0003976417356170714
0.00868792925029993,0.006062381435185671,-0.012425410561263561,0.0065932730212807655,-0.0,0.00037408265052363276
0.010005521588027477,0.006075753364712,-0.012060800567269325,0.006253011524677277,-0.0,0.0003531109250616282
0.008760531432926655,0.0053718844428658485,-0.012316477485001087,0.006230480037629604,-0.0,0.0003343635762576014
0.008740678429603577,0.005442424677312374,-0.011896036565303802,0.006506309844553471,-0.0,0.0003175060555804521
0.009422512724995613,0.005680155009031296,-0.012912886217236519,0.006579835433512926,-0.0,0.0003022683958988637
0.009823943488299847,0.006183854304254055,-0.012448415160179138,0.006508651189506054,-1.1359409199940274e-06,0.00028842512983828783
0.008829315192997456,0.005849612411111593,-0.012544447556138039,0.006412907503545284,-7.41688239713767e-08,0.00030993364634923637
0.009713085368275642,0.005693463608622551,-0.0129054831340909,0.006992897018790245,-4.842694689699556e-09,0.00030162971233949065
0.009670155122876167,0.005274577997624874,-0.012624187394976616,0.007089811842888594,-3.1619337703681083e-10,0.0002897937665693462
0.008876817300915718,0.005852038506418467,-0.01212000846862793,0.0065900348126888275,-2.0645169601651858e-11,0.0002785988908726722
0.009373321197926998,0.00598945515230298,-0.011441552080214024,0.006177606992423534,-1.3479819474179755e-12,0.00026821947540156543
0.009490933269262314,0.006091712508350611,-0.011704260483384132,0.006344615947455168,-8.801359435098993e-14,0.0002585856709629297
0.00948882382363081,0.005479775834828615,-0.012814869172871113,0.006653820630162954,-5.746659031746542e-15,0.00024961939197964966
0.009237188845872879,0.00526163075119257,-0.013008016161620617,0.00638581020757556,-3.75215796238513e-16,0.0002412544417893514
0.010122586973011494,0.005467589478939772,-0.01208958774805069,0.006162766367197037,-2.449890929572599e-17,0.00023343173961620778
0.00905647873878479,0.006096127443015575,-0.01185590773820877,0.006392361130565405,-1.5996037297114232e-18,0.0002261003537569195
0.009826069697737694,0.005675110034644604,-0.012779115699231625,0.006312405690550804,-1.0444270634839214e-19,0.0002192158717662096
0.009779319167137146,0.005729553289711475,-0.012048604898154736,0.006565107963979244,-6.819362596005256e-21,0.00021273810125421733
0.00914032943546772,0.0053456551395356655,-0.012444927357137203,0.006351664662361145,-4.452556626395156e-22,0.0002066322776954621
0.009123408235609531,0.005371826700866222,-0.011908008717000484,0.006127691362053156,-2.9072017157854783e-23,0.0002008674928219989
0.009653939865529537,0.005464979447424412,-0.012345622293651104,0.006143856793642044,-1.8981949754662492e-24,0.0001954150793608278
0.009357985109090805,0.006112437229603529,-0.012418140657246113,0.006715670693665743,-1.2393856544280701e-25,0.00019025144865736365
0.009554275311529636,0.0054925959557294846,-0.011911407113075256,0.00693029910326004,-8.092302336476312e-27,0.00018535307026468217
0.009965835139155388,0.005414085928350687,-0.01219969242811203,0.007260191719979048,-5.283694913341593e-28,0.00018070114310830832
0.009736558422446251,0.005803267005831003,-0.012714347802102566,0.006214404013007879,-0.0002153378736693412,0.00017206411575898528
0.009746639057993889,0.0055595505982637405,-0.012555161491036415,0.006238559260964394,-0.00020712056721094996,0.0001680480345385149
0.010260828770697117,0.005809656344354153,-0.012469709850847721,0.006920219864696264,-0.0002350278664380312,0.00015412353968713433
0.010260828770697117,0.005809656344354153,-0.012469709850847721,0.006920219864696264,-0.0002350278664380312,0.00015412353968713433
0.009894679300487041,0.005348276346921921,-0.012255080044269562,0.006865595933049917,-0.00022753755911253393,0.00014116533566266298
0.010064005851745605,0.005876551847904921,-0.01201203279197216,0.006506345234811306,-0.00023630514624528587,0.00013746418699156493
0.009789979085326195,0.005434076301753521,-0.012406378984451294,0.006763759069144726,-0.00024378493253607303,0.00013448900426737964
0.01088218204677105,0.005940362811088562,-0.012363329529762268,0.00700551550835371,-0.00023574828810524195,0.00013167558063287288
0.010375394485890865,0.005506258923560381,-0.012707707472145557,0.00676702382043004,-0.00025133503368124366,0.00012897948909085244
0.009798564016819,0.005416123662143946,-0.012350226752460003,0.006327443290501833,-0.0002501904091332108,8.374152821488678e-05
0.010126796551048756,0.00563746178522706,-0.012553316541016102,0.006253895349800587,-0.00024268694687634706,4.1554747440386564e-05
0.01001779641956091,0.0059785679914057255,-0.012791784480214119,0.007270791567862034,-0.00037901708856225014,3.8042489904910326e-05
0.009660106152296066,0.005454180296510458,-0.01261497288942337,0.007156169041991234,-0.0004211201739963144,2.098135337291751e-05
0.01063219178467989,0.005823337938636541,-0.012945620343089104,0.006755121983587742,-0.0003991084231529385,1.8322620235267095e-05
0.010299738496541977,0.005393132101744413,-0.011695746332406998,0.006593556609004736,-0.00037218217039480805,9.054731890500989e-06
0.010065274313092232,0.005726289004087448,-0.012314243242144585,0.006985894404351711,-0.00039836415089666843,5.912093001825269e-07
0.010056601837277412,0.005469783209264278,-0.012208893895149231,0.007237493991851807,-0.0003811093047261238,3.860174757619461e-08
0.010015999898314476,0.0059690638445317745,-0.012806534767150879,0.007003696169704199,-0.00035978422965854406,2.5204183184968088e-09
0.009803034365177155,0.005442193243652582,-0.012828821316361427,0.0070970673114061356,-0.00038563512498512864,1.6456530582686923e-10
0.010547665879130363,0.005417643580585718,-0.012294862419366837,0.007467023096978664,-0.0003688291762955487,1.074493879288374e-11
0.009977767243981361,0.005581885110586882,-0.012687730602920055,0.007554527372121811,-0.0004408262902870774,7.015677101762652e-13
0.010470932349562645,0.006049047689884901,-0.011730886064469814,0.007304125931113958,-0.0004142052202951163,4.5807362216527744e-14
0.010064619593322277,0.005485756788402796,-0.012569064274430275,0.007294593378901482,-0.00044564850395545363,-0.00097810965962708
0.009802128188312054,0.005069200415164232,-0.012667248025536537,0.00735252583399415,-0.00041994787170551717,-0.0009689325233921409
0.010072455741465092,0.005734335631132126,-0.012899409048259258,0.0070567321963608265,-0.0003901715681422502,-0.0009307420114055276
0.009929558262228966,0.00544026168063283,-0.012467201799154282,0.006904799025505781,-0.0004203022981528193,-0.000837686937302351
0.009730770252645016,0.005216770805418491,-0.01182300504297018,0.006953755393624306,-0.0004250884521752596,-0.0007409917307086289
0.009851580485701561,0.005340712610632181,-0.012409904040396214,0.00722955958917737,-0.0004256237007211894,-0.0007321576122194529
0.01064214576035738,0.005662210285663605,-0.01216685026884079,0.007782949134707451,-0.0004038499027956277,-0.0006838055560365319
0.00980621948838234,0.005755282938480377,-0.012140676379203796,0.007354467175900936,-0.0004951134906150401,-0.0006670721923001111
0.00980621948838234,0.005755282938480377,-0.012140676379203796,0.007354467175900936,-0.0004951134906150401,-0.0006670721923001111
0.009937448427081108,0.00549628771841526,-0.012315375730395317,0.00716620497405529,-0.0005195951089262962,-0.0007172384648583829
0.010572313331067562,0.005577286705374718,-0.012221388518810272,0.0075618489645421505,-0.0004968068678863347,-0.0013340961886569858
0.010071338154375553,0.0057176249101758,-0.012295449152588844,0.0072428034618496895,-0.0005185125628486276,-0.0014963573776185513
0.00978896114975214,0.006286917254328728,-0.012943612411618233,0.007121448405086994,-0.0004909767885692418,-0.0015487514901906252
0.009945293888449669,0.005949682556092739,-0.012499067932367325,0.006875227205455303,-0.0006315300124697387,-0.0014444295084103942
0.009987741708755493,0.005616066977381706,-0.013251098804175854,0.007319892756640911,-0.0005775584722869098,-0.0013047363609075546
0.010858483612537384,0.005210800562053919,-0.01210033055394888,0.007468699011951685,-0.0005881976685486734,-0.0011159877758473158
0.009786615148186684,0.005987049546092749,-0.012832632288336754,0.007481967564672232,-0.0005511429626494646,-0.0010752077214419842
0.01011106837540865,0.0060888659209012985,-0.012796592898666859,0.007510832045227289,-0.0005014186608605087,-0.0008583830785937607
0.010459056124091148,0.00612179609015584,-0.013244003057479858,0.00760471960529685,-0.0005149251082912087,-0.0009516866412013769
0.01076471246778965,0.005821285769343376,-0.012669426389038563,0.007502689026296139,-0.0004920478677377105,-0.0014735371805727482
0.010216951370239258,0.005441455636173487,-0.012070372700691223,0.007432564627379179,-0.00045743532245978713,-0.0019075182499364018
0.010193925350904465,0.005638706963509321,-0.012762203812599182,0.007604162208735943,-0.0004561149107757956,-0.0026015162002295256
0.009678649716079235,0.005487790331244469,-0.012465307489037514,0.006922302767634392,-0.0004544857074506581,-0.0023400047793984413
0.011587316170334816,0.005782769527286291,-0.013061637058854103,0.007707346696406603,-0.00042916228994727135,-0.0019540819339454174
0.01240837574005127,0.005681757815182209,-0.01276883203536272,0.0072507490403950214,-0.0004051218566019088,-0.001673961873166263
0.01205243170261383,0.005379549227654934,-0.013014379888772964,0.007079451344907284,-0.00036174122942611575,-0.0015080795856192708
0.011800517328083515,0.005202807020395994,-0.012630104087293148,0.00798134133219719,-0.000332802243065089,-0.0012643293011933565
0.011757242493331432,0.005738861858844757,-0.012658081017434597,0.008529924787580967,-0.0003097370208706707,-0.0012809359468519688
0.012601829133927822,0.005911048036068678,-0.01330559328198433,0.008031804114580154,-0.0003324222343508154,-0.0013618292286992073
0.011519229039549828,0.0060961889103055,-0.012754918076097965,0.008051566779613495,-0.0003256777999922633,-0.0015919494908303022
0.011519229039549828,0.0060961889103055,-0.012754918076097965,0.008051566779613495,-0.0003256777999922633,-0.0015919494908303022
0.01311036292463541,0.005558384116739035,-0.013899245299398899,0.008273160085082054,-0.0003079686430282891,-0.0019224578281864524
0.012120584025979042,0.005801518447697163,-0.013206252828240395,0.007999750785529613,-0.0003193868906237185,-0.0028403617907315493
0.012120543979108334,0.005977144464850426,-0.01401019562035799,0.007854407653212547,-0.00029257521964609623,-0.002646212000399828
0.01239296980202198,0.00565911503508687,-0.013116599060595036,0.007543995976448059,-0.0002795989566948265,-0.0024013931397348642
0.01239296980202198,0.00565911503508687,-0.013116599060595036,0.007543995976448059,-0.0002795989566948265,-0.0024013931397348642
0.012190769426524639,0.0054489620961248875,-0.013432281091809273,0.006966480519622564,-0.00030085782054811716,-0.0021084395702928305
0.012586420401930809,0.005381578113883734,-0.013024545274674892,0.00732822809368372,-0.00029315348365344107,-0.0021522045135498047
0.012783019803464413,0.005540667101740837,-0.013254833407700062,0.00803571566939354,-0.0002819674846250564,-0.0023156306706368923
0.013007988221943378,0.005844613537192345,-0.013620195910334587,0.0076613957062363625,-0.0002713588182814419,-0.0023649237118661404
0.012942968867719173,0.005830020178109407,-0.0130781764164567,0.00743041280657053,-0.00026150268968194723,-0.0028195641934871674
0.01240710262209177,0.005285386927425861,-0.01295301504433155,0.007494320161640644,-0.00025233629276044667,-0.002920273458585143
0.012772392481565475,0.005367645528167486,-0.012264230288565159,0.007878240197896957,-0.00024379149544984102,-0.0028647705912590027
0.012930813245475292,0.005176072008907795,-0.013147995807230473,0.007739530876278877,-0.000239691260503605,-0.0026677714195102453
0.012528255581855774,0.006009876262396574,-0.013109663501381874,0.0076744817197322845,-0.00022843976330477744,-0.0026544586289674044
0.012385578826069832,0.005953395739197731,-0.013303346000611782,0.0077024237252771854,-0.00021745706908404827,-0.0025681264232844114
0.0128299780189991,0.006002153269946575,-0.013229623436927795,0.007510626222938299,-0.00020743445202242583,-0.002626136876642704
0.012959465384483337,0.005483753513544798,-0.013583480380475521,0.008026761934161186,-0.0001982917747227475,-0.0027966860216110945
0.012814742513000965,0.0052985078655183315,-0.013210036791861057,0.008214684203267097,-0.00018992101831827313,-0.003106819000095129
0.013073290698230267,0.005626172758638859,-0.013592500239610672,0.008155600167810917,-0.0001822285121306777,-0.003107054391875863
0.012590937316417694,0.006184893194586039,-0.013408825732767582,0.007935670204460621,-0.00019228011660743505,-0.0032298800069838762
0.013259616680443287,0.005543662700802088,-0.013237034901976585,0.008013719692826271,-0.0002011204051086679,-0.0033371036406606436
0.012987367808818817,0.005405537784099579,-0.013310857117176056,0.008815930224955082,-0.00019490622798912227,-0.003233575262129307
0.013134697452187538,0.005237907636910677,-0.012869489379227161,0.008680728264153004,-0.0001881814532680437,-0.0031213252805173397
0.012822809629142284,0.005830179899930954,-0.013496906496584415,0.008282104507088661,-0.00018184809596277773,-0.0031514503061771393
0.013198054395616055,0.005954321473836899,-0.013148725964128971,0.007774172350764275,-0.00017592310905456543,-0.0032105487771332264
0.012992769479751587,0.005847124848514795,-0.013725054450333118,0.008136602118611336,-0.00017037229554262012,-0.0034262114204466343
0.012840624898672104,0.005264055449515581,-0.012938481755554676,0.00841153971850872,-0.00016516078903805465,-0.004032765980809927
0.013001040555536747,0.005328114610165358,-0.013359210453927517,0.008108175359666348,-0.00016025885997805744,-0.003939067013561726
0.01285694632679224,0.00535738468170166,-0.012844836339354515,0.00782748218625784,-0.00017983521684072912,-0.003563659731298685
0.013062986545264721,0.006077670957893133,-0.013500263914465904,0.008100943639874458,-0.00017637819109950215,-0.003182217013090849
0.012762189842760563,0.005608889274299145,-0.013551400043070316,0.008603108115494251,-0.00017167461919598281,-0.0031283332500606775
0.012847031466662884,0.005199755076318979,-0.013242706656455994,0.008749819360673428,-0.0001628078316571191,-0.003481058869510889
0.01312869880348444,0.00571319367736578,-0.013001734390854836,0.009000301361083984,-0.00015870635979808867,-0.003613655222579837
0.01312869880348444,0.00571319367736578,-0.013001734390854836,0.009000301361083984,-0.00015870635979808867,-0.003613655222579837
0.013490716926753521,0.005473259836435318,-0.0135300038382411,0.008559285663068295,-0.00015480628644581884,-0.0035938266664743423
0.013183276169002056,0.005908029619604349,-0.013711421750485897,0.008358947932720184,-0.00015109351079445332,-0.003425910836085677
0.013662470504641533,0.005774175748229027,-0.012963325716555119,0.008695058524608612,-0.00014417755301110446,-0.003914115019142628
0.013662470504641533,0.005774175748229027,-0.012963325716555119,0.008695058524608612,-0.00014417755301110446,-0.003914115019142628
0.013912970200181007,0.0054433285258710384,-0.013373538851737976,0.00884830579161644,-0.0001409516262356192,-0.004042910411953926
0.013456474058330059,0.005773585755378008,-0.012899222783744335,0.008691738359630108,-0.0001378668675897643,-0.003808473004028201
0.013753448612987995,0.005695689935237169,-0.013702052645385265,0.008398042991757393,-0.00013491442950908095,-0.003743477864190936
0.013552622869610786,0.005625201854854822,-0.013180467300117016,0.008039180189371109,-0.00013208577001933008,-0.003937682136893272
0.013900306075811386,0.005273305345326662,-0.01376850064843893,0.008223223499953747,-0.00012937326391693205,-0.004314337391406298
0.013527994975447655,0.005380826536566019,-0.013269724324345589,0.008392690680921078,-0.00012676989717874676,-0.004215440712869167
0.013996697962284088,0.005501749459654093,-0.013451951555907726,0.008266293443739414,-0.00012426917965058237,-0.004013978410512209
0.0133516201749444,0.005615411791950464,-0.013262497261166573,0.008209372870624065,-0.00013478266191668808,-0.004192265681922436
0.013708217069506645,0.0057654366828501225,-0.013602209277451038,0.009115041233599186,-0.00013633843627758324,-0.004262732341885567
0.013495886698365211,0.005331961903721094,-0.0134915541857481,0.00936543196439743,-0.00013406795915216208,-0.004425610415637493
0.01370008010417223,0.00588653702288866,-0.013096433132886887,0.009274831041693687,-0.00013163436960894614,-0.0042139021679759026
0.013960656709969044,0.005719235632568598,-0.01311454176902771,0.008897962048649788,-0.0001292719825869426,-0.0038970010355114937
0.014250297099351883,0.005927312653511763,-0.012596975080668926,0.008613229729235172,-0.0001269920903723687,-0.003673277795314789
0.014030727557837963,0.0059492941945791245,-0.013376225717365742,0.008634606376290321,-0.00012479098222684115,-0.003652606625109911
0.014030727557837963,0.0059492941945791245,-0.013376225717365742,0.008634606376290321,-0.00012479098222684115,-0.003652606625109911
0.014292766340076923,0.005607917904853821,-0.013248469680547714,0.008315226063132286,-0.00012266504927538335,-0.004084329586476088
0.014043660834431648,0.006029345095157623,-0.013669122941792011,0.008613243699073792,-0.00012061005691066384,-0.004606412723660469
0.01458024699240923,0.005671958904713392,-0.01302543468773365,0.008818228729069233,-0.00011862300016218796,-0.004515049513429403
0.014082493260502815,0.0059233978390693665,-0.013301976025104523,0.008549980819225311,-0.0001167755326605402,-0.004293177276849747
0.01418004184961319,0.0059039415791630745,-0.013044269755482674,0.008912941440939903,-0.00010149325680686161,-0.004405728075653315
0.014064245857298374,0.005846819840371609,-0.013809011317789555,0.00901112798601389,-9.844621672527865e-05,-0.004230013582855463
0.014337553642690182,0.005815236363559961,-0.013245678506791592,0.008787578903138638,-9.426505130250007e-05,-0.00428822822868824
0.014699574559926987,0.006259217858314514,-0.013231761753559113,0.008913740515708923,-9.233074524672702e-05,-0.004942481871694326
0.01458128821104765,0.005810116417706013,-0.013267195783555508,0.008578507229685783,-0.00010736352851381525,-0.00452488474547863
0.01472915057092905,0.0059099821373820305,-0.013482136651873589,0.008417369797825813,-0.00010635068611009046,-0.0044828495010733604
0.014245642349123955,0.0058827330358326435,-0.013496963307261467,0.009182474575936794,-0.00010436710726935416,-0.004213233944028616
0.014879120513796806,0.006111288443207741,-0.013891017995774746,0.008957809768617153,-0.0001023928343784064,-0.004356293939054012
0.014644312672317028,0.006465733051300049,-0.012975450605154037,0.008299276232719421,-0.00010872955317609012,-0.004508050624281168
0.015109919011592865,0.006267364602535963,-0.013797967694699764,0.008712571114301682,-0.00011453843035269529,-0.004726029466837645
0.014692903496325016,0.006032849196344614,-0.013251814059913158,0.008857210166752338,-0.00011299265315756202,-0.004747916478663683
0.01521931029856205,0.005569695960730314,-0.014060723595321178,0.008652301505208015,-0.0001248204498551786,-0.004657624289393425
0.014686059206724167,0.005722195375710726,-0.013395159505307674,0.009157855063676834,-0.00012456545664463192,-0.004749600309878588
0.015458854846656322,0.005476952996104956,-0.013916006311774254,0.009517742320895195,-0.00012256942864041775,-0.0050071594305336475
0.014568218030035496,0.006033005192875862,-0.013589784502983093,0.009203668683767319,-0.00024053803645074368,-0.004723366349935532
0.014913003891706467,0.006256924942135811,-0.014341292902827263,0.009827466681599617,-0.00026473734760656953,-0.004637137521058321
0.014994144439697266,0.005469976458698511,-0.01289239339530468,0.009696568362414837,-0.0002523947914596647,-0.004888028837740421
0.015422988682985306,0.0053696176037192345,-0.014623941853642464,0.009377965703606606,-0.00028053767164237797,-0.005042325239628553
0.01576436311006546,0.005682256072759628,-0.014165018685162067,0.008923538960516453,-0.0002720766351558268,-0.00563419982790947
0.015705419704318047,0.006009505596011877,-0.01406166609376669,0.009678125381469727,-0.0002593768003862351,-0.005393417086452246
0.015589706599712372,0.005781357176601887,-0.013817314989864826,0.009587174281477928,-0.00028593704337254167,-0.004971689078956842
0.015514004044234753,0.005477404687553644,-0.01480748038738966,0.009338514879345894,-0.0002759197086561471,-0.004971791990101337
0.01578368805348873,0.005437137093394995,-0.014382485300302505,0.00964970514178276,-0.00029970784089528024,-0.005061480216681957
0.015547367744147778,0.005540256854146719,-0.014690518379211426,0.009566065855324268,-0.0004280584689695388,-0.005431438330560923
0.015953434631228447,0.005575972143560648,-0.014023960568010807,0.009803100489079952,-0.00047451755381189287,-0.005678045097738504
0.015953434631228447,0.005575972143560648,-0.014023960568010807,0.009803100489079952,-0.00047451755381189287,-0.005678045097738504
0.015620328485965729,0.005634828936308622,-0.014356609433889389,0.009930761530995369,-0.0005122230504639447,-0.00540456548333168
0.01598038710653782,0.005155413411557674,-0.014343141578137875,0.009580070152878761,-0.0005084096337668598,-0.005357539281249046
0.016010817140340805,0.005274629686027765,-0.014711384661495686,0.009829345159232616,-0.0008124587475322187,-0.006019174586981535
0.016010817140340805,0.005274629686027765,-0.014711384661495686,0.009829345159232616,-0.0008124587475322187,-0.006019174586981535
0.015935493633151054,0.005636359099298716,-0.01448769960552454,0.009827149100601673,-0.0008011785103008151,-0.005796663463115692
0.01603488065302372,0.005442863795906305,-0.014791573397815228,0.010698309168219566,-0.0007594799972139299,-0.005454164929687977
0.01587880216538906,0.005215317942202091,-0.013972431421279907,0.010080819018185139,-0.0007645198493264616,-0.0056722708977758884
0.016247281804680824,0.0048448569141328335,-0.014850114472210407,0.009550592862069607,-0.0007065046229399741,-0.005928354803472757
0.016350705176591873,0.004404367879033089,-0.013931531459093094,0.009637530893087387,-0.0007151419995352626,-0.005911807995289564
0.01641089841723442,0.004084020387381315,-0.014450444839894772,0.009223440662026405,-0.0007306735496968031,-0.0057246326468884945
0.015998749062418938,0.004846086725592613,-0.014441928826272488,0.009226634167134762,-0.0007364117191173136,-0.005632874555885792
0.01634768396615982,0.004998127929866314,-0.014977384358644485,0.009926297701895237,-0.0007532453164458275,-0.00599502120167017
0.01601744443178177,0.004582437686622143,-0.014460405334830284,0.009356417693197727,-0.0007098994101397693,-0.0056593287736177444
0.01633496582508087,0.004386517684906721,-0.014963848516345024,0.009245708584785461,-0.0008248701342381537,-0.005928474944084883
0.01688934490084648,0.004874781705439091,-0.013745024800300598,0.009741455316543579,-0.0008415228803642094,-0.00617844145745039
0.016458552330732346,0.004913183860480785,-0.014221866615116596,0.009997544810175896,-0.000849436386488378,-0.0057167429476976395
0.01628798246383667,0.004834701307117939,-0.013722001574933529,0.008756546303629875,-0.0008066230220720172,-0.005930942017585039
0.016253797337412834,0.004933053161948919,-0.014263063669204712,0.009261156432330608,-0.0008776517352089286,-0.005834641866385937
0.01687592826783657,0.004784661810845137,-0.014181626960635185,0.009456918574869633,-0.0008869917946867645,-0.006296514067798853
0.016726482659578323,0.004849109333008528,-0.01452824380248785,0.009548311121761799,-0.000839878455735743,-0.006523139774799347
0.01649707369506359,0.004622840788215399,-0.01410036999732256,0.009792864322662354,-0.0007900471100583673,-0.006222435738891363
0.016754111275076866,0.004784751683473587,-0.014351628720760345,0.010122038424015045,-0.0007984999683685601,-0.006228338927030563
0.01648898981511593,0.004785358440130949,-0.014217901974916458,0.009949630126357079,-0.000724394281860441,-0.006447811610996723
0.016834689304232597,0.0048891706392169,-0.014498949982225895,0.010486813262104988,-0.0006809674086980522,-0.006299077998846769
0.016515711322426796,0.005187452305108309,-0.014385678805410862,0.010088317096233368,-0.0006541803013533354,-0.006457685958594084
0.016877485439181328,0.004999288357794285,-0.014489100314676762,0.009333335794508457,-0.0006288739969022572,-0.0065212068147957325
0.017000358551740646,0.004807754419744015,-0.014705764129757881,0.009823303669691086,-0.0006115768337622285,-0.00669822609052062
0.017000358551740646,0.004807754419744015,-0.014705764129757881,0.009823303669691086,-0.0006115768337622285,-0.00669822609052062
0.016660409048199654,0.0046212440356612206,-0.01524285040795803,0.010706989094614983,-0.0005948218167759478,-0.006559484172612429
0.016789691522717476,0.0048323520459234715,-0.014935011975467205,0.00967949815094471,-0.0005459243548102677,-0.006751067470759153
0.016908641904592514,0.005257452372461557,-0.014830512925982475,0.010195465758442879,-0.0005692084087058902,-0.006703197490423918
0.017573248594999313,0.004474076442420483,-0.015046574175357819,0.01029951311647892,-0.0005110868369229138,-0.006973326671868563
0.01719493418931961,0.0048933788202703,-0.01467321626842022,0.010705145075917244,-0.0004655358206946403,-0.006806713528931141
0.017675647512078285,0.004960368387401104,-0.015220231376588345,0.010244571603834629,-0.00042227795347571373,-0.007104025222361088
0.01734810136258602,0.005248861853033304,-0.014689608477056026,0.0102513637393713,-0.0003860402503050864,-0.007627500221133232
0.01702882908284664,0.005036183632910252,-0.015093963593244553,0.010589118115603924,-0.00035551536711864173,-0.006891137920320034
0.016612306237220764,0.00486229732632637,-0.014524021185934544,0.01058158464729786,-0.0003294651978649199,-0.006992033217102289
0.01836252026259899,0.004703722428530455,-0.014884976670145988,0.01097856555134058,-0.0003600087366066873,-0.007398752961307764
0.018194928765296936,0.005015765316784382,-0.01419206615537405,0.010930587537586689,-0.0003442859451752156,-0.007565874140709639
0.017490273341536522,0.004989228677004576,-0.015014139004051685,0.010048964060842991,-0.00032408704282715917,-0.007590101566165686
0.017341380938887596,0.004819128196686506,-0.014475300908088684,0.01045155432075262,-0.0003057595167774707,-0.0074794599786400795
0.018026847392320633,0.0050810156390070915,-0.015078525990247726,0.009927542880177498,-0.0002893705968745053,-0.007329230196774006
0.017668772488832474,0.004998920951038599,-0.01445247046649456,0.009344100952148438,-0.0002746476966422051,-0.006943570449948311
0.017831912264227867,0.0047372980043292046,-0.015079916454851627,0.009516690857708454,-0.00026135100051760674,-0.0069408719427883625
0.01800237037241459,0.004758203402161598,-0.014435817487537861,0.009982512332499027,-0.0002879856911022216,-0.0072992946952581406
0.01829995959997177,0.004848690237849951,-0.015081021003425121,0.010094765573740005,-0.0002778074995148927,-0.007441277615725994
0.018489642068743706,0.004823805298656225,-0.014871986582875252,0.010091453790664673,-0.0002662304032128304,-0.006645108573138714
0.01749756745994091,0.005857498850673437,-0.01523873396217823,0.00996167492121458,-0.0002554443490225822,-0.00709333922713995
0.01773088239133358,0.005411336198449135,-0.014538214541971684,0.00980654638260603,-0.00024548909277655184,-0.0068421680480241776
0.018055817112326622,0.004560349974781275,-0.014932245016098022,0.01055985875427723,-0.00023628113558515906,-0.007186582777649164
0.017951561138033867,0.004957359749823809,-0.015172259882092476,0.01035870797932148,-0.00022773795353714377,-0.007219440769404173
0.018480373546481133,0.00544746546074748,-0.015755143016576767,0.010058601386845112,-0.00021979172015562654,-0.00728038651868701
0.018150050193071365,0.005143236834555864,-0.01595102995634079,0.009992188774049282,-0.00021238153567537665,-0.007179916370660067
0.018259063363075256,0.005526337772607803,-0.015006818808615208,0.010554344393312931,-0.00020545418374240398,-0.0072845881804823875
0.018575914204120636,0.005022319965064526,-0.015370274893939495,0.010386263951659203,-0.00022547190019395202,-0.007058291230350733
0.018575914204120636,0.005022319965064526,-0.015370274893939495,0.010386263951659203,-0.00022547190019395202,-0.007058291230350733
0.018102308735251427,0.004783282987773418,-0.01520998403429985,0.01064336858689785,-0.00022030160471331328,-0.006885020062327385
0.018157154321670532,0.00549888564273715,-0.015373952686786652,0.01034695003181696,-0.00021386999287642539,-0.006879916414618492
0.018666354939341545,0.0053491611033678055,-0.014978418126702309,0.010340442880988121,-0.00020770692208316177,-0.007351370062679052
0.018638692796230316,0.004968341439962387,-0.015605289489030838,0.010652714408934116,-0.00020188298367429525,-0.00736242113634944
0.01866229437291622,0.005360337905585766,-0.015222239308059216,0.010143089108169079,-0.0001963764661923051,-0.007060878444463015
0.01873728074133396,0.005608146544545889,-0.01509160827845335,0.010899985209107399,-0.00016739935381338,-0.0075135985389351845
0.01923343911767006,0.005249246023595333,-0.015534202568233013,0.010616270825266838,-0.00014430758892558515,-0.007746139541268349
0.019053371623158455,0.004936814773827791,-0.015549304895102978,0.010924156755208969,-0.00013870029943063855,-0.006934565491974354
0.01884583942592144,0.005706793628633022,-0.016105808317661285,0.010235481895506382,-0.00013447926903609186,-0.007009713910520077
0.019537273794412613,0.005681502167135477,-0.016211314126849174,0.010179788805544376,-0.0001305717887589708,-0.007306966464966536
0.019371798262000084,0.005291832145303488,-0.016247211024165154,0.010952109470963478,-0.00012688941205851734,-0.007072068750858307
0.01889982260763645,0.004942673724144697,-0.016386933624744415,0.0103555703535676,-0.00012340929242782295,-0.007004410494118929
0.019300781190395355,0.00520828552544117,-0.016163548454642296,0.010806438513100147,-0.00012011509534204379,-0.0070361243560910225
0.019065704196691513,0.00547667546197772,-0.01641092635691166,0.010387340560555458,-0.00013882177881896496,-0.007235290016978979
0.019368629902601242,0.0052519128657877445,-0.015445173718035221,0.009885036386549473,-0.00013673011562786996,-0.007394453044980764
0.019548973068594933,0.0054474337957799435,-0.016236962750554085,0.010113557800650597,-0.00013344433682505041,-0.007230051793158054
0.019317353144288063,0.005056930705904961,-0.01621127501130104,0.010356149636209011,-0.0001302320888498798,-0.006891306024044752
0.019135164096951485,0.004840071313083172,-0.016451437026262283,0.010573271661996841,-0.0001455726014683023,-0.006471223197877407
0.019673896953463554,0.005111678037792444,-0.016395706683397293,0.011180221103131771,-0.00014476403885055333,-0.006890318356454372
0.020280711352825165,0.005286301486194134,-0.015792369842529297,0.011173483915627003,-0.00014167450717650354,-0.007234127260744572
0.01957765221595764,0.005519509315490723,-0.016413597390055656,0.011175909079611301,-0.00014830182772129774,-0.0067192139104008675
0.019847985357046127,0.005370491649955511,-0.01555291935801506,0.011304187588393688,-0.00015430002531502396,-0.006213890388607979
0.019934281706809998,0.005044945981353521,-0.0164133682847023,0.010606524534523487,-0.0001516491756774485,-0.007559225894510746
0.020177241414785385,0.005259089171886444,-0.016016343608498573,0.010879499837756157,-0.0001485593238612637,-0.007880725897848606
0.02013884112238884,0.005146746523678303,-0.016184933483600616,0.01056605763733387,-0.00022221919789444655,-0.00744533771649003
0.019916899502277374,0.005391635466367006,-0.01616663858294487,0.010438117198646069,-0.00022222186089493334,-0.006852896884083748
0.02014453150331974,0.005252800416201353,-0.016271889209747314,0.010827458463609219,-0.00021244632080197334,-0.007169367279857397
0.020331956446170807,0.005183233879506588,-0.01644921489059925,0.010436098091304302,-0.00024071930965874344,-0.007243729662150145
0.020643701776862144,0.005435630213469267,-0.015581334009766579,0.010083439759910107,-0.00023280766617972404,-0.00783190131187439
0.020643701776862144,0.005435630213469267,-0.015581334009766579,0.010083439759910107,-0.00023280766617972404,-0.00783190131187439
0.020586475729942322,0.005150157492607832,-0.016280047595500946,0.01098849531263113,-0.0002508500183466822,-0.0076312050223350525
0.020566226914525032,0.005210256204009056,-0.015922779217362404,0.011172070167958736,-0.00024958865833468735,-0.007017352152615786
0.019275257363915443,0.005414746701717377,-0.016454115509986877,0.010461960919201374,-0.00024062221928033978,-0.00693799601867795
0.021189112216234207,0.005265361163765192,-0.01642093062400818,0.011076543480157852,-0.000254955783020705,-0.007465583737939596
0.020696351304650307,0.004944531712681055,-0.016501151025295258,0.01117114070802927,-0.0002467234735377133,-0.007447643671184778
0.021133102476596832,0.005201282445341349,-0.01594631001353264,0.01090954802930355,-0.00036837972584180534,-0.007660095579922199
0.021387865766882896,0.0050791408866643906,-0.01654594950377941,0.010708138346672058,-0.00035801855847239494,-0.007725388742983341
0.020933330059051514,0.005358837079256773,-0.015678802505135536,0.011118927039206028,-0.0003650485596153885,-0.008194432593882084
0.02017170563340187,0.005303400568664074,-0.016130313277244568,0.010954570956528187,-0.0003696620697155595,-0.008426431566476822
0.020939812064170837,0.00487383222207427,-0.016153020784258842,0.010841792449355125,-0.0003904587065335363,-0.007992999628186226
0.021113624796271324,0.004890543408691883,-0.01624322310090065,0.011272592470049858,-0.0003803264698944986,-0.007576675154268742
0.021343722939491272,0.005366548430174589,-0.015661675482988358,0.011203651316463947,-0.00035949493758380413,-0.007830800488591194
0.020411718636751175,0.005029665306210518,-0.016030875965952873,0.011303318664431572,-0.0003853729576803744,-0.007722103968262672
0.02089657261967659,0.005315872840583324,-0.01657910645008087,0.011052539572119713,-0.000368592533050105,-0.0075730434618890285
0.02169080264866352,0.005209651309996843,-0.01620861142873764,0.010808596387505531,-0.0004509967693593353,-0.00802005548030138
0.021533271297812462,0.005142796318978071,-0.016460048034787178,0.011510469019412994,-0.00046500659664161503,-0.008214403875172138
0.021120470017194748,0.0053001088090240955,-0.015809353440999985,0.011607672087848186,-0.0004632115887943655,-0.008184853009879589
0.021603045985102654,0.0049505941569805145,-0.016804922372102737,0.011401175521314144,-0.00042889639735221863,-0.007954037748277187
0.021173588931560516,0.005471587646752596,-0.016230208799242973,0.011239114217460155,-0.00045904197031632066,-0.008206631056964397
0.02084861323237419,0.005344347096979618,-0.016102127730846405,0.010992850176990032,-0.0004615653888322413,-0.008832133375108242
0.020945586264133453,0.005231857765465975,-0.016376638785004616,0.011582674458622932,-0.00045983176096342504,-0.008493953384459019
0.02153008244931698,0.005276963114738464,-0.016218731179833412,0.011928047053515911,-0.0005062156706117094,-0.007979588583111763
0.021585697308182716,0.004933049436658621,-0.016834573820233345,0.012184602208435535,-0.0005176147678866982,-0.008252358995378017
0.02127760648727417,0.00544295459985733,-0.016152242198586464,0.011604621075093746,-0.000536731502506882,-0.008682032115757465
0.021427493542432785,0.005374424159526825,-0.016614098101854324,0.0118516581133008,-0.0005075788358226418,-0.008543499745428562
0.021507149562239647,0.0054178484715521336,-0.016131693497300148,0.012478982098400593,-0.0005220514140091836,-0.007952434942126274
0.021576980128884315,0.0054604061879217625,-0.016430078074336052,0.012102799490094185,-0.0005329725099727511,-0.008107157424092293
0.021576980128884315,0.0054604061879217625,-0.016430078074336052,0.012102799490094185,-0.0005329725099727511,-0.008107157424092293
0.02160620503127575,0.005420348607003689,-0.016237707808613777,0.012234371155500412,-0.0005545357125811279,-0.008009145967662334
0.02160620503127575,0.005420348607003689,-0.016237707808613777,0.012234371155500412,-0.0005545357125811279,-0.008009145967662334
0.021498488262295723,0.00510849803686142,-0.015903612598776817,0.01263003796339035,-0.0005894816131331027,-0.00828553643077612
0.02128097414970398,0.00580444885417819,-0.01672055758535862,0.012182186357676983,-0.0006155268638394773,-0.008211215026676655
0.021557841449975967,0.005275086499750614,-0.01611439697444439,0.012729238718748093,-0.0006047541392035782,-0.008691051974892616
0.02153066173195839,0.005483940243721008,-0.016372881829738617,0.011983148753643036,-0.0005908531602472067,-0.008697908371686935
0.02144542522728443,0.00522286631166935,-0.01642416976392269,0.012101199477910995,-0.0005481840926222503,-0.008664509281516075
0.021263157948851585,0.005019689444452524,-0.01638174243271351,0.012581197544932365,-0.0006007386255078018,-0.008537402376532555
0.02197348326444626,0.005724224261939526,-0.016687069088220596,0.012082990258932114,-0.0005583136808127165,-0.008650640025734901
0.02221621572971344,0.005439823027700186,-0.016248781234025955,0.01233420055359602,-0.0005841524689458311,-0.008814810775220394
0.021571924909949303,0.005203148350119591,-0.016491511836647987,0.012077097781002522,-0.0005808852729387581,-0.008920920081436634
0.021830592304468155,0.0050859954208135605,-0.016472727060317993,0.012386581860482693,-0.000568205548916012,-0.008510880172252655
0.02287326753139496,0.005083850119262934,-0.017090098932385445,0.012309957295656204,-0.0005784289678558707,-0.00919127743691206
0.022196095436811447,0.005359708797186613,-0.017788037657737732,0.012060567736625671,-0.0005513769574463367,-0.008740851655602455
0.02162160724401474,0.00530963484197855,-0.01643245480954647,0.012137213721871376,-0.0005941350827924907,-0.00840720348060131
0.021300513297319412,0.005181398242712021,-0.01709192804992199,0.011945455335080624,-0.0006228222046047449,-0.0088512497022748
0.022171085700392723,0.00503916060552001,-0.01675872690975666,0.012132874689996243,-0.0005698681343346834,-0.008718003518879414
0.02209998108446598,0.005195322446525097,-0.017196696251630783,0.011772990226745605,-0.0005959942936897278,-0.00859713926911354
0.02235964499413967,0.005276522599160671,-0.01690332405269146,0.011982056312263012,-0.0005492509226314723,-0.00887907762080431
0.0230124332010746,0.005158170126378536,-0.016957290470600128,0.012350980192422867,-0.0005054832436144352,-0.008762658573687077
0.02233659103512764,0.005277587566524744,-0.01796707697212696,0.01226430106908083,-0.0004679333360400051,-0.008777990005910397
0.02297409623861313,0.005019887816160917,-0.01716693304479122,0.012805121950805187,-0.00043555974843911827,-0.009104525670409203
0.02194106951355934,0.00529856001958251,-0.0170209351927042,0.012190877459943295,-0.00046151087735779583,-0.009077787399291992
0.02169470489025116,0.005591524764895439,-0.017146039754152298,0.012638585641980171,-0.0004370171227492392,-0.00917440839111805
0.02231418713927269,0.0049728392623364925,-0.0173335038125515,0.012202954851090908,-0.0004122185055166483,-0.008923892863094807
0.022699248045682907,0.004193407483398914,-0.018045786768198013,0.012436529621481895,-0.00038989988388493657,-0.00911073200404644
0.02242100052535534,0.004349071998149157,-0.017120476812124252,0.012618878856301308,-0.00036986544728279114,-0.008738075383007526
0.0224160086363554,0.004732493776828051,-0.016961336135864258,0.0126561364158988,-0.00035221505095250905,-0.008547927252948284
0.022633180022239685,0.00489642983302474,-0.01721566915512085,0.012953399680554867,-0.00030694023007526994,-0.009325834922492504
0.02308187447488308,0.00451113423332572,-0.017664417624473572,0.013127305544912815,-0.0002860252861864865,-0.009091684594750404
0.022924618795514107,0.004371821414679289,-0.01765957847237587,0.013070795685052872,-0.0003188687260262668,-0.00896044634282589
0.022924618795514107,0.004371821414679289,-0.01765957847237587,0.013070795685052872,-0.0003188687260262668,-0.00896044634282589
0.02282220497727394,0.00438833050429821,-0.017090093344449997,0.012730960734188557,-0.0002881368272937834,-0.008852447383105755
0.02291759103536606,0.0044013699516654015,-0.017575502395629883,0.01273041870445013,-0.0003035450936295092,-0.008723321370780468
0.02291759103536606,0.0044013699516654015,-0.017575502395629883,0.01273041870445013,-0.0003035450936295092,-0.008723321370780468
0.0236530564725399,0.004642604384571314,-0.0177255067974329,0.013002404943108559,-0.00032832386204972863,-0.009545352309942245
0.02369237132370472,0.00429534912109375,-0.017026562243700027,0.013081895187497139,-0.0003164199588354677,-0.009205813519656658
0.02349518984556198,0.0043265921995043755,-0.017208149656653404,0.013371585868299007,-0.000436209375038743,-0.009567847475409508
0.02331612817943096,0.004707294516265392,-0.017559828236699104,0.013269415125250816,-0.00047693445230834186,-0.009172377176582813
0.02343079075217247,0.004717480856925249,-0.017071329057216644,0.013083629310131073,-0.0004567501600831747,-0.009364878758788109
0.02387683279812336,0.004596277140080929,-0.01765810325741768,0.012119989842176437,-0.0004223208816256374,-0.009156704880297184
0.02410530112683773,0.0042177839204669,-0.017475420609116554,0.01236245408654213,-0.00044812008854933083,-0.00949123315513134
0.023686030879616737,0.004403112456202507,-0.017513828352093697,0.012327194213867188,-0.0004255285602994263,-0.009048405103385448
0.022952651605010033,0.004994188901036978,-0.017718520015478134,0.012106700800359249,-0.00045210233656689525,-0.009431054815649986
0.024409983307123184,0.004983735736459494,-0.01716497540473938,0.012057027779519558,-0.00042866793228313327,-0.00957427266985178
0.024029918015003204,0.004802803974598646,-0.017660928890109062,0.01154140941798687,-0.000508959754370153,-0.009561273269355297
0.024151774123311043,0.004619236569851637,-0.017488228157162666,0.012364109046757221,-0.0005410691373981535,-0.009162652306258678
0.024756362661719322,0.004586635157465935,-0.01772928237915039,0.012813396751880646,-0.0005120389978401363,-0.009119915775954723
0.02440734952688217,0.0047269235365092754,-0.018049221485853195,0.013528387993574142,-0.0005067639867775142,-0.009297020733356476
0.024332433938980103,0.004763561766594648,-0.017016395926475525,0.01349154207855463,-0.0005008560256101191,-0.009350411593914032
0.02411673031747341,0.004905582871288061,-0.01741625927388668,0.013576713390648365,-0.0005235307617112994,-0.01001742109656334
0.02433517575263977,0.004937788005918264,-0.017527632415294647,0.0132854413241148,-0.0005747246323153377,-0.010779949836432934
0.02502840757369995,0.004803732968866825,-0.017838282510638237,0.01320978719741106,-0.0005778365884907544,-0.009290509857237339
0.024661116302013397,0.0044944086112082005,-0.01777208410203457,0.013240561820566654,-0.0005660468013957143,-0.009011243470013142
0.024935713037848473,0.004237905144691467,-0.016445564106106758,0.01298203133046627,-0.0005527280154637992,-0.009665211662650108
0.024935713037848473,0.004237905144691467,-0.016445564106106758,0.01298203133046627,-0.0005527280154637992,-0.009665211662650108
0.025280168280005455,0.004834234248846769,-0.0173418540507555,0.01364669669419527,-0.000504016934428364,-0.0104166679084301
0.02525652013719082,0.005042194854468107,-0.01680505834519863,0.012962419539690018,-0.0005273704882711172,-0.010069349780678749
0.024757958948612213,0.004825056996196508,-0.017252011224627495,0.012868798337876797,-0.0004949351423420012,-0.009823269210755825
0.025107426568865776,0.004668680019676685,-0.016779346391558647,0.012760008685290813,-0.00048823552788235247,-0.009899510070681572
0.025107426568865776,0.004668680019676685,-0.016779346391558647,0.012760008685290813,-0.00048823552788235247,-0.009899510070681572
0.025542624294757843,0.004427451174706221,-0.017033912241458893,0.012728504836559296,-0.0004418390162754804,-0.009753893129527569
0.0262441523373127,0.004905497655272484,-0.018022820353507996,0.01357553992420435,-0.0004435467126313597,-0.010016883723437786
0.0262441523373127,0.004905497655272484,-0.018022820353507996,0.01357553992420435,-0.0004435467126313597,-0.010016883723437786
0.026232682168483734,0.005043257027864456,-0.017925048246979713,0.013974975794553757,-0.0004746385966427624,-0.009436254389584064
0.025860974565148354,0.004507035482674837,-0.01846292056143284,0.014052811078727245,-0.0004921241197735071,-0.009625849314033985
0.02559661865234375,0.004361091181635857,-0.018382856622338295,0.014232895337045193,-0.0004745025362353772,-0.010031507350504398
0.02604914829134941,0.004479010123759508,-0.017974644899368286,0.01390238106250763,-0.0006309939781203866,-0.009979710914194584
0.026117147877812386,0.0047513749450445175,-0.018234185874462128,0.01406529638916254,-0.000678289623465389,-0.010081635788083076
0.027239469811320305,0.0047764587216079235,-0.01771973818540573,0.013834410347044468,-0.0006909416406415403,-0.010742179118096828
0.026921341195702553,0.004719157237559557,-0.018423566594719887,0.01376861147582531,-0.0006441748118959367,-0.01037285104393959
0.02413247898221016,0.005177309736609459,-0.01898704282939434,0.013061387464404106,-0.0006578501197509468,-0.010043090209364891
0.02660084329545498,0.004475461319088936,-0.018501222133636475,0.013420704752206802,-0.0006117996526882052,-0.010017338208854198
0.027308013290166855,0.0044492390006780624,-0.01813715696334839,0.013315805234014988,-0.0006527870427817106,-0.01021486148238182
0.027145497500896454,0.004413245711475611,-0.018463538959622383,0.013914575800299644,-0.0005841071251779795,-0.009987994097173214
0.02702927403151989,0.0048349760472774506,-0.018612090498209,0.013533509336411953,-0.0006137562450021505,-0.009941738098859787
0.027817893773317337,0.0048376829363405704,-0.0193514171987772,0.01390745397657156,-0.0006013999227434397,-0.009969724342226982
0.02834242396056652,0.004914164077490568,-0.018338721245527267,0.013393066823482513,-0.0005862296675331891,-0.010112245567142963
0.027732986956834793,0.0050711254589259624,-0.018094295635819435,0.013443426229059696,-0.0006100457976572216,-0.01042125839740038
0.026582401245832443,0.004787936806678772,-0.019412819296121597,0.01357702724635601,-0.0006233821040950716,-0.010268662124872208
0.026724152266979218,0.004653592593967915,-0.018553849309682846,0.013715770095586777,-0.0006829284247942269,-0.010346787981688976
0.027983348816633224,0.0045019639655947685,-0.0176283810287714,0.013575493358075619,-0.0006836691172793508,-0.0101163974031806
0.027526918798685074,0.004871665965765715,-0.018264159560203552,0.013224072754383087,-0.0006593464058823884,-0.010537615045905113
0.027486838400363922,0.004865775350481272,-0.018825363367795944,0.013610977679491043,-0.0006791398045606911,-0.010333494283258915
0.027486838400363922,0.004865775350481272,-0.018825363367795944,0.013610977679491043,-0.0006791398045606911,-0.010333494283258915
0.027531033381819725,0.005013146437704563,-0.018709003925323486,0.013619527220726013,-0.0007892324938438833,-0.009899308905005455
0.02744176611304283,0.0051193018443882465,-0.018637530505657196,0.014117167331278324,-0.0008248783997260034,-0.010194238275289536
0.02764846757054329,0.004797746427357197,-0.018373288214206696,0.014307722449302673,-0.0007513565360568464,-0.010574246756732464
0.02764846757054329,0.004797746427357197,-0.018373288214206696,0.014307722449302673,-0.0007513565360568464,-0.010574246756732464
0.02771870419383049,0.005257064942270517,-0.01803544908761978,0.0140971215441823,-0.000692419649567455,-0.010116709396243095
0.027656083926558495,0.005142295733094215,-0.018411938101053238,0.013748412020504475,-0.0006410631467588246,-0.010105637833476067
0.02795429900288582,0.005284558981657028,-0.01871395669877529,0.014129030518233776,-0.0005890973261557519,-0.010403522290289402
0.028062399476766586,0.004940221551805735,-0.017787795513868332,0.014053109101951122,-0.0005373621243052185,-0.010700765065848827
0.02807333506643772,0.00485666748136282,-0.018429895862936974,0.01465577445924282,-0.0004754835390485823,-0.010855741798877716
0.027954518795013428,0.004836909472942352,-0.01827060990035534,0.014245610684156418,-0.0005036184447817504,-0.011052320711314678
0.02857384644448757,0.005139762070029974,-0.01830448769032955,0.01463760994374752,-0.0004698194097727537,-0.010538207367062569
0.028350215405225754,0.005155052058398724,-0.018355386331677437,0.01421422977000475,-0.0004998081712983549,-0.010585523210465908
0.028405658900737762,0.005013132002204657,-0.01797112263739109,0.014134560711681843,-0.000524757313542068,-0.010700724087655544
0.02829493209719658,0.004880343563854694,-0.01845451071858406,0.013787312433123589,-0.0004997724900022149,-0.010084249079227448
0.028700925409793854,0.004793213680386543,-0.018590576946735382,0.014654168859124184,-0.0006710037123411894,-0.010120713151991367
0.029069185256958008,0.005201380234211683,-0.017917105928063393,0.014088592492043972,-0.0006545090000145137,-0.010572101920843124
0.028587577864527702,0.005570670124143362,-0.018428651615977287,0.01474896539002657,-0.0006782097625546157,-0.010712788440287113
0.027472680434584618,0.005249716807156801,-0.018467318266630173,0.014058117754757404,-0.0006824692245572805,-0.011026130057871342
0.02815370447933674,0.004874310456216335,-0.018168069422245026,0.014638816006481647,-0.0006429789355024695,-0.011248267255723476
0.029034165665507317,0.0046316469088196754,-0.018540242686867714,0.0142554622143507,-0.000743870681617409,-0.010476520285010338
0.02865147776901722,0.004853363148868084,-0.01794767752289772,0.014504014514386654,-0.0007612213958054781,-0.010572888888418674
0.0285696629434824,0.004684730898588896,-0.018106680363416672,0.0142554622143507,-0.0007352830725722015,-0.011084184981882572
0.029190903529524803,0.004854224156588316,-0.018587632104754448,0.014487911015748978,-0.0007028176914900541,-0.011066166684031487
0.028982585296034813,0.0053729284554719925,-0.018122734501957893,0.013983160257339478,-0.0007131590391509235,-0.010542692616581917
0.02894151397049427,0.004642353393137455,-0.018365949392318726,0.01450473815202713,-0.0006649356801062822,-0.010190808214247227
0.028198473155498505,0.0044103688560426235,-0.018439317122101784,0.013927025720477104,-0.0006577526219189167,-0.01007941085845232
0.028317295014858246,0.004597333259880543,-0.018057839944958687,0.014326496049761772,-0.0006631450960412621,-0.01080170925706625
0.02892260067164898,0.004670290742069483,-0.018544001504778862,0.013884925283491611,-0.0006137252203188837,-0.010498722083866596
0.028672680258750916,0.00438073743134737,-0.018349429592490196,0.014295357279479504,-0.0006379539263434708,-0.010556175373494625
0.028672680258750916,0.00438073743134737,-0.018349429592490196,0.014295357279479504,-0.0006379539263434708,-0.010556175373494625
0.02872903272509575,0.004672192968428135,-0.01772095449268818,0.013820984400808811,-0.000624548876658082,-0.010553433559834957
0.028849441558122635,0.0050023081712424755,-0.01825304701924324,0.01421490777283907,-0.000608698173891753,-0.01041826419532299
0.02884986810386181,0.004882480017840862,-0.018046723678708076,0.013795972801744938,-0.0006210312130860984,-0.01017273310571909
0.028695549815893173,0.004604957066476345,-0.018384579569101334,0.014476812444627285,-0.0006188102415762842,-0.010381161235272884
0.028872868046164513,0.0043364763259887695,-0.01767837628722191,0.014750109054148197,-0.0006088525406084955,-0.01009947806596756
0.02905045822262764,0.004195899236947298,-0.018270835280418396,0.01471269503235817,-0.0005739121697843075,-0.010702473111450672
0.028961068019270897,0.004445480648428202,-0.01841723918914795,0.01517647784203291,-0.0005971522186882794,-0.010876232758164406
0.028847873210906982,0.004591348581016064,-0.017793240025639534,0.015117619186639786,-0.0006174040026962757,-0.011037202551960945
0.02925669588148594,0.004627080634236336,-0.01814328134059906,0.015405725687742233,-0.0006853961967863142,-0.01049143448472023
0.0296004731208086,0.004502687603235245,-0.017948055639863014,0.01457156240940094,-0.0007128536817617714,-0.010701891966164112
0.027460012584924698,0.004400475881993771,-0.018379274755716324,0.01481223851442337,-0.0006634178571403027,-0.01099103968590498
0.029660852625966072,0.004357147961854935,-0.019196145236492157,0.014337806031107903,-0.0006814299267716706,-0.010996151715517044
0.02920510433614254,0.004556505940854549,-0.019730644300580025,0.014350732788443565,-0.0009277493227273226,-0.010969783179461956
0.02880132384598255,0.00466959411278367,-0.01898759976029396,0.0141462292522192,-0.0008835337357595563,-0.010993525385856628
0.028949860483407974,0.004587529227137566,-0.01895277388393879,0.014958377927541733,-0.0008742288337089121,-0.010913645848631859
0.02932555601000786,0.004572196863591671,-0.018169431015849113,0.015113401226699352,-0.0008766257087700069,-0.0116531727835536
0.029523681849241257,0.0045582810416817665,-0.01871512085199356,0.015473144128918648,-0.0007938540657050908,-0.01196642778813839
0.029441658407449722,0.004334157798439264,-0.019155532121658325,0.01491205021739006,-0.0007620586548000574,-0.011484608985483646
0.029465699568390846,0.004486819263547659,-0.019000515341758728,0.014649276621639729,-0.0006687508430331945,-0.01165594719350338
0.029663747176527977,0.0045299953781068325,-0.01953463815152645,0.014416022226214409,-0.0006830708589404821,-0.011690951883792877
0.02969423122704029,0.004686638712882996,-0.019236980006098747,0.014946946874260902,-0.0006183619843795896,-0.011678056791424751
0.02974061667919159,0.004230991937220097,-0.018553992733359337,0.015682151541113853,-0.0005555384559556842,-0.011456212028861046
0.029757216572761536,0.0044637396931648254,-0.01930604875087738,0.01633358560502529,-0.0005651472019962966,-0.011653940193355083
0.029894838109612465,0.004673181567341089,-0.019534101709723473,0.01605747640132904,-0.0005359980859793723,-0.011968612670898438
0.029894838109612465,0.004673181567341089,-0.019534101709723473,0.01605747640132904,-0.0005359980859793723,-0.011968612670898438
0.02964959293603897,0.004332533571869135,-0.019454490393400192,0.015214907936751842,-0.0004950847942382097,-0.012199873104691505
0.029863933101296425,0.004242700058966875,-0.019374094903469086,0.015407475642859936,-0.0004590650205500424,-0.011993953958153725
0.0297927837818861,0.004125301726162434,-0.01973050646483898,0.014895210973918438,-0.0004806489450857043,-0.011347666382789612
0.03049791418015957,0.004336701240390539,-0.018285883590579033,0.015076668001711369,-0.00045733267324976623,-0.011367687955498695
0.0308720413595438,0.00408795615658164,-0.020150747150182724,0.014458425343036652,-0.0004014608566649258,-0.011690056882798672
0.029307162389159203,0.004389080218970776,-0.018708933144807816,0.014994361437857151,-0.0003669093130156398,-0.011949166655540466
0.03059062361717224,0.004045485053211451,-0.019575508311390877,0.015946822240948677,-0.0003713701444212347,-0.011865549720823765
0.03136725351214409,0.004275054205209017,-0.019216066226363182,0.01590099185705185,-0.00039959506830200553,-0.011855336837470531
0.031097140163183212,0.004188244696706533,-0.019335132092237473,0.01602202095091343,-0.0004089001740794629,-0.012370666489005089
0.031892284750938416,0.004043226130306721,-0.020030800253152847,0.015844382345676422,-0.0004106244305148721,-0.01197886373847723
0.03130220249295235,0.004019369836896658,-0.019976334646344185,0.015471966937184334,-0.000582998211029917,-0.01250446680933237
0.030822286382317543,0.00404946506023407,-0.018873674795031548,0.015615012496709824,-0.0006214778404682875,-0.012285765260457993
0.030482787638902664,0.003964483737945557,-0.019085567444562912,0.015428118407726288,-0.000651440117508173,-0.012497411109507084
0.03061494790017605,0.004354371223598719,-0.019900435581803322,0.015829814597964287,-0.0006117729935795069,-0.01212434470653534
0.03141335770487785,0.004151688423007727,-0.019768742844462395,0.01570437289774418,-0.0006174959125928581,-0.01193283498287201
0.031236771494150162,0.004357981961220503,-0.019791539758443832,0.015948645770549774,-0.0005854448536410928,-0.012225018814206123
0.03112100064754486,0.004288681782782078,-0.020198872312903404,0.01572883129119873,-0.0006425757892429829,-0.012477636337280273
0.03196261078119278,0.004315442871302366,-0.019604729488492012,0.016274746507406235,-0.0005938840331509709,-0.012521066702902317
0.03206617385149002,0.0042331889271736145,-0.019199173897504807,0.015910521149635315,-0.0006170216947793961,-0.012320841662585735
0.031403474509716034,0.00408791471272707,-0.020069556310772896,0.01610598713159561,-0.0005648382939398289,-0.012415988370776176
0.03207467123866081,0.003948616329580545,-0.019872460514307022,0.015820307657122612,-0.0005912132910452783,-0.012618127278983593
0.03219803422689438,0.0038584379944950342,-0.01965833269059658,0.015761982649564743,-0.000545224582310766,-0.012141153216362
0.031527359038591385,0.004103656392544508,-0.019851339980959892,0.015722598880529404,-0.0005687118973582983,-0.012393655255436897
0.032129932194948196,0.004552299622446299,-0.019610444083809853,0.015527963638305664,-0.0005678840097971261,-0.012509267777204514
0.032195888459682465,0.004213249776512384,-0.01909470371901989,0.015675906091928482,-0.0005362277734093368,-0.012487751431763172
0.031981803476810455,0.004401732701808214,-0.02002554200589657,0.015258437022566795,-0.0005639271694235504,-0.01236802525818348
0.03203286603093147,0.004161934833973646,-0.020174933597445488,0.015522431582212448,-0.0005844514816999435,-0.012704441323876381
0.03205634653568268,0.004409143701195717,-0.019473189488053322,0.015072442591190338,-0.000553424353711307,-0.012571192346513271
0.033400412648916245,0.004382262006402016,-0.019389189779758453,0.01572376862168312,-0.0005776097532361746,-0.012444506399333477
0.03376303240656853,0.004294668789952993,-0.01989138498902321,0.015782833099365234,-0.0006658906931988895,-0.012696607038378716
0.03376303240656853,0.004294668789952993,-0.01989138498902321,0.015782833099365234,-0.0006658906931988895,-0.012696607038378716
0.03205980733036995,0.004479014780372381,-0.019961515441536903,0.015716494992375374,-0.000652305840048939,-0.01294954214245081
0.03323163092136383,0.004244695417582989,-0.020015371963381767,0.015761904418468475,-0.0006756073562428355,-0.012880108319222927
0.03263503313064575,0.0044937836937606335,-0.019260063767433167,0.015888134017586708,-0.0006800215924158692,-0.013013395480811596
0.03317520022392273,0.004263342823833227,-0.019476372748613358,0.015986105427145958,-0.0006397801917046309,-0.012768027372658253
0.03343070670962334,0.0043195271864533424,-0.020006366074085236,0.01609126850962639,-0.0006931813550181687,-0.01279384084045887
0.03408868610858917,0.0046785068698227406,-0.02030898816883564,0.01582150161266327,-0.0007222093408927321,-0.012699812650680542
0.0319199375808239,0.00479150703176856,-0.01968124322593212,0.016323700547218323,-0.0006506072240881622,-0.012536225840449333
0.032386958599090576,0.004391931463032961,-0.019867420196533203,0.01630849950015545,-0.0006712744361720979,-0.01233709417283535
0.03313159570097923,0.00396750820800662,-0.01940479688346386,0.01643424667418003,-0.000687175546772778,-0.012299462221562862
0.03304160013794899,0.004353341646492481,-0.019074689596891403,0.015825888141989708,-0.0006431799847632647,-0.012957783415913582
0.03237006068229675,0.004467825870960951,-0.019900532439351082,0.01584109291434288,-0.0006663076928816736,-0.013171936385333538
0.03327668458223343,0.004753820598125458,-0.020021995529532433,0.01608242653310299,-0.0006431672954931855,-0.013539047911763191
0.0333482027053833,0.004815803375095129,-0.0198177769780159,0.01663658209145069,-0.0006195557652972639,-0.013401031494140625
0.033668313175439835,0.004817315377295017,-0.019496900960803032,0.0175950787961483,-0.0006034880061633885,-0.01345187146216631
0.03335031121969223,0.004480274859815836,-0.019667135551571846,0.016744479537010193,-0.0005876774084754288,-0.012892444618046284
0.033366233110427856,0.004459397401660681,-0.0198581051081419,0.01674319989979267,-0.0006115773576311767,-0.012860815040767193
0.03305486589670181,0.004521492403000593,-0.02093174122273922,0.016218597069382668,-0.0006024254253134131,-0.013126617297530174
0.0335380882024765,0.0045296004973351955,-0.020155373960733414,0.015789542347192764,-0.0005627648788504303,-0.013372055254876614
0.034247104078531265,0.004656634759157896,-0.019443897530436516,0.016405748203396797,-0.0005884641432203352,-0.013531621545553207
0.034027520567178726,0.004720412194728851,-0.019872788339853287,0.016635481268167496,-0.0006190443527884781,-0.013191213831305504
0.03372189775109291,0.00488058477640152,-0.02021712064743042,0.017112739384174347,-0.0006501416210085154,-0.013094108551740646
0.03392931818962097,0.004795868881046772,-0.020361946895718575,0.016563301905989647,-0.0006041355663910508,-0.012816235423088074
0.03398137539625168,0.0043952688574790955,-0.020316636189818382,0.016452711075544357,-0.0007167684962041676,-0.013002979569137096
0.03398137539625168,0.0043952688574790955,-0.020316636189818382,0.016452711075544357,-0.0007167684962041676,-0.013002979569137096
0.03288659080862999,0.004554412327706814,-0.020640606060624123,0.01688968762755394,-0.0006300861132331192,-0.012896183878183365
0.034675709903240204,0.004296529572457075,-0.020440535619854927,0.01710469089448452,-0.0006338663515634835,-0.01306892465800047
0.03468238562345505,0.0044167861342430115,-0.0200579185038805,0.017837274819612503,-0.0005892517510801554,-0.013378049246966839
0.03421041741967201,0.004535152576863766,-0.02086780034005642,0.017557546496391296,-0.000562690373044461,-0.014468342065811157
0.03472216799855232,0.0044621191918849945,-0.020768776535987854,0.016271747648715973,-0.0005732341669499874,-0.013743927702307701
0.034831952303647995,0.004228272009640932,-0.019880879670381546,0.015947600826621056,-0.0005467012524604797,-0.013577468693256378
0.034934431314468384,0.0044955043122172356,-0.020289268344640732,0.017042573541402817,-0.0005070378538221121,-0.013706207275390625
0.03489237651228905,0.005065533332526684,-0.020626474171876907,0.016317661851644516,-0.0005240122554823756,-0.01362327579408884
0.034643203020095825,0.004948202986270189,-0.020344574004411697,0.016687145456671715,-0.0005365270189940929,-0.013643663376569748
0.03465291112661362,0.004508457612246275,-0.020589252933859825,0.01681164652109146,-0.0005847877473570406,-0.013720229268074036
0.034364860504865646,0.004501077346503735,-0.02080894261598587,0.0170881524682045,-0.0007427826640196145,-0.013532157987356186
0.03487841412425041,0.004995916038751602,-0.020271088927984238,0.017178380861878395,-0.0009213134180754423,-0.013618150725960732
0.03569149225950241,0.0045354925096035,-0.020476549863815308,0.01707029528915882,-0.000910464208573103,-0.01392549928277731
0.0350203663110733,0.004596879240125418,-0.021184474229812622,0.016871320083737373,-0.0009086460340768099,-0.014280569739639759
0.03403007984161377,0.004508988466113806,-0.020802685990929604,0.016576025635004044,-0.0009385782759636641,-0.013947234489023685
0.03478548675775528,0.004730654880404472,-0.020235028117895126,0.016983482986688614,-0.0008702146005816758,-0.013836635276675224
0.03448721021413803,0.0047889575362205505,-0.020426897332072258,0.016541646793484688,-0.0008707277593202889,-0.013636214658617973
0.03511662036180496,0.004742310848087072,-0.020596912130713463,0.016167690977454185,-0.0008492689812555909,-0.013998114503920078
0.036420974880456924,0.0046282061375677586,-0.020414434373378754,0.01620395854115486,-0.000773254141677171,-0.01389220915734768
0.03589462861418724,0.004785260185599327,-0.020586762577295303,0.015930047258734703,-0.0007816508295945823,-0.013928422704339027
0.03435077890753746,0.0047025433741509914,-0.0205130223184824,0.016651524230837822,-0.0007328849751502275,-0.013754382729530334
0.034867625683546066,0.004854439292103052,-0.020280105993151665,0.016821691766381264,-0.0007523966487497091,-0.014104732312262058
0.03600654378533363,0.005287854000926018,-0.019682638347148895,0.017571302130818367,-0.0007705888128839433,-0.014047155156731606
0.03610271215438843,0.004997977055609226,-0.02055453695356846,0.01743502728641033,-0.0007849732064642012,-0.013938920572400093
0.03610271215438843,0.004997977055609226,-0.02055453695356846,0.01743502728641033,-0.0007849732064642012,-0.013938920572400093
0.03572305664420128,0.0047949436120688915,-0.02087397314608097,0.017210131511092186,-0.0008640655432827771,-0.013587696477770805
0.03599019721150398,0.004713412839919329,-0.02031116746366024,0.017734281718730927,-0.0009231951553374529,-0.013643535785377026
0.03561381250619888,0.004929084796458483,-0.020325396209955215,0.017332615330815315,-0.0009232026059180498,-0.01406891644001007
0.03641706705093384,0.00499429227784276,-0.020494980737566948,0.017501628026366234,-0.0008613669197075069,-0.014280111528933048
0.03584030643105507,0.005039122886955738,-0.02006893791258335,0.01773446798324585,-0.0008616140694357455,-0.014235422015190125
0.0360441692173481,0.004996248986572027,-0.020789409056305885,0.01793176308274269,-0.0008648393559269607,-0.014481505379080772
0.03626067936420441,0.004505947697907686,-0.02080373279750347,0.017808135598897934,-0.0008782757795415819,-0.014689716510474682
0.03622829169034958,0.004454785492271185,-0.020014803856611252,0.018220391124486923,-0.0008814309840090573,-0.014649794436991215
0.03715280815958977,0.0049574291333556175,-0.02047494798898697,0.018130097538232803,-0.0009173692087642848,-0.014289705082774162
0.03673313185572624,0.0050369505770504475,-0.020867470651865005,0.01755601540207863,-0.0009198237676173449,-0.014373752288520336
0.03550710901618004,0.004266072064638138,-0.021262837573885918,0.018071208149194717,-0.0009172694408334792,-0.01492241956293583
0.03677578270435333,0.004015411250293255,-0.020531242713332176,0.018405012786388397,-0.0009150785626843572,-0.014814416877925396
0.03616083040833473,0.0039049102924764156,-0.021069837734103203,0.01785849593579769,-0.0008442503749392927,-0.014591637067496777
0.03690674155950546,0.004001216497272253,-0.02101784013211727,0.017657151445746422,-0.0009209960699081421,-0.014242689125239849
0.03784216195344925,0.004320571199059486,-0.02013825625181198,0.017196785658597946,-0.0008543552830815315,-0.014658075757324696
0.03594908490777016,0.004572403151541948,-0.02050059475004673,0.017530104145407677,-0.0008316701278090477,-0.014605558477342129
0.035534799098968506,0.004630027338862419,-0.021602392196655273,0.017861034721136093,-0.0007589097367599607,-0.014845323748886585
0.03759397193789482,0.004260560031980276,-0.021522970870137215,0.01741849258542061,-0.0007687054458074272,-0.014627496711909771
0.03753049671649933,0.003995981067419052,-0.02050681598484516,0.01757698692381382,-0.0007281266734935343,-0.01482242252677679
0.03730066865682602,0.0038734732661396265,-0.0210613701492548,0.017968785017728806,-0.0006514874985441566,-0.014981749467551708
0.03741752356290817,0.004186205565929413,-0.021889640018343925,0.01819358952343464,-0.00067619833862409,-0.015102487988770008
0.03740517795085907,0.004571700002998114,-0.021433422341942787,0.018198465928435326,-0.0006940668681636453,-0.015029661357402802
0.037759143859148026,0.004721902776509523,-0.020776856690645218,0.017971891909837723,-0.0007144341361708939,-0.015033377334475517
0.03813555836677551,0.004413156304508448,-0.021079113706946373,0.018554536625742912,-0.0007959818467497826,-0.014960846863687038
0.0378548726439476,0.004022599663585424,-0.02090262807905674,0.018371423706412315,-0.0008424498955719173,-0.015206375159323215
0.037957798689603806,0.0038694709073752165,-0.02114313654601574,0.017857041209936142,-0.0008524063159711659,-0.015371027402579784
0.03796010836958885,0.0038688809145241976,-0.020817818120121956,0.018210241571068764,-0.0008440961828455329,-0.015259074978530407
0.03849000856280327,0.0038557660300284624,-0.02145306020975113,0.019656095653772354,-0.0007875204901210964,-0.01502296980470419
0.03849000856280327,0.0038557660300284624,-0.02145306020975113,0.019656095653772354,-0.0007875204901210964,-0.01502296980470419
0.038457389920949936,0.004320086445659399,-0.021492348983883858,0.019554905593395233,-0.0009062358294613659,-0.01530587300658226
0.03923630341887474,0.004330826457589865,-0.021026361733675003,0.019023260101675987,-0.0007932689040899277,-0.01536016259342432
0.039043933153152466,0.004496305249631405,-0.021757865324616432,0.01811733841896057,-0.0007505938992835581,-0.01560752559453249
0.03888288512825966,0.004159712698310614,-0.02154376544058323,0.018736571073532104,-0.0007563791004940867,-0.01552168931812048
0.03916606679558754,0.0039660935290157795,-0.0208392683416605,0.01889338344335556,-0.0007314053364098072,-0.015779072418808937
0.0389995276927948,0.004324533510953188,-0.02119654044508934,0.018975097686052322,-0.0007390136015601456,-0.01570962183177471
0.039374567568302155,0.0043434747494757175,-0.021807771176099777,0.0191289484500885,-0.0007582379039376974,-0.015799466520547867
0.03923594579100609,0.004554741084575653,-0.02239219658076763,0.018890472128987312,-0.0007740581640973687,-0.017663052305579185
0.03927543759346008,0.004300018306821585,-0.021923117339611053,0.018866246566176414,-0.0009427573531866074,-0.01644608937203884
0.039951812475919724,0.004274751525372267,-0.02178109437227249,0.01983078569173813,-0.0009911726228892803,-0.015941424295306206
0.03968821465969086,0.0040358747355639935,-0.02222135290503502,0.019937600940465927,-0.0009259082726202905,-0.016149261966347694
0.03988605737686157,0.0038317805156111717,-0.02223283052444458,0.019072765484452248,-0.0009190493146888912,-0.016180794686079025
0.03982162103056908,0.004395238123834133,-0.02225298061966896,0.01899121329188347,-0.0008645904599688947,-0.016242647543549538
0.039387427270412445,0.004203834105283022,-0.02184620499610901,0.018119867891073227,-0.0008194847614504397,-0.016196971759200096
0.04107527807354927,0.0044136266224086285,-0.02198558673262596,0.017788589000701904,-0.0007800956955179572,-0.016132080927491188
0.040547605603933334,0.00465110968798399,-0.02234901860356331,0.018507320433855057,-0.0007931867730803788,-0.016752464696764946
0.038435522466897964,0.004297943785786629,-0.022154510021209717,0.018660983070731163,-0.0007540431688539684,-0.016683438792824745
0.039672836661338806,0.004172434564679861,-0.02178572118282318,0.01992112398147583,-0.00076624087523669,-0.017098860815167427
0.04014405235648155,0.003952368162572384,-0.02193361148238182,0.018651654943823814,-0.0007650639163330197,-0.016793886199593544
0.040457818657159805,0.0038266831543296576,-0.022460684180259705,0.018305785953998566,-0.0007825406501069665,-0.016406593844294548
0.04142409935593605,0.0038050124421715736,-0.022701174020767212,0.0188703965395689,-0.0007394946296699345,-0.016789628192782402
0.03996994346380234,0.004306480288505554,-0.02227698639035225,0.019004598259925842,-0.0007475496386177838,-0.0172291062772274
0.039207588881254196,0.004217251669615507,-0.021817930042743683,0.018823428079485893,-0.0007506840047426522,-0.01733340322971344
0.040911659598350525,0.003981203306466341,-0.02224535495042801,0.018967188894748688,-0.0008299801265820861,-0.017233192920684814
0.04086960107088089,0.0043611228466033936,-0.02262909896671772,0.01928146928548813,-0.0009880821453407407,-0.01672288030385971
0.040813565254211426,0.004151514731347561,-0.022247139364480972,0.018838845193386078,-0.000985448365099728,-0.016672872006893158
0.04039084538817406,0.004051900003105402,-0.02200324647128582,0.018665224313735962,-0.0008977694669738412,-0.016642240807414055
0.04080968722701073,0.004036081023514271,-0.022380966693162918,0.019030261784791946,-0.0010094052413478494,-0.01684468425810337
0.04067298024892807,0.004018057137727737,-0.02329617366194725,0.0192143302410841,-0.0009960692841559649,-0.016995567828416824
0.04059593379497528,0.004377739038318396,-0.02251637540757656,0.019754089415073395,-0.0008548430050723255,-0.01806728169322014
0.04059593379497528,0.004377739038318396,-0.02251637540757656,0.019754089415073395,-0.0008548430050723255,-0.01806728169322014
0.04170748218894005,0.004130308050662279,-0.021890701726078987,0.019375745207071304,-0.0008541273418813944,-0.017771104350686073
0.04222419112920761,0.0038737854920327663,-0.02271287329494953,0.019857704639434814,-0.0007683944422751665,-0.017411841079592705
0.03938966989517212,0.003977593965828419,-0.023623313754796982,0.019981130957603455,-0.0007245151791721582,-0.01743280328810215
