davideferrari95/blind_handover_controller/data/Test 217 - [2024-02-08 -- 12-12-40]/joint_states_data.csv
shoulder_pan_joint,shoulder_lift_joint,elbow_joint,wrist_1_joint,wrist_2_joint,wrist_3_joint
0.006773271597921848,0.00926207285374403,-0.012708466500043869,0.0026157002430409193,-0.0,0.006244204938411713
0.006607099436223507,0.009615868330001831,-0.012819228693842888,0.0023010089062154293,-0.0,0.005554280709475279
0.006607099436223507,0.009615868330001831,-0.012819228693842888,0.0023010089062154293,-0.0,0.005554280709475279
0.006677691824734211,0.009387965314090252,-0.012543922290205956,0.0022418159060180187,-0.0,0.005859358701854944
0.006828615441918373,0.00966307707130909,-0.012455694377422333,0.002307440619915724,-0.0,0.006003753747791052
0.006435181945562363,0.009313245303928852,-0.013738653622567654,0.00224422849714756,-0.0,0.0060935597866773605
0.007072234991937876,0.009512901306152344,-0.011666673235595226,0.0022169663570821285,-0.0,0.005813243333250284
0.00660087401047349,0.00904931128025055,-0.012117236852645874,0.0022221358958631754,-0.0,0.005822564009577036
0.006491047330200672,0.009502028115093708,-0.012166028842329979,0.0021486792247742414,-0.0,0.005983250681310892
0.006491047330200672,0.009502028115093708,-0.012166028842329979,0.0021486792247742414,-0.0,0.005983250681310892
0.00672152079641819,0.009546223096549511,-0.013200219720602036,0.002412725705653429,-0.0,0.006094742566347122
0.006803876254707575,0.009239108301699162,-0.01269752811640501,0.002698246156796813,-0.0,0.006095784716308117
0.006437985226511955,0.009451517835259438,-0.01271551102399826,0.00328251626342535,-0.0,0.00607832008972764
0.006485340651124716,0.00932965986430645,-0.01232040673494339,0.0031865062192082405,-0.0,0.005565093830227852
0.005968201439827681,0.009708980098366737,-0.012201803736388683,0.003146095434203744,-0.0,0.00601560715585947
0.005250693764537573,0.009654560126364231,-0.012484279461205006,0.0028774039819836617,-0.0,0.005676757078617811
0.005788320209830999,0.009673502296209335,-0.01227092370390892,0.002521925838664174,-0.0,0.005877880845218897
0.005935716908425093,0.009406041353940964,-0.012441356666386127,0.0025106174871325493,-0.0,0.0060744392685592175
0.006194262765347958,0.00967309158295393,-0.012142309918999672,0.002689397893846035,-0.0,0.006228267680853605
0.005555919371545315,0.009760723449289799,-0.011850585229694843,0.002700514392927289,-0.0,0.006476383190602064
0.005699580069631338,0.009654173627495766,-0.012376497499644756,0.002484280848875642,-0.0,0.005915947258472443
0.005831347778439522,0.009732064791023731,-0.012797934003174305,0.0021731359884142876,-0.0,0.006129253190010786
0.005831347778439522,0.009732064791023731,-0.012797934003174305,0.0021731359884142876,-0.0,0.006129253190010786
0.005636202171444893,0.009608859196305275,-0.012083503417670727,0.0022110443096607924,-0.0,0.0058579714968800545
0.005499451886862516,0.009827564470469952,-0.012661338783800602,0.002196290297433734,-0.0,0.006374801509082317
0.005286959931254387,0.00991307944059372,-0.012252080254256725,0.0023519089445471764,-0.0,0.005856865551322699
0.005303551442921162,0.009421219117939472,-0.011909900233149529,0.00226399558596313,-0.0,0.0058300248347222805
0.005102612543851137,0.009142439812421799,-0.012040980160236359,0.0022589995060116053,-0.0,0.006323349196463823
0.005725754890590906,0.009974470362067223,-0.011549870483577251,0.002481490606442094,-0.0,0.006272037513554096
0.005453518126159906,0.009596072137355804,-0.012611931189894676,0.002565083559602499,-0.0,0.00628883158788085
0.005306989885866642,0.009796984493732452,-0.012605246156454086,0.002509833313524723,-0.0,0.005712604615837336
0.005503397900611162,0.010355230420827866,-0.012583560310304165,0.0025322833098471165,-0.0,0.005788295529782772
0.005263349041342735,0.009319025091826916,-0.012963269837200642,0.002259486122056842,-0.0,0.006272311322391033
0.0062927124090492725,0.010030761361122131,-0.012344109825789928,0.002294088713824749,-0.0,0.005881801713258028
0.0057339961640536785,0.00964394025504589,-0.012097278609871864,0.0022761072032153606,-0.0,0.005329572129994631
0.005858750082552433,0.009524104185402393,-0.012514408677816391,0.0025923384819179773,-0.0,0.005603083409368992
0.005858750082552433,0.009524104185402393,-0.012514408677816391,0.0025923384819179773,-0.0,0.005603083409368992
0.0053259399719536304,0.009503215551376343,-0.012532291933894157,0.0025828080251812935,-0.0,0.005788619164377451
0.0057264589704573154,0.008938737213611603,-0.012413262389600277,0.0024765196722000837,-0.0,0.006091024726629257
0.005852030124515295,0.00900442898273468,-0.011922930367290974,0.002604246372357011,-0.0,0.0060237799771130085
0.006326283328235149,0.009515074081718922,-0.011567508801817894,0.0026189677882939577,-0.0,0.005793726071715355
0.005714321509003639,0.009399986825883389,-0.012016577646136284,0.0025278483517467976,-0.0,0.0052803591825068
0.005800991784781218,0.009002146311104298,-0.01194342877715826,0.0024900061544030905,-0.0,0.005601628217846155
0.005511968396604061,0.010416723787784576,-0.012466671876609325,0.0024368830490857363,-0.0,0.005671903491020203
0.0060113598592579365,0.009341987781226635,-0.012183912098407745,0.0023433645255863667,-0.0,0.006086793728172779
0.006215514149516821,0.00956970825791359,-0.011946633458137512,0.00218368717469275,-0.0,0.005360508803278208
0.006111630704253912,0.009817158803343773,-0.012569470331072807,0.00208330899477005,-0.0,0.00574948126450181
0.006042540073394775,0.009098167531192303,-0.011333334259688854,0.0022073634900152683,-0.0,0.006272825878113508
0.006277082022279501,0.008836429566144943,-0.01190081425011158,0.0024854124058037996,-0.0,0.005957321263849735
0.006126591470092535,0.009714911691844463,-0.01177792064845562,0.002451806329190731,-0.0,0.005827495362609625
0.006405055522918701,0.009688928723335266,-0.011810305528342724,0.0023481561802327633,-0.0,0.005513579584658146
0.005980206187814474,0.008720481768250465,-0.012183303013443947,0.0022696498781442642,-0.0,0.005451624747365713
0.005877428222447634,0.009244173765182495,-0.011753912083804607,0.002345130080357194,-0.0,0.0052399104461073875
0.006070514675229788,0.009313991293311119,-0.011848782189190388,0.0024063908495008945,-0.0,0.005289013031870127
0.006562171038240194,0.008955148980021477,-0.011725310236215591,0.0023957928642630577,-0.0,0.005593842826783657
0.006202572025358677,0.009042052552103996,-0.01185441855341196,0.0025123469531536102,-0.0,0.00607855711132288
0.006508129648864269,0.009516694582998753,-0.012170531786978245,0.0023460849188268185,-0.0,0.005662001669406891
0.006059776991605759,0.009065737016499043,-0.011782104149460793,0.0022470587864518166,-0.0,0.005365120247006416
0.0059584262780845165,0.009570802561938763,-0.012109054252505302,0.002243350725620985,-0.0,0.0050868927501142025
0.006825922057032585,0.009661750867962837,-0.011503304354846478,0.0021382563281804323,-0.0,0.005692110396921635
0.006283129565417767,0.00881613977253437,-0.011738786473870277,0.0020967803429812193,-0.0,0.006055984180420637
0.0062107727862894535,0.009783347137272358,-0.011588421650230885,0.0022433556150645018,-0.0,0.0056459857150912285
0.006377586163580418,0.008840745314955711,-0.01256684958934784,0.002064366126433015,-0.0,0.00575738400220871
0.006528303027153015,0.008783088065683842,-0.01199022401124239,0.002073133597150445,-0.0,0.0055613466538488865
0.006571337580680847,0.00909740012139082,-0.011968624778091908,0.0020630990620702505,-0.0,0.006025349721312523
0.0065207467414438725,0.009330741129815578,-0.0116881700232625,0.0022543438244611025,-0.0,0.005665095057338476
0.00640815868973732,0.00868628267198801,-0.011647161096334457,0.002604046603664756,-0.0,0.005655118729919195
0.00640815868973732,0.00868628267198801,-0.011647161096334457,0.002604046603664756,-0.0,0.005655118729919195
0.006114697549492121,0.009163448587059975,-0.011809873394668102,0.002369875553995371,-0.0,0.005456401500850916
0.006511211860924959,0.009271698072552681,-0.011364797130227089,0.0022635110653936863,-0.0,0.005616834387183189
0.006836836226284504,0.00881743710488081,-0.012255782261490822,0.0021101210732012987,-0.0,0.006059476640075445
0.0061387852765619755,0.008781660348176956,-0.012336825020611286,0.0020689170341938734,-0.0,0.005590328946709633
0.006101323291659355,0.00931721180677414,-0.011964907869696617,0.00224709021858871,-0.0,0.005216333083808422
0.0066263009794056416,0.008956768549978733,-0.011414961889386177,0.002269295509904623,-0.0,0.0053790477104485035
0.006560149136930704,0.00893523171544075,-0.01113072969019413,0.002176727168262005,-0.0,0.00510889757424593
0.006337177474051714,0.009068937972187996,-0.012739893980324268,0.0020133033394813538,-0.0,0.005187015514820814
0.006129242479801178,0.009074250236153603,-0.012119466438889503,0.0017014002660289407,-0.0,0.005414657294750214
0.006643769796937704,0.009052121080458164,-0.012569895014166832,0.0014185791369527578,-0.0,0.005554187577217817
0.006782437674701214,0.009437216445803642,-0.012450470589101315,0.0014175169635564089,-0.0,0.00533644761890173
0.006615301128476858,0.009101214818656445,-0.011700693517923355,0.001375159714370966,-0.0,0.005837169010192156
0.006539147812873125,0.008769630454480648,-0.011798643507063389,0.001522501464933157,-0.0,0.005450537893921137
0.006698963697999716,0.009548082016408443,-0.011849685572087765,0.001697499305009842,-0.0,0.0053845299407839775
0.006971308495849371,0.009324130602180958,-0.012836220674216747,0.0018268553540110588,-0.0,0.005497531034052372
0.006759147625416517,0.00934296939522028,-0.012549087405204773,0.0017098092939704657,-0.0,0.005347123369574547
0.006445138715207577,0.009003007784485817,-0.012134101241827011,0.0016709920018911362,-0.0,0.00538615882396698
0.006114946212619543,0.009579132311046124,-0.011880716308951378,0.0016329996287822723,-0.0,0.005085584707558155
0.00662615429610014,0.009300489909946918,-0.011430072598159313,0.0015151925617828965,-0.0,0.005256375297904015
0.007378085982054472,0.009449050761759281,-0.012283173389732838,0.0016108329873532057,-0.0,0.005733765196055174
0.006419042591005564,0.009298429824411869,-0.012373599223792553,0.001790023990906775,-0.0,0.005261918064206839
0.0065818848088383675,0.009226271882653236,-0.012482896447181702,0.0017061344115063548,-0.0,0.005230444483458996
0.007043981458991766,0.00948726199567318,-0.011419711634516716,0.001698947511613369,-0.0,0.005014686845242977
0.006884177215397358,0.009320401586592197,-0.011472240090370178,0.001721467706374824,-0.0,0.004850233439356089
0.00717103062197566,0.00931826513260603,-0.011118345893919468,0.0017134411027655005,-0.0,0.004804427269846201
0.0070517039857804775,0.010703401640057564,-0.012114065699279308,0.0015902280574664474,-0.0,0.0050426083616912365
0.006733164191246033,0.00891938153654337,-0.012009043246507645,0.001475860015489161,-0.0,0.004965944681316614
0.006733164191246033,0.00891938153654337,-0.012009043246507645,0.001475860015489161,-0.0,0.004965944681316614
0.006891261320561171,0.008872544392943382,-0.011559001170098782,0.0013686276506632566,-0.0,0.0049355472438037395
0.0067756702192127705,0.009517413564026356,-0.011748861521482468,0.0013463606592267752,-0.0,0.0050428444519639015
0.006769204046577215,0.009786171838641167,-0.011162661015987396,0.0014301594346761703,-0.0,0.005311444867402315
0.007096591405570507,0.009035409428179264,-0.01169025618582964,0.0016034505097195506,-0.0,0.00515638617798686
0.006964994128793478,0.009697935543954372,-0.011856632307171822,0.0015000374987721443,-0.0,0.004943449515849352
0.0073380540125072,0.009652847424149513,-0.011443247087299824,0.0015150163089856505,-0.0,0.004786831792443991
0.006612238474190235,0.008818437345325947,-0.011982307769358158,0.0014752292772755027,-0.0,0.0047368803061544895
0.006596477702260017,0.009140381589531898,-0.011514152400195599,0.0013700120616704226,-0.0,0.005022131372243166
0.0072655207477509975,0.009344443678855896,-0.011291619390249252,0.00132693350315094,-0.0,0.005016110371798277
0.007220088969916105,0.009177354164421558,-0.010966021567583084,0.001295106136240065,-0.0,0.004839086905121803
0.007023231592029333,0.009230989031493664,-0.010463645681738853,0.0012498615542426705,-0.0,0.004639219492673874
0.006730068940669298,0.009681852534413338,-0.011834767647087574,0.0013327868655323982,-0.0,0.0043663159012794495
0.006560836918652058,0.009439132176339626,-0.012036940082907677,0.0013114704051986337,-0.0,0.00477376626804471
0.0064322794787585735,0.009085237979888916,-0.011760437861084938,0.0012636234750971198,-0.0,0.00495349895209074
0.006389986723661423,0.009383332915604115,-0.011226627975702286,0.0013043649960309267,-0.0,0.004878660663962364
0.0065428949892520905,0.009075257927179337,-0.01080158818513155,0.0012863180600106716,-0.0,0.00480192294344306
0.00625263899564743,0.008935969322919846,-0.01116272248327732,0.0012434753589332104,-0.0,0.004642330575734377
0.006510525476187468,0.009556476026773453,-0.011050285771489143,0.0012102649779990315,-0.0,0.004610327072441578
0.0066292122937738895,0.009893950074911118,-0.011017990298569202,0.001168521004728973,-0.0,0.0045446534641087055
0.006665658205747604,0.009144875220954418,-0.011465325951576233,0.0011210984084755182,-0.0,0.0046914503909647465
0.006352788768708706,0.009433411993086338,-0.010940398089587688,0.001002611592411995,-0.0,0.004774176049977541
0.006530405953526497,0.009169281460344791,-0.01072423905134201,0.0009859175188466907,-0.0,0.004953291732817888
0.007084080018103123,0.01027664728462696,-0.010432681068778038,0.0009723895927891135,-0.0,0.005264068488031626
0.0064445859752595425,0.009213360957801342,-0.011484541930258274,0.000908002897631377,-0.0,0.0047632912173867226
0.00637976685538888,0.009663688018918037,-0.011525040492415428,0.0008522220305167139,-0.0,0.0045523508451879025
0.0070416852831840515,0.009805457666516304,-0.011295005679130554,0.0007902780780568719,-0.0,0.004466234240680933
0.007063098251819611,0.009239575825631618,-0.011463389731943607,0.0007512834854424,-0.0,0.004820150323212147
0.006435434799641371,0.00911693088710308,-0.010723665356636047,0.0007105385884642601,-0.0,0.004916213918477297
0.006435434799641371,0.00911693088710308,-0.010723665356636047,0.0007105385884642601,-0.0,0.004916213918477297
0.006459662225097418,0.009870330803096294,-0.01110874768346548,0.0007078522467054427,-0.0,0.0046274056658148766
0.006450403481721878,0.009654954075813293,-0.010884363204240799,0.000657588301692158,-0.0,0.00458684703335166
0.006485895719379187,0.009460292756557465,-0.010726522654294968,0.0006759001407772303,-0.0,0.004886094015091658
0.006608421448618174,0.009865537285804749,-0.011564066633582115,0.0006263433024287224,-0.0,0.004863800946623087
0.006528958212584257,0.009734573774039745,-0.011002160608768463,0.00061608332907781,-0.0,0.004707139451056719
0.0067717586643993855,0.008836312219500542,-0.011152730323374271,0.0006257296190597117,-0.0,0.004628797527402639
0.006815267261117697,0.009748782031238079,-0.011055982671678066,0.0005827527493238449,-0.0,0.004550662357360125
0.006668697576969862,0.00939967855811119,-0.010553770698606968,0.0005697326851077378,-0.0,0.004401935264468193
0.006738770753145218,0.009385916404426098,-0.011010580696165562,0.000557613733690232,-0.0,0.0043292539194226265
0.006634769961237907,0.009595110081136227,-0.011029692366719246,0.0005145490285940468,-0.0,0.004513588733971119
0.006882682908326387,0.009410420432686806,-0.010985326021909714,0.00047582085244357586,-0.0,0.004506187047809362
0.006994415540248156,0.009130235761404037,-0.011312475427985191,0.0005011556204408407,-0.0,0.004523008596152067
0.00680507579818368,0.009535141289234161,-0.01069969218224287,0.0004721116565633565,-0.0,0.0043781776912510395
0.0071875788271427155,0.00974234938621521,-0.011096520349383354,0.0004432809364516288,-0.0,0.004307878669351339
0.006599740125238895,0.009267007000744343,-0.01107768528163433,0.00041300459997728467,-0.0,0.004257257096469402
0.006714018993079662,0.009135356172919273,-0.010468683205544949,0.0003789259062614292,-0.0,0.004090417176485062
0.006868680007755756,0.009246601723134518,-0.011300891637802124,0.000349516689311713,-0.0,0.00410526804625988
0.006963769905269146,0.009021515026688576,-0.011232418939471245,0.0003719769883900881,-0.0,0.004080633632838726
0.006801955867558718,0.009309151209890842,-0.01091761514544487,0.00036187280784361064,-0.0,0.003972079139202833
0.0067228516563773155,0.008979590609669685,-0.010412149131298065,0.0003695771156344563,-0.0,0.004258785862475634
0.006805859971791506,0.008913778699934483,-0.011133415624499321,0.00035215195384807885,-0.0,0.0040259393863379955
0.006603437475860119,0.009509732946753502,-0.011422599665820599,0.000333705305820331,-0.0,0.004140160977840424
0.006940426304936409,0.009231369011104107,-0.01103077083826065,0.00031692496850155294,0.0004242811701260507,0.004267677199095488
0.006814212072640657,0.008481401950120926,-0.011206543073058128,0.0003390728961676359,0.0005033981869928539,0.004491842817515135
0.006814212072640657,0.008481401950120926,-0.011206543073058128,0.0003390728961676359,0.0005033981869928539,0.004491842817515135
0.006743522360920906,0.009406656958162785,-0.01091731432825327,0.0003146715753246099,0.0004982277168892324,0.003985087852925062
0.006469291169196367,0.009326355531811714,-0.01111486367881298,0.0003015139081981033,0.00047738064313307405,0.003803008235991001
0.006469291169196367,0.009326355531811714,-0.01111486367881298,0.0003015139081981033,0.00047738064313307405,0.003803008235991001
0.0069997794926166534,0.009039712138473988,-0.010983254760503769,0.0002893934724852443,0.0004996477509848773,0.003579894546419382
0.007154140155762434,0.009561908431351185,-0.011931747198104858,0.0002782099472824484,0.00047427834942936897,0.0033777698408812284
0.006926964037120342,0.00916148442775011,-0.01133432611823082,0.00026785777299664915,0.0005636660498566926,0.003229268593713641
0.007233446929603815,0.008655525743961334,-0.011351360939443111,0.00025824966724030674,0.0005674581043422222,0.004117083270102739
0.007637365255504847,0.008915796875953674,-0.011526603251695633,0.0002493058273103088,0.0005548690678551793,0.004276848863810301
0.007558123674243689,0.008744207210838795,-0.010890639387071133,0.0002409617300145328,0.0005465191788971424,0.004096816293895245
0.006924329325556755,0.00868313480168581,-0.011233332566916943,0.0002245815994683653,0.0005369135760702193,0.003609134815633297
0.007283972110599279,0.009368985891342163,-0.011550064198672771,0.00017511162150185555,0.0005629411316476762,0.00330904102884233
0.007806277368217707,0.00916971918195486,-0.011300050653517246,0.00016205621068365872,0.0005932748899795115,0.0029161914717406034
0.007811704650521278,0.008522063493728638,-0.011974118649959564,0.00015475020336452872,0.0005822752136737108,0.0028804640751332045
0.006971118040382862,0.00869235210120678,-0.010592536069452763,0.00014835003821644932,0.0006155683076940477,0.0032701753079891205
0.007054198533296585,0.009099729359149933,-0.010856768116354942,0.00014247621584217995,0.0006447732448577881,0.003946589305996895
0.007439712528139353,0.00879447441548109,-0.011651067063212395,0.00013705129094887525,0.0006521364557556808,0.004246289376169443
0.007404373958706856,0.008899707347154617,-0.011108973994851112,0.0001320244191447273,0.0006157768075354397,0.003648035926744342
0.007292578928172588,0.009360024705529213,-0.011497456580400467,0.0001273530797334388,0.0006426599575206637,0.0035119587555527687
0.007080009672790766,0.00893130898475647,-0.011204596608877182,0.00012300116941332817,0.0006252966704778373,0.0031682068947702646
0.008212567307054996,0.008587928488850594,-0.010933928191661835,0.0001189371250802651,0.0006335941143333912,0.0033306695986539125
0.00800606794655323,0.009570112451910973,-0.011062043718993664,0.0001151328906416893,0.0005892715998925269,0.0033478110563009977
0.007005143910646439,0.008950641378760338,-0.010110195726156235,0.00011156465188832954,0.0006091089453548193,0.0032517833169549704
0.006814395077526569,0.00872034952044487,-0.0109624732285738,0.0001082109083654359,0.0006241103401407599,0.003315938636660576
0.008107621222734451,0.008972802199423313,-0.010377619415521622,0.00010207398736383766,0.0006191833526827395,0.003345662960782647
0.007225670851767063,0.008927246555685997,-0.011095767840743065,9.925936319632456e-05,0.0006522141047753394,0.0031676250509917736
0.006986862979829311,0.009987227618694305,-0.010914988815784454,9.659577335696667e-05,0.0006791247869841754,0.0033709772396832705
0.00826837308704853,0.009625568985939026,-0.010869846679270267,9.407152538187802e-05,0.0006834432133473456,0.003580610267817974
0.007704860530793667,0.009080201387405396,-0.011026423424482346,9.167572716251016e-05,0.0007607783190906048,0.0035944213159382343
0.007704860530793667,0.009080201387405396,-0.011026423424482346,9.167572716251016e-05,0.0007607783190906048,0.0035944213159382343
0.007336409296840429,0.00922648049890995,-0.010942449793219566,8.939897088566795e-05,0.0007485853275284171,0.003471535863354802
0.007226747460663319,0.009220017120242119,-0.011434159241616726,7.106528937583789e-05,0.0007590287132188678,0.0029990412294864655
0.00825229287147522,0.009209110401570797,-0.010461315512657166,6.42448867438361e-05,0.0006788659957237542,0.0027877965476363897
0.0078057521022856236,0.00935134757310152,-0.009717597626149654,6.242430390557274e-05,0.0006970668910071254,0.0026605394668877125
0.007277411408722401,0.00902806967496872,-0.01075274683535099,6.0992231738055125e-05,0.0006992411217652261,0.0030016822274774313
0.007678179536014795,0.009469430893659592,-0.010697474703192711,5.964341835351661e-05,0.0006562179187312722,0.003240346210077405
0.007529855240136385,0.008808568120002747,-0.01014433428645134,5.835423871758394e-05,0.0006224670796655118,0.0033036936074495316
0.007447295822203159,0.009912746958434582,-0.010442089289426804,-3.381665374035947e-05,0.0006322869448922575,0.0031020541209727526
0.007469294127076864,0.00890816655009985,-0.010607101954519749,-6.131047121016309e-05,0.0006354839424602687,0.0028127438854426146
0.006752201821655035,0.008538106456398964,-0.010178472846746445,-6.109982496127486e-05,0.0006171959103085101,0.0025617084465920925
0.008043006993830204,0.009086056612432003,-0.010775499045848846,-5.9212023188592866e-05,0.0006396259996108711,0.002453579567372799
0.007991076447069645,0.008954617194831371,-0.010194067843258381,-7.855703734094277e-05,0.0007342590251937509,0.002488131867721677
0.007441079709678888,0.009132063947618008,-0.010266742669045925,-8.286038064397871e-05,0.0007908959523774683,0.0027785266283899546
0.007597093470394611,0.009017480537295341,-0.010465048253536224,-8.081864507403225e-05,0.0008153663366101682,0.002861639019101858
0.007644635159522295,0.00939228292554617,-0.010147439315915108,-0.00010120857041329145,0.0008257878362201154,0.002852404722943902
0.007534795440733433,0.008893393911421299,-0.01024701353162527,-0.00010148301225854084,0.0009799774270504713,0.0027737817727029324
0.007378064561635256,0.00952973123639822,-0.010565313510596752,-0.00011104038276243955,0.0009929756633937359,0.0026319660246372223
0.008059202693402767,0.009452065452933311,-0.010139903984963894,-0.00011951303167734295,0.0009799434337764978,0.002464971039444208
0.007812950760126114,0.009254609234631062,-0.010863838717341423,-0.00031782782752998173,0.0009606513194739819,0.002347487723454833
0.007699965033680201,0.008544949814677238,-0.010574499145150185,-0.0003559924953151494,0.000936474243644625,0.0025496790185570717
0.007243549916893244,0.008702524937689304,-0.010304009541869164,-0.00041853738366626203,0.0010092136217281222,0.0027464020531624556
0.007805434986948967,0.00868387520313263,-0.01049854513257742,-0.0004488842678256333,0.0011020005913451314,0.0027223110664635897
0.007862314581871033,0.009258368983864784,-0.009859183803200722,-0.0006257256027311087,0.0011648718500509858,0.002659811172634363
0.007423264440149069,0.008877819404006004,-0.010251370258629322,-0.0008940084371715784,0.0011567292967811227,0.0024484277237206697
0.007451878860592842,0.008952917531132698,-0.010285484604537487,-0.0009494533878751099,0.001130334218032658,0.0025162347592413425
0.0074806916527450085,0.008912917226552963,-0.010045197792351246,-0.0015261184889823198,0.0012056998675689101,0.002673810115084052
0.0074806916527450085,0.008912917226552963,-0.010045197792351246,-0.0015261184889823198,0.0012056998675689101,0.002673810115084052
0.007281241938471794,0.008557647466659546,-0.01012394018471241,-0.001900467206723988,0.0010413965210318565,0.002338279038667679
0.007281241938471794,0.008557647466659546,-0.01012394018471241,-0.001900467206723988,0.0010413965210318565,0.002338279038667679
0.008134713396430016,0.008698025718331337,-0.009985635057091713,-0.0019145492697134614,0.0010162930702790618,0.002028233837336302
0.007813884876668453,0.009114664047956467,-0.010595991276204586,-0.0021119897719472647,0.000914699980057776,0.0018411790952086449
0.008120580576360226,0.009078038856387138,-0.00999592524021864,-0.0019793310202658176,0.0010505422251299024,0.0017412904417142272
0.007190073374658823,0.009109537117183208,-0.010435068979859352,-0.002301915781572461,0.0010999822989106178,0.0018550836248323321
0.007970943115651608,0.009418818168342113,-0.010063338093459606,-0.002732784952968359,0.0010246833553537726,0.0019804537296295166
0.007992236874997616,0.009236848913133144,-0.00985704641789198,-0.0033426834270358086,0.0011109864572063088,0.002236766740679741
0.007517133839428425,0.008614256046712399,-0.010459903627634048,-0.003784419968724251,0.0011712212581187487,0.00224970537237823
0.007411239668726921,0.008751549758017063,-0.010076658800244331,-0.003525791224092245,0.001137114828452468,0.002160850679501891
0.00778518570587039,0.008791537955403328,-0.009686294011771679,-0.0035230852663517,0.0011092546628788114,0.001860855845734477
0.007949712686240673,0.00879440177232027,-0.010483239777386189,-0.003615973051637411,0.0010393073316663504,0.0018113190308213234
0.007702626753598452,0.009270412847399712,-0.009912269189953804,-0.0042505282908678055,0.001013244385831058,0.0017771391430869699
0.00736768776550889,0.009075243026018143,-0.009724272415041924,-0.004136593546718359,0.0009326868457719684,0.001991442171856761
0.00768010038882494,0.010557969100773335,-0.010634143836796284,-0.003942068200558424,0.000924059422686696,0.0020904256962239742
0.008189002983272076,0.008692212402820587,-0.010125115513801575,-0.003837981028482318,0.0008552665822207928,0.0021515002008527517
0.007844294421374798,0.00872669368982315,-0.009670269675552845,-0.0043197511695325375,0.0008037833613343537,0.0020910922903567553
0.007729119621217251,0.008886994794011116,-0.010313955135643482,-0.004158077761530876,0.000753344560507685,0.0020218195859342813
0.0076268441043794155,0.008892407640814781,-0.009858416393399239,-0.003906749188899994,0.0007670878549106419,0.0018086719792336226
0.007808481343090534,0.00940388161689043,-0.010675405152142048,-0.003874800866469741,0.0009023381862789392,0.001514722709544003
0.007714396808296442,0.00898139737546444,-0.009971829131245613,-0.004212589468806982,0.0009543388150632381,0.0014772543217986822
0.007814915850758553,0.009127965196967125,-0.009811799973249435,-0.004443391226232052,0.0009665449615567923,0.0015454345848411322
0.008251252584159374,0.008910964243113995,-0.010632744058966637,-0.004252138547599316,0.0012834820663556457,0.0018167534144595265
0.0077891056425869465,0.008715451695024967,-0.009857650846242905,-0.0044793435372412205,0.001249166438356042,0.0018514846451580524
0.0077891056425869465,0.008715451695024967,-0.009857650846242905,-0.0044793435372412205,0.001249166438356042,0.0018514846451580524
0.008549927733838558,0.008826537989079952,-0.010087074711918831,-0.004516712389886379,0.0010859840549528599,0.0016406257636845112
0.008549927733838558,0.008826537989079952,-0.010087074711918831,-0.004516712389886379,0.0010859840549528599,0.0016406257636845112
0.007990146987140179,0.008740040473639965,-0.009578895755112171,-0.004401652608066797,0.0010847324738278985,0.0014868611469864845
0.007714478299021721,0.00899733416736126,-0.009672720916569233,-0.0047964006662368774,0.0010538536589592695,0.0013265131274238229
0.0078916996717453,0.009395554661750793,-0.010174666531383991,-0.004825944546610117,0.001030390034429729,0.0011765662347897887
0.008149910718202591,0.009072824381291866,-0.009736147709190845,-0.004628354217857122,0.0009591748821549118,0.0012219954514876008
0.007906543090939522,0.008828391321003437,-0.009739521890878677,-0.004551254212856293,0.0009292164468206465,0.0015214616432785988
0.00838816724717617,0.00943586602807045,-0.010084148496389389,-0.004513696301728487,0.0009961333125829697,0.00171460525598377
0.00856267474591732,0.009315595030784607,-0.010480877943336964,-0.004672076553106308,0.0009868757333606482,0.002059738151729107
0.008111957460641861,0.008666794747114182,-0.009379052557051182,-0.004759461153298616,0.0010300865396857262,0.0019697423558682203
0.007879293523728848,0.008497362956404686,-0.009564144536852837,-0.004319172352552414,0.001067913370206952,0.001678596599958837
0.00815341342240572,0.008754869922995567,-0.00946421641856432,-0.004185820464044809,0.001063752337358892,0.0013693122891709208
0.008823559619486332,0.008578230626881123,-0.009622416459023952,-0.004775127395987511,0.0010550328297540545,0.0012597893364727497
0.008117195218801498,0.008554953150451183,-0.009967461228370667,-0.004889431409537792,0.0012398338876664639,0.0011190817458555102
0.007667903788387775,0.009183571673929691,-0.009547123685479164,-0.00479904655367136,0.0012114145793020725,0.001080385292880237
0.008522136136889458,0.0085215512663126,-0.009374954737722874,-0.005081671755760908,0.0011811329750344157,0.0009154909057542682
0.0086664455011487,0.008372977375984192,-0.00977324228733778,-0.005014733411371708,0.001275157555937767,0.0008898347732611
0.00866374559700489,0.009174889884889126,-0.009814374148845673,-0.00491951871663332,0.0012081566965207458,0.0009604281513020396
0.00812852568924427,0.008939781226217747,-0.00943773239850998,-0.005593034904450178,0.0011942897690460086,0.0009136711014434695
0.008114787749946117,0.008802586235105991,-0.009925039485096931,-0.005464344285428524,0.0011011074529960752,0.0011625636834651232
0.008246798068284988,0.009731745347380638,-0.01004933100193739,-0.005618339870125055,0.0010573079343885183,0.0010952022857964039
0.008258477784693241,0.008550343103706837,-0.009694480337202549,-0.005346034653484821,0.0010445656953379512,0.0010429174872115254
0.008258477784693241,0.008550343103706837,-0.009694480337202549,-0.005346034653484821,0.0010445656953379512,0.0010429174872115254
0.008107970468699932,0.008384978398680687,-0.010166785679757595,-0.005425728391855955,0.0011671349639073014,0.0009960538009181619
0.00822111964225769,0.009197650477290154,-0.010240516625344753,-0.005266495980322361,0.0011823654640465975,0.0009068505605682731
0.008980785496532917,0.008237184025347233,-0.01016529742628336,-0.0054828389547765255,0.0011598460841923952,0.0009007744374684989
0.008315185084939003,0.008078179322183132,-0.009996218606829643,-0.005787602625787258,0.0011959860567003489,0.0008777169277891517
0.008442915044724941,0.00878160074353218,-0.010332906618714333,-0.00612450297921896,0.0012462513986974955,0.0008051525219343603
0.007984381169080734,0.008536015637218952,-0.01061940472573042,-0.0056252493523061275,0.001116593717597425,0.0007368427468463778
0.008771684020757675,0.008615843951702118,-0.009986472316086292,-0.005378259811550379,0.001078889355994761,0.0007034022128209472
0.008001958020031452,0.008616872131824493,-0.010573679581284523,-0.0053682150319218636,0.0010783092584460974,0.0007243332802318037
0.00794844888150692,0.008574824780225754,-0.01002813782542944,-0.0051854257471859455,0.0010534044122323394,0.000768647063523531
0.008038882166147232,0.008264771662652493,-0.009760085493326187,-0.00590439373627305,0.0010648735333234072,0.0009476256091147661
0.009274865500628948,0.00817214883863926,-0.01108689233660698,-0.006047218572348356,0.0011451985919848084,0.0009979850146919489
0.008245334960520267,0.008872619830071926,-0.010180333629250526,-0.005847103428095579,0.0012436641845852137,0.0009314040653407574
0.007983933202922344,0.008398200385272503,-0.009699709713459015,-0.005511828698217869,0.0011925625149160624,0.0008645866182632744
0.00897847581654787,0.008222772739827633,-0.010487206280231476,-0.0057188235223293304,0.0010842813644558191,0.0007636101800017059
0.008680954575538635,0.008614357560873032,-0.010453683324158192,-0.006144210230559111,0.0010177444200962782,0.0006811543717049062
0.00826316513121128,0.008809812366962433,-0.010535419918596745,-0.0060205706395208836,0.0009999563917517662,0.0006146109662950039
0.008136074990034103,0.008706283755600452,-0.01005665585398674,-0.006234969012439251,0.0009743069531396031,0.0005599165451712906
0.00890829972922802,0.008837981149554253,-0.009445851668715477,-0.005973333027213812,0.0009634530288167298,0.0005141724832355976
0.008593612350523472,0.009191557765007019,-0.010206987150013447,-0.0059186117723584175,0.0009008105844259262,0.00047534320037811995
0.008200010284781456,0.00851504784077406,-0.010226995684206486,-0.006134570110589266,0.0008999575511552393,0.0004419711767695844
0.009253010153770447,0.008178283460438251,-0.009764180518686771,-0.00639678630977869,0.0009175693849101663,0.00041298058931715786
0.008594621904194355,0.008589143864810467,-0.0100509999319911,-0.006653571035712957,0.0011270901886746287,0.00038756083813495934
0.008452593348920345,0.009368195198476315,-0.010290691629052162,-0.0066563766449689865,0.0013519157655537128,0.00036509017809294164
0.0091323247179389,0.008527212776243687,-0.009649123065173626,-0.006658776197582483,0.0013623418053612113,0.00034508362296037376
0.008454623632133007,0.008644509129226208,-0.009641207754611969,-0.006778405979275703,0.0015709553845226765,0.0003271570603828877
0.008454623632133007,0.008644509129226208,-0.009641207754611969,-0.006778405979275703,0.0015709553845226765,0.0003271570603828877
0.009081222116947174,0.008570228703320026,-0.009293475188314915,-0.006499433424323797,0.0014155551325529814,0.00029636663384735584
0.008788246661424637,0.00857454538345337,-0.009565960615873337,-0.006327501498162746,0.0012416423996910453,0.0002830482553690672
0.00907829962670803,0.00877477414906025,-0.010153423063457012,-0.0061461180448532104,0.0012616461608558893,0.0002708755200728774
0.00865497998893261,0.00821694079786539,-0.009336349554359913,-0.006450682412832975,0.0012431945651769638,0.00025970605202019215
0.00859604962170124,0.008154643699526787,-0.009393446147441864,-0.007424539886415005,0.0011962010757997632,0.0002494224172551185
0.009037287905812263,0.00876761507242918,-0.010011006146669388,-0.006353219039738178,0.0012603767681866884,0.0002399220538791269
0.008616214618086815,0.009143968112766743,-0.009756448678672314,-0.005486592184752226,0.0012658375781029463,0.00023111866903491318
0.008665871806442738,0.009164533577859402,-0.00945360492914915,-0.006192445755004883,0.001456783153116703,0.0002229390956927091
0.009303661063313484,0.008853043429553509,-0.009951833635568619,-0.007105871569365263,0.0014471319736912847,0.00021531860693357885
0.008587086573243141,0.009866348467767239,-0.009691918268799782,-0.0072890412993729115,0.0013711602659896016,0.00020820167264901102
0.008527026511728764,0.008627302944660187,-0.009703661315143108,-0.006816305685788393,0.0013314971001818776,0.00020154057710897177
0.009020976722240448,0.008638471364974976,-0.00972751248627901,-0.00670949462801218,0.0012443391606211662,0.0001952922175405547
0.00909191183745861,0.009163149632513523,-0.009016047231853008,-0.00684644328430295,0.00118359737098217,0.0001894200249807909
0.009034078568220139,0.008788046427071095,-0.009316254407167435,-0.0071565378457307816,0.0011105748126283288,0.00018389047181699425
0.008976049721240997,0.008474308997392654,-0.010337245650589466,-0.006830166559666395,0.0010692087234929204,0.00017867480346467346
0.00966628547757864,0.008718219585716724,-0.009707006625831127,-0.007098671048879623,0.0010605644201859832,0.00017374672461301088
0.008878059685230255,0.008891366422176361,-0.0094442805275321,-0.007070602849125862,0.0010574676562100649,0.00011276312579866499
0.008641811087727547,0.008747115731239319,-0.010535201989114285,-0.007115139625966549,0.0013885073130950332,5.6362834584433585e-05
0.009136485867202282,0.008703355677425861,-0.009306177496910095,-0.007383533753454685,0.0013740281574428082,5.129360579303466e-05
0.009338337928056717,0.009684928692877293,-0.009598282165825367,-0.007512599695473909,0.0017091045156121254,4.965214611729607e-05
0.008637731894850731,0.008568494580686092,-0.009956082329154015,-0.007722587790340185,0.0017722166376188397,3.644443495431915e-05
0.009154695086181164,0.008504602126777172,-0.009581820107996464,-0.007491574622690678,0.0017781717469915748,2.4323275283677503e-05
0.009167673997581005,0.009238778613507748,-0.009904111735522747,-0.007246300578117371,0.001637734705582261,2.2973988961894065e-05
0.008860517293214798,0.008963274769484997,-0.009789880365133286,-0.007229621522128582,0.001510673202574253,1.5000373423390556e-06
0.009315566159784794,0.009030971676111221,-0.009278854355216026,-0.007853462360799313,0.0013740442227572203,9.794172228794196e-08
0.008914903737604618,0.009241502732038498,-0.009901734068989754,-0.00728517584502697,0.001250618719495833,4.175409185069867e-10
0.009230866096913815,0.009156817570328712,-0.010052638128399849,-0.007219219114631414,0.0013211194891482592,2.7262437099495607e-11
0.008711668662726879,0.009243638254702091,-0.009026034735143185,-0.008625933900475502,0.0013213796773925424,1.7800424762653977e-12
0.009346560575067997,0.009420349262654781,-0.00969830434769392,-0.008696574717760086,0.001311557018198073,1.1622404698808514e-13
0.009328201413154602,0.009103933349251747,-0.009492460638284683,-0.007636561058461666,0.001519450219348073,7.588599514670325e-15
0.009328201413154602,0.009103933349251747,-0.009492460638284683,-0.007636561058461666,0.001519450219348073,7.588599514670325e-15
0.009915661066770554,0.00909624807536602,-0.009113766252994537,-0.008172417990863323,0.0013999675866216421,-0.0009165577357634902
0.009469229727983475,0.00922933965921402,-0.009901355020701885,-0.009425079450011253,0.001308015314862132,-0.0009926456259563565
0.009209861047565937,0.009118462912738323,-0.010016260668635368,-0.008836420252919197,0.0011197483399882913,-0.0009214714518748224
0.009504801593720913,0.009063339792191982,-0.009266830049455166,-0.008363316766917706,0.0010723269078880548,-0.0008079241961240768
0.009648257866501808,0.009512928314507008,-0.009648513980209827,-0.009107942692935467,0.0011515321675688028,-0.0008040631073527038
0.009821612387895584,0.009184522554278374,-0.00943065620958805,-0.008991661481559277,0.0013402414042502642,-0.0007349796360358596
0.009801547043025494,0.009089396335184574,-0.009076747111976147,-0.008380037732422352,0.0013890700647607446,-0.0007370602688752115
0.009623588062822819,0.009590997360646725,-0.009455470368266106,-0.008916144259274006,0.0015221346402540803,-0.0007863177452236414
0.01038111187517643,0.009323446080088615,-0.009971220046281815,-0.009342201985418797,0.001530107343569398,-0.0008242703625001013
0.011024919338524342,0.008896131068468094,-0.009103342890739441,-0.008606866002082825,0.0015080948360264301,-0.0015247579431161284
0.010192092508077621,0.010175117291510105,-0.009590220637619495,-0.00823171902447939,0.0014243716141209006,-0.001797841745428741
0.010387972928583622,0.0092582693323493,-0.009477985091507435,-0.008733170107007027,0.0014213804388418794,-0.0018008758779615164
0.011003931984305382,0.00942419096827507,-0.009053179994225502,-0.009034681133925915,0.0013831774704158306,-0.0015884764725342393
0.010030708275735378,0.009697272442281246,-0.008909874595701694,-0.00851096399128437,0.0012945459457114339,-0.001410857541486621
0.010142759419977665,0.009597166441380978,-0.009639824740588665,-0.008675910532474518,0.0013372263638302684,-0.0012121900217607617
0.010613080114126205,0.009306647814810276,-0.00938508752733469,-0.009273549541831017,0.0013051368296146393,-0.001052423263899982
0.010196322575211525,0.009145534597337246,-0.009276077151298523,-0.008890066295862198,0.0015152760315686464,-0.0008280370384454727
0.010644277557730675,0.010089562274515629,-0.009471392259001732,-0.008940395899116993,0.001536668511107564,-0.000934605544898659
0.010592212900519371,0.009192327037453651,-0.009086215868592262,-0.009714452549815178,0.001514384988695383,-0.0014615654945373535
0.010633313097059727,0.009570691734552383,-0.00901238527148962,-0.009053860791027546,0.0014741693157702684,-0.001818114542402327
0.010448642075061798,0.009362965822219849,-0.009149355813860893,-0.009824449196457863,0.001349332625977695,-0.00281920051202178
0.010705885477364063,0.009783025830984116,-0.009047074243426323,-0.009302770718932152,0.0013873092830181122,-0.0023821659851819277
0.010705885477364063,0.009783025830984116,-0.009047074243426323,-0.009302770718932152,0.0013873092830181122,-0.0023821659851819277
0.010905981063842773,0.009872548282146454,-0.009557452984154224,-0.009084479883313179,0.0013695110101252794,-0.0019538882188498974
0.010533854365348816,0.00935390405356884,-0.009055216796696186,-0.009180223569273949,0.0015563580673187971,-0.0018889129860326648
0.010589302517473698,0.009386333636939526,-0.008850575424730778,-0.009507806971669197,0.0015810666372999549,-0.002075304975733161
0.011004479601979256,0.009690850973129272,-0.00932589266449213,-0.009448086842894554,0.0015591635601595044,-0.0024761976674199104
0.010291608981788158,0.009442189708352089,-0.00965895876288414,-0.009819362312555313,0.001623014104552567,-0.0026574432849884033
0.01057128980755806,0.009430436417460442,-0.008840244263410568,-0.009504851885139942,0.001525013125501573,-0.002901011146605015
0.010275546461343765,0.009918308816850185,-0.00887752790004015,-0.009584511630237103,0.0015390556072816253,-0.0025456182193011045
0.010695457458496094,0.00947952177375555,-0.00930850114673376,-0.010046154260635376,0.0015423967270180583,-0.002421553712338209
0.011385920457541943,0.009256860241293907,-0.00900289136916399,-0.009774630889296532,0.0014420467196032405,-0.002395691815763712
0.010237767361104488,0.009433366358280182,-0.00893951766192913,-0.00994871836155653,0.0015529296360909939,-0.0025613438338041306
0.01061452180147171,0.009457247331738472,-0.009155310690402985,-0.010403118096292019,0.0014932603808119893,-0.0031110751442611217
0.010793156921863556,0.009461576119065285,-0.009008788503706455,-0.010173515416681767,0.0018578664166852832,-0.00333119323477149
0.009998805820941925,0.00991720613092184,-0.008974891155958176,-0.009915044531226158,0.0019200872629880905,-0.0032999031245708466
0.010515189729630947,0.009593951515853405,-0.009249971248209476,-0.010370533913373947,0.00217641144990921,-0.0031614545732736588
0.01020103506743908,0.009563522413372993,-0.009044023230671883,-0.010312124155461788,0.001903350348584354,-0.002993559231981635
0.010613310150802135,0.009901891462504864,-0.008905875496566296,-0.010203033685684204,0.0018825687002390623,-0.002916308818385005
0.011098655872046947,0.009540541097521782,-0.00952337309718132,-0.010444620624184608,0.0017035962082445621,-0.0032760316971689463
0.010453582741320133,0.009665558114647865,-0.009067053906619549,-0.01060941070318222,0.001609024708159268,-0.0032859202474355698
0.010440549813210964,0.009987805038690567,-0.008647528477013111,-0.01029225904494524,0.0015914741670712829,-0.0034533326979726553
0.010757910087704659,0.009478038176894188,-0.009317786432802677,-0.010009460151195526,0.001478654332458973,-0.003404724644497037
0.010663236491382122,0.00917122047394514,-0.009188929572701454,-0.00988597422838211,0.0015761166578158736,-0.0033131542149931192
0.010271080769598484,0.009881094098091125,-0.009461559355258942,-0.010377525351941586,0.0016946825198829174,-0.003218573983758688
0.01047230139374733,0.009807175025343895,-0.008916688151657581,-0.01063794456422329,0.002005849964916706,-0.0034043393097817898
0.010947218164801598,0.009889818727970123,-0.00857477355748415,-0.009898345917463303,0.0019226041622459888,-0.0034468546509742737
0.010947218164801598,0.009889818727970123,-0.00857477355748415,-0.009898345917463303,0.0019226041622459888,-0.0034468546509742737
0.011379302479326725,0.009627367369830608,-0.008719237521290779,-0.009949843399226665,0.0017745833611115813,-0.00329512357711792
0.010138645768165588,0.00971887819468975,-0.009210260584950447,-0.010707253590226173,0.0017824936658143997,-0.003289602231234312
0.010339193977415562,0.01027807965874672,-0.008548786863684654,-0.010654386132955551,0.0018029245547950268,-0.0032951217144727707
0.010611922480165958,0.00995502807199955,-0.00831977091729641,-0.010462907142937183,0.0020155960228294134,-0.003346913494169712
0.010243904776871204,0.009622343815863132,-0.008933166041970253,-0.010081877000629902,0.002221461618319154,-0.003187670838087797
0.010308205150067806,0.010764308273792267,-0.009137269109487534,-0.01039883866906166,0.0022359099239110947,-0.004086904227733612
0.010747765190899372,0.00970612745732069,-0.00906450767070055,-0.010423610918223858,0.0024271681904792786,-0.005038127303123474
0.009959066286683083,0.010166825726628304,-0.008893636055290699,-0.010658090934157372,0.0022276565432548523,-0.005325646605342627
0.010605193674564362,0.009940407238900661,-0.009453949518501759,-0.010243120603263378,0.0021310250740498304,-0.004730275832116604
0.010094095021486282,0.00955249648541212,-0.008790803141891956,-0.009800535626709461,0.0019301028223708272,-0.004582548514008522
0.01030050776898861,0.010273179039359093,-0.00907787587493658,-0.009847499430179596,0.0018132395343855023,-0.004505153279751539
0.010778285562992096,0.010116329416632652,-0.009136313572525978,-0.010367834009230137,0.0017285137437283993,-0.004504064098000526
0.010282334871590137,0.009573693387210369,-0.009159866720438004,-0.009940704330801964,0.0018814513459801674,-0.004860776010900736
0.011199249885976315,0.010104461573064327,-0.008975616656243801,-0.010479837656021118,0.0019759542774409056,-0.004628243390470743
0.010454751551151276,0.010133882984519005,-0.010029607452452183,-0.010334466584026814,0.0020750437397509813,-0.004480458330363035
0.009823686443269253,0.009803625755012035,-0.008908545598387718,-0.010199657641351223,0.0018568793311715126,-0.004853511229157448
0.010254066437482834,0.00995191466063261,-0.00873322319239378,-0.010355482809245586,0.0017466072458773851,-0.004983656574040651
0.010207888670265675,0.010505207814276218,-0.009271403774619102,-0.010583474300801754,0.0017220774898305535,-0.004700944758951664
0.009970773942768574,0.009664300829172134,-0.009692329913377762,-0.010670131072402,0.0019480435876175761,-0.00481586204841733
0.010405702516436577,0.009701632894575596,-0.009145704098045826,-0.011212974786758423,0.002089262241497636,-0.00479675829410553
0.010896656662225723,0.01048949919641018,-0.009428276680409908,-0.0111892344430089,0.0023824439849704504,-0.004841554909944534
0.01033717766404152,0.00958601851016283,-0.009454206563532352,-0.010764025151729584,0.0024167525116354227,-0.004677079617977142
0.010858764871954918,0.010118701495230198,-0.009306054562330246,-0.011028117500245571,0.002285099821165204,-0.00485480111092329
0.010784562677145004,0.009785259142518044,-0.010498043149709702,-0.010909529402852058,0.0017781375208869576,-0.005221703089773655
0.010908260941505432,0.010012395679950714,-0.009349219501018524,-0.011393139138817787,0.0016567733837291598,-0.005097243934869766
0.010908260941505432,0.010012395679950714,-0.009349219501018524,-0.011393139138817787,0.0016567733837291598,-0.005097243934869766
0.010446014814078808,0.010290030390024185,-0.008471581153571606,-0.011429769918322563,0.001698729582130909,-0.004951223731040955
0.010024181567132473,0.009773251600563526,-0.009120618924498558,-0.012265274301171303,0.0017930475296452641,-0.004883772227913141
0.011346657760441303,0.010105135850608349,-0.009910697117447853,-0.011786417104303837,0.0020624794997274876,-0.004482531454414129
0.011558410711586475,0.010180789977312088,-0.009034509770572186,-0.012066001072525978,0.0021720128133893013,-0.004965751897543669
0.012144387699663639,0.009431245736777782,-0.008984001353383064,-0.012098858132958412,0.0022128073032945395,-0.00580353569239378
0.011458336375653744,0.0105950478464365,-0.008764314465224743,-0.012205171398818493,0.0022986787371337414,-0.0053296396508812904
0.011350946500897408,0.010191676206886768,-0.008795883506536484,-0.011798093095421791,0.002106711035594344,-0.005110630765557289
0.011544621549546719,0.009730246849358082,-0.009370623156428337,-0.012295369058847427,0.0018980916356667876,-0.0053538368083536625
0.01100215781480074,0.010390653274953365,-0.010129500180482864,-0.01164962723851204,0.001935255597345531,-0.005183530505746603
0.011631697416305542,0.010102690197527409,-0.008909684605896473,-0.011789808049798012,0.002250746125355363,-0.0054152305237948895
0.011513307690620422,0.009645802900195122,-0.009523419663310051,-0.012109111063182354,0.0026994457002729177,-0.005551353562623262
0.012118124403059483,0.01022072322666645,-0.009329361841082573,-0.012515438720583916,0.002622764790430665,-0.005988043267279863
0.01181083358824253,0.00982651300728321,-0.009313425049185753,-0.012181069701910019,0.0026752972044050694,-0.00564051978290081
0.0113050676882267,0.011765167117118835,-0.009077406488358974,-0.012409677729010582,0.0023435940966010094,-0.005879976786673069
0.011501072905957699,0.01018630713224411,-0.009570999071002007,-0.012324288487434387,0.00217163423076272,-0.00594263756647706
0.011453339830040932,0.009409974329173565,-0.009126966819167137,-0.012457555159926414,0.0019956310279667377,-0.006038340739905834
0.012393134646117687,0.009545289911329746,-0.008470040746033192,-0.012321862392127514,0.0019407410873100162,-0.005969211459159851
0.01182450633496046,0.010521682910621166,-0.00928011815994978,-0.012077977880835533,0.0019638589583337307,-0.00578153133392334
0.011746350675821304,0.009911737404763699,-0.009654812514781952,-0.012306148186326027,0.0019546004477888346,-0.006292420905083418
0.012261115945875645,0.00952626671642065,-0.008489773608744144,-0.012502647005021572,0.0019762846641242504,-0.006098643410950899
0.011553853750228882,0.010835635475814342,-0.008887537755072117,-0.012775871902704239,0.0020480426028370857,-0.0060759251937270164
0.011953767389059067,0.010144713334739208,-0.00881099421530962,-0.012458222918212414,0.002087746746838093,-0.006453732028603554
0.012230781838297844,0.009669122286140919,-0.008399900048971176,-0.013151168823242188,0.0020281311590224504,-0.006712653674185276
0.012236790731549263,0.010197510942816734,-0.009562174789607525,-0.013299009762704372,0.0018935415428131819,-0.006506781559437513
0.01159724872559309,0.010306158103048801,-0.008953673765063286,-0.013671442866325378,0.0018712320597842336,-0.006903039291501045
0.012114197015762329,0.010154405608773232,-0.008809280581772327,-0.013410148210823536,0.002499951049685478,-0.006405155640095472
0.012402643449604511,0.009949274361133575,-0.009383602999150753,-0.01378046628087759,0.0026772983837872744,-0.006516685709357262
0.011942977085709572,0.010435500182211399,-0.00921129621565342,-0.013538087718188763,0.0027621600311249495,-0.006522536743432283
0.011942977085709572,0.010435500182211399,-0.00921129621565342,-0.013538087718188763,0.0027621600311249495,-0.006522536743432283
0.012566884979605675,0.010027868673205376,-0.0080390814691782,-0.014040813781321049,0.002520124427974224,-0.0066848499700427055
0.011764422059059143,0.009785565547645092,-0.008912116289138794,-0.014266260899603367,0.00229200953617692,-0.006828198209404945
0.01203412190079689,0.010125852189958096,-0.009097510017454624,-0.014826711267232895,0.0020691598765552044,-0.0066864690743386745
0.012281453236937523,0.010035204701125622,-0.00850796326994896,-0.015019580721855164,0.0022602062672376633,-0.006853148341178894
0.012281453236937523,0.010035204701125622,-0.00850796326994896,-0.015019580721855164,0.0022602062672376633,-0.006853148341178894
0.012523389421403408,0.00990292802453041,-0.008581381291151047,-0.01477598212659359,0.0021566199138760567,-0.007027467712759972
0.012675276026129723,0.010142364539206028,-0.008434230461716652,-0.014566279947757721,0.002588924253359437,-0.007261430844664574
0.012944698333740234,0.010558762587606907,-0.008206258527934551,-0.01452610269188881,0.0027120502199977636,-0.0075904554687440395
0.012791255488991737,0.010228513740003109,-0.008716383017599583,-0.014129034243524075,0.002506060991436243,-0.008056571707129478
0.013222260400652885,0.01048574224114418,-0.008400807157158852,-0.014547605067491531,0.002553167985752225,-0.007593747228384018
0.012765390798449516,0.00990829523652792,-0.00814075767993927,-0.015008374117314816,0.0026497994549572468,-0.008091907948255539
0.013454307802021503,0.010108187794685364,-0.008515529334545135,-0.01510805543512106,0.0027553094550967216,-0.0078080943785607815
0.012879936955869198,0.009845101274549961,-0.008857794106006622,-0.014954500831663609,0.0026410024147480726,-0.0075848097912967205
0.01280221063643694,0.009553071111440659,-0.008260241709649563,-0.015143954195082188,0.0026221268344670534,-0.007396235130727291
0.01283895131200552,0.009903226979076862,-0.008050189353525639,-0.014543280936777592,0.0024365163408219814,-0.007931012660264969
0.013071052730083466,0.010450443252921104,-0.009089406579732895,-0.014958019368350506,0.0024763180408626795,-0.008004183880984783
0.013248620554804802,0.009329858236014843,-0.008526026271283627,-0.014966211281716824,0.0022235314827412367,-0.007905680686235428
0.0130335483700037,0.009745614603161812,-0.008193048648536205,-0.015739375725388527,0.0021858932450413704,-0.008041992783546448
0.013545315712690353,0.00981247890740633,-0.008331461809575558,-0.015324991196393967,0.0022920798510313034,-0.008170714601874352
0.013371323235332966,0.009678581729531288,-0.008455480448901653,-0.015975601971149445,0.0025046931114047766,-0.007898175157606602
0.013412626460194588,0.010219858027994633,-0.008459405973553658,-0.015007751993834972,0.0025139497593045235,-0.008023509755730629
0.013135763816535473,0.009964173659682274,-0.008028103038668633,-0.015455864369869232,0.0025815970730036497,-0.008274796418845654
0.013505573384463787,0.009629207663238049,-0.008710583671927452,-0.014929920434951782,0.0026454220060259104,-0.008912191726267338
0.013149547390639782,0.009873587638139725,-0.008037987165153027,-0.015198801644146442,0.0028998975176364183,-0.008303462527692318
0.013256003148853779,0.009780599735677242,-0.008465468883514404,-0.015583413653075695,0.003006958169862628,-0.00901432242244482
0.013120854273438454,0.010535510256886482,-0.008459105156362057,-0.016179347410798073,0.002868786221370101,-0.008736464194953442
0.013706316240131855,0.009696575812995434,-0.008128179237246513,-0.016142338514328003,0.002627468900755048,-0.009153932332992554
0.01349734514951706,0.009843477047979832,-0.007978575304150581,-0.016192637383937836,0.0024740409571677446,-0.009197714738547802
0.013927023857831955,0.010068622417747974,-0.008616844192147255,-0.01565460115671158,0.002266121795400977,-0.009731177240610123
0.013927023857831955,0.010068622417747974,-0.008616844192147255,-0.01565460115671158,0.002266121795400977,-0.009731177240610123
0.013471624813973904,0.00958383921533823,-0.008505456149578094,-0.016082091256976128,0.002461464377120137,-0.009156142361462116
0.013998428359627724,0.010008424520492554,-0.007905540987849236,-0.015921134501695633,0.0024803359992802143,-0.009557276032865047
0.01197242271155119,0.010099140927195549,-0.008167678490281105,-0.016207261011004448,0.00258302828297019,-0.008742057718336582
0.014580672606825829,0.009594130329787731,-0.008299769833683968,-0.01604183204472065,0.0026783316861838102,-0.008828870952129364
0.01386977732181549,0.010050242766737938,-0.007677165791392326,-0.016223032027482986,0.0027007812168449163,-0.008802804164588451
0.013837791979312897,0.010182429105043411,-0.007480671629309654,-0.016491146758198738,0.0025154564063996077,-0.008909370750188828
0.013508552685379982,0.009704294614493847,-0.00878842081874609,-0.01747935824096203,0.0026474841870367527,-0.00933881290256977
0.014176934026181698,0.009751502424478531,-0.008026069961488247,-0.016811637207865715,0.0029564157593995333,-0.009206537157297134
0.014047334901988506,0.010129346512258053,-0.007615499664098024,-0.015572639182209969,0.0030574530828744173,-0.009367577731609344
0.014188277535140514,0.010356209240853786,-0.0074225119315087795,-0.01665933057665825,0.0029826306272298098,-0.009525489062070847
0.01383274421095848,0.00965429563075304,-0.007990594021975994,-0.01662357710301876,0.002769219921901822,-0.009375328198075294
0.014332176186144352,0.010298398323357105,-0.007944481447339058,-0.016771547496318817,0.0026851175352931023,-0.00946951936930418
0.014156726188957691,0.009721938520669937,-0.007328037638217211,-0.01680215261876583,0.002661893842741847,-0.0094550009816885
0.01436308678239584,0.009346461854875088,-0.007002228405326605,-0.016809428110718727,0.00258091208525002,-0.009737790562212467
0.014219561591744423,0.0104769142344594,-0.007859467528760433,-0.01782180741429329,0.0027783222030848265,-0.009169550612568855
0.014642083086073399,0.009345181286334991,-0.007548181340098381,-0.017682788893580437,0.0027168551459908485,-0.008775177411735058
0.014274032786488533,0.009394432418048382,-0.007224837318062782,-0.017192373052239418,0.002799813635647297,-0.009631467051804066
0.014381591230630875,0.0101240249350667,-0.007175427861511707,-0.017138207331299782,0.002904234454035759,-0.00958339311182499
0.014069359749555588,0.010304964147508144,-0.00823289342224598,-0.01751604676246643,0.0030646896921098232,-0.009166383184492588
0.013887816108763218,0.010259217582643032,-0.007809190079569817,-0.01702253893017769,0.002600767882540822,-0.009768106043338776
0.013887816108763218,0.010259217582643032,-0.007809190079569817,-0.01702253893017769,0.002600767882540822,-0.009768106043338776
0.014124765992164612,0.009172003716230392,-0.008043290115892887,-0.018057338893413544,0.0025522790383547544,-0.009257147088646889
0.014406376518309116,0.00989864207804203,-0.008126282133162022,-0.01801227405667305,0.002478244248777628,-0.008902495726943016
0.014223081059753895,0.009721941314637661,-0.007660734001547098,-0.018818935379385948,0.002665748121216893,-0.009422369301319122
0.014432753436267376,0.009880566038191319,-0.007693433668464422,-0.018343351781368256,0.002807079581543803,-0.009506740607321262
0.014251959510147572,0.010395717807114124,-0.008117846213281155,-0.018154781311750412,0.002563499379903078,-0.009369797073304653
0.014679732732474804,0.010661301203072071,-0.007751454133540392,-0.01828201860189438,0.0026591806672513485,-0.010048551484942436
0.014679732732474804,0.010661301203072071,-0.007751454133540392,-0.01828201860189438,0.0026591806672513485,-0.010048551484942436
0.014272798784077168,0.009510014206171036,-0.00725178187713027,-0.01774189993739128,0.0026709861122071743,-0.010023584589362144
0.014391960576176643,0.010290325619280338,-0.007520261220633984,-0.017747703939676285,0.0028868464287370443,-0.009769611991941929
0.01432027481496334,0.009917259216308594,-0.008282234892249107,-0.01847418211400509,0.0031414804980158806,-0.009924685582518578
0.014647342264652252,0.009713438339531422,-0.008403691463172436,-0.018632126972079277,0.003009901149198413,-0.010572770610451698
0.014763076789677143,0.009943139739334583,-0.007756007835268974,-0.018286561593413353,0.002972504822537303,-0.009269951842725277
0.015137454494833946,0.009691412560641766,-0.008224842138588428,-0.0179484523832798,0.0029800469055771828,-0.008915262296795845
0.014906843192875385,0.009958782233297825,-0.008152018301188946,-0.018025046214461327,0.0028845244087278843,-0.00943292211741209
0.015317732468247414,0.010263805277645588,-0.00759847741574049,-0.01896953396499157,0.0028154454194009304,-0.009532897733151913
0.01488893199712038,0.009578613564372063,-0.008084721863269806,-0.019073786213994026,0.002847968367859721,-0.009507630951702595
0.015604517422616482,0.010267828591167927,-0.008382630534470081,-0.018571559339761734,0.0027645318768918514,-0.00949095655232668
0.015055304393172264,0.009570041671395302,-0.00800847914069891,-0.018946319818496704,0.0027736432384699583,-0.009830204769968987
0.015337079763412476,0.009473862126469612,-0.007559869438409805,-0.018645333126187325,0.002698017517104745,-0.009813141077756882
0.015163466334342957,0.009827767498791218,-0.007977726869285107,-0.01856430619955063,0.0029300039168447256,-0.00965028814971447
0.015590948984026909,0.01018929947167635,-0.008397112600505352,-0.019279761239886284,0.0033077197149395943,-0.010307335294783115
0.015349043533205986,0.0095281433314085,-0.008386986330151558,-0.01957756280899048,0.0032760105095803738,-0.010116549208760262
0.015527479350566864,0.010536523535847664,-0.007972423918545246,-0.019480062648653984,0.003175534773617983,-0.00992161687463522
0.015532600693404675,0.01007615216076374,-0.008878322318196297,-0.01960955560207367,0.0029008546844124794,-0.009988062083721161
0.015372722409665585,0.009663665667176247,-0.008415349759161472,-0.019602332264184952,0.002757488517090678,-0.01068887859582901
0.015981202945113182,0.009959903545677662,-0.00837347749620676,-0.019799979403614998,0.0027350629679858685,-0.010367253795266151
0.016185110434889793,0.009990555234253407,-0.008710542693734169,-0.020220700651407242,0.0029347294475883245,-0.010482290759682655
0.016185110434889793,0.009990555234253407,-0.008710542693734169,-0.020220700651407242,0.0029347294475883245,-0.010482290759682655
0.016185110434889793,0.009990555234253407,-0.008710542693734169,-0.020220700651407242,0.0029347294475883245,-0.010482290759682655
0.015917280688881874,0.009679816663265228,-0.008468102663755417,-0.02003229781985283,0.0034638068173080683,-0.010994761250913143
0.016374245285987854,0.010302835144102573,-0.0084893349558115,-0.020273903384804726,0.0034913350827991962,-0.010877198539674282
0.01590011455118656,0.010859488509595394,-0.008237489499151707,-0.020373329520225525,0.003238825825974345,-0.011271878145635128
0.01627602055668831,0.010014621540904045,-0.008108273148536682,-0.020493492484092712,0.003074844367802143,-0.0112086720764637
0.016111869364976883,0.010643686167895794,-0.008410918526351452,-0.020588558167219162,0.0029290392994880676,-0.010395247489213943
0.01548005361109972,0.01060075219720602,-0.008128812536597252,-0.020077770575881004,0.003158333245664835,-0.01065251138061285
0.01548005361109972,0.01060075219720602,-0.008128812536597252,-0.020077770575881004,0.003158333245664835,-0.01065251138061285
0.0163451936095953,0.010060027241706848,-0.007658923044800758,-0.02062552608549595,0.003289185231551528,-0.010927148163318634
0.01674455590546131,0.010426856577396393,-0.009128505364060402,-0.02071843110024929,0.0033694712910801172,-0.010639915242791176
0.01674455590546131,0.010426856577396393,-0.009128505364060402,-0.02071843110024929,0.0033694712910801172,-0.010639915242791176
0.016482295468449593,0.010061484761536121,-0.008091866038739681,-0.02085363306105137,0.0035825648810714483,-0.010759513825178146
0.016457021236419678,0.010787270031869411,-0.007839702069759369,-0.021407490596175194,0.003944895695894957,-0.010798046365380287
0.01633136160671711,0.010339003056287766,-0.008142417296767235,-0.02135716751217842,0.004193301312625408,-0.01112467423081398
0.015830110758543015,0.010305704548954964,-0.007753988262265921,-0.02121833711862564,0.003714459016919136,-0.011099996976554394
0.016133740544319153,0.010673368349671364,-0.008120370097458363,-0.02167116291821003,0.0035374993458390236,-0.011174894869327545
0.01611788012087345,0.010737180709838867,-0.007855795323848724,-0.02242794632911682,0.003659358713775873,-0.011399458162486553
0.016557589173316956,0.011353952810168266,-0.008311835117638111,-0.022382702678442,0.003769288072362542,-0.011211915872991085
0.01660255715250969,0.011306390166282654,-0.007745415437966585,-0.022046418860554695,0.00390390632674098,-0.011423991061747074
0.01650315709412098,0.010382207110524178,-0.007598256692290306,-0.022083580493927002,0.003440981497988105,-0.01145233865827322
0.01634816639125347,0.011040620505809784,-0.007617971859872341,-0.02247883751988411,0.003531206864863634,-0.011221330612897873
0.01650409772992134,0.010869546793401241,-0.00799169484525919,-0.02281060814857483,0.003248601220548153,-0.01026083528995514
0.01687278412282467,0.010579947382211685,-0.007673932705074549,-0.022649986669421196,0.0033654251601547003,-0.01148517057299614
0.016388926655054092,0.010952027514576912,-0.006953902542591095,-0.022185958921909332,0.0035765194334089756,-0.011629295535385609
0.017150232568383217,0.010378723964095116,-0.0072881439700722694,-0.022370800375938416,0.003719346597790718,-0.011650899425148964
0.017036650329828262,0.010768121108412743,-0.008090263232588768,-0.02281211130321026,0.0036305021494627,-0.011981773190200329
0.016741672530770302,0.010992313735187054,-0.007571858819574118,-0.022950993850827217,0.003405306488275528,-0.011567141860723495
0.016898104920983315,0.010746440850198269,-0.007262942846864462,-0.02278190106153488,0.003334230510517955,-0.01108517311513424
0.0169996228069067,0.010655221529304981,-0.008153663948178291,-0.022949431091547012,0.0036525228060781956,-0.011393452994525433
0.01687895879149437,0.010509414598345757,-0.007719702553004026,-0.022864285856485367,0.0038809948600828648,-0.011634494177997112
0.01694687083363533,0.010865532793104649,-0.006835930049419403,-0.022913429886102676,0.00350811961106956,-0.011793273501098156
0.01694687083363533,0.010865532793104649,-0.006835930049419403,-0.022913429886102676,0.00350811961106956,-0.011793273501098156
0.016649659723043442,0.01047399453818798,-0.008054888807237148,-0.022678835317492485,0.0037736515514552593,-0.011436033062636852
0.016972636803984642,0.010671013966202736,-0.007537206169217825,-0.02474273554980755,0.003853011876344681,-0.011972715146839619
0.016972636803984642,0.010671013966202736,-0.007537206169217825,-0.02474273554980755,0.003853011876344681,-0.011972715146839619
0.017341570928692818,0.011362836696207523,-0.008128047920763493,-0.023498017340898514,0.0033822169061750174,-0.012336951680481434
0.017341570928692818,0.011362836696207523,-0.008128047920763493,-0.023498017340898514,0.0033822169061750174,-0.012336951680481434
0.01726805791258812,0.01042587123811245,-0.007832703180611134,-0.023261303082108498,0.0033860825933516026,-0.012253332883119583
0.01681669056415558,0.010428162291646004,-0.007462619338184595,-0.022376202046871185,0.003623486962169409,-0.012524615041911602
0.01679830066859722,0.011056078597903252,-0.00714116869494319,-0.022873224690556526,0.003484264947474003,-0.011749470606446266
0.016700036823749542,0.01069704256951809,-0.008060281164944172,-0.023972412571310997,0.0035147478338330984,-0.011559002101421356
0.01752418838441372,0.010230466723442078,-0.007958178408443928,-0.024387899786233902,0.0036840762477368116,-0.012288224883377552
0.017138894647359848,0.010875153355300426,-0.007395228371024132,-0.023639658465981483,0.003728069830685854,-0.0120993098244071
0.01718062348663807,0.010464108549058437,-0.006971209309995174,-0.023705841973423958,0.00393615523353219,-0.01261761412024498
0.017402390018105507,0.010318348184227943,-0.007815470919013023,-0.02455877512693405,0.003989341668784618,-0.01294504664838314
0.015204230323433876,0.01055786944925785,-0.007597625721246004,-0.02490834891796112,0.003925674594938755,-0.012744196690618992
0.018292099237442017,0.010808726772665977,-0.007338342256844044,-0.02480061538517475,0.003802316728979349,-0.013068756088614464
0.01819366216659546,0.010356091894209385,-0.007307876832783222,-0.02403971739113331,0.0036595663987100124,-0.0127889234572649
0.017543058842420578,0.010618445463478565,-0.008020858280360699,-0.024327920749783516,0.0036965247709304094,-0.013338598422706127
0.018430937081575394,0.01010802946984768,-0.008119390346109867,-0.02486763894557953,0.003778350306674838,-0.013042042031884193
0.018033670261502266,0.010673310607671738,-0.00722948182374239,-0.02506629377603531,0.003823809791356325,-0.013210485689342022
0.018086401745676994,0.01028426643460989,-0.007940913550555706,-0.02497815527021885,0.003736419603228569,-0.013298342004418373
0.01763145439326763,0.010197246447205544,-0.008051272481679916,-0.024727120995521545,0.004123099148273468,-0.013068869709968567
0.017612246796488762,0.010970295406877995,-0.0076707154512405396,-0.0247783362865448,0.0041832816787064075,-0.0130393635481596
0.018322477117180824,0.011146517470479012,-0.0072695789858698845,-0.02504311501979828,0.004002993460744619,-0.013025954365730286
0.017918318510055542,0.010546481236815453,-0.007725892588496208,-0.024763045832514763,0.0036959133576601744,-0.013252479024231434
0.018039511516690254,0.01062231045216322,-0.00763346254825592,-0.025002460926771164,0.004096400458365679,-0.013350432738661766
0.017941562458872795,0.010658455081284046,-0.0072935507632792,-0.02536514773964882,0.004152834881097078,-0.01366300880908966
0.018052401021122932,0.010972627438604832,-0.007458136882632971,-0.02513110265135765,0.004337457939982414,-0.013424334116280079
0.01816599629819393,0.010501398704946041,-0.007592958398163319,-0.025542477145791054,0.004249855875968933,-0.013639808632433414
0.01780262589454651,0.01069661881774664,-0.007306532468646765,-0.02558913640677929,0.004090507049113512,-0.013827080838382244
0.01810617744922638,0.01052970252931118,-0.00724510382860899,-0.02575070783495903,0.00401665922254324,-0.013883408159017563
0.01810617744922638,0.01052970252931118,-0.00724510382860899,-0.02575070783495903,0.00401665922254324,-0.013883408159017563
0.01848728209733963,0.010662040673196316,-0.007458651438355446,-0.025730222463607788,0.003972320351749659,-0.013957579620182514
0.017769256606698036,0.011153291910886765,-0.007464925292879343,-0.0272972509264946,0.003969702869653702,-0.013852971605956554
0.018116263672709465,0.010842690244317055,-0.007174017373472452,-0.02536594495177269,0.003975126426666975,-0.014128707349300385
0.018341731280088425,0.010606487281620502,-0.006900368258357048,-0.025197671726346016,0.003993944264948368,-0.014088550582528114
0.018282778561115265,0.010622397065162659,-0.0073287333361804485,-0.0252821147441864,0.004156482871621847,-0.014454474672675133
0.018481962382793427,0.011281568557024002,-0.007984232157468796,-0.025797156617045403,0.004340884741395712,-0.014292747713625431
0.018035737797617912,0.01084245927631855,-0.007483853027224541,-0.026244278997182846,0.004438401665538549,-0.014384078793227673
0.01824217475950718,0.010851489380002022,-0.00722390366718173,-0.026553938165307045,0.0045348964631557465,-0.014680352993309498
0.018353715538978577,0.010904542170464993,-0.008100524544715881,-0.026478368788957596,0.004134902730584145,-0.015023330226540565
0.01787850446999073,0.011025079526007175,-0.007842767052352428,-0.026368724182248116,0.0035973722115159035,-0.014783443883061409
0.018124479800462723,0.010503143072128296,-0.007527730893343687,-0.02552633173763752,0.004095925949513912,-0.014719010330736637
0.017826326191425323,0.010867002420127392,-0.006964946165680885,-0.025790724903345108,0.00441924249753356,-0.014232184737920761
0.018044516444206238,0.011106105521321297,-0.00805317796766758,-0.02701573818922043,0.00448185671120882,-0.014562193304300308
0.018037116155028343,0.010731981135904789,-0.007883665151894093,-0.026008913293480873,0.004415504634380341,-0.015053973533213139
0.01814604364335537,0.011008590459823608,-0.007665744982659817,-0.025822583585977554,0.00431361049413681,-0.015397586859762669
0.018485238775610924,0.010840279050171375,-0.006874879822134972,-0.02678508125245571,0.004382421728223562,-0.015275160782039165
0.018111741170287132,0.01080556120723486,-0.007355731446295977,-0.02681175246834755,0.004127449356019497,-0.01507533062249422
0.017957447096705437,0.011033820919692516,-0.008016780018806458,-0.026050755754113197,0.004197345115244389,-0.014832062646746635
0.01873628981411457,0.011185363866388798,-0.007114487234503031,-0.025935586541891098,0.00456299539655447,-0.015146605670452118
0.018493229523301125,0.011285793967545033,-0.007980640977621078,-0.026852069422602654,0.0043956078588962555,-0.014625764451920986
0.018800197169184685,0.011293447576463223,-0.007920332252979279,-0.027067799121141434,0.004171343054622412,-0.014776433818042278
0.01872190460562706,0.011681003496050835,-0.007474911864846945,-0.026733294129371643,0.0038383351638913155,-0.014760100282728672
0.018731161952018738,0.010596192441880703,-0.007225198205560446,-0.026952441781759262,0.0037272057961672544,-0.015279977582395077
0.01871451735496521,0.01051756925880909,-0.00781648326665163,-0.02681652456521988,0.0037234823685139418,-0.015632938593626022
0.01871451735496521,0.01051756925880909,-0.00781648326665163,-0.02681652456521988,0.0037234823685139418,-0.015632938593626022
0.01869434490799904,0.011289119720458984,-0.007499021012336016,-0.02671685256063938,0.0037036570720374584,-0.015826262533664703
0.01906311698257923,0.010761945508420467,-0.0072125596925616264,-0.026930110529065132,0.003937496338039637,-0.015654945746064186
0.019599726423621178,0.010914366692304611,-0.0073385355062782764,-0.027252595871686935,0.004039527382701635,-0.01562170498073101
0.018989909440279007,0.011749626137316227,-0.0077753509394824505,-0.027043238282203674,0.004405928310006857,-0.01564142294228077
0.019048569723963737,0.011115669272840023,-0.007742540445178747,-0.027005257084965706,0.004561218433082104,-0.016238195821642876
0.019330419600009918,0.011156121268868446,-0.007308171130716801,-0.02803153730928898,0.004668086301535368,-0.01630515791475773
0.01917395368218422,0.010914991609752178,-0.0072339558973908424,-0.026959311217069626,0.004294488579034805,-0.015848098322749138
0.018946480005979538,0.010961560532450676,-0.007669598795473576,-0.02754049189388752,0.004189821891486645,-0.01558986958116293
0.019304927438497543,0.011465094052255154,-0.007394973188638687,-0.02785295620560646,0.00418879697099328,-0.015745876356959343
0.019124528393149376,0.011026015505194664,-0.007186644244939089,-0.027576584368944168,0.004422162193804979,-0.015366164967417717
0.019485976547002792,0.010945823043584824,-0.0069578662514686584,-0.02772018313407898,0.004655377008020878,-0.01555869821459055
0.01954236999154091,0.011573031544685364,-0.007866202853620052,-0.027842659503221512,0.00467238575220108,-0.016175122931599617
0.019388549029827118,0.011260148137807846,-0.0076329680159688,-0.027935246005654335,0.005029355641454458,-0.016669925302267075
0.01953096129000187,0.01155101228505373,-0.006890700198709965,-0.027822844684123993,0.004474237561225891,-0.01670038513839245
0.019842619076371193,0.01091211661696434,-0.0069128237664699554,-0.028152508661150932,0.004365597385913134,-0.01621611788868904
0.019271790981292725,0.010879185050725937,-0.007622431498020887,-0.028209954500198364,0.004624457564204931,-0.015690911561250687
0.01918124035000801,0.011726056225597858,-0.007706416305154562,-0.028789576143026352,0.0047185709699988365,-0.016417121514678
0.01977493241429329,0.011445295996963978,-0.007056760136038065,-0.028583817183971405,0.004958661273121834,-0.01672091893851757
0.01948653906583786,0.011255363002419472,-0.006896261591464281,-0.02819395624101162,0.004706512670964003,-0.016636734828352928
0.0196482315659523,0.01133048441261053,-0.007576451636850834,-0.028427492827177048,0.004004781600087881,-0.01630321890115738
0.02008388563990593,0.010904951021075249,-0.007413527928292751,-0.02831246145069599,0.00406753970310092,-0.016660001128911972
0.01966702565550804,0.01126499380916357,-0.007206409238278866,-0.02942219376564026,0.004629846196621656,-0.01666979305446148
0.019846105948090553,0.011865545064210892,-0.007587626576423645,-0.028459109365940094,0.0046185716055333614,-0.016509275883436203
0.019846105948090553,0.011865545064210892,-0.007587626576423645,-0.028459109365940094,0.0046185716055333614,-0.016509275883436203
0.01959839276969433,0.011237683705985546,-0.00739183509722352,-0.03058074787259102,0.004392198286950588,-0.01711493916809559
0.01959839276969433,0.011237683705985546,-0.00739183509722352,-0.03058074787259102,0.004392198286950588,-0.01711493916809559
0.020647887140512466,0.012397844344377518,-0.007641666103154421,-0.029885651543736458,0.004482761025428772,-0.01654808782041073
0.020482370629906654,0.01193471159785986,-0.007648624014109373,-0.02906814031302929,0.00430609006434679,-0.01640888676047325
0.0204709991812706,0.0116262286901474,-0.0073593007400631905,-0.0301932655274868,0.004159702453762293,-0.01664571277797222
0.0204709991812706,0.0116262286901474,-0.0073593007400631905,-0.0301932655274868,0.004159702453762293,-0.01664571277797222
0.019996870309114456,0.011424352414906025,-0.00686106039211154,-0.030515804886817932,0.004413567949086428,-0.016930364072322845
0.019777463749051094,0.011759774759411812,-0.0075707826763391495,-0.029772812500596046,0.004729063715785742,-0.016650719568133354
0.02023019641637802,0.011511645279824734,-0.007501719985157251,-0.031118877232074738,0.004818721674382687,-0.016944944858551025
0.020984632894396782,0.01202172227203846,-0.007254735566675663,-0.030577754601836205,0.005146358162164688,-0.01701459474861622
0.020532874390482903,0.011690112762153149,-0.007114830426871777,-0.029556218534708023,0.004842699971050024,-0.016979165375232697
0.020329760387539864,0.011621138080954552,-0.007756133563816547,-0.028805768117308617,0.0048758196644485,-0.016852566972374916
0.020803920924663544,0.012065899558365345,-0.007606908679008484,-0.02957155369222164,0.005224314518272877,-0.016864517703652382
0.02131175994873047,0.01177672203630209,-0.007271371781826019,-0.03036278486251831,0.005109562538564205,-0.01691894792020321
0.02098654955625534,0.012309197336435318,-0.007347371429204941,-0.03026321530342102,0.004893492441624403,-0.0166196059435606
0.01996202953159809,0.011768218129873276,-0.007796829100698233,-0.03004647232592106,0.0047763860784471035,-0.017090070992708206
0.02093486487865448,0.011834951117634773,-0.00799600314348936,-0.029920443892478943,0.004934024531394243,-0.017493819817900658
0.020973950624465942,0.012061020359396935,-0.007665501907467842,-0.029929323121905327,0.004525803029537201,-0.01728161983191967
0.020588351413607597,0.011283927597105503,-0.007789064664393663,-0.02993210218846798,0.00461569894105196,-0.017361346632242203
0.020944004878401756,0.012058147229254246,-0.008540937677025795,-0.030381830409169197,0.005047827493399382,-0.017146745696663857
0.021696679294109344,0.012087257578969002,-0.008039076812565327,-0.030481059104204178,0.005298363510519266,-0.017403816804289818
0.021224983036518097,0.012116866186261177,-0.0075566708110272884,-0.030470483005046844,0.005322655197232962,-0.017301276326179504
0.01988249085843563,0.012110971845686436,-0.007524722721427679,-0.030806593596935272,0.00487240357324481,-0.01740295998752117
0.021335583180189133,0.012027444317936897,-0.007981826551258564,-0.0306044053286314,0.004496364388614893,-0.01725880056619644
0.02153674140572548,0.011794928461313248,-0.007081621792167425,-0.030777374282479286,0.004474943038076162,-0.01745627261698246
0.021335475146770477,0.012292454019188881,-0.0077607352286577225,-0.03049655631184578,0.004377545323222876,-0.018014628440141678
0.021335475146770477,0.012292454019188881,-0.0077607352286577225,-0.03049655631184578,0.004377545323222876,-0.018014628440141678
0.021165184676647186,0.012255222536623478,-0.008458212018013,-0.030578136444091797,0.004957195371389389,-0.01834776997566223
0.021702829748392105,0.01230938732624054,-0.007733013480901718,-0.03039444237947464,0.004999103490263224,-0.018259819597005844
0.02196931652724743,0.012457511387765408,-0.007500836625695229,-0.030383341014385223,0.0049156686291098595,-0.01766269840300083
0.021760564297437668,0.012206182815134525,-0.008360606618225574,-0.029694948345422745,0.004652750212699175,-0.017482737079262733
0.02185823582112789,0.0117837805300951,-0.007632650434970856,-0.031767338514328,0.004642767366021872,-0.017138460651040077
0.022194020450115204,0.01229044608771801,-0.007729401811957359,-0.03134071081876755,0.004935561213642359,-0.017547503113746643
0.022194020450115204,0.01229044608771801,-0.007729401811957359,-0.03134071081876755,0.004935561213642359,-0.017547503113746643
0.022017860785126686,0.012106928043067455,-0.008538082242012024,-0.03017287701368332,0.005522754043340683,-0.018081389367580414
0.02209656313061714,0.012148291803896427,-0.007724420167505741,-0.03043212555348873,0.005300952587276697,-0.018657436594367027
0.022444451227784157,0.012435941025614738,-0.00733544398099184,-0.0328337661921978,0.00494603393599391,-0.018069962039589882
0.02248695306479931,0.012008336372673512,-0.0071512144058942795,-0.03132736682891846,0.004663968924432993,-0.017684202641248703
0.02233915589749813,0.012801355682313442,-0.008767426945269108,-0.03194943815469742,0.004519511479884386,-0.018125325441360474
0.022454984486103058,0.01295009907335043,-0.007971012964844704,-0.033740270882844925,0.004702404607087374,-0.01846541464328766
0.022854089736938477,0.012483305297791958,-0.00738380616530776,-0.0326223224401474,0.005048644263297319,-0.018180126324295998
0.023962393403053284,0.012507420033216476,-0.007885274477303028,-0.031149759888648987,0.005407101009041071,-0.017876455560326576
0.023840710520744324,0.012393943965435028,-0.0076460447162389755,-0.03211628645658493,0.005433687474578619,-0.018009549006819725
0.022652937099337578,0.012646446004509926,-0.0072519839741289616,-0.03301924094557762,0.005307880230247974,-0.017628168687224388
0.02222755178809166,0.012112763710319996,-0.007234612945467234,-0.03350021690130234,0.004842100664973259,-0.01765594072639942
0.023319490253925323,0.012765785679221153,-0.007669128943234682,-0.033604152500629425,0.00458086421713233,-0.018296141177415848
0.024012045934796333,0.01227714866399765,-0.008431735448539257,-0.03315405175089836,0.0050529371947050095,-0.01909610629081726
0.02340639941394329,0.012635275721549988,-0.007883145473897457,-0.033082421869039536,0.005378136411309242,-0.019243372604250908
0.022939004004001617,0.012538008391857147,-0.007570927496999502,-0.03273377567529678,0.005162511952221394,-0.018950477242469788
0.023310182616114616,0.012588059529662132,-0.008251485414803028,-0.03238809108734131,0.0049234600737690926,-0.01832100935280323
0.023850155994296074,0.013698380440473557,-0.007713711354881525,-0.03305906057357788,0.00458725169301033,-0.019602997228503227
0.023857276886701584,0.012191894464194775,-0.007621125318109989,-0.03401941433548927,0.004797511734068394,-0.019430797547101974
0.023080289363861084,0.011762063950300217,-0.008233627304434776,-0.034094374626874924,0.005423824302852154,-0.01911013387143612
0.022855933755636215,0.01225760392844677,-0.007733636535704136,-0.03359495848417282,0.005298040807247162,-0.018978001549839973
0.023470770567655563,0.01228842418640852,-0.006546346936374903,-0.034319404512643814,0.00533483037725091,-0.018968645483255386
0.023470770567655563,0.01228842418640852,-0.006546346936374903,-0.034319404512643814,0.00533483037725091,-0.018968645483255386
0.023877352476119995,0.012551012448966503,-0.006566891446709633,-0.03467947244644165,0.004934500437229872,-0.019611863419413567
0.023710904642939568,0.012781587429344654,-0.007691418752074242,-0.03486592322587967,0.004851695150136948,-0.019478177651762962
0.023343980312347412,0.011621200479567051,-0.007933193817734718,-0.03485461324453354,0.005388697609305382,-0.019303549081087112
0.023112179711461067,0.012591446749866009,-0.0070261661894619465,-0.03491350635886192,0.0052338577806949615,-0.01940048485994339
0.0236209649592638,0.012271436862647533,-0.006319407839328051,-0.03487618640065193,0.005039205774664879,-0.019541114568710327
0.023140983656048775,0.012630748562514782,-0.006357759702950716,-0.03441363200545311,0.004751807544380426,-0.01958276890218258
0.02347370609641075,0.012536200694739819,-0.006991031114012003,-0.03464030846953392,0.0045843604020774364,-0.019883181899785995
0.023685365915298462,0.012169240973889828,-0.006964209023863077,-0.034744709730148315,0.0048072743229568005,-0.019550152122974396
0.02339325286448002,0.012226276099681854,-0.00642097694799304,-0.0338897742331028,0.005246524699032307,-0.019617950543761253
0.023381592705845833,0.012066606432199478,-0.007040714845061302,-0.03501038998365402,0.0053844451904296875,-0.0198992732912302
0.023133566603064537,0.012620523571968079,-0.007574738468974829,-0.03452683612704277,0.0050683822482824326,-0.01993687078356743
0.023443249985575676,0.012733887881040573,-0.006526040378957987,-0.033720992505550385,0.00549404788762331,-0.019652793183922768
0.023969382047653198,0.012552393600344658,-0.00630846107378602,-0.033629413694143295,0.005255368538200855,-0.019483651965856552
0.023762349039316177,0.012159807607531548,-0.0064790742471814156,-0.03437664732336998,0.004989056847989559,-0.01963047683238983
0.02358235791325569,0.01202364731580019,-0.00750054232776165,-0.03458593785762787,0.005268449895083904,-0.019629638642072678
0.023975934833288193,0.012888611294329166,-0.007644928526133299,-0.03466273471713066,0.005195894278585911,-0.01955917850136757
0.023702099919319153,0.01227280218154192,-0.006359546445310116,-0.035791002213954926,0.005285309161990881,-0.019366947934031487
0.02389206364750862,0.012873160652816296,-0.00625776220113039,-0.03469206392765045,0.0054273768328130245,-0.019116777926683426
0.023930929601192474,0.012231769971549511,-0.006805234123021364,-0.03339352831244469,0.005193187855184078,-0.01951068639755249
0.023998770862817764,0.01240718737244606,-0.007677723187953234,-0.03344547748565674,0.005607591010630131,-0.019844701513648033
0.02334791049361229,0.012519177980720997,-0.006733900401741266,-0.03484087809920311,0.005340845324099064,-0.01972581446170807
0.02355295419692993,0.01286796573549509,-0.006411217153072357,-0.03458147123456001,0.005902188364416361,-0.019720545038580894
0.02372320555150509,0.012968870811164379,-0.006588702090084553,-0.03448031097650528,0.005608337465673685,-0.01955743134021759
0.02369849570095539,0.012790370732545853,-0.006755781825631857,-0.03420897200703621,0.005568426568061113,-0.019748490303754807
0.02369849570095539,0.012790370732545853,-0.006755781825631857,-0.03420897200703621,0.005568426568061113,-0.019748490303754807
0.02385803684592247,0.012341867201030254,-0.0064232791773974895,-0.03425370156764984,0.005902149248868227,-0.01969372108578682
0.02365598827600479,0.01323622278869152,-0.006816159933805466,-0.034500833600759506,0.0056503042578697205,-0.019347267225384712
0.02353234775364399,0.012939453125,-0.007466817274689674,-0.03458300977945328,0.005779522471129894,-0.02006388269364834
0.023631539195775986,0.013178574852645397,-0.007440837100148201,-0.03467056155204773,0.0053696702234447,-0.020830828696489334
0.02415117807686329,0.012882748618721962,-0.007059297524392605,-0.03432917222380638,0.005471975542604923,-0.020600929856300354
0.02392183244228363,0.012655201368033886,-0.007051399908959866,-0.03484540060162544,0.005631597246974707,-0.019966140389442444
0.023799315094947815,0.01279625203460455,-0.006935353856533766,-0.03520667925477028,0.005708619952201843,-0.020578492432832718
0.02415667474269867,0.012514728121459484,-0.007469409145414829,-0.03572757914662361,0.005370904225856066,-0.019918734207749367
0.023562077432870865,0.012854151427745819,-0.007433583028614521,-0.03583599999547005,0.005679565016180277,-0.01926732063293457
0.023516353219747543,0.012326722033321857,-0.006872226018458605,-0.0357014499604702,0.0053530908189713955,-0.019578665494918823
0.023813635110855103,0.013017340563237667,-0.006866243667900562,-0.036598823964595795,0.0054300022311508656,-0.02051015943288803
0.02384740114212036,0.012667776085436344,-0.007483482360839844,-0.036132849752902985,0.005529545247554779,-0.02075977995991707
0.023395193740725517,0.012986716814339161,-0.007328144274652004,-0.036148879677057266,0.005581240635365248,-0.020057743415236473
0.023182444274425507,0.012754211202263832,-0.0070784990675747395,-0.037706002593040466,0.005728593096137047,-0.019925273954868317
0.023632870987057686,0.012676539830863476,-0.007117952220141888,-0.036805570125579834,0.005489638540893793,-0.02048559859395027
0.024245573207736015,0.013268779031932354,-0.007664070464670658,-0.034875866025686264,0.005677725188434124,-0.02089110016822815
0.02443922869861126,0.01281699724495411,-0.008099449798464775,-0.03603391721844673,0.005586847197264433,-0.020385950803756714
0.02381179854273796,0.013348093256354332,-0.0072453636676073074,-0.036039937287569046,0.005750578828155994,-0.020285749807953835
0.023248540237545967,0.012977751903235912,-0.006901853252202272,-0.03728388249874115,0.005897061433643103,-0.019648510962724686
0.023406829684972763,0.013272556476294994,-0.008344638161361217,-0.037439413368701935,0.005934493150562048,-0.019712166860699654
0.02408725582063198,0.012979007326066494,-0.006943379994481802,-0.036174193024635315,0.006082597188651562,-0.02029886096715927
0.024031488224864006,0.013366787694394588,-0.006742214318364859,-0.03577418625354767,0.005784818436950445,-0.020545639097690582
0.024003440514206886,0.01286537479609251,-0.007471296004951,-0.03709926828742027,0.005667280405759811,-0.02069265767931938
0.024003440514206886,0.01286537479609251,-0.007471296004951,-0.03709926828742027,0.005667280405759811,-0.02069265767931938
0.024598516523838043,0.0132629768922925,-0.007653689477592707,-0.03711147978901863,0.005663157906383276,-0.020962238311767578
0.024028727784752846,0.013392787426710129,-0.007023951970040798,-0.03726431727409363,0.0053252181969583035,-0.02068697288632393
0.024096857756376266,0.01338640134781599,-0.006801664363592863,-0.03765552490949631,0.005354975815862417,-0.02077634260058403
0.02364185079932213,0.012693259865045547,-0.007483270950615406,-0.03771195188164711,0.005552801303565502,-0.021310918033123016
0.02401014417409897,0.013108721002936363,-0.0073075564578175545,-0.03808138146996498,0.005437310319393873,-0.020938558503985405
0.025025850161910057,0.013195684179663658,-0.007124374620616436,-0.03757941350340843,0.005585603415966034,-0.020953301340341568
0.02465030737221241,0.0136359091848135,-0.007173344027251005,-0.03734039142727852,0.005969109013676643,-0.020832935348153114
0.024244271218776703,0.01345805637538433,-0.007589773740619421,-0.03802765905857086,0.005981317721307278,-0.0208495631814003
0.024218091741204262,0.013757677748799324,-0.007256027311086655,-0.03789021074771881,0.005678766407072544,-0.021098807454109192
0.02465115115046501,0.013247257098555565,-0.007057115435600281,-0.038033679127693176,0.005548818502575159,-0.02102450653910637
0.02489490993320942,0.01366183441132307,-0.007223870605230331,-0.03835538402199745,0.005652244668453932,-0.02100735530257225
0.024627506732940674,0.013228490948677063,-0.00773435877636075,-0.03827030956745148,0.00565234525129199,-0.021129729226231575
0.024945205077528954,0.013581594452261925,-0.007323246914893389,-0.03825638070702553,0.005713210441172123,-0.020989861339330673
0.02464815229177475,0.013309846632182598,-0.007171414792537689,-0.0387411005795002,0.0057460591197013855,-0.021135544404387474
0.024862807244062424,0.013304678723216057,-0.007017355877906084,-0.038717593997716904,0.006242091301828623,-0.021546699106693268
0.024761062115430832,0.013623541221022606,-0.007322068326175213,-0.03846267983317375,0.006468069273978472,-0.021757811307907104
0.024850253015756607,0.013501967303454876,-0.007412531413137913,-0.03820531815290451,0.006061886437237263,-0.02140815183520317
0.025195760652422905,0.013524319045245647,-0.007337888702750206,-0.039220213890075684,0.005581352394074202,-0.02129867486655712
0.025276755914092064,0.012911849655210972,-0.0072457436472177505,-0.03918810933828354,0.005521052982658148,-0.021827325224876404
0.02491307444870472,0.013515913859009743,-0.007873674854636192,-0.037042368203401566,0.006166517268866301,-0.021465210244059563
0.025154057890176773,0.013424945063889027,-0.007445178460329771,-0.03688341751694679,0.006596432998776436,-0.021501297131180763
0.025623636320233345,0.013822498731315136,-0.006885176058858633,-0.038004305213689804,0.0061740875244140625,-0.02191058173775673
0.025864332914352417,0.013489398173987865,-0.007225937210023403,-0.038584280759096146,0.005732456222176552,-0.02182198502123356
0.025589555501937866,0.014369876123964787,-0.00780150480568409,-0.040058381855487823,0.005594376940280199,-0.021570172160863876
0.024975432083010674,0.013370901346206665,-0.007837919518351555,-0.038826607167720795,0.005597615614533424,-0.02179226279258728
0.02545182965695858,0.014291021972894669,-0.007002732716500759,-0.03765217959880829,0.005851862486451864,-0.02248905599117279
0.025835145264863968,0.01399435754865408,-0.0072104791179299355,-0.03893842175602913,0.00629044882953167,-0.02316092886030674
0.02567162550985813,0.013543942011892796,-0.0076343948021531105,-0.03967777267098427,0.006088986061513424,-0.022656483575701714
0.02567162550985813,0.013543942011892796,-0.0076343948021531105,-0.03967777267098427,0.006088986061513424,-0.022656483575701714
0.026469776406884193,0.013544073328375816,-0.007716355379670858,-0.04016397148370743,0.006234270520508289,-0.021350260823965073
0.02658791095018387,0.01354680210351944,-0.006675008684396744,-0.04013046994805336,0.006151242647320032,-0.021463166922330856
0.025760041549801826,0.013605335727334023,-0.00662034098058939,-0.04061196744441986,0.006177621893584728,-0.02246745675802231
0.02558012679219246,0.01408600714057684,-0.00706442492082715,-0.04024530202150345,0.006423011422157288,-0.022548217326402664
0.025391876697540283,0.014041842892765999,-0.006954100448638201,-0.03994453698396683,0.006438215263187885,-0.022206254303455353
0.02624182589352131,0.013741107657551765,-0.006998843047767878,-0.040400367230176926,0.006211601663380861,-0.022719256579875946
0.02669435366988182,0.013694836758077145,-0.006603374145925045,-0.040694255381822586,0.006229625083506107,-0.02332327328622341
0.02654571644961834,0.013734014704823494,-0.007278375327587128,-0.040716446936130524,0.006374516058713198,-0.023496074602007866
0.026850247755646706,0.01335879322141409,-0.006800674367696047,-0.04058285802602768,0.005848326254636049,-0.02267710492014885
0.026766899973154068,0.014009291306138039,-0.0065489765256643295,-0.041075143963098526,0.0058377403765916824,-0.02221147157251835
0.026816409081220627,0.01363401859998703,-0.006541016511619091,-0.04185134544968605,0.005800578743219376,-0.022309571504592896
0.0272219255566597,0.013731494545936584,-0.007526294328272343,-0.043292127549648285,0.0062290383502841,-0.022710852324962616
0.026981979608535767,0.013288852758705616,-0.007649583276361227,-0.04150530323386192,0.006289503537118435,-0.023242535069584846
0.026695292443037033,0.014354124665260315,-0.0066523985005915165,-0.04253004118800163,0.0058935158886015415,-0.023089168593287468
0.026989515870809555,0.013543627224862576,-0.006368632894009352,-0.04378506541252136,0.005919602699577808,-0.023004498332738876
0.02725871652364731,0.013585951179265976,-0.0068287779577076435,-0.04199358448386192,0.0059740059077739716,-0.022936390712857246
0.027002068236470222,0.013139716349542141,-0.007428706157952547,-0.04237206280231476,0.00617981655523181,-0.02279333770275116
0.027153870090842247,0.013816533610224724,-0.006926555652171373,-0.043069031089544296,0.006098268087953329,-0.02283959835767746
0.02715351991355419,0.013503898866474628,-0.006528595462441444,-0.04421616718173027,0.006205874029546976,-0.022833362221717834
0.02753845974802971,0.014187529683113098,-0.0068600415252149105,-0.04502745717763901,0.006143953651189804,-0.022785566747188568
0.02767643891274929,0.013790899887681007,-0.0073501719161868095,-0.042538926005363464,0.006602161098271608,-0.022874638438224792
0.027868295088410378,0.014173495583236217,-0.007073333486914635,-0.04322752729058266,0.006857924163341522,-0.023458082228899002
0.027818715199828148,0.013858482241630554,-0.006556839216500521,-0.04416967183351517,0.006344096269458532,-0.02344011329114437
0.028020672500133514,0.014050831086933613,-0.006420430727303028,-0.044379062950611115,0.006353162694722414,-0.02342568337917328
0.028060611337423325,0.013865427114069462,-0.00723674800246954,-0.04418174922466278,0.006048791576176882,-0.023102110251784325
0.028160160407423973,0.013848206959664822,-0.0071325721219182014,-0.0440543070435524,0.006203485187143087,-0.02387678436934948
0.028160160407423973,0.013848206959664822,-0.0071325721219182014,-0.0440543070435524,0.006203485187143087,-0.02387678436934948
0.028156237676739693,0.013740820810198784,-0.0073182471096515656,-0.04387443885207176,0.006246858276426792,-0.023629534989595413
0.028275279328227043,0.013986552134156227,-0.0077117811888456345,-0.043544966727495193,0.006613333243876696,-0.02362365834414959
0.0281264279037714,0.013805442489683628,-0.007453104481101036,-0.043331995606422424,0.006630307994782925,-0.0239200871437788
0.02863960899412632,0.014167270623147488,-0.006805773824453354,-0.04311959072947502,0.0063730464316904545,-0.02325296401977539
0.028489060699939728,0.013553529977798462,-0.0068123009987175465,-0.04377572983503342,0.00764348404482007,-0.02382979728281498
0.02827039174735546,0.01396704651415348,-0.007458588108420372,-0.044349320232868195,0.006856425199657679,-0.023955468088388443
0.028485789895057678,0.01358063891530037,-0.008094257675111294,-0.04387830197811127,0.006407634355127811,-0.02442294731736183
0.02851487137377262,0.014207792468369007,-0.006786942016333342,-0.04299581050872803,0.006430651061236858,-0.024486880749464035
0.028604505583643913,0.013657820411026478,-0.006466217339038849,-0.04324035719037056,0.006276967469602823,-0.024806763976812363
0.028631014749407768,0.014189708046615124,-0.007171940058469772,-0.04324241355061531,0.006329901050776243,-0.024841567501425743
0.028831010684370995,0.013688378036022186,-0.007411198224872351,-0.04294925183057785,0.006781365722417831,-0.02448849007487297
0.029086388647556305,0.013921198435127735,-0.006993942894041538,-0.04303790628910065,0.006700028199702501,-0.02433728612959385
0.028873438015580177,0.01379298698157072,-0.006851993966847658,-0.04462355375289917,0.006309155374765396,-0.02426610141992569
0.028611768037080765,0.014349669218063354,-0.00716012017801404,-0.04383000358939171,0.00632363511249423,-0.02425108291208744
0.02925640530884266,0.014199580065906048,-0.008030290715396404,-0.04309197515249252,0.005759142339229584,-0.02443496510386467
0.029654517769813538,0.014244277030229568,-0.007133096922188997,-0.04400435462594032,0.005800712388008833,-0.024086924269795418
0.029183099046349525,0.013725945726037025,-0.006486453581601381,-0.044389232993125916,0.006425564177334309,-0.02384343557059765
0.028602978214621544,0.014216238632798195,-0.006896434351801872,-0.04590776562690735,0.006258973851799965,-0.024149974808096886
0.02830098196864128,0.01366000808775425,-0.00762561522424221,-0.0440506748855114,0.006017014384269714,-0.02500159665942192
0.02923802100121975,0.014337361790239811,-0.00748023297637701,-0.04468473047018051,0.0061003477312624454,-0.02575279027223587
0.029163431376218796,0.013969157822430134,-0.007097449619323015,-0.04608847200870514,0.006936846300959587,-0.025043170899152756
0.0290400218218565,0.014789829961955547,-0.006723050493746996,-0.046223677694797516,0.006691229064017534,-0.02437661401927471
0.029681235551834106,0.014000295661389828,-0.007383085321635008,-0.04603302851319313,0.006523741874843836,-0.02423151396214962
0.0300605371594429,0.014392759650945663,-0.007217206060886383,-0.04615263268351555,0.006166787352412939,-0.024363864213228226
0.02796306647360325,0.014287656173110008,-0.007330693770200014,-0.0466889962553978,0.006600622087717056,-0.02500750683248043
0.028791258111596107,0.01391345914453268,-0.008235260844230652,-0.046853601932525635,0.006734287366271019,-0.025315267965197563
0.028791258111596107,0.01391345914453268,-0.008235260844230652,-0.046853601932525635,0.006734287366271019,-0.025315267965197563
0.030379073694348335,0.014313941821455956,-0.007841491140425205,-0.04676656797528267,0.0069377971813082695,-0.025883514434099197
0.02965446002781391,0.013762031681835651,-0.006829353049397469,-0.04708090424537659,0.00702129490673542,-0.02584916725754738
0.029627691954374313,0.01443663239479065,-0.007097714114934206,-0.047372281551361084,0.006920493673533201,-0.02492167241871357
0.029912151396274567,0.014020098373293877,-0.007730347104370594,-0.04810165986418724,0.00690788310021162,-0.024109046906232834
