davideferrari95/blind_handover_controller/data/Test 116 - [2024-02-07 -- 16-29-02]/joint_states_data.csv
shoulder_pan_joint,shoulder_lift_joint,elbow_joint,wrist_1_joint,wrist_2_joint,wrist_3_joint
0.005921138916164637,0.0067285471595823765,-0.009679305367171764,0.004770818166434765,0.00012664591486100107,0.004393760580569506
0.005921138916164637,0.0067285471595823765,-0.009679305367171764,0.004770818166434765,0.00012664591486100107,0.004393760580569506
0.005071574356406927,0.00703144958242774,-0.010157439857721329,0.004853104706853628,0.00012470150250010192,0.004621139261871576
0.00475756311789155,0.006810581311583519,-0.009055893868207932,0.004731674678623676,0.00012231714208610356,0.004277677740901709
0.005097272805869579,0.006566244643181562,-0.009809529408812523,0.004319724626839161,0.00011998977424809709,0.004377419129014015
0.005015342961996794,0.0072058336809277534,-0.010545872151851654,0.004377652890980244,0.00011774722224799916,0.0045044319704174995
0.005002800840884447,0.006770588457584381,-0.009785770438611507,0.004228392615914345,0.00011558696132851765,0.00462182005867362
0.00568271754309535,0.006992435082793236,-0.009163551963865757,0.004015605431050062,0.0001286412589251995,0.004232044797390699
0.005106903146952391,0.006695430260151625,-0.00998973473906517,0.0040838285349309444,0.00012735326890833676,0.0039405194111168385
0.004478875081986189,0.006832152139395475,-0.00978285726159811,0.0038750027306377888,0.00012520315067376941,0.004221869632601738
0.0044591398909688,0.007224171422421932,-0.009638654999434948,0.0035187224857509136,0.00012306729331612587,0.0043070362880826
0.005087787751108408,0.007446327246725559,-0.010003049857914448,0.0033585175406187773,0.00011899953096872196,0.004182910080999136
0.0050446391105651855,0.007044966798275709,-0.009906776249408722,0.003550322027876973,0.00011706461373250932,0.004250266123563051
0.004860636778175831,0.006581688299775124,-0.010456932708621025,0.0037081781774759293,0.00013610745372716337,0.004014131613075733
0.004628720227628946,0.007241505663841963,-0.00962213147431612,0.0036913456860929728,0.00013506502727977931,0.004287541378289461
0.004589219111949205,0.006955182179808617,-0.009331624954938889,0.0037108222022652626,0.00013132185267750174,0.00452418765053153
0.004611452575773001,0.006463830824941397,-0.010289102792739868,0.0035170665942132473,0.00012761054676957428,0.00471349386498332
0.004711524583399296,0.006906244438141584,-0.0096865464001894,0.003393425140529871,0.00012409212649799883,0.00471980357542634
0.0051511554047465324,0.0070156073197722435,-0.009423166513442993,0.0031824554316699505,0.00012076179700670764,0.004904022440314293
0.0048943618312478065,0.007268474902957678,-0.010521168820559978,0.0031298368703573942,0.00011760579945985228,0.004799622111022472
0.0048943618312478065,0.007268474902957678,-0.010521168820559978,0.0031298368703573942,0.00011760579945985228,0.004799622111022472
0.004513019695878029,0.0067026661708951,-0.009156488813459873,0.0031999724451452494,0.00011461010581115261,0.004454737063497305
0.004876554012298584,0.0063564530573785305,-0.009798525832593441,0.0035625379532575607,0.00011176354018971324,0.00410446897149086
0.004891764372587204,0.0069795032031834126,-0.010148298926651478,0.00393743347376585,0.00010905489762080833,0.004462857730686665
0.004443638026714325,0.007328329607844353,-0.009723984636366367,0.003959424793720245,0.00010647444287315011,0.004407361149787903
0.004476765636354685,0.007084895856678486,-0.009875412099063396,0.0035976720973849297,0.00012208159023430198,0.0043359845876693726
0.00506938248872757,0.00694468105211854,-0.009763840585947037,0.0036171209067106247,0.00012181758211227134,0.004449758678674698
0.0049973055720329285,0.006702025420963764,-0.009146245196461678,0.0033921548165380955,0.00011928907042602077,0.004503199364989996
0.004372395575046539,0.007087338715791702,-0.008917747996747494,0.003498269710689783,0.0001167213122243993,0.003895379835739732
0.004323939792811871,0.007111516315490007,-0.009777355939149857,0.0032741643954068422,0.00011425219418015331,0.0035563914570957422
0.004586305469274521,0.006750632543116808,-0.010156696662306786,0.0034396795090287924,0.0001118849977501668,0.003925781697034836
0.0041694073006510735,0.006884572096168995,-0.00905619002878666,0.003316276241093874,0.00010961384396068752,0.004261244088411331
0.004439270123839378,0.0073244147934019566,-0.009874296374619007,0.0034399128053337336,0.00010743307211669162,0.004585981369018555
0.0046473098918795586,0.007084657438099384,-0.009057235904037952,0.004084943328052759,0.00010533724707784131,0.004529030993580818
0.0046310629695653915,0.006661201361566782,-0.00884132832288742,0.003766212146729231,0.00010332177771488205,0.004261677153408527
0.004688149783760309,0.006553862243890762,-0.009639447554945946,0.003509814850986004,0.00010138197103515267,0.004296710714697838
0.004640703089535236,0.007033065892755985,-0.009512094780802727,0.0034314736258238554,9.951363608706743e-05,0.004075223114341497
0.0046365465968847275,0.007300923578441143,-0.009173288010060787,0.0036334034521132708,0.00011291543341940269,0.004376642405986786
0.005090037826448679,0.006692788563668728,-0.009244869463145733,0.0038624336011707783,0.00011001223901985213,0.004500305280089378
0.0049562412314116955,0.007097531110048294,-0.009015732444822788,0.004226361867040396,0.00010812830441864207,0.004631521180272102
0.0048035322688519955,0.007354638539254665,-0.00934555847197771,0.004188027232885361,0.00010630395991029218,0.004477142821997404
0.00469923485070467,0.006998325698077679,-0.009269346483051777,0.0036602546460926533,0.00010454009316163138,0.004444574471563101
0.004536314867436886,0.006576424930244684,-0.008936443366110325,0.0033827454317361116,0.00010283363371854648,0.004139073193073273
0.004714244976639748,0.007840590551495552,-0.00904762838035822,0.003356347559019923,0.00010118211503140628,0.003964193165302277
0.00479471031576395,0.007142230868339539,-0.009549504145979881,0.003394810250028968,9.958270675269887e-05,0.003881307551637292
0.004871546756476164,0.007270091213285923,-0.009258953854441643,0.003562262514606118,9.803338616620749e-05,0.004325052723288536
0.00518225459381938,0.007261382415890694,-0.008908047340810299,0.0037245769053697586,9.653113374952227e-05,0.004594253376126289
0.004665482323616743,0.007067508064210415,-0.009455586783587933,0.0038032778538763523,9.507424692856148e-05,0.005040552467107773
0.004533209837973118,0.007466316223144531,-0.00908992625772953,0.004117284901440144,9.366084123030305e-05,0.004578680731356144
0.004489222541451454,0.007003671023994684,-0.008623401634395123,0.0040170904248952866,9.878372657112777e-05,0.004517723340541124
0.004989071283489466,0.006491539534181356,-0.009527072310447693,0.00386296515353024,0.00010351339005865157,0.004268118180334568
0.004989071283489466,0.006491539534181356,-0.009527072310447693,0.00386296515353024,0.00010351339005865157,0.004268118180334568
0.005258194170892239,0.006615645717829466,-0.00860342662781477,0.003592695575207472,0.00010103119711857289,0.004177017603069544
0.004993931856006384,0.006714732851833105,-0.00889603141695261,0.003478518221527338,9.963461343431845e-05,0.00502401776611805
0.004993931856006384,0.006714732851833105,-0.00889603141695261,0.003478518221527338,9.963461343431845e-05,0.00502401776611805
0.004554368555545807,0.006418086588382721,-0.008820547722280025,0.003725780639797449,9.827474423218518e-05,0.004672900307923555
0.00459342822432518,0.006474690977483988,-0.008471859619021416,0.004264315590262413,9.695169137557968e-05,0.004059984348714352
0.005043064244091511,0.0068285842426121235,-0.00882751028984785,0.0040002805180847645,9.56633739406243e-05,0.003791862865909934
0.00500924326479435,0.0070077115669846535,-0.009245217777788639,0.003836085321381688,9.440899884793907e-05,0.0037500597536563873
0.004682662431150675,0.0067976475693285465,-0.008770817890763283,0.0038744567427784204,9.318712545791641e-05,0.0042168451473116875
0.004602278117090464,0.006537353619933128,-0.008771070279181004,0.0035286303609609604,9.199635678669438e-05,0.004216813948005438
0.004689325112849474,0.006577401887625456,-0.009573551826179028,0.0034638955257833004,9.08359870663844e-05,0.00423455098643899
0.00472741574048996,0.006873155012726784,-0.00968223623931408,0.003470993833616376,8.97043792065233e-05,0.004315395839512348
0.004825664218515158,0.0068060532212257385,-0.008732625283300877,0.003660382004454732,8.860050729708746e-05,0.004433528520166874
0.00518238777294755,0.006900743115693331,-0.009180864319205284,0.003801897633820772,8.752344729145989e-05,0.004147639498114586
0.004930644296109676,0.006368815898895264,-0.00897672027349472,0.003736844751983881,8.647239155834541e-05,0.004395463969558477
0.0049733505584299564,0.00657498836517334,-0.009364813566207886,0.003532524686306715,8.54426107252948e-05,0.00418669730424881
0.0047941734082996845,0.006565413903445005,-0.009451521560549736,0.0032429168932139874,8.240928582381457e-05,0.0037842628080397844
0.005249501671642065,0.0063340081833302975,-0.008922959677875042,0.0037073534913361073,8.092750795185566e-05,0.003734308062121272
0.005473128519952297,0.006610627751797438,-0.009607678279280663,0.003469781717285514,7.949797145556659e-05,0.004119144752621651
0.004959911573678255,0.006635875906795263,-0.010335396975278854,0.003481687279418111,7.811784598743543e-05,0.004162069410085678
0.004868780262768269,0.006324692163616419,-0.0093119191005826,0.003597873030230403,7.678465772187337e-05,0.004241941496729851
0.004785597324371338,0.006011000834405422,-0.009796836413443089,0.0037764301523566246,7.549658766947687e-05,0.004253920633345842
0.004665343090891838,0.006263048388063908,-0.009613178670406342,0.0034264945425093174,7.425095827784389e-05,0.003984503448009491
0.005130255129188299,0.00679191155359149,-0.008977074176073074,0.0033169749658554792,7.304565951926634e-05,0.004186864010989666
0.005510359071195126,0.006860395427793264,-0.009969955310225487,0.003285867627710104,7.18788942322135e-05,0.004161733668297529
0.0051772757433354855,0.006240350194275379,-0.010018316097557545,0.003570917760953307,7.074879249557853e-05,0.004018025938421488
0.0048173838295042515,0.0062455483712255955,-0.009564283303916454,0.003426743671298027,6.965370994294062e-05,0.004376744851469994
0.004793495871126652,0.006552550941705704,-0.009729066863656044,0.0035299735609441996,6.859199493192136e-05,0.004150339402258396
0.004870158154517412,0.006526227109134197,-0.009875240735709667,0.003682083450257778,6.756217044312507e-05,0.004467952996492386
0.0051462166011333466,0.006226611789315939,-0.009299887344241142,0.0037449663504958153,6.656286132056266e-05,0.004189297091215849
0.0051462166011333466,0.006226611789315939,-0.009299887344241142,0.0037449663504958153,6.656286132056266e-05,0.004189297091215849
0.005595399998128414,0.006529714912176132,-0.009848739951848984,0.003671938320621848,6.559258326888084e-05,0.004227401688694954
0.005016602110117674,0.006241342052817345,-0.009614869952201843,0.0036671061534434557,6.465031037805602e-05,0.004076740238815546
0.004808071069419384,0.006330268923193216,-0.009440414607524872,0.003414774779230356,6.373460928443819e-05,0.004266293719410896
0.005235421936959028,0.0065925526432693005,-0.01004184503108263,0.0032966516446322203,7.37727532396093e-05,0.004081893712282181
0.0050729489885270596,0.006325404159724712,-0.009853358380496502,0.0030614607967436314,7.426762022078037e-05,0.0038666371256113052
0.005521111655980349,0.005609468556940556,-0.009358418174088001,0.0032722412142902613,7.33572815079242e-05,0.004279772285372019
0.00523325614631176,0.00652279844507575,-0.009966842830181122,0.0035531208850443363,7.238046964630485e-05,0.00415997626259923
0.005277629941701889,0.006937849801033735,-0.009698702953755856,0.003646351397037506,7.142360118450597e-05,0.003970345947891474
0.005266528110951185,0.0065494864247739315,-0.009388914331793785,0.0034964215010404587,7.049128180369735e-05,0.003924794029444456
0.004895336460322142,0.006195869762450457,-0.010443554259836674,0.003526535350829363,6.9582907599397e-05,0.0041950540617108345
0.005454933736473322,0.006225289311259985,-0.010020449757575989,0.0036627594381570816,6.869778007967398e-05,0.004300879780203104
0.005350582767277956,0.006295793689787388,-0.00935190636664629,0.003740688320249319,6.78347860230133e-05,0.004098865203559399
0.005555258598178625,0.006647463422268629,-0.0091035645455122,0.003492208896204829,6.61722879158333e-05,0.003812223905697465
0.00516832759603858,0.00643563736230135,-0.01023881882429123,0.0036291296128183603,6.537122681038454e-05,0.0034552437718957663
0.004759891889989376,0.005930623039603233,-0.01033800095319748,0.0034162686206400394,6.458938150899485e-05,0.0034463913179934025
0.005110695026814938,0.006265159696340561,-0.00945922639220953,0.0036031717900186777,6.382590072462335e-05,0.00368467066437006
0.0053412532433867455,0.006272558122873306,-0.009102619253098965,0.004170214291661978,6.308034062385559e-05,0.0042237103916704655
0.005686660297214985,0.006048284936696291,-0.00986400805413723,0.004308808129280806,6.235201726667583e-05,0.004198741167783737
0.005387594923377037,0.005839589983224869,-0.010198879055678844,0.0037732147611677647,6.164026854094118e-05,0.003933564759790897
0.005289017688483,0.005996368359774351,-0.009558808989822865,0.0031241290271282196,6.094460695749149e-05,0.0037475177086889744
0.004994862247258425,0.006141165271401405,-0.009971322491765022,0.00298573006875813,6.0264457715675235e-05,0.0036796333733946085
0.005315491929650307,0.006638975348323584,-0.010075445286929607,0.0031698853708803654,5.959934424026869e-05,0.0037222751416265965
0.005631621927022934,0.006024906411767006,-0.009430015459656715,0.0035922573879361153,3.891411324730143e-06,0.004121497273445129
0.005985652562230825,0.005725459195673466,-0.009493592195212841,0.0033666205126792192,2.540813568430167e-07,0.004209681414067745
0.0053469343110919,0.005360444076359272,-0.00975233968347311,0.003301056334748864,1.6589698503821637e-08,0.004319396801292896
0.0053469343110919,0.005360444076359272,-0.00975233968347311,0.003301056334748864,1.6589698503821637e-08,0.004319396801292896
0.004949609749019146,0.005702333990484476,-0.00949900597333908,0.00326736131682992,1.0831886498863241e-09,0.0037548630498349667
0.005194263067096472,0.006519014947116375,-0.009737525135278702,0.003149634227156639,7.072448182654512e-11,0.003508153138682246
0.0054463790729641914,0.005840893369168043,-0.009769430384039879,0.00347271584905684,4.617803535389431e-12,0.0035525548737496138
0.0060915276408195496,0.0058479392901062965,-0.009148810990154743,0.003602932672947645,3.015095497490433e-13,0.003724511945620179
0.005644063465297222,0.005360145587474108,-0.010258745402097702,0.003685061587020755,1.9686419581630386e-14,0.004086982924491167
0.005797554738819599,0.006007693707942963,-0.009794002398848534,0.003693179227411747,1.285382450095531e-15,0.0041156671941280365
0.0052401041612029076,0.005942311137914658,-0.009142657741904259,0.003532910719513893,8.392628758011202e-17,0.003992329817265272
0.005466611590236425,0.0063076503574848175,-0.009030605666339397,0.0034275432117283344,5.47978700803309e-18,0.003489802358672023
0.005762071814388037,0.005573187954723835,-0.009691392071545124,0.0033195980358868837,3.5779092520158283e-19,0.0033095472026616335
0.006261818110942841,0.005239225924015045,-0.009586206637322903,0.003299289382994175,2.336118962328286e-20,0.003271990455687046
0.005690154619514942,0.005504046566784382,-0.009687226265668869,0.0034048869274556637,1.525318727141278e-21,0.0035989468451589346
0.005634021479636431,0.006280338391661644,-0.010129937902092934,0.003602523123845458,9.95924144849299e-23,0.0038531601894646883
0.0059875003062188625,0.005575224757194519,-0.008953660726547241,0.0035232924856245518,4.245781033063044e-25,0.003427914110943675
0.006288566626608372,0.005750380922108889,-0.010172897949814796,0.0035716965794563293,2.772191881968347e-26,0.0034967130050063133
0.005767461843788624,0.005450523924082518,-0.009225612506270409,0.003708895994350314,1.810043272959556e-27,0.0032933347392827272
0.005828981287777424,0.005851782858371735,-0.009514134377241135,0.0037311865016818047,1.1818288547799987e-28,0.003044480225071311
0.005817234981805086,0.006402222439646721,-0.010688296519219875,0.003746697911992669,7.716497871340122e-30,0.0029335725121200085
0.006368783302605152,0.006088028661906719,-0.009321191348135471,0.0037324726581573486,5.0383220720876715e-31,0.003299717791378498
0.006307138130068779,0.005957844667136669,-0.00963218417018652,0.0037371846847236156,3.2896638463199766e-32,0.0037187119014561176
0.006232535466551781,0.006030146963894367,-0.009829484857618809,0.003520186059176922,2.1479154403843015e-33,0.003715819912031293
0.006104073487222195,0.006165988277643919,-0.00928325206041336,0.0034568505361676216,1.40243512947992e-34,0.003463313216343522
0.006642397493124008,0.006688722409307957,-0.009288682602345943,0.003410960081964731,9.156900102757774e-36,0.003215708304196596
0.006824023090302944,0.006238982081413269,-0.009798272512853146,0.0033714394085109234,5.978801103417168e-37,0.0034153673332184553
0.0064089312218129635,0.00591211998835206,-0.00926187913864851,0.003562277415767312,3.903729975164061e-38,0.003737927647307515
0.006302323658019304,0.006030053365975618,-0.008871814236044884,0.0037254318594932556,2.548856809222018e-39,0.0035161487758159637
0.006273237988352776,0.0059152087196707726,-0.01004428043961525,0.0036692828871309757,1.6642240951860825e-40,0.003311967011541128
0.006273237988352776,0.0059152087196707726,-0.01004428043961525,0.0036692828871309757,1.6642240951860825e-40,0.003311967011541128
0.0071395826525986195,0.006385176442563534,-0.009116134606301785,0.0036723909433931112,1.0865668292374632e-41,0.0031601544469594955
0.006312812678515911,0.00600151252001524,-0.009548291563987732,0.0033562753815203905,4.624284932271896e-44,0.003766097594052553
0.006312812678515911,0.00600151252001524,-0.009548291563987732,0.0033562753815203905,4.624284932271896e-44,0.003766097594052553
0.006139446049928665,0.006002229172736406,-0.009375723078846931,0.003377363784238696,2.802596928649634e-45,0.0035042704548686743
0.006293155252933502,0.006094338372349739,-0.00912981852889061,0.003424047725275159,0.0,0.003555909264832735
0.006800209172070026,0.006106045562773943,-0.009391134604811668,0.0037625585682690144,0.0,0.0037297653034329414
0.006856304593384266,0.006115328520536423,-0.009570992551743984,0.004089318215847015,0.0,0.0034057623706758022
0.006767325568944216,0.006003474351018667,-0.009044036269187927,0.0038341779727488756,0.0,0.0035364017821848392
0.006215403787791729,0.006126852706074715,-0.010274067521095276,0.0034894223790615797,0.0,0.003280022880062461
0.006723265629261732,0.006538293324410915,-0.009228358045220375,0.0033957362174987793,5.3645941079594195e-05,0.003313294844701886
0.006910871248692274,0.006177952978760004,-0.008981814607977867,0.0034287194721400738,5.663468618877232e-05,0.003291473491117358
0.006727383937686682,0.006298094522207975,-0.008705195970833302,0.0036149860825389624,5.616706039290875e-05,0.0034789086785167456
0.0066639999859035015,0.006287837866693735,-0.009116041474044323,0.0036590411327779293,5.481519838212989e-05,0.0035029826685786247
0.0070509277284145355,0.006184278056025505,-0.009049701504409313,0.0040884604677557945,5.4155596444616094e-05,0.0032826485112309456
0.006460046395659447,0.006537645123898983,-0.00969635508954525,0.004159132484346628,5.351165236788802e-05,0.003075812477618456
0.006066836882382631,0.006675513461232185,-0.010020560584962368,0.003923933021724224,5.288277316140011e-05,0.0030842176638543606
0.006428904831409454,0.006271548569202423,-0.008758542127907276,0.003796855453401804,5.226855864748359e-05,0.00292217661626637
0.007012770976871252,0.006272805854678154,-0.00923989899456501,0.0038122928235679865,5.166840128367767e-05,0.002785344608128071
0.007002715021371841,0.006478250026702881,-0.008935096673667431,0.003953259903937578,5.108187542646192e-05,0.0025714319199323654
0.006648940499871969,0.006097038276493549,-0.009213931858539581,0.0035404935479164124,5.0508544518379495e-05,0.002623847918584943
0.006372824311256409,0.00621044123545289,-0.009512842632830143,0.0035880208015441895,4.994794653612189e-05,0.002809547819197178
0.006600093562155962,0.006467532366514206,-0.009706242009997368,0.003857153467833996,1.2692491509369574e-05,0.0027106606867164373
0.007235986180603504,0.006364588160067797,-0.008971422910690308,0.0044039515778422356,8.287289574582246e-07,0.002784894546493888
0.0075484374538064,0.006399838253855705,-0.009836940094828606,0.004301751498132944,5.411008174860399e-08,0.0027459452394396067
0.00709559815004468,0.00606897659599781,-0.009538261219859123,0.00398891419172287,3.5330016689982813e-09,0.0027623577043414116
0.006538984831422567,0.006044663023203611,-0.008932187221944332,0.00385635276325047,2.306797808326877e-10,0.002693065907806158
0.007166936993598938,0.006183745339512825,-0.010136225260794163,0.003802805207669735,1.5061741784339056e-11,0.0029622591100633144
0.0069172619841992855,0.0066899326629936695,-0.009748712182044983,0.0038172085769474506,9.834240626699353e-13,0.002914660144597292
0.006883868016302586,0.006625143811106682,-0.009321101009845734,0.003887500613927841,6.421056584658344e-14,0.0025980856735259295
0.00687041413038969,0.0062937610782682896,-0.00959543976932764,0.0039170002564787865,4.19249121638883e-15,0.0025955745950341225
0.00687041413038969,0.0062937610782682896,-0.00959543976932764,0.0039170002564787865,4.19249121638883e-15,0.0025955745950341225
0.006757069379091263,0.006045765709131956,-0.009642026387155056,0.004019139800220728,2.737397139102309e-16,0.002663289662450552
0.007157877087593079,0.005792637821286917,-0.009338108822703362,0.004060918930917978,1.7873247183096667e-17,0.002777772955596447
0.0073645892553031445,0.005910960026085377,-0.008844129741191864,0.004072360694408417,1.1669953003813964e-18,0.002815530402585864
0.007467892486602068,0.005855266936123371,-0.009660799987614155,0.004019470885396004,7.619645298366106e-20,0.00291463709436357
0.006832764483988285,0.00571032427251339,-0.00916204508394003,0.003979834262281656,4.975083852651937e-21,0.00279492256231606
0.007354054134339094,0.0060926093719899654,-0.00926335621625185,0.00394409941509366,3.248373959873979e-22,0.0025454049464315176
0.008010972291231155,0.005930440034717321,-0.010183430276811123,0.003547878935933113,2.1209560422374552e-23,0.0025326586328446865
0.007589708548039198,0.005968770012259483,-0.009614882059395313,0.0035150113981217146,1.3848325987333895e-24,0.002651808550581336
0.006788989063352346,0.005847217980772257,-0.009486495517194271,0.004098983481526375,9.041967452771574e-26,0.0026960112154483795
0.007318013813346624,0.005713132210075855,-0.0102669233456254,0.004568757023662329,5.9037587478482546e-27,0.002577052917331457
0.007816966623067856,0.006460367236286402,-0.010353639721870422,0.0037378992419689894,2.516865135709448e-29,0.0022189789451658726
0.00761050172150135,0.0063474648632109165,-0.010147329419851303,0.0034762832801789045,1.6433330150484243e-30,0.0021663110237568617
0.00713817635551095,0.006049030926078558,-0.009569806978106499,0.003596958937123418,1.0729790182893355e-31,0.0023687821812927723
0.007257150020450354,0.005825412925332785,-0.010117346420884132,0.004037774633616209,7.005786169795534e-33,0.0024131466634571552
0.00725099490955472,0.005804784595966339,-0.010310979560017586,0.004071028437465429,4.574277849994059e-34,0.0025862017646431923
0.007005126681178808,0.006093512289226055,-0.010454637929797173,0.004224775824695826,2.9866765889235196e-35,0.002701651304960251
0.00759532954543829,0.0058698514476418495,-0.00983106717467308,0.004090075381100178,1.9500862241529674e-36,0.002565555041655898
0.007523042149841785,0.005650058854371309,-0.010169112123548985,0.003634126391261816,1.2732672046255615e-37,0.0022337634582072496
0.006989585235714912,0.005494266282767057,-0.010652699507772923,0.0034957039169967175,8.313525438253772e-39,0.0020998038817197084
0.0070115551352500916,0.005639212671667337,-0.010174804367125034,0.0035756188444793224,5.428139796331828e-40,0.002103819279000163
0.0075749680399894714,0.0055925738997757435,-0.010102449916303158,0.004121189471334219,3.5441640759703273e-41,0.0019672720227390528
0.007652163505554199,0.006153092719614506,-0.009538118727505207,0.004555192310363054,2.313543764600273e-42,0.0021706547122448683
0.007060726638883352,0.00571096409112215,-0.01105514820665121,0.004708633758127689,1.5134023414708024e-43,0.0023311588447541
0.0071035511791706085,0.0058404733426868916,-0.010337385348975658,0.0043820650316774845,9.80908925027372e-45,0.002303734654560685
0.0071035511791706085,0.0058404733426868916,-0.010337385348975658,0.0043820650316774845,9.80908925027372e-45,0.002303734654560685
0.008000904694199562,0.0055503337644040585,-0.009426426142454147,0.004027992021292448,0.0,0.0021879365667700768
0.007648433092981577,0.005920624826103449,-0.010323507711291313,0.0038565904833376408,0.0,0.0020888124126940966
0.007310234475880861,0.006318774539977312,-0.010151572525501251,0.004030283540487289,0.0,0.0021357859950512648
0.00804089941084385,0.005880746524780989,-0.009810656309127808,0.00390939274802804,0.0,0.0020171937067061663
0.00837330799549818,0.005608620587736368,-0.010113182477653027,0.0037783998996019363,0.0,0.0022120901849120855
0.007963274605572224,0.005318323150277138,-0.009896295145154,0.003935728222131729,0.0,0.002327064983546734
0.007499184925109148,0.005812183488160372,-0.011010301299393177,0.0040689134038984776,0.0,0.0022707225289195776
0.007494672667235136,0.006192822940647602,-0.010545526631176472,0.004306802060455084,0.0,0.0022435749415308237
0.007830406539142132,0.006163763348013163,-0.009962799958884716,0.004079533740878105,0.0,0.002043859101831913
0.007637417409569025,0.005945899058133364,-0.009554646909236908,0.0038928089197725058,0.0,0.0017391953151673079
0.007533584721386433,0.005478678736835718,-0.01067192293703556,0.0038378515746444464,0.0,0.0017119002295657992
0.007517226971685886,0.0057944548316299915,-0.010012340731918812,0.004307401832193136,0.0,0.0017189682694151998
0.007460630964487791,0.0070487423799932,-0.009414300322532654,0.004142359364777803,0.0,0.001809381297789514
0.007544359192252159,0.006382456980645657,-0.009921902790665627,0.0043903617188334465,0.0,0.002120238495990634
0.007881403900682926,0.006091294810175896,-0.010093122720718384,0.004118189215660095,0.0,0.0018413282232359052
0.007881403900682926,0.006091294810175896,-0.010093122720718384,0.004118189215660095,0.0,0.0018413282232359052
0.008104769513010979,0.006762021686881781,-0.009493550285696983,0.00430314801633358,0.0,0.0019859347958117723
0.007755562663078308,0.00597767997533083,-0.008948798291385174,0.004092072602361441,0.0,0.0019771039951592684
0.007656834088265896,0.005794938188046217,-0.010200124233961105,0.004236388485878706,0.0,0.002023958135396242
0.008102797903120518,0.005363658536225557,-0.009703029878437519,0.004243746865540743,0.0,0.002007698640227318
0.007922222837805748,0.005706146825104952,-0.00933552160859108,0.004427680280059576,0.0,0.0017927938606590033
0.007578082382678986,0.005860720761120319,-0.010523968376219273,0.004268657881766558,0.0,0.0017480875831097364
0.008632495999336243,0.006116307806223631,-0.009927586652338505,0.0041959043592214584,0.0,0.0015636134194210172
0.008364995010197163,0.005654521286487579,-0.009126006625592709,0.004182156175374985,0.0,0.0013669999316334724
0.0076289307326078415,0.0059471637941896915,-0.009582231752574444,0.0039765252731740475,0.0,0.0013554564211517572
0.008000964298844337,0.005710687953978777,-0.009918107651174068,0.00418819347396493,0.0,0.0013576087076216936
0.008000964298844337,0.005710687953978777,-0.009918107651174068,0.00418819347396493,0.0,0.0013576087076216936
0.008425720036029816,0.005871184170246124,-0.009768848307430744,0.004580200184136629,0.0,0.0017885048873722553
0.008291181176900864,0.006036608479917049,-0.010266046971082687,0.005002147983759642,0.0,0.0017538077663630247
0.007937860675156116,0.005813843570649624,-0.009733157232403755,0.005136978346854448,0.0,0.0020166051108390093
0.007996187545359135,0.006105051375925541,-0.009480410255491734,0.0051377927884459496,0.0,0.0018346098950132728
0.00815680343657732,0.005617056041955948,-0.010230055078864098,0.004550633952021599,0.0,0.0015093059046193957
0.008036709390580654,0.00597912585362792,-0.009935576468706131,0.004529844503849745,0.0,0.00115133763756603
0.00820444617420435,0.00634239474311471,-0.009554881602525711,0.004502052906900644,0.0,0.0010676702950149775
0.008183052763342857,0.00553063815459609,-0.010239760391414165,0.005155492573976517,0.0,0.0011085552396252751
0.008201820775866508,0.005956288427114487,-0.010054844431579113,0.0052321008406579494,0.0,0.0012860364513471723
0.0075912317261099815,0.0055177295580506325,-0.009629416279494762,0.004775050561875105,0.0,0.0014259375166147947
0.008820220828056335,0.006009410135447979,-0.010207965970039368,0.004457363858819008,0.0,0.0018512146780267358
0.008227817714214325,0.0059112259186804295,-0.01006204541772604,0.004435150418430567,0.0,0.0018218118930235505
0.008031591773033142,0.005659825634211302,-0.010328909382224083,0.0045468867756426334,0.0,0.0016395322745665908
0.009005079045891762,0.005609779618680477,-0.009674026630818844,0.004575022496283054,0.0,0.0011108287144452333
0.008441144600510597,0.005270421039313078,-0.010040569119155407,0.004557176027446985,0.0,0.0010648089228197932
0.008360706269741058,0.005923794582486153,-0.010206766426563263,0.004680257756263018,0.0,0.001073564519174397
0.008527410216629505,0.00583896366879344,-0.010245177894830704,0.004732237197458744,0.0,0.0009998116875067353
0.008755053393542767,0.005542372353374958,-0.009930640459060669,0.0047136880457401276,0.0,0.0010727732442319393
0.008637279272079468,0.005559960845857859,-0.010340388864278793,0.004793982021510601,0.0,0.0010870979167521
0.00893941055983305,0.006096201483160257,-0.01063296478241682,0.005244954023510218,0.0,0.0012396484380587935
0.008595969527959824,0.006062493659555912,-0.010268568992614746,0.005145668983459473,0.0,0.0013442320050671697
0.00872331578284502,0.005862503312528133,-0.010641972534358501,0.00528415571898222,0.0,0.0012720315717160702
0.008744069375097752,0.005322173237800598,-0.009913938120007515,0.005132714286446571,0.0,0.0011451438767835498
0.008786811493337154,0.005625464022159576,-0.010108628310263157,0.004986120853573084,0.0,0.0010296172695234418
0.009625086560845375,0.005511504597961903,-0.010624249465763569,0.005591433960944414,0.0,0.0009293541661463678
0.008877880871295929,0.005876512732356787,-0.009806533344089985,0.0054279956966638565,0.0,0.0008519951952621341
0.009059585630893707,0.006145268213003874,-0.010170445777475834,0.005144979804754257,0.0,0.0008451635949313641
0.00931697990745306,0.0055283657275140285,-0.01068874727934599,0.00525599904358387,0.0,0.0007578746299259365
0.00931697990745306,0.0055283657275140285,-0.01068874727934599,0.00525599904358387,0.0,0.0007578746299259365
0.008900613524019718,0.005375000648200512,-0.00997066032141447,0.004950412083417177,0.0,0.0007236700039356947
0.00891843531280756,0.005566589999943972,-0.010417897254228592,0.004665495362132788,0.0,0.0006955873686820269
0.0102230254560709,0.006130203139036894,-0.01005121972411871,0.005079859402030706,0.0,0.0006174240261316299
0.009108714759349823,0.005715233273804188,-0.010248514823615551,0.005209399852901697,0.0,0.0005788461421616375
0.009075711481273174,0.005772777833044529,-0.010535328648984432,0.005005302838981152,0.0,0.0005625960184261203
0.009142549708485603,0.0055940477177500725,-0.010068482719361782,0.004856593441218138,0.0,0.0005912843043915927
0.00990875530987978,0.00558776268735528,-0.009923592209815979,0.0046860286965966225,0.0,0.0005831043235957623
0.00905667245388031,0.005251889117062092,-0.010920392349362373,0.004693446680903435,0.0,0.0005713836289942265
0.009674045257270336,0.00588578637689352,-0.010372074320912361,0.005294568371027708,0.0,0.0005347941187210381
0.009513801895081997,0.005706717260181904,-0.010389203205704689,0.005703019443899393,0.0,0.0006113240378908813
0.009149614721536636,0.005604676902294159,-0.01017818320542574,0.00515616312623024,0.0,0.0005467943265102804
0.009459434077143669,0.005305921658873558,-0.009909103624522686,0.0048450687900185585,0.0,0.0005591823137365282
0.009518586099147797,0.005768698640167713,-0.010635864920914173,0.0051199388690292835,0.0,0.0005265783402137458
0.00932630430907011,0.00578193599358201,-0.011012858711183071,0.004622402600944042,0.0,0.00048105884343385696
0.009728419594466686,0.005477644968777895,-0.010363909415900707,0.005356794688850641,0.0,0.0004757268470712006
0.009728419594466686,0.005477644968777895,-0.010363909415900707,0.005356794688850641,0.0,0.0004757268470712006
0.00968180038034916,0.005220214836299419,-0.009906967170536518,0.005854352843016386,0.0,0.00044249012717045844
0.010255340486764908,0.005420516710728407,-0.010741524398326874,0.005399149376899004,0.0,0.00044173659989610314
0.009126430377364159,0.005806795321404934,-0.010780086740851402,0.005460153333842754,0.0,0.0004178218950983137
0.00999870989471674,0.0059563955292105675,-0.009967002086341381,0.005376800429075956,0.0,0.00039500356069765985
0.010330610908567905,0.0053190188482403755,-0.010837488807737827,0.005794347729533911,0.0,0.00037446050555445254
0.009621054865419865,0.005375526379793882,-0.010021858848631382,0.005804616492241621,0.0,0.00035594336804933846
0.009927289560437202,0.005521875806152821,-0.010046000592410564,0.0056359353475272655,0.0,0.0003391702484805137
0.009974692016839981,0.005772022530436516,-0.010779013857245445,0.0054348791018128395,0.0,0.00032390878186561167
0.009839310310781002,0.0057529606856405735,-0.01047979760915041,0.005874446127563715,0.0,0.000309960450977087
0.010388207621872425,0.0052305543795228004,-0.011287407949566841,0.005510441027581692,0.0,0.0002971655339933932
0.009726351127028465,0.005132343620061874,-0.011350846849381924,0.005436790641397238,0.0,0.000285385554889217
0.009351572021842003,0.005171029828488827,-0.010345997288823128,0.005202403292059898,0.0,0.0002745022648014128
0.009539452381432056,0.005600108299404383,-0.010803581215441227,0.005703069735318422,0.0,0.0002644196501933038
0.009813705459237099,0.005352960899472237,-0.010800161398947239,0.005484092514961958,0.0,0.00025505214580334723
0.009813705459237099,0.005352960899472237,-0.010800161398947239,0.005484092514961958,0.0,0.00025505214580334723
0.009366583079099655,0.005229364614933729,-0.010216614231467247,0.0056925066746771336,0.0,0.000246324430918321
0.01008536946028471,0.005413279868662357,-0.011264271102845669,0.005406100768595934,0.0,0.00023817575129214674
0.010064929723739624,0.005038916599005461,-0.011180082336068153,0.005336681380867958,0.0,0.00023054814664646983
0.009340799413621426,0.005030984990298748,-0.010934260673820972,0.005620237439870834,0.0,0.00022339443967211992
0.009667741134762764,0.005524969194084406,-0.01096221525222063,0.0056313821114599705,0.0,0.00021667110559064895
0.010116703808307648,0.005326791666448116,-0.010323211550712585,0.005831326358020306,0.0,0.00021034084784332663
0.0100146709010005,0.0052614058367908,-0.0111228097230196,0.0060378615744411945,0.0,0.000204369833227247
0.009799199178814888,0.004954684060066938,-0.01145282480865717,0.005426490679383278,0.0,0.00019872882694471627
0.009647044353187084,0.005146859213709831,-0.010888122022151947,0.005045659840106964,0.0,0.00019339057325851172
0.009459820576012135,0.005364210344851017,-0.011160173453390598,0.005146943032741547,0.0,0.0001883319637272507
0.01012296974658966,0.005222011357545853,-0.01096067763864994,0.005613182671368122,0.0,0.0001835310977185145
0.009884594939649105,0.005189852323383093,-0.011157543398439884,0.006031977012753487,7.753096156193351e-07,0.00017896888311952353
0.010223142802715302,0.004848760087043047,-0.01191543135792017,0.005903733894228935,5.0622176672732166e-08,0.00017462782852817327
0.009965449571609497,0.004543602932244539,-0.011717117391526699,0.0055767446756362915,2.1581031406370244e-10,0.00016654883802402765
0.009974071756005287,0.004924875684082508,-0.011160233058035374,0.00580380717292428,1.409087169862433e-11,0.0001451089628972113
0.010211204178631306,0.004999777302145958,-0.01129506528377533,0.006112442817538977,9.200332553097046e-13,0.00013946056424174458
0.010434039868414402,0.004922960884869099,-0.011644993908703327,0.005809512455016375,6.007159694806571e-14,0.00013628466695081443
0.009717972949147224,0.005032874643802643,-0.010475555434823036,0.005846106912940741,3.922246201600293e-15,8.956177771324292e-05
0.01007149275392294,0.004823758266866207,-0.011622467078268528,0.005449104588478804,2.5609461472060494e-16,4.591944889398292e-05
0.009920947253704071,0.004499777685850859,-0.01110121514648199,0.005791796371340752,1.672115002593281e-17,4.213771171635017e-05
0.009462068788707256,0.004532497376203537,-0.01059188973158598,0.005931927356868982,1.0917715988734006e-18,4.100106525584124e-05
0.009968006052076817,0.004952074494212866,-0.011214561760425568,0.005936797708272934,7.128488715086846e-20,3.0224704460124485e-05
0.010402596555650234,0.005021646618843079,-0.010290630161762238,0.005773695185780525,4.654393845542084e-21,2.026657784881536e-05
0.009670674800872803,0.004759788978844881,-0.010410789400339127,0.005757060833275318,3.0389865466922935e-22,9.792911441763863e-06
0.009920233860611916,0.00464637903496623,-0.011163168586790562,0.006210386753082275,1.9842410831084984e-23,6.394071192517004e-07
0.01020032912492752,0.00476010050624609,-0.010546396486461163,0.006266452372074127,1.2955676624965218e-24,4.1748716483880344e-08
0.009995443746447563,0.00473542045801878,-0.011043723672628403,0.00631082896143198,8.459131131495838e-26,2.7258926227347047e-09
0.010665835812687874,0.004709397908300161,-0.011282654479146004,0.006231049541383982,5.52320770197497e-27,1.7798132412316647e-10
0.010665835812687874,0.004709397908300161,-0.011282654479146004,0.006231049541383982,5.52320770197497e-27,1.7798132412316647e-10
0.008968540467321873,0.005144944880157709,-0.01059393398463726,0.005887821316719055,3.6062600059588643e-28,1.1620907361398203e-11
0.011556938290596008,0.0049455901607871056,-0.010634242556989193,0.006344757042825222,2.3546303643355128e-29,7.587623021207412e-13
0.012560765258967876,0.00480992253869772,-0.011844134889543056,0.006565714720636606,1.5374052694348092e-30,4.9541757686250715e-14
0.011755969375371933,0.00503136683255434,-0.01113182958215475,0.006394562311470509,-0.0001083379247575067,-0.0008865221752785146
0.011879982426762581,0.005134461913257837,-0.011284289881587029,0.006319193635135889,-0.00019220923422835767,-0.0008908890886232257
0.01245372835546732,0.005636732559651136,-0.011424176394939423,0.006169195752590895,-0.0001898801128845662,-0.0007730421493761241
0.011786596849560738,0.005307968705892563,-0.011784430593252182,0.0061606899835169315,-0.0002165846963180229,-0.0006765791331417859
0.01178946252912283,0.004902164917439222,-0.011400466784834862,0.0063929189927875996,-0.00022756669204682112,-0.0006742178811691701
0.01207637507468462,0.005103164818137884,-0.01132193487137556,0.0066730910912156105,-0.00023524489370174706,-0.0006292021716944873
0.011969429440796375,0.0050600431859493256,-0.012075701728463173,0.0061073326505720615,-0.00022779552091378719,-0.0006493843393400311
0.012142765335738659,0.005081878509372473,-0.011347058229148388,0.006256239954382181,-0.00023883166431915015,-0.000707008468452841
0.012277638539671898,0.005104928743094206,-0.011120667681097984,0.006613548379391432,-0.00023466686252504587,-0.0007420617621392012
0.012150023132562637,0.004475999623537064,-0.010819640941917896,0.006224225275218487,-0.00022748859191779047,-0.0013725648168474436
0.01239252369850874,0.0045326785184443,-0.01152567658573389,0.006017415784299374,-0.0003059813170693815,-0.0013119265204295516
0.011974496766924858,0.004916646983474493,-0.011397830210626125,0.006133804097771645,-0.00036182694020681083,-0.0012208445696160197
0.0122666135430336,0.0049323393031954765,-0.011950850486755371,0.006785273086279631,-0.00033977170824073255,-0.0010777335846796632
0.012194103561341763,0.0047686174511909485,-0.01119391992688179,0.006714377086609602,-0.0003469286020845175,-0.0010013548890128732
0.012318993918597698,0.005335445515811443,-0.010882263071835041,0.0066118016839027405,-0.0003524419735185802,-0.00103956728707999
0.012421960942447186,0.005008481442928314,-0.012214232236146927,0.005887466482818127,-0.0003325707803014666,-0.001269984059035778
0.012002578005194664,0.0045119598507881165,-0.011787060648202896,0.006183751858770847,-0.0003133836726192385,-0.0015641816426068544
0.012334134429693222,0.004625453148037195,-0.011960585601627827,0.006847450044006109,-0.00034215013147331774,-0.0017380372155457735
0.012334134429693222,0.004625453148037195,-0.011960585601627827,0.006847450044006109,-0.00034215013147331774,-0.0017380372155457735
0.011728435754776001,0.004964548163115978,-0.0115957735106349,0.006991174537688494,-0.0003273629699833691,-0.0019122129306197166
0.012050123885273933,0.004863981157541275,-0.011328400112688541,0.006656475365161896,-0.00031137451878748834,-0.0017808254342526197
0.01221483200788498,0.0048068915493786335,-0.011818026192486286,0.006137984339147806,-0.0003362015704624355,-0.0016555516049265862
0.012215761467814445,0.004998283926397562,-0.011393308639526367,0.006569408345967531,-0.0003630301798693836,-0.001481762621551752
0.01226063258945942,0.004914691671729088,-0.012595771811902523,0.006683082785457373,-0.0003718193038366735,-0.00143038434907794
0.011923816055059433,0.00465928390622139,-0.011615578085184097,0.0064447419717907906,-0.0004100774531252682,-0.001513542840257287
0.012814009562134743,0.004771699197590351,-0.011367937549948692,0.006463991478085518,-0.000385174440452829,-0.0018762619001790881
0.012328722514212132,0.004787798970937729,-0.011760512366890907,0.00666448287665844,-0.0004155518545303494,-0.0021292082965373993
0.012529264204204082,0.004927023313939571,-0.011343023739755154,0.007187136448919773,-0.0004346464411355555,-0.0025623110122978687
0.012412059120833874,0.004909977782517672,-0.012267830781638622,0.006972919683903456,-0.00042513050721026957,-0.0025873868726193905
0.012593930587172508,0.0049827671609818935,-0.011516289785504341,0.006536482367664576,-0.0006789923645555973,-0.00242575048469007
0.012681306339800358,0.004826539196074009,-0.011809169314801693,0.006352776195853949,-0.0007190594915300608,-0.0019716310780495405
0.012292128056287766,0.004753760993480682,-0.012551853433251381,0.0068941316567361355,-0.0006922277389094234,-0.001875411719083786
0.012676534242928028,0.004985812120139599,-0.01163503434509039,0.006860686931759119,-0.0006921981694176793,-0.0017017788486555219
0.012545942328870296,0.005135438870638609,-0.011671912856400013,0.006973882671445608,-0.0007270811474882066,-0.0017139598494395614
0.01278549525886774,0.004662677645683289,-0.011355563066899776,0.007574611343443394,-0.0006449904176406562,-0.001981565495952964
0.012452097609639168,0.0046044932678341866,-0.012247552163898945,0.006779761984944344,-0.000662183971144259,-0.0018942704191431403
0.012519714422523975,0.00470630032941699,-0.011837156489491463,0.006240832153707743,-0.0006497002323158085,-0.0022575631737709045
0.012503291480243206,0.005239665973931551,-0.012534352019429207,0.006466198712587357,-0.0006288367439992726,-0.0026965965516865253
0.012953453697264194,0.005467957351356745,-0.0118618318811059,0.006245963741093874,-0.0005743411602452397,-0.003341290634125471
0.012333378195762634,0.005193672608584166,-0.012042803689837456,0.0066187516786158085,-0.0005816356861032546,-0.003309273859485984
0.012824591249227524,0.004820141009986401,-0.011925661005079746,0.00669895438477397,-0.0005539530538953841,-0.003092019585892558
0.012681207619607449,0.004653979558497667,-0.012172535061836243,0.006568403448909521,-0.0005153967649675906,-0.002830712590366602
0.012667019851505756,0.004835482221096754,-0.012138834223151207,0.006344900932163,-0.00048101323773153126,-0.0025658942759037018
0.0127671854570508,0.005005005747079849,-0.01162577886134386,0.006333246827125549,-0.0004241229617036879,-0.0023865150287747383
0.01299975998699665,0.005697755608707666,-0.01261819712817669,0.00676872069016099,-0.00038549251621589065,-0.0027680571656674147
0.01299975998699665,0.005697755608707666,-0.01261819712817669,0.00676872069016099,-0.00038549251621589065,-0.0027680571656674147
0.013040987774729729,0.0054461476393043995,-0.012064879760146141,0.0069635664112865925,-0.0003549107350409031,-0.003287974512204528
0.01297205314040184,0.005127750802785158,-0.012053277343511581,0.007422054186463356,-0.00037727432209067047,-0.003564748913049698
0.013338997960090637,0.004968390800058842,-0.012351526878774166,0.007703934796154499,-0.000366678781574592,-0.0032656292896717787
0.012854672968387604,0.0047207060270011425,-0.012196796014904976,0.007905714213848114,-0.0003442750312387943,-0.0030710904393345118
0.013549302704632282,0.005426511168479919,-0.012797034345567226,0.007922956719994545,-0.0003236923075746745,-0.0032916900236159563
0.01319621317088604,0.0053099035285413265,-0.011771691963076591,0.007576354779303074,-0.0003494145639706403,-0.0030197864398360252
0.013349221087992191,0.005328269209712744,-0.012538506649434566,0.007471180055290461,-0.0003367550380062312,-0.003041507676243782
0.013336248695850372,0.004931516945362091,-0.01242141518741846,0.006693381350487471,-0.0003200359351467341,-0.003011220134794712
0.013908973895013332,0.004852078855037689,-0.012482840567827225,0.007595546077936888,-0.0003422657900955528,-0.003034967929124832
0.01366051472723484,0.004625667817890644,-0.01248460728675127,0.007480972912162542,-0.0003316604415886104,-0.0037833598908036947
0.013662545941770077,0.0049104527570307255,-0.01182588655501604,0.007406802382320166,-0.0003465931222308427,-0.004190029576420784
0.01381722278892994,0.005431894212961197,-0.012427259236574173,0.007812466472387314,-0.00033142726169899106,-0.003739750711247325
0.013566877692937851,0.005155183840543032,-0.011774664744734764,0.00752101419493556,-0.00030931096989661455,-0.0034480025060474873
0.013859068974852562,0.00518375588580966,-0.012326152995228767,0.007279989309608936,-0.0003394829109311104,-0.003575484734028578
0.01403167936950922,0.004530454520136118,-0.012368528172373772,0.007394573651254177,-0.00033268751576542854,-0.003460334613919258
0.013867677189409733,0.0046517024748027325,-0.012519349344074726,0.0073178792372345924,-0.00033794008777476847,-0.0036487935576587915
0.014252182096242905,0.005623083095997572,-0.011866085231304169,0.007225970737636089,-0.0003446293412707746,-0.004220949020236731
0.01377088949084282,0.005530194379389286,-0.012694467790424824,0.007405697833746672,-0.00034884046181105077,-0.0040803952142596245
0.013927629217505455,0.005174078978598118,-0.012193895876407623,0.007535307202488184,-0.0003996600571554154,-0.0034850682131946087
0.013733855448663235,0.0049285851418972015,-0.01245496142655611,0.007275802083313465,-0.0004248914192430675,-0.0034247571602463722
0.014666944742202759,0.004898739513009787,-0.013073899783194065,0.006838703062385321,-0.0003919903247151524,-0.003694225335493684
0.01420651189982891,0.005054974928498268,-0.01272627618163824,0.007015752140432596,-0.00042304699309170246,-0.004334436263889074
0.014645160175859928,0.005434419959783554,-0.013227502815425396,0.007523993495851755,-0.0004001743800472468,-0.004574464168399572
0.013854063116014004,0.005475829355418682,-0.012985188513994217,0.0071510737761855125,-0.0004187884333077818,-0.004385253880172968
0.014387397095561028,0.0050031207501888275,-0.013545971363782883,0.00672529824078083,-0.00040606808033771813,-0.004275055136531591
0.014387397095561028,0.0050031207501888275,-0.013545971363782883,0.00672529824078083,-0.00040606808033771813,-0.004275055136531591
0.014024901203811169,0.004744743462651968,-0.012434187345206738,0.0071425363421440125,-0.00042257807217538357,-0.004245975520461798
0.01409793272614479,0.005000149365514517,-0.012169212102890015,0.007638535927981138,-0.0003896531998179853,-0.0040204706601798534
0.01409793272614479,0.005000149365514517,-0.012169212102890015,0.007638535927981138,-0.0003896531998179853,-0.0040204706601798534
0.014462742023169994,0.005371249746531248,-0.012804070487618446,0.007291181478649378,-0.0004341044696047902,-0.003997787833213806
0.014159807935357094,0.005554531700909138,-0.01310907956212759,0.007536975666880608,-0.0004055119352415204,-0.003994535189121962
0.014749583788216114,0.0049541788175702095,-0.013632248155772686,0.008480982854962349,-0.00037259748205542564,-0.004017159342765808
0.014827723614871502,0.004732043948024511,-0.013467766344547272,0.008302941918373108,-0.0003441249136812985,-0.004076120909303427
0.014736358076334,0.004772650543600321,-0.012436031363904476,0.00822447333484888,-0.00035069245495833457,-0.004452327266335487
0.013909720815718174,0.0048762354999780655,-0.013003092259168625,0.007980168797075748,-0.0003559902252163738,-0.004485418554395437
0.014664393849670887,0.005652282387018204,-0.012386922724545002,0.007959909737110138,-0.0003357110545039177,-0.004174765199422836
0.014895157888531685,0.005303914658725262,-0.013262524269521236,0.007597280666232109,-0.0003418305714149028,-0.004255381412804127
0.0149008110165596,0.004879672545939684,-0.012828746810555458,0.007400787901133299,-0.00034669702290557325,-0.004256420768797398
0.014469527639448643,0.005139988847076893,-0.013543793931603432,0.0078078582882881165,-0.0003300784737803042,-0.004515314940363169
0.015168971382081509,0.005088833160698414,-0.013654440641403198,0.008099975064396858,-0.00031373536330647767,-0.004486139863729477
0.014959528110921383,0.005632990039885044,-0.012767871841788292,0.008252164348959923,-0.00032534729689359665,-0.004021339118480682
0.014818872325122356,0.005194843281060457,-0.01277734525501728,0.008776913397014141,-0.00031189812580123544,-0.004260040819644928
0.015205208212137222,0.00525550777092576,-0.013008047826588154,0.008434513583779335,-0.0002989860950037837,-0.004604943096637726
0.015137169510126114,0.005029390566051006,-0.01287291944026947,0.008069276809692383,-0.0002870656317099929,-0.004722937475889921
0.015191392041742802,0.004812287632375956,-0.013695350848138332,0.008109161630272865,-0.0002766308025456965,-0.004380481783300638
0.015118042007088661,0.0049982438795268536,-0.01277893129736185,0.008532511070370674,-0.0002569128992035985,-0.004235498607158661
0.015114448964595795,0.005425162613391876,-0.013203286565840244,0.008408219553530216,-0.0002427895669825375,-0.0047450135461986065
0.015108880586922169,0.005081665236502886,-0.012307517230510712,0.008321726694703102,-0.000270219927188009,-0.004893581848591566
0.01519216038286686,0.0051870704628527164,-0.013179483823478222,0.008176914416253567,-0.00026253980468027294,-0.004797239787876606
0.01519216038286686,0.0051870704628527164,-0.013179483823478222,0.008176914416253567,-0.00026253980468027294,-0.004797239787876606
0.015238679014146328,0.00506524508818984,-0.012606785632669926,0.007828249596059322,-0.000250704848440364,-0.0046907528303563595
0.015008845366537571,0.004906645510345697,-0.012634635902941227,0.007819495163857937,-0.0002768068225122988,-0.00467216782271862
0.015134009532630444,0.00506549933925271,-0.013170492835342884,0.0083736851811409,-0.00026747980155050755,-0.004719412419945002
0.015092091634869576,0.005394257139414549,-0.013026824221014977,0.008848711848258972,-0.00025673682102933526,-0.00487688509747386
0.015775008127093315,0.005525366868823767,-0.013176296837627888,0.008564486168324947,-0.00027724384563043714,-0.005119082983583212
0.01517331600189209,0.0051467204466462135,-0.012169317342340946,0.008370570838451385,-0.00027100188890472054,-0.005037328228354454
0.016048697754740715,0.0049594310112297535,-0.012962535955011845,0.008287893608212471,-0.00037207084824331105,-0.004844033159315586
0.015713488683104515,0.00518125481903553,-0.012627655640244484,0.008076927624642849,-0.00037713514757342637,-0.004708461929112673
0.015624754130840302,0.005058764945715666,-0.013440709561109543,0.007753478363156319,-0.0004152553156018257,-0.004943006206303835
0.0155114084482193,0.004966856446117163,-0.012929451651871204,0.008090491406619549,-0.00038967651198618114,-0.0049509466625750065
0.015767240896821022,0.005119614768773317,-0.013138333335518837,0.008819918148219585,-0.00036370259476825595,-0.0048625776544213295
0.015698200091719627,0.005184900481253862,-0.013204220682382584,0.008544771000742912,-0.00038256371044553816,-0.004927048925310373
0.016052035614848137,0.005282922647893429,-0.012973281554877758,0.008170327171683311,-0.00035291918902657926,-0.004840382840484381
0.015701932832598686,0.005002038087695837,-0.012327161617577076,0.008551625534892082,-0.0003787013120017946,-0.004801067523658276
0.015990931540727615,0.0052927532233297825,-0.013264982961118221,0.007982723414897919,-0.0003625298268161714,-0.00509841600432992
0.015428581275045872,0.005179006140679121,-0.012921961024403572,0.008244985714554787,-0.0004188679449725896,-0.005232138093560934
0.016230158507823944,0.0057905977591872215,-0.013514521531760693,0.008597977459430695,-0.00043195043690502644,-0.005510813090950251
0.016139036044478416,0.00532299792394042,-0.013275384902954102,0.008414918556809425,-0.000432701752288267,-0.005118877161294222
0.015986572951078415,0.004923274740576744,-0.01292919646948576,0.00829489715397358,-0.00043528867536224425,-0.004574442282319069
0.015495706349611282,0.0051807500422000885,-0.012616697698831558,0.008862224407494068,-0.0004351309617049992,-0.00447890255600214
0.015965575352311134,0.005137803498655558,-0.012379877269268036,0.008652197197079659,-0.00040883911424316466,-0.005155827850103378
0.016040831804275513,0.005204739514738321,-0.012822452932596207,0.00799848698079586,-0.0004350801173131913,-0.005220543127506971
0.0157521553337574,0.005431815981864929,-0.012207059189677238,0.008135775104165077,-0.0004134289629291743,-0.005237872246652842
0.0157521553337574,0.005431815981864929,-0.012207059189677238,0.008135775104165077,-0.0004134289629291743,-0.005237872246652842
0.016765261068940163,0.005121829453855753,-0.013071748428046703,0.009073494002223015,-0.000502098526339978,-0.00489333551377058
0.015851924195885658,0.005154813639819622,-0.01293641235679388,0.009043199941515923,-0.00046741869300603867,-0.004775939509272575
0.016482990235090256,0.005395028740167618,-0.01312083937227726,0.008362296037375927,-0.0004653755167964846,-0.005049220286309719
0.01632631942629814,0.005437981337308884,-0.012762239202857018,0.008662739768624306,-0.0004625852743629366,-0.005585570819675922
0.015694089233875275,0.005414757411926985,-0.01293420884758234,0.009339889511466026,-0.00042830436723306775,-0.0053086611442267895
0.016022568568587303,0.005666935816407204,-0.013133644126355648,0.00881484430283308,-0.000429040752351284,-0.0055767628364264965
0.017246119678020477,0.005199628882110119,-0.012534122914075851,0.009165127761662006,-0.0004291660152375698,-0.005305919796228409
0.01689590886235237,0.005427030846476555,-0.012924255803227425,0.009290140122175217,-0.000403584010200575,-0.005347583442926407
0.01635061949491501,0.005576716735959053,-0.012327444739639759,0.008575561456382275,-0.00037939506000839174,-0.005280951503664255
0.016251832246780396,0.005047270562499762,-0.012991799041628838,0.008960639126598835,-0.0004054234887007624,-0.0052082049660384655
0.016324959695339203,0.00515860365703702,-0.01288925763219595,0.008938691578805447,-0.0003867448540404439,-0.005586937069892883
0.01708500273525715,0.005052529275417328,-0.012932833284139633,0.008499004878103733,-0.0003692464961204678,-0.006228992249816656
0.016693271696567535,0.005436868406832218,-0.01275085099041462,0.008740134537220001,-0.00035753933480009437,-0.005730313248932362
0.017189020290970802,0.004733095411211252,-0.013179964385926723,0.00922309048473835,-0.0003094873682130128,-0.005892521236091852
0.017074696719646454,0.004521737806499004,-0.012741261161863804,0.009010029025375843,-0.0002895657962653786,-0.006022460293024778
0.016913972795009613,0.004458507522940636,-0.013304187916219234,0.00950723234564066,-0.000272049946943298,-0.006084259133785963
0.01695369742810726,0.004492202773690224,-0.012833967804908752,0.009303209371864796,-0.00025653443299233913,-0.00600870605558157
0.016840551048517227,0.004571244586259127,-0.013360180892050266,0.008931884542107582,-0.00024269350979011506,-0.006088262889534235
0.017432546243071556,0.0047222464345395565,-0.012747915461659431,0.009335600771009922,-0.00023027011775411665,-0.005806415807455778
0.01751101203262806,0.0052559771575033665,-0.013592030853033066,0.009497387334704399,-0.00025139376521110535,-0.006227864883840084
0.017551150172948837,0.004962468519806862,-0.01292494498193264,0.008847836405038834,-0.0002499143301974982,-0.006617334205657244
0.017605775967240334,0.004442149307578802,-0.013658369891345501,0.009077147580683231,-0.0002394919574726373,-0.006339447107166052
0.017507728189229965,0.004451864864677191,-0.012596340849995613,0.009378860704600811,-0.0002293613215442747,-0.006142973899841309
0.0178260188549757,0.004590130876749754,-0.013744635507464409,0.00910966657102108,-0.00022001686738803983,-0.006531469523906708
0.017381392419338226,0.0046750642359256744,-0.014291821047663689,0.009371783584356308,-0.00023745271028019488,-0.00633520632982254
0.017381392419338226,0.0046750642359256744,-0.014291821047663689,0.009371783584356308,-0.00023745271028019488,-0.00633520632982254
0.017462793737649918,0.004688669461756945,-0.013751417398452759,0.009722316637635231,-0.0002367428969591856,-0.006336393766105175
0.01794208213686943,0.004420250188559294,-0.013371233828365803,0.009982571005821228,-0.00022868583619128913,-0.006109996698796749
0.017596842721104622,0.004093829542398453,-0.014276150614023209,0.009221067652106285,-0.00023615809914190322,-0.005940910428762436
0.018163295462727547,0.003941215109080076,-0.014017424546182156,0.009664002805948257,-0.0002426519786240533,-0.0065022422932088375
0.017985107377171516,0.004283442161977291,-0.014236150309443474,0.009221753105521202,-0.0002356538170715794,-0.006980270612984896
0.017915913835167885,0.004540668800473213,-0.014064502902328968,0.009048040956258774,-0.00022824425832368433,-0.007070205174386501
0.018426991999149323,0.0045248218812048435,-0.0136982761323452,0.00922073982656002,-0.0002160568838007748,-0.00655349250882864
0.01821834221482277,0.0043535237200558186,-0.013929768465459347,0.009741663932800293,-0.00020500208484008908,-0.006498842034488916
0.01803893782198429,0.004324740264564753,-0.013570278882980347,0.009070158004760742,-0.00023251227685250342,-0.006714974530041218
0.01841873489320278,0.004160132724791765,-0.014080162160098553,0.009683388285338879,-0.0002529497432988137,-0.00710325175896287
0.01826302520930767,0.004394128918647766,-0.01394852064549923,0.009724466130137444,-0.0002517391403671354,-0.006783300079405308
0.01862221024930477,0.004635398276150227,-0.014167669229209423,0.009239986538887024,-0.00026825882378034294,-0.0071725607849657536
0.01846957392990589,0.004682786762714386,-0.013350428082048893,0.009606904350221157,-0.00026645371690392494,-0.007099643815308809
0.0180582907050848,0.004573641810566187,-0.013713464140892029,0.010164190083742142,-0.0005548677290789783,-0.007156671956181526
0.018877295777201653,0.004693541210144758,-0.013557549566030502,0.009770255535840988,-0.0005320724449120462,-0.007205008063465357
0.018734648823738098,0.004273438826203346,-0.014168193563818932,0.010181991383433342,-0.0005605308688245714,-0.0072956085205078125
0.018930917605757713,0.004612050950527191,-0.014538092538714409,0.009666712954640388,-0.0004733229288831353,-0.007653807755559683
0.018889285624027252,0.004286344163119793,-0.0139110516756773,0.010380011051893234,-0.0004977474454790354,-0.007309323642402887
0.01903867907822132,0.004365998320281506,-0.014163555577397346,0.010153236798942089,-0.00046917510917410254,-0.0071123382076621056
0.019455699250102043,0.004692747723311186,-0.013785443268716335,0.009269322268664837,-0.00046748030581511557,-0.007375963963568211
0.018906911835074425,0.004731351975351572,-0.014417841099202633,0.009699443355202675,-0.00046511393156833947,-0.007620140910148621
0.019203046336770058,0.004649835638701916,-0.01370216440409422,0.010341614484786987,-0.00045199383748695254,-0.007479689549654722
0.019726207479834557,0.004242013208568096,-0.01429776195436716,0.00934488233178854,-0.0004245937161613256,-0.007440872490406036
0.01960538700222969,0.004353572614490986,-0.013794749975204468,0.009728711098432541,-0.00038886815309524536,-0.007441948167979717
0.019252458587288857,0.004590465687215328,-0.014329860918223858,0.010403311811387539,-0.0003926360805053264,-0.007514696102589369
0.019632898271083832,0.004636506084352732,-0.014054917730391026,0.009753908030688763,-0.0003954791754949838,-0.007000102195888758
0.01956857554614544,0.004627866670489311,-0.01469304971396923,0.010630072094500065,-0.00042784184915944934,-0.006436323281377554
0.019550228491425514,0.0042068916372954845,-0.014019879512488842,0.010387864895164967,-0.00040425744373351336,-0.00641987007111311
0.019708437845110893,0.004280942026525736,-0.014560817740857601,0.010058455169200897,-0.0004306411719880998,-0.006725160405039787
0.01979619450867176,0.004492330364882946,-0.013780069537460804,0.010538210161030293,-0.0004094524774700403,-0.0068972064182162285
0.01979619450867176,0.004492330364882946,-0.013780069537460804,0.010538210161030293,-0.0004094524774700403,-0.0068972064182162285
0.0195048488676548,0.004218030255287886,-0.014262999407947063,0.010457247495651245,-0.0004781425523106009,-0.006746248342096806
0.018368367105722427,0.004454537760466337,-0.013799001462757587,0.01002065185457468,-0.0005218398291617632,-0.006543818861246109
0.020239513367414474,0.00463142292574048,-0.014276375062763691,0.010555239394307137,-0.00048617678112350404,-0.006600103806704283
0.020302267745137215,0.0046363817527890205,-0.014304007403552532,0.010902462527155876,-0.0005158192361705005,-0.007303196471184492
0.02010192722082138,0.004622076638042927,-0.014534737914800644,0.011079223826527596,-0.00048097805120050907,-0.007247152738273144
0.020257096737623215,0.004723058547824621,-0.014514097012579441,0.010929249227046967,-0.0005065026343800128,-0.007341821677982807
0.02020900882780552,0.004420535173267126,-0.014416186138987541,0.010477493517100811,-0.0006368739996105433,-0.007162457797676325
0.020116008818149567,0.004403663799166679,-0.014193684794008732,0.010850146412849426,-0.0006651812582276762,-0.007083869073539972
0.01991221308708191,0.004319238010793924,-0.014286408200860023,0.010651517659425735,-0.0006660932558588684,-0.0071622272953391075
0.01992400735616684,0.004536215215921402,-0.014349805191159248,0.010653847828507423,-0.000643987616058439,-0.00741830188781023
0.02020638808608055,0.004595437087118626,-0.014811621978878975,0.011089257895946503,-0.0006647929549217224,-0.007547949906438589
0.020784512162208557,0.0045792106539011,-0.014559208415448666,0.010724084451794624,-0.0006133869756013155,-0.008087966591119766
0.01987234503030777,0.004423367325216532,-0.014591840095818043,0.01054906565696001,-0.0005967399920336902,-0.007568999193608761
0.020507482811808586,0.004962689708918333,-0.014712312258780003,0.009890146553516388,-0.0006255683838389814,-0.007420343346893787
0.02109314128756523,0.004896551836282015,-0.014343218877911568,0.009969640523195267,-0.0006353268399834633,-0.007587737403810024
0.02080751582980156,0.004902847111225128,-0.015365897677838802,0.010143236257135868,-0.0006379368714988232,-0.008035844191908836
0.02015843242406845,0.0045984527096152306,-0.014559535309672356,0.010238241404294968,-0.0006215095636434853,-0.00838205311447382
0.020820703357458115,0.004856574814766645,-0.015182905830442905,0.01106406468898058,-0.0006564293289557099,-0.007917982526123524
0.020628008991479874,0.004812516272068024,-0.014614260755479336,0.010585492476820946,-0.0006866396288387477,-0.007920101284980774
0.020390396937727928,0.004921313375234604,-0.015139389783143997,0.010624893009662628,-0.0006344394641928375,-0.007957562804222107
0.02039266563951969,0.004655926954001188,-0.014536052942276001,0.01103917695581913,-0.000650923524517566,-0.0081646628677845
0.0210869200527668,0.004846191965043545,-0.015347132459282875,0.010425418615341187,-0.0006000412395223975,-0.008516201749444008
0.021204840391874313,0.004747903440147638,-0.014829291962087154,0.01072081271559,-0.0006160063203424215,-0.007859167642891407
0.02089371345937252,0.004703389946371317,-0.01565464213490486,0.011054730974137783,-0.0005759252817369998,-0.007987665943801403
0.02089371345937252,0.004703389946371317,-0.01565464213490486,0.011054730974137783,-0.0005759252817369998,-0.007987665943801403
0.02121499739587307,0.004691563080996275,-0.014861675910651684,0.010519620031118393,-0.0005365335964597762,-0.008195469155907631
0.02107991836965084,0.00505982106551528,-0.015295162796974182,0.011091389693319798,-0.0005298374453559518,-0.008394286967813969
0.02072306163609028,0.005045597441494465,-0.01541957538574934,0.010674873366951942,-0.0005147787742316723,-0.008106165565550327
0.02072306163609028,0.005045597441494465,-0.01541957538574934,0.010674873366951942,-0.0005147787742316723,-0.008106165565550327
0.021434767171740532,0.0051367930136621,-0.01584107242524624,0.011040395125746727,-0.0005403051036410034,-0.008573994971811771
0.021323978900909424,0.004800993017852306,-0.015651928260922432,0.010832278057932854,-0.0005062681157141924,-0.008858909830451012
0.021129993721842766,0.004593605641275644,-0.015804488211870193,0.010713022202253342,-0.0004691518552135676,-0.008716762997210026
0.020870421081781387,0.005149999633431435,-0.01571396179497242,0.01076666172593832,-0.00048251936095766723,-0.009269521571695805
0.021309340372681618,0.005197805818170309,-0.015597159042954445,0.010604962706565857,-0.00046559335896745324,-0.009022356010973454
0.021321220323443413,0.005035690031945705,-0.015134808607399464,0.010668274946510792,-0.0004381788312457502,-0.008875792846083641
0.021601790562272072,0.005221766885370016,-0.01569407433271408,0.011066881939768791,-0.00041309036896564066,-0.008478165604174137
0.021483851596713066,0.00466418731957674,-0.01602143608033657,0.011127155274152756,-0.00037055727443657815,-0.009092039428651333
0.021492736414074898,0.004952621180564165,-0.015503798611462116,0.011206126771867275,-0.0003493818221613765,-0.008892031386494637
0.021081309765577316,0.004946714732795954,-0.015814602375030518,0.010982638224959373,-0.0003242484526708722,-0.008959367871284485
0.02141537517309189,0.005207166075706482,-0.01596277579665184,0.011398796923458576,-0.00030244432855397463,-0.009011022746562958
0.022666610777378082,0.00550728989765048,-0.01632276177406311,0.011219664476811886,-0.0003361155395396054,-0.008858571760356426
0.021924979984760284,0.0050736418925225735,-0.016409920528531075,0.01147641520947218,-0.000319652259349823,-0.008863567374646664
0.021752748638391495,0.004565124399960041,-0.016107847914099693,0.011641240678727627,-0.0003019918513018638,-0.00916416384279728
0.021831564605236053,0.005121995694935322,-0.016857441514730453,0.011429688893258572,-0.0003211619914509356,-0.009260721504688263
0.022207744419574738,0.00501916091889143,-0.016553537920117378,0.011356830596923828,-0.00031606853008270264,-0.009327106177806854
0.0217431653290987,0.005297716241329908,-0.01679787039756775,0.01066109724342823,-0.0003389789490029216,-0.009475777857005596
0.02173280157148838,0.005476788617670536,-0.01608678512275219,0.010909399017691612,-0.00032867895788513124,-0.009252099320292473
0.02255708910524845,0.005106771364808083,-0.01653287746012211,0.011558398604393005,-0.0004205188015475869,-0.009085564874112606
0.02315101958811283,0.0046655056066811085,-0.01704269088804722,0.010733762755990028,-0.0004595837672241032,-0.00906399916857481
0.02329733781516552,0.0049382420256733894,-0.016741061583161354,0.010835904628038406,-0.0004324805049691349,-0.009319099597632885
0.022457484155893326,0.005255341529846191,-0.01721193455159664,0.01077168807387352,-0.00045867383596487343,-0.008495590649545193
0.022457484155893326,0.005255341529846191,-0.01721193455159664,0.01077168807387352,-0.00045867383596487343,-0.008495590649545193
0.02110728807747364,0.005157169885933399,-0.016902873292565346,0.010905128903687,-0.0004349017108324915,-0.009171631187200546
0.022563068196177483,0.005331102758646011,-0.01699848100543022,0.011692620813846588,-0.00046141541679389775,-0.00976615585386753
0.023063380271196365,0.005048290826380253,-0.017160190269351006,0.011615660972893238,-0.0005436348728835583,-0.009444599971175194
0.02288759872317314,0.004837818443775177,-0.016783282160758972,0.011704262346029282,-0.0005741121713072062,-0.009382370859384537
0.02226204052567482,0.005033157765865326,-0.017063654959201813,0.011532315984368324,-0.000610397954005748,-0.008902745321393013
0.02258235774934292,0.005246005021035671,-0.01661078631877899,0.011294439435005188,-0.0006218985072337091,-0.00942923128604889
0.023535072803497314,0.00518067879602313,-0.017470479011535645,0.011365666054189205,-0.0006257373024709523,-0.00943773239850998
0.023113185539841652,0.005332481116056442,-0.017517786473035812,0.010746882297098637,-0.0006106257787905633,-0.008809853345155716
0.02339375577867031,0.005084270145744085,-0.016766589134931564,0.011560371145606041,-0.0006952881813049316,-0.009367695078253746
0.02296311780810356,0.0047705513425171375,-0.016891146078705788,0.012348979711532593,-0.0007365030469372869,-0.009725922718644142
0.023004749789834023,0.004809553734958172,-0.01629684306681156,0.011872860603034496,-0.00073555379640311,-0.009655028581619263
0.024074114859104156,0.005099358968436718,-0.016894128173589706,0.0116734579205513,-0.0006915922276675701,-0.009845693595707417
0.023868482559919357,0.005311054643243551,-0.017020829021930695,0.011637073941528797,-0.0007097938796505332,-0.009970155544579029
0.02387804165482521,0.004962276667356491,-0.01701449789106846,0.011602281592786312,-0.0007379838498309255,-0.010190373286604881
0.023951072245836258,0.004517978522926569,-0.01664254441857338,0.011791467666625977,-0.0007030210108496249,-0.009850014932453632
0.023658985272049904,0.005065067205578089,-0.01744685508310795,0.01298221293836832,-0.0007150275050662458,-0.009424731135368347
0.024269113317131996,0.004890748765319586,-0.016834856942296028,0.01145719550549984,-0.0006981240585446358,-0.01040063239634037
0.024704856798052788,0.005232600960880518,-0.016732461750507355,0.011464635841548443,-0.0006739621749147773,-0.010492086410522461
0.024260370060801506,0.0050859455950558186,-0.017409654334187508,0.011911396868526936,-0.0007139889639802277,-0.010546674951910973
0.023854250088334084,0.004786287900060415,-0.016842177137732506,0.012180217541754246,-0.0006314648780971766,-0.010256356559693813
0.025366265326738358,0.004681451711803675,-0.017310064285993576,0.01263372041285038,-0.0006573059945367277,-0.010428164154291153
0.025074006989598274,0.00456404872238636,-0.0170600526034832,0.012386909686028957,-0.0006767798913642764,-0.010224451310932636
0.024792775511741638,0.004656565375626087,-0.017398981377482414,0.01157511305063963,-0.0006868888158351183,-0.010667448863387108
0.025056829676032066,0.004780941642820835,-0.017661159858107567,0.01253680419176817,-0.0007187753799371421,-0.010309669189155102
0.024980157613754272,0.004698592238128185,-0.01667436771094799,0.013122931122779846,-0.0007985393749549985,-0.009633023291826248
0.025431755930185318,0.004618379753082991,-0.017342744395136833,0.012966994196176529,-0.0008154814131557941,-0.010126050561666489
0.025430239737033844,0.00453995494171977,-0.01696253940463066,0.01319186296314001,-0.0008255928405560553,-0.009996594861149788
0.025430239737033844,0.00453995494171977,-0.01696253940463066,0.01319186296314001,-0.0008255928405560553,-0.009996594861149788
0.02576180174946785,0.004586337134242058,-0.01726575568318367,0.012790877372026443,-0.0007524242391809821,-0.009681890718638897
0.025971269235014915,0.004729113541543484,-0.017782460898160934,0.01291660312563181,-0.0008053719066083431,-0.0101079186424613
0.025445370003581047,0.005109405145049095,-0.017266856506466866,0.012871963903307915,-0.0007211035117506981,-0.00999606866389513
0.025510486215353012,0.005478980485349894,-0.017374390736222267,0.012754321098327637,-0.0007391638937406242,-0.010097971186041832
0.025999141857028008,0.004942376632243395,-0.017093108966946602,0.013088278472423553,-0.0007365795900113881,-0.010498303920030594
0.025669213384389877,0.004811387974768877,-0.017205720767378807,0.012807522900402546,-0.0006816440145485103,-0.010214809328317642
0.02591857500374317,0.004885359667241573,-0.017224887385964394,0.013199452310800552,-0.0006922850734554231,-0.010468541644513607
0.026598403230309486,0.004821829963475466,-0.0171213299036026,0.012387665919959545,-0.0006472243112511933,-0.011104500852525234
0.026273129507899284,0.005279631353914738,-0.017786769196391106,0.012508693151175976,-0.0005995174869894981,-0.010427981615066528
0.026789933443069458,0.005712244194000959,-0.01719394139945507,0.012549069710075855,-0.0006223774398677051,-0.009971972554922104
0.02701440267264843,0.005143013782799244,-0.017157619819045067,0.012960841879248619,-0.000569191703107208,-0.010410069487988949
0.026858266443014145,0.0051319473423063755,-0.017278794199228287,0.013001769781112671,-0.0005461900145746768,-0.010553489439189434
0.027005909010767937,0.0048873876221477985,-0.01783188432455063,0.013271545059978962,-0.0005048484890721738,-0.010983875021338463
0.026908421888947487,0.005366357043385506,-0.0173288993537426,0.01250473689287901,-0.0005165793700143695,-0.010546797886490822
0.027290722355246544,0.005301577039062977,-0.017461614683270454,0.013296656310558319,-0.0004962211241945624,-0.010804565623402596
0.02781292051076889,0.004972528666257858,-0.017452040687203407,0.013228869996964931,-0.0004651466733776033,-0.010878576897084713
0.028357256203889847,0.005068988539278507,-0.017437702044844627,0.013501035049557686,-0.0004483310040086508,-0.01072352472692728
0.027926115319132805,0.004970894195139408,-0.018000604584813118,0.013161350041627884,-0.0004104181716684252,-0.010956640355288982
0.025456596165895462,0.004825364798307419,-0.017460843548178673,0.013201562687754631,-0.00044114829506725073,-0.011044667102396488
0.02811468206346035,0.005126102827489376,-0.017554711550474167,0.01355181634426117,-0.0004159842210356146,-0.010906149633228779
0.028343454003334045,0.005063085351139307,-0.018153991550207138,0.013825585134327412,-0.0003867506457027048,-0.01097211055457592
0.027539348229765892,0.004832350183278322,-0.01740962639451027,0.013597528450191021,-0.00040517185698263347,-0.010451640002429485
0.027539348229765892,0.004832350183278322,-0.01740962639451027,0.013597528450191021,-0.00040517185698263347,-0.010451640002429485
0.028189856559038162,0.005099634174257517,-0.017983291298151016,0.013254434801638126,-0.00039364700205624104,-0.010629463009536266
0.02892446517944336,0.005163784604519606,-0.01817525178194046,0.013663983903825283,-0.0003713376063387841,-0.01106030959635973
0.029041698202490807,0.004498458933085203,-0.017570652067661285,0.013531835749745369,-0.0003507171350065619,-0.010855330154299736
0.0283193401992321,0.0039437576197087765,-0.01782892271876335,0.013802156783640385,-0.00037329428596422076,-0.010812679305672646
0.027242474257946014,0.0034602435771375895,-0.01769156940281391,0.013095303438603878,-0.00036023734719492495,-0.010703346692025661
0.028275107964873314,0.004145086742937565,-0.018259471282362938,0.013303100131452084,-0.0003778713580686599,-0.010789156891405582
0.028948618099093437,0.004326827358454466,-0.018249887973070145,0.013159154914319515,-0.0004199450777377933,-0.010825789533555508
0.028561435639858246,0.004195204935967922,-0.017288614064455032,0.013600937090814114,-0.0004422699275892228,-0.010915860533714294
0.02844005450606346,0.003942004404962063,-0.018163064494729042,0.013259910978376865,-0.00042756821494549513,-0.010951148346066475
0.028245406225323677,0.004253958817571402,-0.018159007653594017,0.013591133989393711,-0.00045088419574312866,-0.01097926963120699
0.02820827066898346,0.004070024937391281,-0.018249310553073883,0.013796757906675339,-0.0006002327427268028,-0.010668336413800716
0.028066076338291168,0.003990193363279104,-0.018421703949570656,0.014304039068520069,-0.0007334470865316689,-0.010933522135019302
0.028216106817126274,0.003964866045862436,-0.017927385866642,0.014005635865032673,-0.0007048861589282751,-0.010892311111092567
0.02834841050207615,0.004286597948521376,-0.018183939158916473,0.014545034617185593,-0.0007241813582368195,-0.010936267673969269
0.028344249352812767,0.004227825906127691,-0.018374493345618248,0.014035448431968689,-0.0007422296330332756,-0.01123017817735672
0.028314517810940742,0.0040365708991885185,-0.017472313717007637,0.013923044316470623,-0.0008183698519133031,-0.01125139556825161
0.028550157323479652,0.003937070723623037,-0.01830570213496685,0.013908350840210915,-0.0007362389587797225,-0.01168784499168396
0.02850072644650936,0.0042452565394341946,-0.018429215997457504,0.01384682022035122,-0.0007202224223874509,-0.011720258742570877
0.02935638092458248,0.004146340303122997,-0.019014893099665642,0.013888344168663025,-0.0006896690465509892,-0.0118257412686944
0.029037410393357277,0.003977315034717321,-0.018777970224618912,0.014203432947397232,-0.0007071716245263815,-0.012509464286267757
0.028736643493175507,0.004024172201752663,-0.01814095862209797,0.01434432901442051,-0.0006873184465803206,-0.011542657390236855
0.028543099761009216,0.0039017023518681526,-0.01854681223630905,0.014606651850044727,-0.0007013339200057089,-0.012021034024655819
0.029564063996076584,0.0038008184637874365,-0.018450425937771797,0.013974359259009361,-0.0007242774590849876,-0.012313890270888805
0.030254581943154335,0.003845142899081111,-0.01849893108010292,0.013626337051391602,-0.0007431108970195055,-0.01217603962868452
0.029675675556063652,0.004400696139782667,-0.01900067739188671,0.0133597357198596,-0.0006988536915741861,-0.012011872604489326
0.028591500595211983,0.004173163790255785,-0.018546754494309425,0.014336269348859787,-0.0008349937270395458,-0.012080126442015171
0.02895679511129856,0.003972380422055721,-0.01853475160896778,0.01417937409132719,-0.000851858058013022,-0.01217088382691145
0.02981634810566902,0.003858651965856552,-0.018607888370752335,0.014761031605303288,-0.0008032076875679195,-0.012379088439047337
0.029943428933620453,0.003822977188974619,-0.018172699958086014,0.014130816794931889,-0.0007591589819639921,-0.012503530830144882
0.029793675988912582,0.004356523510068655,-0.018838848918676376,0.014010675251483917,-0.0006805065204389393,-0.01252182200551033
0.030380867421627045,0.0045335316099226475,-0.019017310813069344,0.013391794636845589,-0.0006142798229120672,-0.01272979099303484
0.03011901304125786,0.004384894855320454,-0.018013296648859978,0.01439801324158907,-0.0006285430863499641,-0.012569056823849678
0.029972365126013756,0.0040507689118385315,-0.01840308867394924,0.013340093195438385,-0.0005866523133590817,-0.012427165172994137
0.02945198491215706,0.00411074748262763,-0.018775735050439835,0.013883276842534542,-0.0005429866723716259,-0.012577109970152378
0.029505455866456032,0.0040440745651721954,-0.01861630007624626,0.014047203585505486,-0.00046800519339740276,-0.012915085069835186
0.029505455866456032,0.0040440745651721954,-0.01861630007624626,0.014047203585505486,-0.00046800519339740276,-0.012915085069835186
0.02988124080002308,0.004360191989690065,-0.018857551738619804,0.01480030082166195,-0.0004150311287958175,-0.013154169544577599
0.03032878413796425,0.004214518237859011,-0.018415072932839394,0.01480658259242773,-0.00044476083712652326,-0.012736581265926361
0.030164023861289024,0.004465727135539055,-0.018424147740006447,0.015470301732420921,-0.000470435043098405,-0.013080041855573654
0.030107473954558372,0.004648866131901741,-0.018756341189146042,0.015218368731439114,-0.0004531100858002901,-0.012700594030320644
0.029787007719278336,0.0043062372133135796,-0.018647663295269012,0.01573965512216091,-0.0004800029273610562,-0.013179630041122437
0.03002733364701271,0.004351229872554541,-0.018671931698918343,0.015278450213372707,-0.0005679318564943969,-0.012918387539684772
0.03037877194583416,0.004566788207739592,-0.01906535215675831,0.015187851153314114,-0.000657521712128073,-0.01308388076722622
0.030544163659214973,0.004247281700372696,-0.0184294655919075,0.015402371063828468,-0.0006381848943419755,-0.013098827563226223
0.030731746926903725,0.004500698763877153,-0.0188971608877182,0.015536674298346043,-0.0006201013457030058,-0.01302366703748703
0.0312531478703022,0.004643610678613186,-0.019428173080086708,0.01577465422451496,-0.000602344109211117,-0.013174189254641533
0.031064216047525406,0.004337979480624199,-0.019390834495425224,0.0156481321901083,-0.0005522282444871962,-0.013310764916241169
0.03130373731255531,0.004496768582612276,-0.019537510350346565,0.016264300793409348,-0.0005752433789893985,-0.01338091492652893
0.03162717819213867,0.004920573439449072,-0.019405340775847435,0.016727162525057793,-0.0005430990131571889,-0.01330010499805212
0.03107326850295067,0.004330788739025593,-0.01906716264784336,0.01637882925570011,-0.0005727882380597293,-0.01353488303720951
0.030869660899043083,0.00436538178473711,-0.019721725955605507,0.01572047919034958,-0.0005928883329033852,-0.013763678260147572
0.03136428818106651,0.0049668666906654835,-0.01951717771589756,0.014997289516031742,-0.0005995163810439408,-0.01394942868500948
0.03145698830485344,0.005029885098338127,-0.020113090053200722,0.015185436233878136,-0.0007470239652320743,-0.013822154141962528
0.03170768916606903,0.004845063202083111,-0.019898671656847,0.015379652380943298,-0.0008865018025971949,-0.013505634851753712
0.03163910284638405,0.004372534342110157,-0.019445862621068954,0.01559137087315321,-0.0008629091316834092,-0.013517556712031364
0.03237716853618622,0.004310519900172949,-0.019704224541783333,0.015345984138548374,-0.0008104785811156034,-0.013446392491459846
0.03241240978240967,0.004465332720428705,-0.020951133221387863,0.015341265127062798,-0.0008168729254975915,-0.0139479860663414
0.032411929219961166,0.004393486771732569,-0.02023540437221527,0.015789417549967766,-0.0008666922803968191,-0.013710126280784607
0.03218388929963112,0.004602517932653427,-0.019466346129775047,0.01557166501879692,-0.0008180406875908375,-0.013837743550539017
0.03222844749689102,0.004558076616376638,-0.020514169707894325,0.015978746116161346,-0.0007651738123968244,-0.01386772096157074
0.03231348842382431,0.004630376119166613,-0.019994746893644333,0.015406379476189613,-0.0007273884257301688,-0.013995897956192493
0.031971074640750885,0.004598516505211592,-0.01946483924984932,0.01569151133298874,-0.0006950813112780452,-0.014095787890255451
0.03274187818169594,0.004204174503684044,-0.020087730139493942,0.015554314479231834,-0.0006287776632234454,-0.013937676325440407
0.033804118633270264,0.004446794278919697,-0.02078363671898842,0.015989065170288086,-0.0006316580693237484,-0.013684695586562157
0.03382745012640953,0.004264804534614086,-0.01995733752846718,0.016104664653539658,-0.0005976797547191381,-0.013596679084002972
0.03382745012640953,0.004264804534614086,-0.01995733752846718,0.016104664653539658,-0.0005976797547191381,-0.013596679084002972
0.032161761075258255,0.004438919480890036,-0.019752686843276024,0.015977472066879272,-0.0005529544432647526,-0.014125602319836617
0.032195039093494415,0.005011542700231075,-0.020260635763406754,0.015975352376699448,-0.00048038249951787293,-0.014373994432389736
0.03346586599946022,0.0045572868548333645,-0.020437128841876984,0.015471694059669971,-0.00046826183097437024,-0.014338443987071514
0.03291488066315651,0.004515041131526232,-0.01987757533788681,0.015738170593976974,-0.0005022850818932056,-0.014026209712028503
0.03420299291610718,0.004129588603973389,-0.020131148397922516,0.015343508683145046,-0.0004990864545106888,-0.014059482142329216
0.03414084389805794,0.004170576110482216,-0.0205114483833313,0.01614949479699135,-0.0005219765589572489,-0.013960132375359535
0.033501189202070236,0.004749217536300421,-0.019696731120347977,0.016274532303214073,-0.0006575456936843693,-0.014151639305055141
0.032667484134435654,0.004793829750269651,-0.02009730599820614,0.01686621643602848,-0.0007756024715490639,-0.013737990520894527
0.03324585407972336,0.004800002556294203,-0.020522303879261017,0.017162226140499115,-0.0007982475217431784,-0.013931283727288246
0.03404296562075615,0.004507548175752163,-0.020034784451127052,0.016933845356106758,-0.0007588520529679954,-0.014043976552784443
0.034943558275699615,0.0045938617549836636,-0.020651014521718025,0.01704423688352108,-0.0007011577836237848,-0.014695635065436363
0.03443016856908798,0.0046877567656338215,-0.020466728135943413,0.01694350503385067,-0.0007060749921947718,-0.014680190943181515
0.03443016856908798,0.0046877567656338215,-0.020466728135943413,0.01694350503385067,-0.0007060749921947718,-0.014680190943181515
0.0339413546025753,0.0045073372311890125,-0.020327657461166382,0.016380267217755318,-0.0006637508049607277,-0.014647187665104866
0.03466987609863281,0.004676501732319593,-0.020503414794802666,0.016743101179599762,-0.0006418042466975749,-0.014494639821350574
0.0341058112680912,0.004973082337528467,-0.02018032595515251,0.01668420620262623,-0.0006213343003764749,-0.014825929887592793
0.03439326211810112,0.004909496288746595,-0.020227152854204178,0.016967635601758957,-0.0005680704489350319,-0.014751927927136421
0.03447893261909485,0.0043743932619690895,-0.02056915871798992,0.0163236316293478,-0.0005903676501475275,-0.01488564070314169
0.03397577628493309,0.0049765766598284245,-0.02018468640744686,0.01652521826326847,-0.0005497800302691758,-0.015084797516465187
0.03413305804133415,0.004906761925667524,-0.020288972184062004,0.016942854970693588,-0.0005308947875164449,-0.015151170082390308
0.03450461104512215,0.0050235316157341,-0.020952677354216576,0.01691422052681446,-0.0004826848453376442,-0.015240814536809921
0.03598620370030403,0.0052064284682273865,-0.02084180898964405,0.01726371981203556,-0.0005115123349241912,-0.015287755988538265
0.03530406579375267,0.005180779844522476,-0.020090343430638313,0.016003567725419998,-0.0005149984499439597,-0.015214597806334496
0.033292535692453384,0.004601460415869951,-0.020604657009243965,0.016656309366226196,-0.0005442847032099962,-0.01525628101080656
0.03451921045780182,0.004977333825081587,-0.02092895098030567,0.016412682831287384,-0.0005402714596129954,-0.015547117218375206
0.03451921045780182,0.004977333825081587,-0.02092895098030567,0.016412682831287384,-0.0005402714596129954,-0.015547117218375206
0.03545551374554634,0.00499425595626235,-0.02047424577176571,0.016128141433000565,-0.0007444483926519752,-0.015653328970074654
0.03474126011133194,0.005195156205445528,-0.01994868367910385,0.01655317284166813,-0.0008054774953052402,-0.015451348386704922
0.03620192036032677,0.005008697044104338,-0.021037979051470757,0.016926269978284836,-0.0008193966932594776,-0.015533342957496643
0.03592677041888237,0.004705885425209999,-0.02147653140127659,0.017444057390093803,-0.0010366070782765746,-0.016064219176769257
0.034385666251182556,0.004613556899130344,-0.020591028034687042,0.017281416803598404,-0.0010573291219770908,-0.015760445967316628
0.034411247819662094,0.004644692409783602,-0.02050054259598255,0.017565660178661346,-0.0009224646491929889,-0.015901125967502594
0.03567177802324295,0.004959444049745798,-0.020724434405565262,0.017639420926570892,-0.0008526720339432359,-0.01536683738231659
0.035342127084732056,0.005067681428045034,-0.02109719254076481,0.017463641241192818,-0.0007994953775778413,-0.015489649027585983
0.03504786640405655,0.00490103755146265,-0.020602721720933914,0.01826287992298603,-0.0007125517004169524,-0.015703387558460236
0.035740967839956284,0.004611903335899115,-0.0208516176789999,0.01753907836973667,-0.0007189233438111842,-0.015638429671525955
0.03564900532364845,0.00422940356656909,-0.020989691838622093,0.017112858593463898,-0.0006633097073063254,-0.015511052682995796
0.03546648100018501,0.004017252940684557,-0.02174186147749424,0.017200972884893417,-0.0005508378962986171,-0.01528741605579853
0.03538815677165985,0.004446018487215042,-0.02098795771598816,0.01751808449625969,-0.00048562907613813877,-0.015231207013130188
0.0359567366540432,0.004755486734211445,-0.0209747776389122,0.01713835634291172,-0.0005165684269741178,-0.015466525219380856
0.035854801535606384,0.005002467427402735,-0.020763270556926727,0.017217092216014862,-0.000510333280544728,-0.015636274591088295
0.03613801673054695,0.004757735878229141,-0.021140892058610916,0.017737291753292084,-0.0005372166051529348,-0.016027135774493217
0.03619396686553955,0.004407008644193411,-0.02168859913945198,0.017651230096817017,-0.0005841139354743063,-0.015508479438722134
0.03616193309426308,0.004272671416401863,-0.021422842517495155,0.01775050349533558,-0.0006437958800233901,-0.015801887959241867
0.03617361932992935,0.004254993982613087,-0.020716655999422073,0.017677810043096542,-0.0006749710883013904,-0.015827922150492668
0.035051826387643814,0.004433474037796259,-0.02154770866036415,0.017387857660651207,-0.0006986319203861058,-0.01625298336148262
0.0367194227874279,0.004632793366909027,-0.02216728776693344,0.017893454059958458,-0.000682351179420948,-0.016616113483905792
0.03707781806588173,0.004578540101647377,-0.022094981744885445,0.017773836851119995,-0.0009542497573420405,-0.016310930252075195
0.036331601440906525,0.004366429056972265,-0.02095823548734188,0.017960168421268463,-0.0008902100962586701,-0.016334541141986847
0.036168042570352554,0.004067650530487299,-0.0208363588899374,0.017678910866379738,-0.0008877593791112304,-0.016094479709863663
0.036617934703826904,0.003860628930851817,-0.02218795008957386,0.017684055492281914,-0.0008813113090582192,-0.01581537164747715
0.036337029188871384,0.0040158359333872795,-0.021202370524406433,0.017785143107175827,-0.0008437400683760643,-0.015340398997068405
0.036819372326135635,0.004008584655821323,-0.020834624767303467,0.017007049173116684,-0.0007575339986942708,-0.015975963324308395
0.036819372326135635,0.004008584655821323,-0.020834624767303467,0.017007049173116684,-0.0007575339986942708,-0.015975963324308395
0.036648426204919815,0.004103474318981171,-0.022029787302017212,0.017526090145111084,-0.0007358622970059514,-0.016612187027931213
0.036648426204919815,0.004103474318981171,-0.022029787302017212,0.017526090145111084,-0.0007358622970059514,-0.016612187027931213
0.03633138909935951,0.004251297563314438,-0.02188502997159958,0.01734168455004692,-0.0007514468743465841,-0.016519401222467422
0.03601626679301262,0.004211248364299536,-0.02137443982064724,0.018033308908343315,-0.0007242519059218466,-0.015545102767646313
0.03803098946809769,0.004542841576039791,-0.021267125383019447,0.017714308574795723,-0.0008105917368084192,-0.015878481790423393
0.03770071268081665,0.004154962487518787,-0.02175757847726345,0.017648940905928612,-0.0008273739367723465,-0.016341429203748703
0.03560113534331322,0.0041620670817792416,-0.0218763779848814,0.017720581963658333,-0.0008648785878904164,-0.017128830775618553
0.03585946559906006,0.0045481533743441105,-0.021783795207738876,0.01718822307884693,-0.0010618764208629727,-0.01711101457476616
0.03714711219072342,0.004248845856636763,-0.02179512195289135,0.0175011046230793,-0.0011981235584244132,-0.016290441155433655
0.03700431063771248,0.004407327156513929,-0.022077972069382668,0.017737966030836105,-0.0011968150502070785,-0.015672672539949417
0.03824450820684433,0.0043211630545556545,-0.021775072440505028,0.01792852394282818,-0.0012323448900133371,-0.015446322970092297
0.038111694157123566,0.004567534197121859,-0.021099472418427467,0.018016543239355087,-0.0012004419695585966,-0.015935411676764488
0.03622153773903847,0.004257993306964636,-0.02145993523299694,0.017565570771694183,-0.001158757833763957,-0.016401443630456924
0.036949194967746735,0.003946385346353054,-0.021970689296722412,0.018415454775094986,-0.0011186945484951138,-0.016553178429603577
0.03826647996902466,0.004121278878301382,-0.022264551371335983,0.018058031797409058,-0.001034438144415617,-0.01670815423130989
0.03729620203375816,0.004393830895423889,-0.02140365168452263,0.018372604623436928,-0.0008606239571236074,-0.01625068113207817
0.03729620203375816,0.004393830895423889,-0.02140365168452263,0.018372604623436928,-0.0008606239571236074,-0.01625068113207817
0.037870824337005615,0.0039011663757264614,-0.021584555506706238,0.01783818006515503,-0.0008621237939223647,-0.016551321372389793
0.0380241833627224,0.004179289564490318,-0.02148405648767948,0.017883876338601112,-0.0007874554139561951,-0.0164913572371006
0.03751099854707718,0.004204567987471819,-0.021744443103671074,0.01774340495467186,-0.0008006821153685451,-0.01630966179072857
0.038256507366895676,0.004106332082301378,-0.022216102108359337,0.01803409308195114,-0.000805322197265923,-0.016220921650528908
0.037733159959316254,0.00395581079646945,-0.022110730409622192,0.019179776310920715,-0.0008022161782719195,-0.016815977171063423
0.037666309624910355,0.004337545484304428,-0.02177373319864273,0.018412435427308083,-0.0007505111279897392,-0.016589311882853508
0.03889550641179085,0.004220606759190559,-0.02163587510585785,0.01881558634340763,-0.00078678218415007,-0.016546854749321938
0.03886433318257332,0.00415815832093358,-0.02174418978393078,0.018285823985934258,-0.0008044185233302414,-0.016464393585920334
0.03674402832984924,0.004091602750122547,-0.022430120036005974,0.017397601157426834,-0.0008169076172634959,-0.01659638062119484
0.03747912496328354,0.003873869078233838,-0.022772397845983505,0.01880134642124176,-0.0008194201509468257,-0.016857516020536423
0.03762746974825859,0.0037943425122648478,-0.021665062755346298,0.018784459680318832,-0.0008173768874257803,-0.016403473913669586
0.03786225616931915,0.0044028665870428085,-0.022218292579054832,0.018474925309419632,-0.0008264880161732435,-0.01677146926522255
0.03786225616931915,0.0044028665870428085,-0.022218292579054832,0.018474925309419632,-0.0008264880161732435,-0.01677146926522255
0.03946736454963684,0.00448440108448267,-0.021746356040239334,0.018914511427283287,-0.0007750911754556,-0.01692075841128826
0.03817935287952423,0.004267320968210697,-0.021547291427850723,0.01894049532711506,-0.0008409777074120939,-0.016895508393645287
0.03847212344408035,0.004399113357067108,-0.02256990410387516,0.019583620131015778,-0.0009543161722831428,-0.01668325997889042
0.03847212344408035,0.004399113357067108,-0.02256990410387516,0.019583620131015778,-0.0009543161722831428,-0.01668325997889042
0.0388743095099926,0.004248584154993296,-0.022198162972927094,0.019520306959748268,-0.0008842492825351655,-0.01699645444750786
0.03849237784743309,0.004016851540654898,-0.021748244762420654,0.019234541803598404,-0.0008822174859233201,-0.01693837158381939
0.03815046697854996,0.003949411679059267,-0.0215714443475008,0.01929684355854988,-0.0008764724479988217,-0.01696692779660225
0.03839334473013878,0.004109001252800226,-0.022617995738983154,0.018888341262936592,-0.0008934270008467138,-0.0173651073127985
0.038371335715055466,0.004098933655768633,-0.022313928231596947,0.018629832193255424,-0.0009140581823885441,-0.01712292619049549
0.03882060572504997,0.0038784181233495474,-0.02305707335472107,0.018880076706409454,-0.0009224059176631272,-0.017055364325642586
0.03855758532881737,0.0037288449238985777,-0.022441741079092026,0.018950611352920532,-0.0009200912318192422,-0.01726759783923626
0.038706619292497635,0.003777214093133807,-0.021722838282585144,0.019137661904096603,-0.0009756141225807369,-0.017319001257419586
0.03908245265483856,0.004244877956807613,-0.022301778197288513,0.019297124817967415,-0.0009729382582008839,-0.017429033294320107
0.03940454497933388,0.004136983770877123,-0.023013222962617874,0.018781261518597603,-0.0009809744078665972,-0.017213575541973114
0.039283834397792816,0.003971894737333059,-0.022993968799710274,0.018469136208295822,-0.0009710876038298011,-0.017000500112771988
0.03981311619281769,0.003815380623564124,-0.022542890161275864,0.018759040161967278,-0.000982276163995266,-0.016835413873195648
0.039851706475019455,0.003787021152675152,-0.022743992507457733,0.01875581219792366,-0.0009705660631880164,-0.016958052292466164
0.039878878742456436,0.004106760025024414,-0.022842079401016235,0.01864316686987877,-0.0009609807748347521,-0.017189372330904007
0.03987162560224533,0.004225449170917273,-0.02250809781253338,0.01829974725842476,-0.0009688677382655442,-0.017475055530667305
0.040466390550136566,0.003569246269762516,-0.022557158023118973,0.018768807873129845,-0.0009555894648656249,-0.01731376349925995
0.04028156027197838,0.003539114026352763,-0.02280706912279129,0.0188269205391407,-0.000946902553550899,-0.017349261790513992
0.040376096963882446,0.0037394047249108553,-0.02330055646598339,0.01839364878833294,-0.000851971679367125,-0.017271649092435837
0.04055351763963699,0.003830395173281431,-0.02333804965019226,0.01883310079574585,-0.0008517472306266427,-0.01688969135284424
0.040317971259355545,0.0042964257299900055,-0.0227443166077137,0.019067170098423958,-0.000801925896666944,-0.01704171672463417
0.040453050285577774,0.0037731609772890806,-0.022175543010234833,0.018899425864219666,-0.0007810992537997663,-0.017119983211159706
0.040842022746801376,0.0035406900569796562,-0.022902056574821472,0.01927206479012966,-0.0007951320149004459,-0.01727655902504921
0.04039924591779709,0.0036348719149827957,-0.02296326868236065,0.019351867958903313,-0.0008348211995325983,-0.01736338995397091
0.040946803987026215,0.0041074021719396114,-0.02318212389945984,0.019246600568294525,-0.0009101347532123327,-0.017299238592386246
0.04209756478667259,0.004242811817675829,-0.023290123790502548,0.019402921199798584,-0.0010158149525523186,-0.017855104058980942
0.04071630910038948,0.004487043712288141,-0.02253095991909504,0.019482601433992386,-0.0010735430987551808,-0.017428435385227203
0.03982246667146683,0.004175062756985426,-0.022565100342035294,0.019422851502895355,-0.001165639841929078,-0.017428221181035042
0.04172687605023384,0.003967760596424341,-0.022787470370531082,0.019622018560767174,-0.0012427131878212094,-0.017713328823447227
0.041194215416908264,0.003937349654734135,-0.0229320228099823,0.019635900855064392,-0.001185799716040492,-0.018921541050076485
0.041727084666490555,0.004128604661673307,-0.022590963169932365,0.019415341317653656,-0.0010159502271562815,-0.01801947131752968
0.041727084666490555,0.004128604661673307,-0.022590963169932365,0.019415341317653656,-0.0010159502271562815,-0.01801947131752968
0.042859409004449844,0.004075499251484871,-0.02273314632475376,0.019825512543320656,-0.0009352774941362441,-0.017900800332427025
0.040111467242240906,0.00394450593739748,-0.02312757447361946,0.01941714622080326,-0.000875238562002778,-0.01834673061966896
0.04164188355207443,0.004300534725189209,-0.02302221767604351,0.019336363300681114,-0.0008168341591954231,-0.0182918980717659
0.04169973358511925,0.004571952391415834,-0.023006075993180275,0.019490880891680717,-0.0008565416210331023,-0.018099362030625343
0.04212819039821625,0.004212834872305393,-0.022735022008419037,0.019920311868190765,-0.0008638921426609159,-0.017675962299108505
0.041537828743457794,0.003965188283473253,-0.022646088153123856,0.019852813333272934,-0.0007984578260220587,-0.01833854243159294
0.04176849126815796,0.004274772014468908,-0.023273635655641556,0.02003398723900318,-0.0010127455461770296,-0.018507415428757668
0.04186161980032921,0.0041697039268910885,-0.02300998754799366,0.020450733602046967,-0.001006422913633287,-0.01903662458062172
0.04191233217716217,0.004223196767270565,-0.02254066802561283,0.020168686285614967,-0.0010248456383123994,-0.019054193049669266
0.04215220361948013,0.004377901088446379,-0.02300148271024227,0.020835498347878456,-0.0009126240620389581,-0.01868930272758007
0.04351387545466423,0.004526594653725624,-0.02367398515343666,0.020939329639077187,-0.0009072351967915893,-0.019021814689040184
0.04035482928156853,0.00438185129314661,-0.023753473535180092,0.020652715116739273,-0.000905909517314285,-0.019006414338946342
0.04167046397924423,0.004448427818715572,-0.02355813980102539,0.020670203492045403,-0.0009178825421258807,-0.01901923306286335
