davideferrari95/blind_handover_controller/data/Test 26 - [2024-02-07 -- 14-37-59]/joint_states_data.csv
shoulder_pan_joint,shoulder_lift_joint,elbow_joint,wrist_1_joint,wrist_2_joint,wrist_3_joint
0.006076018325984478,-0.008188021369278431,-0.01026876363903284,0.01590578444302082,0.0,0.00633162772282958
0.005391726270318031,-0.008113167248666286,-0.010355348698794842,0.015143385156989098,0.0,0.0068405247293412685
0.005391726270318031,-0.008113167248666286,-0.010355348698794842,0.015143385156989098,0.0,0.0068405247293412685
0.005682217422872782,-0.00789791438728571,-0.011028425768017769,0.015497155487537384,0.0,0.006417850963771343
0.006441853009164333,-0.00891847163438797,-0.009986874647438526,0.015359132550656796,0.0,0.005939778871834278
0.0060088373720645905,-0.008427887223660946,-0.009967513382434845,0.01604733057320118,0.0,0.0058928183279931545
0.005752422381192446,-0.008291464298963547,-0.010845912620425224,0.01533345878124237,0.0,0.006499561946839094
0.00533702690154314,-0.008656349033117294,-0.010435894131660461,0.015428361482918262,0.0,0.0067461030557751656
0.005722931120544672,-0.008669535629451275,-0.009865893982350826,0.015564525499939919,0.0,0.0062517873011529446
0.00588836707174778,-0.008253954350948334,-0.010280177928507328,0.015790902078151703,0.0,0.006142393220216036
0.00603235000744462,-0.008247610181570053,-0.010360206477344036,0.015666889026761055,0.0,0.005789982154965401
0.00603235000744462,-0.008247610181570053,-0.010360206477344036,0.015666889026761055,0.0,0.005789982154965401
0.005731942597776651,-0.008719438686966896,-0.010195894166827202,0.015709299594163895,0.0,0.006733700633049011
0.005731942597776651,-0.008719438686966896,-0.010195894166827202,0.015709299594163895,0.0,0.006733700633049011
0.006033641751855612,-0.008169199340045452,-0.010482385754585266,0.015377012081444263,0.0,0.006178109906613827
0.006656818091869354,-0.008511743508279324,-0.010777912102639675,0.01566145196557045,0.0,0.005968398880213499
0.006218077149242163,-0.008494608104228973,-0.010119389742612839,0.015506829135119915,0.0,0.006134474650025368
0.005504073575139046,-0.008174546994268894,-0.009694940410554409,0.01573627069592476,0.0,0.006951098330318928
0.005928603000938892,-0.007981142960488796,-0.010768299922347069,0.01507947500795126,0.0,0.006464329548180103
0.005605517420917749,-0.008339437656104565,-0.010380931198596954,0.015440884046256542,0.0,0.005796439480036497
0.006036111619323492,-0.008465743623673916,-0.00981821957975626,0.0155619066208601,0.0,0.005772136617451906
0.00633386941626668,-0.0075949677266180515,-0.010227571241557598,0.016026237979531288,0.0,0.006141286808997393
0.006028143689036369,-0.007931170985102654,-0.00977215077728033,0.016088908538222313,0.0,0.0067854044027626514
0.005775096360594034,-0.008162273094058037,-0.010093011893332005,0.01590290665626526,0.0,0.0067373341880738735
0.006235160399228334,-0.00782330334186554,-0.009714887477457523,0.015554329380393028,0.0,0.0056624989956617355
0.006410281639546156,-0.008225575089454651,-0.009983635507524014,0.015888363122940063,0.0,0.005793536081910133
0.006072278134524822,-0.00772187439724803,-0.010323705151677132,0.015723949298262596,-4.004292804893339e-06,0.006212721578776836
0.006108270026743412,-0.006111483555287123,-0.00968271866440773,0.016360780224204063,-2.614517313759279e-07,0.006239112466573715
0.005908808670938015,-0.005780297797173262,-0.010146744549274445,0.015650874003767967,-1.707092955882672e-08,0.006099371239542961
0.005879067350178957,-0.006579485256224871,-0.010705821216106415,0.01577284000813961,-1.114609626817753e-09,0.00589404022321105
0.006187515798956156,-0.006619135849177837,-0.009994144551455975,0.015722088515758514,-7.277604907596213e-11,0.0063543315045535564
0.006076295394450426,-0.006974484771490097,-0.010673399083316326,0.015917478129267693,-4.751756280119146e-12,0.006637135986238718
0.006178847048431635,-0.0064231026917696,-0.010059957392513752,0.01656693033874035,-3.1025572735932094e-13,0.006584432907402515
0.0062568834982812405,-0.006063415203243494,-0.009802925400435925,0.01645825244486332,-2.0257484112471552e-14,0.006357889156788588
0.006015876308083534,-0.005897417664527893,-0.010662100277841091,0.016457708552479744,-1.3226690521919021e-15,0.006894954480230808
0.006283488590270281,-0.006212835665792227,-0.01091928780078888,0.015333987772464752,-8.636083894153319e-17,0.00705289002507925
0.006633271463215351,-0.0064794886857271194,-0.009967795573174953,0.015591385774314404,-5.638745479166793e-18,0.005885616410523653
0.00587683217599988,-0.0058846864849328995,-0.010332588106393814,0.015392997302114964,-3.681697671424388e-19,0.005248129367828369
0.005875034723430872,-0.0057248626835644245,-0.010136737488210201,0.015989013016223907,-2.4038857340116927e-20,0.006172930356115103
0.0058548832312226295,-0.005795943085104227,-0.010302405804395676,0.015875009819865227,-1.5695655187965667e-21,0.006719913799315691
0.006170290522277355,-0.006091725546866655,-0.011048899963498116,0.01653316803276539,-1.024814124464665e-22,0.006444850005209446
0.006290356628596783,-0.006451399996876717,-0.010089116171002388,0.016572456806898117,-6.691304369258254e-24,0.0062713585793972015
0.0060890852473676205,-0.0056851147674024105,-0.009728931821882725,0.014772391878068447,-4.368943421004872e-25,0.005909173749387264
0.005902149714529514,-0.0059073613956570625,-0.010079148225486279,0.0158474650233984,-2.8526079312382694e-26,0.006320752669125795
0.005902149714529514,-0.0059073613956570625,-0.010079148225486279,0.0158474650233984,-2.8526079312382694e-26,0.006320752669125795
0.005446741357445717,-0.0058549996465444565,-0.01060232799500227,0.016001619398593903,-1.8625491306614074e-27,0.006547773256897926
0.005793523509055376,-0.006274264771491289,-0.0100181195884943,0.016525529325008392,-1.2161113707550636e-28,0.006839771755039692
0.005630722735077143,-0.005942860618233681,-0.009963980875909328,0.015517999418079853,-7.940338326810144e-30,0.006373101379722357
0.006001573521643877,-0.005737087689340115,-0.009713421575725079,0.01586456038057804,-5.184473635714108e-31,0.006231274455785751
0.005722942762076855,-0.0061216712929308414,-0.011010757647454739,0.015861088410019875,-3.38509047771973e-32,0.006469235755503178
0.0058242860250175,-0.005896899849176407,-0.010310102254152298,0.016299789771437645,-2.2102221511076522e-33,0.006519658956676722
0.005639989394694567,-0.0064173731952905655,-0.009405247867107391,0.015352175571024418,-1.4431173359229486e-34,0.006595197133719921
0.006144307088106871,-0.005638700444251299,-0.010930250398814678,0.015453079715371132,-6.152235666503196e-37,0.0065507725812494755
0.005495335906744003,-0.005993114318698645,-0.009995540603995323,0.01551103126257658,-4.016970025104921e-38,0.0061965519562363625
0.005934687331318855,-0.006018853280693293,-0.010164570063352585,0.015967238694429398,-2.6227949213936525e-39,0.006444677244871855
0.005983682349324226,-0.006405154708772898,-0.010523567907512188,0.01563313975930214,-1.7124988272820724e-40,0.006669424474239349
0.00612499238923192,-0.006554540246725082,-0.00994251947849989,0.01534227840602398,-1.1180960446847715e-41,0.0068572391755878925
0.0055552697740495205,-0.006021531298756599,-0.010624059475958347,0.01482054777443409,-7.300764999132297e-43,0.006834144238382578
0.0058805327862501144,-0.005757210310548544,-0.010208924300968647,0.015577560290694237,-4.764414778704378e-44,0.00637854915112257
0.005685863085091114,-0.0059159728698432446,-0.009789535775780678,0.015248078852891922,-2.802596928649634e-45,0.006345735862851143
0.0059572858735919,-0.006262213457375765,-0.010608716867864132,0.015668898820877075,-0.0,0.006379738915711641
0.006111028138548136,-0.006104705855250359,-0.010029136203229427,0.015329616144299507,-0.0,0.006148353684693575
0.005854207556694746,-0.005659658927470446,-0.010439801961183548,0.01568741910159588,-0.0,0.006270522717386484
0.006140299141407013,-0.006140653509646654,-0.010254696942865849,0.01573990099132061,-0.0,0.006601428147405386
0.00582532724365592,-0.005590712185949087,-0.010048659518361092,0.015624336898326874,-0.0,0.006631098221987486
0.006087079644203186,-0.005334337241947651,-0.010384461842477322,0.015525358729064465,-0.0,0.006154504604637623
0.006138933822512627,-0.005571471992880106,-0.010462610982358456,0.015548781491816044,-0.0,0.006117354612797499
0.005975694861263037,-0.006024527829140425,-0.010161126032471657,0.01599850319325924,-0.0,0.00595477782189846
0.00602905685082078,-0.005840857047587633,-0.009926041588187218,0.015380850061774254,-0.0,0.006493226159363985
0.005844518542289734,-0.005746176932007074,-0.010186306200921535,0.01563946157693863,-0.0,0.00644060829654336
0.006038476713001728,-0.006073376163840294,-0.010052450001239777,0.015433351509273052,-0.0,0.006077207159250975
0.006497671827673912,-0.005505487322807312,-0.010342338122427464,0.01583082042634487,-0.0,0.006234261207282543
0.006497671827673912,-0.005505487322807312,-0.010342338122427464,0.01583082042634487,-0.0,0.006234261207282543
0.005925522185862064,-0.005610913969576359,-0.009755278006196022,0.015528043732047081,-0.0,0.0059265256859362125
0.005925522185862064,-0.005610913969576359,-0.009755278006196022,0.015528043732047081,-0.0,0.0059265256859362125
0.006566646508872509,-0.005875045899301767,-0.010576237924396992,0.01517327968031168,-0.0,0.006515882909297943
0.0061357393860816956,-0.006284106057137251,-0.01041494496166706,0.015703970566391945,-0.0,0.005919191986322403
0.006077965255826712,-0.006138115655630827,-0.010240471921861172,0.015874667093157768,-0.0,0.005870092194527388
0.0064993142150342464,-0.005831652320921421,-0.010274277068674564,0.015902826562523842,-0.0,0.005672462284564972
0.005864279810339212,-0.005550807807594538,-0.010202879086136818,0.015950720757246017,-0.0,0.0057546645402908325
0.006066181696951389,-0.0060403854586184025,-0.009601280093193054,0.015647754073143005,-0.0,0.0063567752949893475
0.006091912742704153,-0.005706573370844126,-0.010465726256370544,0.0157508235424757,-0.0,0.0061003053560853004
0.006316693499684334,-0.0060954405926167965,-0.010130617767572403,0.015290074050426483,-0.0,0.006123465020209551
0.006053222343325615,-0.0054474701173603535,-0.011027074418962002,0.014768548309803009,-0.0,0.006142345257103443
0.006280861794948578,-0.006031460128724575,-0.009672903455793858,0.01565724052488804,-0.0,0.006781355477869511
0.006320231594145298,-0.006064203102141619,-0.010320406407117844,0.015397262759506702,-0.0,0.0067579131573438644
0.006565378978848457,-0.006191279739141464,-0.010437141172587872,0.015459874644875526,-0.0,0.006396336015313864
0.006581650115549564,-0.005658474750816822,-0.010395307093858719,0.014947605319321156,-0.0,0.006175371818244457
0.005960243288427591,-0.0057198056019842625,-0.010263164527714252,0.014880863018333912,-0.0,0.006697067059576511
0.006697267759591341,-0.0059217000380158424,-0.010580611415207386,0.01492195762693882,-0.0,0.0069241891615092754
0.006457048002630472,-0.006010269280523062,-0.010278163477778435,0.015461231581866741,-0.0,0.006507202982902527
0.006093144416809082,-0.0058788820169866085,-0.010329535230994225,0.016477640718221664,-0.0,0.006426637060940266
0.006236833054572344,-0.005558582954108715,-0.010721465572714806,0.016097696498036385,-0.0,0.006755806505680084
0.006419491022825241,-0.005582836456596851,-0.010289718396961689,0.015927935019135475,-0.0,0.006796730682253838
0.006335461512207985,-0.005273494403809309,-0.010839903727173805,0.015194770880043507,-0.0,0.007055365014821291
0.006189125590026379,-0.005465570837259293,-0.010729080066084862,0.016609318554401398,-0.0,0.0064859031699597836
0.006174291484057903,-0.005769039038568735,-0.010630758479237556,0.014477123506367207,-0.0,0.006264989264309406
0.0060207173228263855,-0.00593040743842721,-0.01117682084441185,0.01476234756410122,-0.0,0.0065314192324876785
0.0060207173228263855,-0.00593040743842721,-0.01117682084441185,0.01476234756410122,-0.0,0.0065314192324876785
0.006488078273832798,-0.005529377609491348,-0.010426292195916176,0.014753141440451145,-0.0,0.006354182027280331
0.0066553824581205845,-0.00564097985625267,-0.010563082061707973,0.015768034383654594,-0.0,0.006509460974484682
0.0065507167018949986,-0.00585536565631628,-0.010729632340371609,0.015955014154314995,-0.0,0.006343711633235216
0.006195319350808859,-0.006177437957376242,-0.01012160163372755,0.015868300572037697,-0.0,0.006433839909732342
0.006087477784603834,-0.005690665915608406,-0.010632491670548916,0.015545991249382496,-0.0,0.006719836965203285
0.006240091752260923,-0.005676101893186569,-0.010767447762191296,0.015526240691542625,-0.0,0.0065843150950968266
0.00639236019924283,-0.005806229542940855,-0.010614226572215557,0.0158175528049469,-0.0,0.006620404776185751
0.0063945092260837555,-0.005875874310731888,-0.011087148450314999,0.015992917120456696,-0.0,0.006234563887119293
0.0058770207688212395,-0.005832585506141186,-0.010791552253067493,0.01565883494913578,-0.0,0.006478770170360804
0.006765754893422127,-0.006239240523427725,-0.01075444370508194,0.016207145527005196,-0.0,0.006449323613196611
0.006739199627190828,-0.005704520270228386,-0.010787826962769032,0.015046648681163788,-0.0,0.0065290313214063644
0.006617049220949411,-0.0058891610242426395,-0.011400526389479637,0.014962964691221714,-0.0,0.006347034126520157
0.006672630086541176,-0.005946739111095667,-0.011063850484788418,0.014722533524036407,-0.0,0.006637106649577618
0.006503688637167215,-0.006035312078893185,-0.010430595837533474,0.014980516396462917,-0.0,0.006641526240855455
0.006535484455525875,-0.005941065959632397,-0.011026285588741302,0.015343578532338142,-0.0,0.006491038948297501
0.006758976262062788,-0.005569933447986841,-0.011242774315178394,0.015983931720256805,-0.0,0.006934181321412325
0.0063033499754965305,-0.005534598138183355,-0.010103734210133553,0.015920579433441162,-0.0,0.006873039994388819
0.0063765402883291245,-0.005764453671872616,-0.01006158534437418,0.015622894279658794,-0.0,0.007671416271477938
0.006612221710383892,-0.006127271335572004,-0.009802923537790775,0.01543141808360815,-0.0,0.006885144393891096
0.006488693878054619,-0.0061488221399486065,-0.010824312455952168,0.015017877332866192,-0.0,0.005529232323169708
0.006488693878054619,-0.0061488221399486065,-0.010824312455952168,0.015017877332866192,-0.0,0.005529232323169708
0.006163554731756449,-0.005972306244075298,-0.010352423414587975,0.015298208221793175,-0.0,0.0061976066790521145
0.006657342426478863,-0.0061347284354269505,-0.009871289134025574,0.015869032591581345,-0.0,0.00674778874963522
0.0066850208677351475,-0.006207800004631281,-0.010305986739695072,0.015769358724355698,-0.0,0.006957371719181538
0.0066850208677351475,-0.006207800004631281,-0.010305986739695072,0.015769358724355698,-0.0,0.006957371719181538
0.006565614603459835,-0.005738529376685619,-0.008881481364369392,0.015444767661392689,-0.0,0.006805944722145796
0.006565614603459835,-0.005738529376685619,-0.008881481364369392,0.015444767661392689,-0.0,0.006805944722145796
0.007225272245705128,-0.006259643007069826,-0.010711063630878925,0.015534446574747562,-0.0,0.006791123654693365
0.006851432379335165,-0.006000360008329153,-0.01042032241821289,0.01517827995121479,-0.0,0.006650057155638933
0.0066698030568659306,-0.005897558759897947,-0.010487565770745277,0.015817759558558464,-0.0,0.006403334438800812
0.0066698030568659306,-0.005897558759897947,-0.010487565770745277,0.015817759558558464,-0.0,0.006403334438800812
0.006424758583307266,-0.005592032335698605,-0.009683237411081791,0.01577468402683735,-0.0,0.006560012232512236
0.007120278663933277,-0.006219800096005201,-0.009960913099348545,0.0156449805945158,-0.0,0.006649378687143326
0.007527375128120184,-0.006396240089088678,-0.010118038393557072,0.01513818372040987,-0.0,0.006506316363811493
0.006789572536945343,-0.00623674551025033,-0.010301519185304642,0.015369080938398838,-0.0,0.006375326309353113
0.0065668984316289425,-0.006037719082087278,-0.011264611035585403,0.014931695535779,-0.0,0.006901146844029427
0.006908520590513945,-0.006258893758058548,-0.009617200121283531,0.014973526820540428,-0.0,0.006754142232239246
0.007169961463660002,-0.0064470828510820866,-0.010190929286181927,0.015492483042180538,-0.0,0.006691000424325466
0.006715597119182348,-0.007383063435554504,-0.01037494745105505,0.01501210406422615,-0.0,0.006815573200583458
0.007229773327708244,-0.0063028051517903805,-0.009512264281511307,0.015436229296028614,-0.0,0.007245304994285107
0.007533239666372538,-0.005822016857564449,-0.010150138288736343,0.015195409767329693,-0.0,0.0074622249230742455
0.007525194436311722,-0.006361277773976326,-0.010043144226074219,0.015410215593874454,-0.0,0.007050151936709881
0.006990032736212015,-0.006456918083131313,-0.010760038159787655,0.014785419218242168,-0.0,0.006337515078485012
0.006844121031463146,-0.006792872212827206,-0.011094237677752972,0.01509388629347086,-0.0,0.006487153470516205
0.007403296418488026,-0.006297628860920668,-0.009965424425899982,0.014589330181479454,-0.0,0.006830659694969654
0.007511348929256201,-0.005942672956734896,-0.0097604775801301,0.015095647424459457,-0.0,0.0069108079187572
0.0069810315035283566,-0.006334033329039812,-0.010499734431505203,0.01494278758764267,-0.0,0.006874190643429756
0.0069810315035283566,-0.006334033329039812,-0.010499734431505203,0.01494278758764267,-0.0,0.006874190643429756
0.006728217005729675,-0.006628541275858879,-0.009950690902769566,0.016759242862462997,-0.0,0.006574246101081371
0.007322744466364384,-0.006914778146892786,-0.010886370204389095,0.014753535389900208,-0.0,0.007092293351888657
0.007281967904418707,-0.006291573401540518,-0.010981586761772633,0.014849456027150154,-0.0,0.006887554656714201
0.007088819984346628,-0.006414442788809538,-0.01019698940217495,0.014980899170041084,-0.0,0.007004181854426861
0.007458352949470282,-0.006696726195514202,-0.010729226283729076,0.015180209651589394,-0.0,0.006977214477956295
0.007789580151438713,-0.006976884789764881,-0.010569258593022823,0.01522997859865427,-0.0,0.007443390320986509
0.007561066187918186,-0.0067001222632825375,-0.009992231614887714,0.015070905908942223,-0.0,0.0070227645337581635
0.0076026516035199165,-0.006469519343227148,-0.010246271267533302,0.015462901443243027,-0.0,0.006760398857295513
0.0076026516035199165,-0.006469519343227148,-0.010246271267533302,0.015462901443243027,-0.0,0.006760398857295513
0.00784258171916008,-0.006964229047298431,-0.010312218219041824,0.0157766230404377,-0.0,0.007113710045814514
0.007160557433962822,-0.007032393012195826,-0.011035505682229996,0.015217093750834465,-0.0,0.00695025222375989
0.007232743315398693,-0.006296071689575911,-0.011123383417725563,0.015609153546392918,-0.0,0.006761972792446613
0.0075240954756736755,-0.006231016479432583,-0.010164317674934864,0.014856286346912384,-0.0,0.006561508402228355
0.007669304963201284,-0.006845074240118265,-0.009891994297504425,0.015095585957169533,-0.0,0.007081537041813135
0.007494745310395956,-0.006931701675057411,-0.009816441684961319,0.01487758569419384,-0.0,0.007576496805995703
0.007387043442577124,-0.006562322843819857,-0.010998368263244629,0.015327048487961292,-0.0,0.006899396423250437
0.008024022914469242,-0.00607717502862215,-0.011072224006056786,0.014904222451150417,-0.0,0.006934960372745991
0.007821247912943363,-0.006949098315089941,-0.010691670700907707,0.01495470479130745,-0.0,0.00725302379578352
0.0074089872650802135,-0.006863032467663288,-0.010675623081624508,0.015490916557610035,-0.0,0.007190397474914789
0.007456188090145588,-0.0059566800482571125,-0.009829655289649963,0.015574871562421322,-0.0,0.007070985157042742
0.008001506328582764,-0.006464759353548288,-0.010287268087267876,0.015627196058630943,-0.0,0.007184696849435568
0.007559674791991711,-0.006503023207187653,-0.010689948685467243,0.015572053380310535,-0.0,0.007534135598689318
0.00733091589063406,-0.005886010825634003,-0.010050502605736256,0.01506746094673872,-0.0,0.007670504041016102
0.008063721470534801,-0.004791914019733667,-0.010745294392108917,0.015208124183118343,-0.0,0.007120030932128429
0.008316478691995144,-0.004641490522772074,-0.010742989368736744,0.01495429314672947,-0.0,0.007352815009653568
0.007675903849303722,-0.005042583681643009,-0.010071303695440292,0.015406093560159206,-0.0,0.007739576976746321
0.007447355892509222,-0.005514957942068577,-0.01024814322590828,0.014963071793317795,-0.0,0.007699677255004644
0.007962331175804138,-0.005543386563658714,-0.010303485207259655,0.015152303501963615,-0.0,0.00686337985098362
0.0077461241744458675,-0.005028216168284416,-0.011289464309811592,0.01477238442748785,-0.0,0.006721873767673969
0.007687142584472895,-0.0049106827937066555,-0.010379943065345287,0.015810733661055565,-0.0,0.0071545615792274475
0.007397384848445654,-0.004709320608526468,-0.00987319927662611,0.015291369520127773,-0.0,0.0072436826303601265
0.007677452173084021,-0.0048027304001152515,-0.010682358406484127,0.01501517929136753,-0.0,0.007161473389714956
0.008301492780447006,-0.004553013946861029,-0.010057232342660427,0.014662927016615868,-0.0,0.007055159658193588
0.008494384586811066,-0.004606257192790508,-0.009655722416937351,0.01532046590000391,-0.0,0.007028710097074509
0.00804012082517147,-0.004975191317498684,-0.010538245551288128,0.015422237105667591,-0.0,0.007467858958989382
0.00804012082517147,-0.004975191317498684,-0.010538245551288128,0.015422237105667591,-0.0,0.007467858958989382
0.007875620387494564,-0.004491211846470833,-0.010057730600237846,0.016378123313188553,-0.0,0.007410415448248386
0.007712744642049074,-0.004518358036875725,-0.010029713623225689,0.015566275455057621,-0.0,0.007223553955554962
0.00792812742292881,-0.004234371706843376,-0.010700049810111523,0.014947716146707535,-0.0,0.007266302593052387
0.00772149907425046,-0.004072152078151703,-0.010469281114637852,0.01497999019920826,-0.0,0.00741320988163352
0.007993503473699093,-0.004276768770068884,-0.009874390438199043,0.014763905666768551,-0.0,0.007260473445057869
0.00777848158031702,-0.004514698870480061,-0.01084938459098339,0.015094269998371601,-0.0,0.007272594142705202
0.0074463775381445885,-0.004256570246070623,-0.010486144572496414,0.015177245251834393,-0.0,0.007281698286533356
0.008780413307249546,-0.004506612196564674,-0.010300058871507645,0.015553858131170273,-0.0,0.008149923756718636
0.008110770024359226,-0.004196771886199713,-0.010612976737320423,0.01529690995812416,-0.0,0.007329507730901241
0.008149000816047192,-0.003923085983842611,-0.009988523088395596,0.016102975234389305,-0.0,0.007135636173188686
0.008376398123800755,-0.004316315054893494,-0.010326778516173363,0.015630166977643967,-0.0,0.007596300914883614
0.00837174616754055,-0.004488490987569094,-0.009936916641891003,0.015059879049658775,-0.0,0.0077179293148219585
0.008177201263606548,-0.004311662632972002,-0.01074827741831541,0.01611034944653511,-0.0,0.007454538252204657
0.008127065375447273,-0.004341735038906336,-0.011022239923477173,0.01518733985722065,-0.0,0.0075298179872334
0.008699854835867882,-0.004476598929613829,-0.010571639984846115,0.014732299372553825,-0.0,0.007491270080208778
0.008163465186953545,-0.004306477028876543,-0.011056262999773026,0.015173076651990414,-0.0,0.007150998339056969
0.007813595235347748,-0.004102581646293402,-0.010250262916088104,0.015417831018567085,-0.0,0.007692836225032806
0.00823523011058569,-0.004385314416140318,-0.010243049822747707,0.015720460563898087,-0.0,0.007845364511013031
0.008801184594631195,-0.004499667789787054,-0.011111870408058167,0.015441368333995342,-0.0,0.00794281717389822
0.008448089472949505,-0.004241859540343285,-0.01076412945985794,0.015371601097285748,-0.0,0.0074604772962629795
0.008276943117380142,-0.004350962117314339,-0.011325422674417496,0.014811432920396328,-0.0,0.007334873080253601
0.008276943117380142,-0.004350962117314339,-0.011325422674417496,0.014811432920396328,-0.0,0.007334873080253601
0.00902541447430849,-0.0041199298575520515,-0.011714396998286247,0.015647144988179207,-0.0,0.007464556023478508
0.008198174647986889,-0.004301263950765133,-0.010763167403638363,0.015548810362815857,-0.0,0.007807994727045298
0.007915252819657326,-0.004280633758753538,-0.01118503324687481,0.016283201053738594,-0.0,0.007528288755565882
0.008176482282578945,-0.004504775162786245,-0.010361909866333008,0.015159068629145622,-0.0,0.008000765927135944
0.008948992006480694,-0.004377750214189291,-0.010361414402723312,0.01499193999916315,-0.0,0.007832469418644905
0.008245937526226044,-0.0043077473528683186,-0.010925840586423874,0.015106067061424255,-0.0,0.008085576817393303
0.008409093134105206,-0.004376512486487627,-0.010304330848157406,0.01540986355394125,-0.0,0.007845479995012283
0.00839932356029749,-0.004530295263975859,-0.010806770995259285,0.01517209131270647,-0.0,0.007667713798582554
0.008490076288580894,-0.0046081566251814365,-0.010864362120628357,0.015222912654280663,-0.0,0.00815923698246479
0.008447457104921341,-0.004339464008808136,-0.010428107343614101,0.015043038874864578,-0.0,0.00794118084013462
0.008557932451367378,-0.0044688330963253975,-0.011093261651694775,0.015613624826073647,-0.0,0.00768229691311717
0.008625580929219723,-0.004974505864083767,-0.011060771532356739,0.01556104514747858,-0.0,0.008032195270061493
0.00854470580816269,-0.005073015112429857,-0.011011186987161636,0.015340256504714489,-0.0,0.008320270106196404
0.008280294016003609,-0.004636769182980061,-0.011248774826526642,0.015586800873279572,-0.0,0.00805197935551405
0.008712314069271088,-0.004325497429817915,-0.01063670963048935,0.014970221556723118,-0.0,0.007589643355458975
0.008137684315443039,-0.004730059765279293,-0.011051692999899387,0.015143778175115585,-0.0,0.008327137678861618
0.008406837470829487,-0.004741990473121405,-0.010675000958144665,0.015578022226691246,-0.0,0.007941974326968193
0.008877265267074108,-0.00425782660022378,-0.01128365471959114,0.014960621483623981,-0.0,0.008061693981289864
0.008967362344264984,-0.004281113855540752,-0.011172772385179996,0.015401451848447323,-0.0,0.008107519708573818
0.00843124557286501,-0.004477161448448896,-0.011081723496317863,0.015150049701333046,-0.0,0.008128921501338482
0.008814879693090916,-0.004222959280014038,-0.011528956703841686,0.015423722565174103,-0.0,0.008160674013197422
0.008765087462961674,-0.004434197209775448,-0.010916461236774921,0.015009337104856968,-0.0,0.008616863749921322
0.008288121782243252,-0.004699881188571453,-0.011259890161454678,0.015415252186357975,-0.0,0.008131030946969986
0.008743247017264366,-0.004463230725377798,-0.011063565500080585,0.014742819592356682,-0.0,0.008041197434067726
0.008906732313334942,-0.004417342133820057,-0.01053454726934433,0.015004231594502926,-0.0,0.008090359158813953
0.00870862789452076,-0.004623779561370611,-0.011559729464352131,0.014251823537051678,-0.0,0.008092784322798252
0.008842882700264454,-0.004657420329749584,-0.01099749282002449,0.014488065615296364,-0.0,0.008528748527169228
0.009062515571713448,-0.004309927113354206,-0.010753833688795567,0.014858799055218697,-0.0,0.008035310544073582
0.009062515571713448,-0.004309927113354206,-0.010753833688795567,0.014858799055218697,-0.0,0.008035310544073582
0.00909831840544939,-0.004430784843862057,-0.010824505239725113,0.015487998723983765,-0.0,0.007607956882566214
0.008963462896645069,-0.0044318814761936665,-0.010388453491032124,0.015602236613631248,-0.0,0.008058646693825722
0.009696745313704014,-0.004971338901668787,-0.011169428937137127,0.015279731713235378,-0.0,0.008393000811338425
0.008944794535636902,-0.0048675695434212685,-0.011191041208803654,0.01542325783520937,-0.0,0.008215364068746567
0.009722485207021236,-0.004868985619395971,-0.010743949562311172,0.014988906681537628,-0.0,0.008380320854485035
0.009059716947376728,-0.004339003935456276,-0.011308298446238041,0.015502235852181911,-0.0,0.008224363438785076
0.009022001177072525,-0.004092691466212273,-0.010773677378892899,0.015162444673478603,-0.0,0.008469984866678715
0.008814702741801739,-0.004157485440373421,-0.010183368809521198,0.015091026201844215,-0.0,0.008516382426023483
0.009244685992598534,-0.004499833099544048,-0.010854063555598259,0.014042774215340614,-0.0,0.008665825240314007
0.00942791998386383,-0.0047355471178889275,-0.01068886648863554,0.014901379123330116,-0.0,0.008377526886761189
0.009202211163938046,-0.004509498365223408,-0.010806228965520859,0.015082753263413906,-0.0,0.008714647963643074
0.00944325141608715,-0.004099080339074135,-0.010454024188220501,0.013632634654641151,-0.0,0.009121666662395
0.0093401949852705,-0.0038992769550532103,-0.011040532030165195,0.014018064364790916,-0.0,0.009141801856458187
0.00961905624717474,-0.00435668183490634,-0.010533549822866917,0.014428108930587769,-0.0,0.00843624584376812
0.009577620774507523,-0.005239988211542368,-0.010424897074699402,0.015833407640457153,-0.0,0.008809947408735752
0.009109117090702057,-0.004796982742846012,-0.010978283360600471,0.015174970962107182,-0.0,0.008862090297043324
0.010198942385613918,-0.004465837497264147,-0.010410407558083534,0.014924908988177776,-0.0,0.008664140477776527
0.009170014411211014,-0.004367245826870203,-0.010998879559338093,0.01418724749237299,-0.0,0.008378528989851475
0.009466573596000671,-0.004521590657532215,-0.011028917506337166,0.015009653754532337,-0.0,0.008089074864983559
0.009313039481639862,-0.004692613612860441,-0.010778993368148804,0.014716674573719501,-0.0,0.007723568473011255
0.009491248056292534,-0.0046898494474589825,-0.011004015803337097,0.014827553182840347,-0.0,0.00867005717009306
0.00941971130669117,-0.004701569676399231,-0.010743861086666584,0.014556721784174442,-0.0,0.008992780931293964
0.009340310469269753,-0.0047392589040100574,-0.01088105607777834,0.015147920697927475,-0.0,0.00878902431577444
0.01019915472716093,-0.0046774642542004585,-0.011150842532515526,0.015029982663691044,-0.0,0.008718985132873058
0.009290075860917568,-0.004479505121707916,-0.010770821012556553,0.015215657651424408,-0.0,0.009309119544923306
0.009290075860917568,-0.004479505121707916,-0.010770821012556553,0.015215657651424408,-0.0,0.009309119544923306
0.00957130640745163,-0.004586722236126661,-0.011011313647031784,0.014673971571028233,-0.0,0.009071437641978264
0.010705503635108471,-0.004749108571559191,-0.011084119789302349,0.01516287587583065,-0.0,0.009149877354502678
0.009445988573133945,-0.004927115514874458,-0.011032753624022007,0.015032746829092503,-0.0,0.008950980380177498
0.009608542546629906,-0.004781056195497513,-0.010471190325915813,0.014911654405295849,-0.0,0.009134216234087944
0.010688578709959984,-0.004649844020605087,-0.01062031276524067,0.014697211794555187,-0.0,0.0090322969481349
0.009462065063416958,-0.004183637443929911,-0.010303091257810593,0.014962899498641491,-0.0,0.008993792347609997
0.009882405400276184,-0.004430643282830715,-0.011322710663080215,0.01520304661244154,-0.0,0.009370319545269012
0.01037964504212141,-0.00467283558100462,-0.011244173161685467,0.015039727091789246,-0.0,0.009268161840736866
0.00993470661342144,-0.004681292921304703,-0.010474846698343754,0.014997045509517193,-0.0,0.008664006367325783
0.010499824769794941,-0.00473389308899641,-0.010779544711112976,0.014770742505788803,-0.0,0.008989227004349232
0.010729563422501087,-0.0047849263064563274,-0.010588152334094048,0.01519800629466772,-0.0,0.008996644988656044
0.010374607518315315,-0.004522277973592281,-0.010659690015017986,0.014904496259987354,-0.0,0.00928332656621933
0.010249629616737366,-0.004088889341801405,-0.010181298479437828,0.014695804566144943,-0.0,0.009351475164294243
0.01033711526542902,-0.004220485687255859,-0.010917574167251587,0.01480109617114067,-0.0,0.00917401909828186
0.01042291708290577,-0.0045452541671693325,-0.010579858906567097,0.014562102034687996,-0.0,0.008738107979297638
0.010061200708150864,-0.004184112884104252,-0.010509423911571503,0.015122175216674805,-0.0,0.009023576974868774
0.009753893129527569,-0.004348180256783962,-0.010756812058389187,0.015136846341192722,-0.0,0.008999453857541084
0.010356404818594456,-0.004261308815330267,-0.010913527570664883,0.015407276339828968,-0.0,0.008794039487838745
0.010389856994152069,-0.0043982453644275665,-0.01064364891499281,0.01490841805934906,-0.0,0.00916913989931345
0.009874464012682438,-0.004279707092791796,-0.011697236448526382,0.015457418747246265,-0.0,0.009510308504104614
0.010579481720924377,-0.004062938969582319,-0.011468958109617233,0.014958197250962257,-0.0,0.009154514409601688
0.0102098872885108,-0.0038696187548339367,-0.010788722895085812,0.015120523981750011,-9.493789548287168e-06,0.0099721048027277
0.00989052839577198,-0.003782395739108324,-0.010604407638311386,0.015052133239805698,-6.198765731824096e-07,0.00924015510827303
0.010320588015019894,-0.003977319225668907,-0.010682587511837482,0.015145051293075085,-4.047350898872537e-08,0.009056556969881058
0.010320588015019894,-0.003977319225668907,-0.010682587511837482,0.015145051293075085,-4.047350898872537e-08,0.009056556969881058
0.01007859781384468,-0.003927098121494055,-0.011201049201190472,0.014825544320046902,-2.642631224958336e-09,0.009118158370256424
0.010392120108008385,-0.0038079058285802603,-0.010776493698358536,0.015141949988901615,-1.7254492279406008e-10,0.00933470856398344
0.010836725123226643,-0.0037297913804650307,-0.010365922935307026,0.014878340065479279,-1.1265950845829042e-11,0.009061158634722233
0.010087119415402412,-0.003753273980692029,-0.011557186022400856,0.014793298207223415,-7.355860712210394e-13,0.009349237196147442
0.010310972109436989,-0.004243955016136169,-0.010796865448355675,0.014987476170063019,-4.802851638532196e-14,0.008962872438132763
0.010362311266362667,-0.003588081104680896,-0.011136076413094997,0.014881721697747707,-3.1359186233680504e-15,0.009326324798166752
0.010034038685262203,-0.003394969506189227,-0.011103997007012367,0.014663186855614185,-2.047530890513248e-16,0.009326627478003502
0.010292578488588333,-0.0034072049893438816,-0.010809761472046375,0.014723277650773525,-1.3368912912416735e-17,0.00973115861415863
0.010996601544320583,-0.0036824934650212526,-0.01143665798008442,0.014664151705801487,-8.728943355154645e-19,0.009625016711652279
0.01018012035638094,-0.003741794964298606,-0.011649197898805141,0.014502056874334812,-5.699376525597223e-20,0.009436325170099735
0.010651708580553532,-0.0035842598881572485,-0.011555765755474567,0.015244481153786182,-3.721285243071469e-21,0.009601679630577564
0.010284305550158024,-0.00361665990203619,-0.00987960584461689,0.01447088923305273,-1.5864423522048798e-23,0.00972005259245634
0.010372004471719265,-0.003534030867740512,-0.011813397519290447,0.014851841144263744,-1.035833434515467e-24,0.010458530858159065
0.010478182695806026,-0.00362797942943871,-0.011756522580981255,0.01496585737913847,-6.763252132296097e-26,0.009977114386856556
0.009872527793049812,-0.0037405909970402718,-0.011277446523308754,0.01474195346236229,-4.415920473096772e-27,0.00966598466038704
0.010735247284173965,-0.003969782032072544,-0.011207434348762035,0.015094663016498089,-2.883280590051722e-28,0.009581973776221275
0.010659316554665565,-0.003840704681351781,-0.011632673442363739,0.014697697944939137,-1.882576057632864e-29,0.00955258123576641
0.01023405697196722,-0.003528818255290389,-0.012298681773245335,0.015113952569663525,-1.2291876413836673e-30,0.009955993853509426
0.010733362287282944,-0.0035573963541537523,-0.011989142745733261,0.01465318351984024,-8.025717067597939e-32,0.011017370037734509
0.00995298195630312,-0.0038434190209954977,-0.012380843982100487,0.01476043090224266,-5.240220103483352e-33,0.010104903019964695
0.00995298195630312,-0.0038434190209954977,-0.012380843982100487,0.01476043090224266,-5.240220103483352e-33,0.010104903019964695
0.011357497423887253,-0.0040578413754701614,-0.011281304061412811,0.014760706573724747,-2.233988127144853e-35,0.009765328839421272
0.010194513015449047,-0.004030488897114992,-0.011729743331670761,0.014510506764054298,-1.4586346649143942e-36,0.010628235526382923
0.010095485486090183,-0.003597517963498831,-0.011591651476919651,0.015003454871475697,-9.523842055914531e-38,0.010327586904168129
0.01063788216561079,-0.0035396015737205744,-0.011403298936784267,0.014543646946549416,-6.218388052303165e-39,0.010219127871096134
0.01063788216561079,-0.0035396015737205744,-0.011403298936784267,0.014543646946549416,-6.218388052303165e-39,0.010219127871096134
0.010167662054300308,-0.003656891407445073,-0.011709379963576794,0.015192193910479546,-4.060164209488655e-40,0.010276326909661293
0.01054485235363245,-0.0037150948774069548,-0.011465828865766525,0.01459333673119545,-2.650976434809689e-41,0.010397550649940968
0.01071310043334961,-0.003791314782574773,-0.01222692709416151,0.014706729911267757,-1.730603603441149e-42,0.01046951673924923
0.010957072488963604,-0.0037558269686996937,-0.01155234593898058,0.014207927510142326,-1.1350517561031018e-43,0.010552769526839256
0.011092235334217548,-0.0033125542104244232,-0.011869007721543312,0.014786477200686932,-7.006492321624085e-45,0.010780854150652885
0.01098085381090641,-0.003055524779483676,-0.011577547527849674,0.014924457296729088,-0.0,0.010278763249516487
0.010458752512931824,-0.0031274212524294853,-0.011288302950561047,0.015774892643094063,-0.0001133596888394095,0.010576998814940453
0.010785105638206005,-0.0033723858650773764,-0.012007325887680054,0.015499403700232506,-0.0001241800928255543,0.01112489216029644
0.010578391142189503,-0.0033547028433531523,-0.011988162063062191,0.015169655904173851,-0.0001217319950228557,0.010617953725159168
0.010663225315511227,-0.0031511327251791954,-0.011876226402819157,0.014553544111549854,-0.0001361593749606982,0.010423321276903152
0.010609709657728672,-0.002769163576886058,-0.012173629365861416,0.01482732966542244,-0.00013824993220623583,0.010176556184887886
0.01049729622900486,-0.002667343243956566,-0.011566816829144955,0.014671948738396168,-0.0001351538230665028,0.010314569808542728
0.01082917582243681,-0.0032440575305372477,-0.011890137568116188,0.015247789211571217,-0.00015009420167189091,0.010925420559942722
0.010868009179830551,-0.003213934600353241,-0.012312905862927437,0.014864487573504448,-0.00014668659423477948,0.010390900075435638
0.01110635045915842,-0.0031080651096999645,-0.01165328361093998,0.014733639545738697,-0.00016246523591689765,0.01073985081166029
0.010723687708377838,-0.0032766691874712706,-0.011244639754295349,0.014733205549418926,-0.0001600996038177982,0.010694791562855244
0.011234339326620102,-0.0030398499220609665,-0.012099601328372955,0.014406201429665089,-0.000157014379510656,0.010150706395506859
0.011713102459907532,-0.0031379591673612595,-0.011795742437243462,0.01463444996625185,-0.00034459008020348847,0.01058110874146223
0.012748412787914276,-0.002999071031808853,-0.012287503108382225,0.014819888398051262,-0.00033221160992980003,0.010260620154440403
0.01314468402415514,-0.0031764626037329435,-0.011629832908511162,0.014647042378783226,-0.0003101570764556527,0.010503401048481464
0.012112603522837162,-0.003158956067636609,-0.011928380466997623,0.015285415574908257,-0.0003329144383314997,0.010776136070489883
0.01249308604747057,-0.0031356164254248142,-0.01275626104325056,0.015099423937499523,-0.0003261354868300259,0.010801393538713455
0.012322915717959404,-0.0031376543920487165,-0.011409171856939793,0.015538630075752735,-0.0003083768533542752,0.011226998642086983
0.012784154154360294,-0.0031528850086033344,-0.01184849999845028,0.014918751083314419,-0.0003370368212927133,0.01128057949244976
0.012751736678183079,-0.0034217964857816696,-0.011768220923841,0.015159142203629017,-0.0003227235283702612,0.011079334653913975
0.012752152048051357,-0.003287282306700945,-0.011746743693947792,0.014687188901007175,-0.0003480487794149667,0.011173845268785954
0.012687841430306435,-0.00308988313190639,-0.012052841484546661,0.01494088489562273,-0.0003345499571878463,0.011108865961432457
0.012529060244560242,-0.0029790557455271482,-0.01142674870789051,0.014167996123433113,-0.000385681283660233,0.01072380319237709
0.012529060244560242,-0.0029790557455271482,-0.01142674870789051,0.014167996123433113,-0.000385681283660233,0.01072380319237709
0.012650989927351475,-0.0028810922522097826,-0.011952555738389492,0.014560053125023842,-0.00038188256439752877,0.010845816694200039
0.012650989927351475,-0.0028810922522097826,-0.011952555738389492,0.014560053125023842,-0.00038188256439752877,0.010845816694200039
0.012750650756061077,-0.0031403403263539076,-0.012138409540057182,0.015297195874154568,-0.0003855163522530347,0.010517902672290802
0.012842412106692791,-0.0030851345509290695,-0.012220161035656929,0.014911276288330555,-0.00036170563544146717,0.01083582453429699
0.013214098289608955,-0.002812528982758522,-0.012169904075562954,0.015142248012125492,-0.0003391108475625515,0.01099188532680273
0.012959472835063934,-0.0030003038700670004,-0.012215739116072655,0.014613510109484196,-0.0003190714051015675,0.011928112246096134
0.01288197748363018,-0.003019247204065323,-0.012014675885438919,0.01584889367222786,-0.0003447056806180626,0.011533092707395554
0.013244971632957458,-0.0030269615817815065,-0.012304283678531647,0.014681934379041195,-0.00033245471422560513,0.0113039156422019
0.01305485237389803,-0.003021352691575885,-0.012101734057068825,0.014414478093385696,-0.000316154066240415,0.011342345736920834
0.013133442029356956,-0.002993370871990919,-0.012153200805187225,0.014390239492058754,-0.000301067135296762,0.011174879036843777
0.012708146125078201,-0.0028700288385152817,-0.012109515257179737,0.014909561723470688,-0.0003255726187489927,0.012163369916379452
0.012598615139722824,-0.002618945436552167,-0.01233348622918129,0.014691635966300964,-0.00030091297230683267,0.010746080428361893
0.012928072363138199,-0.002827680902555585,-0.011792775243520737,0.01439495850354433,-0.00030506899929605424,0.011530904099345207
0.01330497208982706,-0.002973256167024374,-0.012252399697899818,0.01460283063352108,-0.00029126237495802343,0.011801722459495068
0.013310106471180916,-0.0029348398093134165,-0.012179940938949585,0.01439773477613926,-0.00027391270850785077,0.011854412965476513
0.012907849624752998,-0.0027405666187405586,-0.011918815784156322,0.014657586812973022,-0.0002582143060863018,0.011922474950551987
0.012772290967404842,-0.002743811346590519,-0.012530243024230003,0.014088873751461506,-0.00028646094142459333,0.011914876289665699
0.013459863141179085,-0.0027586170472204685,-0.011943958699703217,0.014605998061597347,-0.0002775191969703883,0.011823340319097042
0.01313215121626854,-0.002869995543733239,-0.012462040409445763,0.01424824446439743,-0.0002643104235175997,0.011570100672543049
0.013673340901732445,-0.0028305216692388058,-0.01193155162036419,0.014568371698260307,-0.00028837486752308905,0.011836688965559006
0.013047950342297554,-0.0029157414101064205,-0.012675493024289608,0.014566066674888134,-0.00028052058769389987,0.011814611963927746
0.013505925424396992,-0.0027950021903961897,-0.012181785888969898,0.014887369237840176,-0.0002688716340344399,0.011791910044848919
0.013372681103646755,-0.002826401498168707,-0.011946577578783035,0.014512398280203342,-0.00025788566563278437,0.01166836079210043
0.013692052103579044,-0.0026279205922037363,-0.012667533941566944,0.014643770642578602,-0.0002477434463799,0.011474312283098698
0.01307549886405468,-0.0026770662516355515,-0.011904201470315456,0.014131036587059498,-0.00023836827313061804,0.011583206243813038
0.013245772570371628,-0.0026148026809096336,-0.012272178195416927,0.014568867161870003,-0.00022967676341068,0.011749699711799622
0.013245772570371628,-0.0026148026809096336,-0.012272178195416927,0.014568867161870003,-0.00022967676341068,0.011749699711799622
0.013205339200794697,-0.0025662360712885857,-0.011982914060354233,0.014215152710676193,-0.0002490531769581139,0.011906185187399387
0.013395896181464195,-0.0027452600188553333,-0.011953544802963734,0.014443539083003998,-0.00024437339743599296,0.012215509079396725
0.01344042457640171,-0.0028425685595721006,-0.012651506811380386,0.014161291532218456,-0.00023658871941734105,0.011972097679972649
0.013612540438771248,-0.0028633102774620056,-0.01232272107154131,0.014396105892956257,-0.00022907665697857738,0.011990171857178211
0.012621059082448483,-0.0027543518226593733,-0.012702959589660168,0.014458651654422283,-0.00022201324463821948,0.011915371753275394
0.013565804809331894,-0.002861669519916177,-0.012340416200459003,0.015383454039692879,-0.00021537191059906036,0.011944430880248547
0.01409595925360918,-0.0025867181830108166,-0.013315281830728054,0.01554029993712902,-0.0002163887256756425,0.012258881703019142
0.013624465093016624,-0.0023937243968248367,-0.012564406730234623,0.015019151382148266,-0.00020921595569234341,0.012443551793694496
0.014161234721541405,-0.0024492433294653893,-0.012999556958675385,0.014814237132668495,-0.00020010046137031168,0.012636847794055939
0.013754098676145077,-0.0025209218729287386,-0.013039611279964447,0.015023468993604183,-0.00019159108342137188,0.012276684865355492
0.013902060687541962,-0.002503338735550642,-0.012321056798100471,0.015525498427450657,-0.00020174725796096027,0.012568322010338306
0.014058438129723072,-0.002501665148884058,-0.012738515622913837,0.015600955113768578,-0.00021063999156467617,0.012348935008049011
0.014399657025933266,-0.002857050159946084,-0.012214619666337967,0.015852008014917374,-0.00020378628687467426,0.012212068773806095
0.0140313059091568,-0.0025522157084196806,-0.013081556186079979,0.015076488256454468,-0.00019644299754872918,0.01242617703974247
0.014701595529913902,-0.002208131365478039,-0.013115494512021542,0.015349607914686203,-0.00018955096311401576,0.012651863507926464
0.014712058939039707,-0.0023637565318495035,-0.013107115402817726,0.014909246005117893,-0.00017711556574795395,0.012785842642188072
0.014408099465072155,-0.0027378599625080824,-0.013245658949017525,0.014547925442457199,-0.00017149027553386986,0.013226953335106373
0.01489636953920126,-0.0025588662829250097,-0.013354010879993439,0.01522593479603529,-0.00019204725685995072,0.013076860457658768
0.014473408460617065,-0.00248269597068429,-0.01357654295861721,0.015467215329408646,-0.00018800079124048352,0.013608986511826515
0.014842716045677662,-0.002176871057599783,-0.013948746025562286,0.015668489038944244,-0.00018265946710016578,0.013334677554666996
0.014353313483297825,-0.0020780577324330807,-0.013382920064032078,0.014948142692446709,-0.0001775192067725584,0.012962760403752327
0.01497210469096899,-0.0019478051690384746,-0.014003810472786427,0.015019850805401802,-0.00017265455971937627,0.012600360438227654
0.014723936095833778,-0.0021330490708351135,-0.013709099031984806,0.014444825239479542,-0.00016804871847853065,0.012579433619976044
0.015024957247078419,-0.0022637115325778723,-0.01428981963545084,0.01448051631450653,-0.00016368247452192008,0.01396764162927866
0.014841301366686821,-0.0021563053596764803,-0.013511914759874344,0.014321405440568924,-0.00015953714319039136,0.012792117893695831
0.01503788586705923,-0.002318495186045766,-0.013924695551395416,0.014263322576880455,-0.00017489913443569094,0.013211405836045742
0.014794165268540382,-0.00209829187951982,-0.012826166115701199,0.014284435659646988,-0.00017334734729956836,0.013122912496328354
0.0150989331305027,-0.0021566932555288076,-0.014043477363884449,0.014588048681616783,-0.0001694415113888681,0.013367022387683392
0.014846204780042171,-0.0020340215414762497,-0.013371462933719158,0.014393338933587074,-0.0001655568485148251,0.013286551460623741
0.014846204780042171,-0.0020340215414762497,-0.013371462933719158,0.014393338933587074,-0.0001655568485148251,0.013286551460623741
0.015198233537375927,-0.0022176727652549744,-0.014038428664207458,0.014763872139155865,-0.00016183598199859262,0.01350901648402214
0.015287457965314388,-0.0022197505459189415,-0.013395543210208416,0.014735843986272812,-0.0001582782861078158,0.01337223220616579
0.015097158029675484,-0.0021885547321289778,-0.014032219536602497,0.014890673570334911,-0.0001548736763652414,0.01349242590367794
0.015325753949582577,-0.002329910872504115,-0.013166733086109161,0.015034555457532406,-0.00016289218910969794,0.014026752673089504
0.015183004550635815,-0.0022355117835104465,-0.013466727919876575,0.015095327980816364,-0.00015891889051999897,0.013783742673695087
0.015226610004901886,-0.0018847842002287507,-0.012976104393601418,0.015147971920669079,-0.0001536093623144552,0.013124372810125351
0.015301033854484558,-0.0013997504720464349,-0.013097302988171577,0.014954863116145134,-0.0001485459943069145,0.013155578635632992
0.015376392751932144,-0.0011108937906101346,-0.013266169466078281,0.014953535050153732,-0.0001437990867998451,0.013714127242565155
0.015167200937867165,-0.0009210124262608588,-0.012920702807605267,0.013933967798948288,-0.00013934579328633845,0.0134957330301404
0.015764616429805756,-0.0009013895178213716,-0.01334177702665329,0.013465593568980694,-0.00016037258319556713,0.013461277820169926
0.015186481177806854,-0.0009010088979266584,-0.012740313075482845,0.013406408950686455,-0.00015734363114461303,0.013353517279028893
0.015527443960309029,-0.0006471285596489906,-0.01312828529626131,0.013661077246069908,-0.00015299285587389022,0.013921339064836502
0.015629997476935387,-0.0007282683509401977,-0.013022815808653831,0.014811943285167217,-0.0001671562495175749,0.013692518696188927
0.015964217483997345,-0.0007777163991704583,-0.01354682445526123,0.01520403753966093,-0.00016850803513079882,0.014431662857532501
0.01569482870399952,-0.0015095766866579652,-0.012696174904704094,0.015286663547158241,-0.00016448841779492795,0.014213726855814457
0.01561711449176073,-0.0013983133248984814,-0.013253026641905308,0.015545809641480446,-0.0001603269047336653,0.014385183341801167
0.015645701438188553,-0.0011618385324254632,-0.013346845284104347,0.015362497419118881,-0.00016732336371205747,0.01409393735229969
0.015769563615322113,-0.0008486482547596097,-0.013634072616696358,0.014984982088208199,-0.00017018664220813662,0.01362536195665598
0.015904275700449944,-0.0007478257757611573,-0.013265116140246391,0.01504097692668438,-0.00016630005848128349,0.01393788680434227
0.01646614633500576,-0.000730517553165555,-0.013697468675673008,0.014610882848501205,-0.00024292636953759938,0.014009643346071243
0.016164829954504967,-0.0006901630549691617,-0.013098349794745445,0.015283790417015553,-0.00024144627968780696,0.014712205156683922
0.016661224886775017,-0.0005163768655620515,-0.01372324675321579,0.015116492286324501,-0.00022986598196439445,0.014571849256753922
0.016548603773117065,-0.0005402045790106058,-0.013076209463179111,0.015237612649798393,-0.0002187386417062953,0.014604653231799603
0.0168272964656353,-0.0005001096287742257,-0.013525562360882759,0.014787595719099045,-0.0002394043403910473,0.014544039964675903
0.016350090503692627,-0.0005330150597728789,-0.013095241971313953,0.015019192360341549,-0.00023851459263823926,0.014708234928548336
0.01599349081516266,-0.0005542212165892124,-0.01355788018554449,0.014283147640526295,-0.00022903001809027046,0.014456930570304394
0.01662631332874298,-0.0005236078286543489,-0.01368829607963562,0.014405625872313976,-0.00021974905394017696,0.01434364914894104
0.016393989324569702,-0.0006705702398903668,-0.014295032247900963,0.01406395435333252,-0.0002111574140144512,0.014020279981195927
0.01705329492688179,-0.0006983448402024806,-0.013470955193042755,0.014660615473985672,-0.00023478054208680987,0.014104041270911694
0.016731401905417442,-0.0006896649138070643,-0.013800540938973427,0.014310265891253948,-0.00022832895047031343,0.014229067601263523
0.0164628978818655,-0.000650528643745929,-0.013845952227711678,0.015165576711297035,-0.00023590525961481035,0.015088926069438457
0.01705981232225895,-0.0006449163774959743,-0.014100223779678345,0.014974179677665234,-0.00024240807397291064,0.013655479997396469
0.01705981232225895,-0.0006449163774959743,-0.014100223779678345,0.014974179677665234,-0.00024240807397291064,0.013655479997396469
0.016924193128943443,-0.0006161513738334179,-0.01395135372877121,0.015194575302302837,-0.00023542539565823972,0.014045500196516514
0.017395785078406334,-0.0006181253120303154,-0.014117731712758541,0.014972400851547718,-0.0002966848842334002,0.014488061890006065
0.01708587072789669,-0.0006400108686648309,-0.013783656992018223,0.015254564583301544,-0.00028787433984689415,0.014831703156232834
0.017535347491502762,-0.0006035821279510856,-0.014146548695862293,0.014950716868042946,-0.00031809258507564664,0.014813289977610111
0.017624400556087494,-0.0006914194673299789,-0.014140447601675987,0.015255455859005451,-0.0003064897027797997,0.015005283989012241
0.01694362983107567,-0.0006617442122660577,-0.01426026877015829,0.015322836115956306,-0.00032611784990876913,0.014728996902704239
0.016987094655632973,-0.0008543578442186117,-0.013813438825309277,0.015469558537006378,-0.00032072828616946936,0.01508643850684166
0.01684911735355854,-0.0008635810809209943,-0.013627455569803715,0.015729980543255806,-0.00030588568188250065,0.014729349873960018
0.01759682036936283,-0.0008266217191703618,-0.0140449907630682,0.015494205057621002,-0.0002917631936725229,0.014829645864665508
0.01749660260975361,-0.0006819067057222128,-0.014198783785104752,0.015024052932858467,-0.0002856826758943498,0.015068183653056622
0.017698045819997787,-0.0006994381546974182,-0.013712746091187,0.015322228893637657,-0.00029149086913093925,0.014960064552724361
0.017806997522711754,-0.0006405391031876206,-0.014032094739377499,0.014951488003134727,-0.0002812395978253335,0.015019011683762074
0.017974529415369034,-0.0005651589017361403,-0.013831028714776039,0.01527892705053091,-0.0002707363455556333,0.014772667549550533
0.018157728016376495,-0.000589800882153213,-0.01428331807255745,0.015103176236152649,-0.00029301090398803353,0.01527196355164051
0.017930416390299797,-0.0005415238556452096,-0.013769030570983887,0.015735620632767677,-0.0003045939956791699,0.01532718911767006
0.018107715994119644,-0.0005731061683036387,-0.014350657351315022,0.015421365387737751,-0.0002872047189157456,0.015326639637351036
0.01826578937470913,-0.0005924050346948206,-0.013599074445664883,0.015430215746164322,-0.00030988018261268735,0.014945106580853462
0.018094025552272797,-0.0005565838073380291,-0.014049604535102844,0.015487409196794033,-0.00030483154114335775,0.015266628935933113
0.01822400651872158,-0.0006593639263883233,-0.013687142170965672,0.015586919151246548,-0.0002893095079343766,0.01563156209886074
0.018462752923369408,-0.0005772183649241924,-0.014563338831067085,0.01572997495532036,-0.00031427034991793334,0.015617717988789082
0.01828893832862377,-0.0006123558268882334,-0.013675819151103497,0.015442326664924622,-0.0003045074117835611,0.01571677438914776
0.018880201503634453,-0.000551174336578697,-0.0142562510445714,0.015699533745646477,-0.0003214823664166033,0.015505924820899963
0.018844835460186005,-0.0005001327372156084,-0.013799401000142097,0.014836623333394527,-0.00031699586543254554,0.016032645478844643
0.01849338598549366,-0.0005247737281024456,-0.014558673836290836,0.014712164178490639,-0.00037170611904002726,0.01598278060555458
0.01879090629518032,-0.0004921465297229588,-0.013946459628641605,0.014452829957008362,-0.0004030033014714718,0.016018155962228775
0.018684905022382736,-0.0005190882948227227,-0.01473296619951725,0.014933845959603786,-0.0004432369314599782,0.015645060688257217
0.018577594310045242,-0.0004896378377452493,-0.014198829419910908,0.014992455020546913,-0.0004140438395552337,0.01573042757809162
0.018577594310045242,-0.0004896378377452493,-0.014198829419910908,0.014992455020546913,-0.0004140438395552337,0.01573042757809162
0.019148563966155052,-0.00045330601278692484,-0.014781838282942772,0.015903320163488388,-0.00044446371612139046,0.01571868173778057
0.01900514028966427,-0.00048434612108394504,-0.014149344526231289,0.015634438022971153,-0.00047054330934770405,0.015846064314246178
0.019054897129535675,-0.00045274951844476163,-0.01499417144805193,0.015546520240604877,-0.0006556884036399424,0.016229022294282913
0.018962334841489792,-0.0004845541261602193,-0.014736984856426716,0.015236860141158104,-0.0007426180527545512,0.015895461663603783
0.018665151670575142,-0.0004524154937826097,-0.01522084977477789,0.015940440818667412,-0.0007657008827663958,0.01605309173464775
0.01900508813560009,-0.0004221285635139793,-0.014256853610277176,0.015864260494709015,-0.0007850829279050231,0.01694779098033905
0.01913277432322502,-0.000445373123511672,-0.014794010668992996,0.015946760773658752,-0.0011732502607628703,0.016188835725188255
0.018977448344230652,-0.0004253230581525713,-0.014474104158580303,0.01527402177453041,-0.0012611295096576214,0.015245343558490276
0.01909683272242546,-0.0004016771854367107,-0.015301083214581013,0.015178023837506771,-0.0014258329756557941,0.015818223357200623
0.019123820587992668,-0.0004402284976094961,-0.014937515370547771,0.015353096649050713,-0.0015538198640570045,0.016362030059099197
0.019475871697068214,-0.0003746175207197666,-0.014787541702389717,0.016233181580901146,-0.0015480220317840576,0.016846297308802605
0.01896044611930847,-0.0004139816155657172,-0.01536889560520649,0.014856607653200626,-0.0014409672003239393,0.01663876883685589
0.019215280190110207,-0.0003853511007037014,-0.015105058439075947,0.015024486929178238,-0.0013627923326566815,0.01677335798740387
0.019215280190110207,-0.0003853511007037014,-0.015105058439075947,0.015024486929178238,-0.0013627923326566815,0.01677335798740387
0.020126616582274437,-0.0003933308180421591,-0.015340594574809074,0.0158221572637558,-0.001128809410147369,0.016711732372641563
0.01946980319917202,-0.00037029804661870003,-0.015059752389788628,0.015313969925045967,-0.0010770041262730956,0.01650359109044075
0.019656982272863388,-0.0003976473235525191,-0.015319736674427986,0.015262672677636147,-0.0009353680070489645,0.016057536005973816
0.019265983253717422,-0.0003786515153478831,-0.015370522625744343,0.014843829907476902,-0.0008998552220873535,0.01633463054895401
0.018816396594047546,-0.0003597555623855442,-0.015684304758906364,0.01560292113572359,-0.0008227152284234762,0.01652081124484539
0.020558737218379974,-0.00038368310197256505,-0.014747204259037971,0.015381874516606331,-0.0006803776486776769,0.01692756824195385
0.020416289567947388,-0.0003588474646676332,-0.015393063426017761,0.015291036106646061,-0.0005772856529802084,0.016947275027632713
0.02008538693189621,-0.00039611628744751215,-0.01477156300097704,0.014822163619101048,-0.0005982752772979438,0.016778133809566498
0.019417889416217804,-0.00037141217035241425,-0.015311743132770061,0.015125737525522709,-0.0005932697677053511,0.01682964898645878
0.020685866475105286,-0.0003854204260278493,-0.014635350555181503,0.015142646618187428,-0.0005792020238004625,0.017085501924157143
0.020182514563202858,-0.0003806705353781581,-0.015462512150406837,0.015376081690192223,-0.0005696448497474194,0.0173810962587595
0.020326437428593636,-0.00035921361995860934,-0.014952598139643669,0.015486511401832104,-0.0005590437795035541,0.017201783135533333
0.020288104191422462,-0.00033983757020905614,-0.015323278494179249,0.01566002145409584,-0.0005556477117352188,0.017251688987016678
0.020288104191422462,-0.00033983757020905614,-0.015323278494179249,0.01566002145409584,-0.0005556477117352188,0.017251688987016678
0.02044769562780857,-0.0003678537905216217,-0.015147230587899685,0.016341323032975197,-0.000527633004821837,0.017009025439620018
0.01955445669591427,-0.0003505538043100387,-0.015578246675431728,0.015837667509913445,-0.0005623659235425293,0.016504531726241112
0.019541345536708832,-0.00042323433444835246,-0.014921032823622227,0.01602630689740181,-0.0005774296005256474,0.016608143225312233
0.02013198286294937,-0.0003905086778104305,-0.015012242831289768,0.016088595613837242,-0.0005470135947689414,0.01655770279467106
0.020623764023184776,-0.0004301920998841524,-0.015087493695318699,0.016241084784269333,-0.0005044689169153571,0.016740091145038605
0.020371031016111374,-0.0003993285936303437,-0.015082194469869137,0.01522515807300806,-0.00046711869072169065,0.017201920971274376
0.02076520398259163,-0.000371836795238778,-0.01541923638433218,0.01492801122367382,-0.0004348581423982978,0.017585378140211105
0.020796723663806915,-0.0004050253191962838,-0.015224387869238853,0.014961768873035908,-0.0004067649715580046,0.017649397253990173
0.020660005509853363,-0.00038432396831922233,-0.015539896674454212,0.015398714691400528,-0.00038208140176720917,0.017391065135598183
0.020940544083714485,-0.00020721029432024807,-0.01565621793270111,0.015208439901471138,-0.0003407345211599022,0.017558766528964043
0.020992780104279518,-0.00018579018069431186,-0.014874180778861046,0.0157166775316,-0.0003232457966078073,0.017533056437969208
0.02093815989792347,-0.00016840120952110738,-0.015627460554242134,0.015453103929758072,-0.0003074658161494881,0.018952632322907448
0.020804796367883682,-0.00015398813411593437,-0.01499729324132204,0.016386710107326508,-0.0002931537455879152,0.017508365213871002
0.020837221294641495,-0.00014184968313202262,-0.015678072348237038,0.015690535306930542,-0.00031739723635837436,0.01714487187564373
0.021182658150792122,-0.00013148509606253356,-0.014806711114943027,0.015843521803617477,-0.00030632325797341764,0.017460335046052933
0.021056825295090675,-0.00012253261229489,-0.015465847216546535,0.0150978472083807,-0.00029397240723483264,0.017647666856646538
0.021562255918979645,-0.00011472163896542042,-0.015093976631760597,0.015038279816508293,-0.0002824481052812189,0.017999401316046715
0.02172977104783058,-0.0001078469940694049,-0.015411571599543095,0.01495265867561102,-0.00027178539312444627,0.017671208828687668
0.021248679608106613,-0.00010174967610510066,-0.014870083890855312,0.015517220832407475,-0.00026189765776507556,0.01799628511071205
0.021109499037265778,-9.630538988858461e-05,-0.015202720649540424,0.015075097791850567,-0.0002527040778659284,0.0181687381118536
0.021761976182460785,-9.141375630861148e-05,-0.015363764017820358,0.015412233769893646,-0.00024413461505901068,0.01793508417904377
0.021895674988627434,-8.699541649548337e-05,-0.0151926688849926,0.015388202853500843,-0.00023612668155692518,0.017766250297427177
0.021511893719434738,-8.298450848087668e-05,-0.015484300442039967,0.015121710486710072,-0.00022862863261252642,0.01786798983812332
0.021511893719434738,-8.298450848087668e-05,-0.015484300442039967,0.015121710486710072,-0.00022862863261252642,0.01786798983812332
0.022030839696526527,-7.597832882311195e-05,-0.015217839740216732,0.015452384948730469,-0.00021497448324225843,0.018260154873132706
0.022119833156466484,-9.681887604529038e-05,-0.015137733891606331,0.015964722260832787,-0.00018806051230058074,0.01808990351855755
0.021633820608258247,-0.00010492691944818944,-0.015888093039393425,0.01591682992875576,-0.00016180551028810441,0.0185092706233263
0.021755265071988106,-0.00010115518671227619,-0.015154732391238213,0.01595217175781727,-0.00015495781553909183,0.018864719197154045
0.021755265071988106,-0.00010115518671227619,-0.015154732391238213,0.01595217175781727,-0.00015495781553909183,0.018864719197154045
0.02218056656420231,-9.783589484868571e-05,-0.01563185453414917,0.014968187548220158,-0.00014971820928622037,0.018512390553951263
0.02247198484838009,3.889581057592295e-05,-0.014772406779229641,0.015941763296723366,-0.00014489181921817362,0.018558360636234283
0.02199760265648365,3.898817885783501e-05,-0.015490244142711163,0.015117102302610874,-0.0001403709320584312,0.018565457314252853
0.02163500338792801,3.739222665899433e-05,-0.015057137235999107,0.015288325026631355,-0.00014948140596970916,0.018871070817112923
0.022471174597740173,1.4588528074455098e-06,-0.015574507415294647,0.014808796346187592,-0.000157647198648192,0.019204827025532722
0.022747965529561043,1.95723703910744e-08,-0.01591123268008232,0.01523610856384039,-0.00015397046809084713,0.018989592790603638
0.022562174126505852,2.625883399609563e-10,-0.016118409112095833,0.015499006025493145,-0.0001497540361015126,0.018542734906077385
0.022416718304157257,3.5229577501766363e-12,-0.01628323644399643,0.01598569005727768,-0.0001457162288716063,0.018075302243232727
0.02189531736075878,4.7264970393480835e-14,-0.01587381586432457,0.01566687785089016,-0.00015941185120027512,0.01842707395553589
0.023230228573083878,6.341198868962624e-16,-0.016194390133023262,0.015192573890089989,-0.00016089709242805839,0.01882682740688324
0.023177755996584892,1.1413934400374208e-19,-0.01585771143436432,0.0146743543446064,-0.00016968738054856658,0.019812218844890594
0.02268284000456333,1.5313248742599157e-21,-0.015795521438121796,0.01518899854272604,-0.00017081953410524875,0.019188733771443367
0.02298671007156372,2.0544678474739885e-23,-0.016917724162340164,0.015151954255998135,-0.00022026353690307587,0.019265184178948402
0.022564103826880455,2.7563310322820217e-25,-0.01650969311594963,0.015367104671895504,-0.000257942418102175,0.01928243227303028
0.02246905490756035,3.697969612126176e-27,-0.015933949500322342,0.015341626480221748,-0.00027117624995298684,0.019648561254143715
0.0231232438236475,4.961298152696369e-29,-0.0163114070892334,0.015988411381840706,-0.00027964013861492276,0.01902703568339348
0.023288702592253685,6.656214192039667e-31,-0.016572659835219383,0.015704885125160217,-0.00026726856594905257,0.01854822412133217
0.022285932675004005,8.930161522903807e-33,-0.017329737544059753,0.015436255373060703,-0.00029430247377604246,0.018120096996426582
0.02322608232498169,1.1980950664267691e-34,-0.01609286479651928,0.014979477040469646,-0.00028363571618683636,0.018512634560465813
0.023915521800518036,1.607397406718134e-36,-0.016170909628272057,0.01534892339259386,-0.00030519335996359587,0.018954560160636902
0.023580173030495644,2.15652855193237e-38,-0.016540180891752243,0.015356620773673058,-0.00029721634928137064,0.01835962012410164
0.02286429889500141,2.89326093929145e-40,-0.017058108001947403,0.015209089033305645,-0.0002862613764591515,0.01905866339802742
0.02308540605008602,3.881596746179743e-42,-0.01635327748954296,0.01505233719944954,-0.0004336554848123342,0.0192184466868639
0.02288433164358139,5.184804318001823e-44,-0.015587828122079372,0.015008172951638699,-0.0004452812427189201,0.019464198499917984
0.022687546908855438,0.0,-0.01634601503610611,0.015099572949111462,-0.0004449394764378667,0.019302308559417725
0.023540128022432327,0.0,-0.016202712431550026,0.01528862677514553,-0.00041325250640511513,0.018990566954016685
0.02370305545628071,0.0,-0.01682467944920063,0.015656419098377228,-0.00043104263022542,0.019030041992664337
0.02370305545628071,0.0,-0.01682467944920063,0.015656419098377228,-0.00043104263022542,0.019030041992664337
0.02322787046432495,0.0,-0.016533691436052322,0.015625903382897377,-0.0004171433683950454,0.01952095329761505
0.023313671350479126,0.0,-0.016374820843338966,0.016439955681562424,-0.0003921260067727417,0.01962064765393734
0.023601843044161797,0.0,-0.016420582309365273,0.01603299379348755,-0.00041481482912786305,0.019579792395234108
0.023947421461343765,0.0,-0.016070106998085976,0.016452642157673836,-0.000398111849790439,0.0195047315210104
0.023562440648674965,0.0,-0.01676190085709095,0.016023721545934677,-0.00037763325963169336,0.019646387547254562
0.02394663542509079,0.00018883867596741766,-0.016312435269355774,0.0160493403673172,-0.0003845355531666428,0.02001919597387314
0.023747451603412628,0.00018576944421511143,-0.016830140724778175,0.016148090362548828,-0.0003784037253353745,0.020126160234212875
0.023885920643806458,0.00014698960876557976,-0.016550013795495033,0.01604941301047802,-0.0003506200446281582,0.020452182739973068
0.023374684154987335,0.0001373833802063018,-0.01623939909040928,0.0165310800075531,-0.0003815476375166327,0.020307239145040512
0.023596905171871185,0.00013228118768893182,-0.016650421544909477,0.016054371371865273,-0.0003635194443631917,0.020319418981671333
0.023486720398068428,0.00013451669656205922,-0.016812916845083237,0.015915922820568085,-0.0003601995704229921,0.02033987082540989
0.023924432694911957,0.00011777107283705845,-0.01636640541255474,0.01612403802573681,-0.00035236676922068,0.02033795788884163
0.023934684693813324,0.00010414445569040254,-0.01664859801530838,0.016067808493971825,-0.0003344592696521431,0.02012556418776512
0.022196227684617043,9.3336813733913e-05,-0.016472404822707176,0.01605367287993431,-0.00031764290179125965,0.020276503637433052
0.024506058543920517,0.00015884787717368454,-0.01652003824710846,0.0165692325681448,-0.00032348913373425603,0.020541073754429817
0.024451950564980507,0.00015445690951310098,-0.01702883653342724,0.016319511458277702,-0.00032831935095600784,0.020609864965081215
0.024187244474887848,0.0001423617359250784,-0.016401875764131546,0.016273826360702515,-0.00031522230710834265,0.020732427015900612
0.02429218962788582,0.00013192702317610383,-0.016718614846467972,0.015530869364738464,-0.00032181982533074915,0.02084696665406227
0.02458719164133072,0.00012291579332668334,-0.01624852977693081,0.01622219756245613,-0.0003496366844046861,0.02099025435745716
0.02418026514351368,0.0001150576863437891,-0.016631683334708214,0.015119707211852074,-0.0003563061763998121,0.020632894709706306
0.02459990233182907,0.00010814380220836028,-0.01677769422531128,0.015564611181616783,-0.0003845126193482429,0.02062533237040043
0.02564328722655773,0.00015092076500877738,-0.016644654795527458,0.015456858091056347,-0.0003944296040572226,0.020415842533111572
0.025232091546058655,0.00014478493540082127,-0.01701834797859192,0.015851525589823723,-0.00039682770147919655,0.020969418808817863
0.025232091546058655,0.00014478493540082127,-0.01701834797859192,0.015851525589823723,-0.00039682770147919655,0.020969418808817863
0.02494506537914276,0.00013744029274675995,-0.016144590452313423,0.01589009538292885,-0.0006288415170274675,0.02144439145922661
0.02380647324025631,0.00013078268966637552,-0.016676917672157288,0.015859613195061684,-0.00068350211950019,0.021278956905007362
0.024571385234594345,0.00012473989045247436,-0.016292672604322433,0.015974529087543488,-0.0006584814400412142,0.021372774615883827
0.025134237483143806,0.00014529688633047044,-0.016489017754793167,0.015820544213056564,-0.000662056845612824,0.02155209518969059
0.025318438187241554,0.00015206780517473817,-0.01643672026693821,0.016308968886733055,-0.0006192000582814217,0.021144922822713852
0.02505754493176937,0.00014607077173423022,-0.016239795833826065,0.016010409221053123,-0.0005650633829645813,0.021155042573809624
0.025150775909423828,0.00019783560128416866,-0.016936905682086945,0.01604515127837658,-0.0005729339900426567,0.021340714767575264
0.02572367526590824,0.00021667774126399308,-0.016420597210526466,0.01577676832675934,-0.0005462834960781038,0.021274033933877945
0.02550455555319786,0.00020708709780592471,-0.016649829223752022,0.016118792816996574,-0.0005283974460326135,0.021460868418216705
0.025486890226602554,0.0002359627396799624,-0.01662573777139187,0.016546664759516716,-0.00047719376743771136,0.022321876138448715
0.02518853172659874,0.0002275426813866943,-0.016955580562353134,0.016512170433998108,-0.000511778227519244,0.0209098681807518
0.025784701108932495,0.0002504520525690168,-0.017006704583764076,0.01678726263344288,-0.0004722324083559215,0.02112530544400215
0.02608180232346058,0.0002447960141580552,-0.016833385452628136,0.016585517674684525,-0.0004345410270616412,0.021929344162344933
0.026348289102315903,0.000265387847321108,-0.01716824807226658,0.016819285228848457,-0.0004644720465876162,0.02216767519712448
0.026394588872790337,0.0002519371046219021,-0.017415782436728477,0.01634247414767742,-0.00046455656411126256,0.021425629034638405
0.02616160735487938,0.00043738121166825294,-0.01766490750014782,0.01647961512207985,-0.000438114395365119,0.02102387323975563
0.02636682242155075,0.0004717334231827408,-0.017095204442739487,0.016268596053123474,-0.0004563998954836279,0.021642576903104782
0.02603028155863285,0.00044194134534336627,-0.017561230808496475,0.01667075976729393,-0.0004830080724786967,0.022854072973132133
0.025388939306139946,0.0004530815058387816,-0.01660137064754963,0.0162473414093256,-0.0004985539126209915,0.022551758214831352
0.026944952085614204,0.00044285395415499806,-0.017255570739507675,0.016158312559127808,-0.0004945640102960169,0.022177264094352722
0.02690889500081539,0.0004527117416728288,-0.0176698025316,0.01582455076277256,-0.0004606825241353363,0.02210509404540062
0.027003977447748184,0.0004437277966644615,-0.017441274598240852,0.015625061467289925,-0.00042941226274706423,0.023416714742779732
0.02741863764822483,0.000537277024704963,-0.018559250980615616,0.015579532831907272,-0.00045164121547713876,0.023249933496117592
0.027104167267680168,0.0004944796673953533,-0.01739361882209778,0.015693211928009987,-0.0004313547979108989,0.022366490215063095
0.0270466860383749,0.0005310392589308321,-0.01721039228141308,0.01592187024652958,-0.0004073814197909087,0.021677793934941292
0.027361050248146057,0.000486570643261075,-0.01747717708349228,0.016365384683012962,-0.0003855857066810131,0.02194945700466633
0.027790643274784088,0.0005117830587550998,-0.01746196858584881,0.016682134941220284,-0.0004047939437441528,0.022620508447289467
0.02793835662305355,0.0004808846570085734,-0.01795175112783909,0.015835966914892197,-0.00042186168138869107,0.023178119212388992
0.02793835662305355,0.0004808846570085734,-0.01795175112783909,0.015835966914892197,-0.00042186168138869107,0.023178119212388992
0.027584020048379898,0.000503048300743103,-0.017798693850636482,0.01615827903151512,-0.0004235893429722637,0.02320365235209465
0.02753647416830063,0.0004767829377669841,-0.018436802551150322,0.016200782731175423,-0.0004268110787961632,0.023250961676239967
0.027855461463332176,0.0005019956734031439,-0.017821701243519783,0.017492547631263733,-0.00042723133810795844,0.022862814366817474
0.02776048146188259,0.0005385283147916198,-0.016963817179203033,0.017978960648179054,-0.00040188845014199615,0.022786814719438553
0.028201980516314507,0.000516988686285913,-0.018210476264357567,0.017692886292934418,-0.00042813282925635576,0.023166509345173836
0.028087563812732697,0.0005497122765518725,-0.01819193921983242,0.016868386417627335,-0.000557625840883702,0.023004375398159027
0.028294803574681282,0.0005758784827776253,-0.01830216497182846,0.015796002000570297,-0.0005414948682300746,0.02337447740137577
0.028389345854520798,0.0008102917345240712,-0.018690919503569603,0.01606873981654644,-0.0005764357629232109,0.023490164428949356
0.028567323461174965,0.0008546849712729454,-0.018133582547307014,0.0161898210644722,-0.0005685955402441323,0.02317355014383793
0.028494900092482567,0.0008612924139015377,-0.01783725805580616,0.016215316951274872,-0.0005568919004872441,0.02284110337495804
0.028609441593289375,0.0008572468650527298,-0.019014231860637665,0.016710607334971428,-0.0005494951619766653,0.023393189534544945
0.028677280992269516,0.0009111129911616445,-0.017163170501589775,0.01648079603910446,-0.0005407421267591417,0.023439019918441772
0.02941679023206234,0.0010505085811018944,-0.018914397805929184,0.016060270369052887,-0.0005409077275544405,0.02362256869673729
0.03022812306880951,0.0011911162873730063,-0.018625646829605103,0.016245493665337563,-0.0005759255145676434,0.023789750412106514
0.02947125770151615,0.0012348670279607177,-0.018412040546536446,0.016317302361130714,-0.0005900432588532567,0.023417072370648384
0.02834409847855568,0.0013254843652248383,-0.018172143027186394,0.016792651265859604,-0.0006164660444483161,0.023702332749962807
0.029718833044171333,0.0015984865603968501,-0.01791437715291977,0.016934631392359734,-0.0005857110372744501,0.02359914220869541
0.030176540836691856,0.0015139743918552995,-0.018461663275957108,0.01647191308438778,-0.0007059540366753936,0.023454463109374046
0.029319625347852707,0.001437878585420549,-0.018118783831596375,0.016638493165373802,-0.000741892377845943,0.023589955642819405
0.0302087664604187,0.0014646433992311358,-0.018714819103479385,0.01645844243466854,-0.0006665805703960359,0.02357347495853901
0.03134626895189285,0.0014747695531696081,-0.019044460728764534,0.016596941277384758,-0.0006859526038169861,0.02396349422633648
0.030809829011559486,0.0016126992413774133,-0.01844583824276924,0.016598381102085114,-0.0007067334372550249,0.024857698008418083
0.029600434005260468,0.0015171642880886793,-0.01860402524471283,0.016544952988624573,-0.0006514289998449385,0.024733923375606537
0.030244974419474602,0.0016707773320376873,-0.018779439851641655,0.017011787742376328,-0.0006665380788035691,0.02389431931078434
0.030895693227648735,0.0017909277230501175,-0.01804538443684578,0.01672491990029812,-0.0006874880637042224,0.02313213050365448
0.030858121812343597,0.0017920037498697639,-0.018578724935650826,0.01712784729897976,-0.0006222277879714966,0.02304505556821823
0.030788350850343704,0.0018465641187503934,-0.019102660939097404,0.016236446797847748,-0.0006387520697899163,0.02389361336827278
0.030788350850343704,0.0018465641187503934,-0.019102660939097404,0.016236446797847748,-0.0006387520697899163,0.02389361336827278
0.030179236084222794,0.0018906823825091124,-0.019063690677285194,0.01694173738360405,-0.0006180094205774367,0.024255776777863503
0.030179236084222794,0.0018906823825091124,-0.019063690677285194,0.01694173738360405,-0.0006180094205774367,0.024255776777863503
0.03051292523741722,0.0021443995647132397,-0.01826765574514866,0.018204787746071815,-0.0007712479564361274,0.02460532821714878
0.03051292523741722,0.0021443995647132397,-0.01826765574514866,0.018204787746071815,-0.0007712479564361274,0.02460532821714878
0.030729958787560463,0.0022180683445185423,-0.018410654738545418,0.01755484938621521,-0.000760853523388505,0.024488160386681557
0.030767517164349556,0.0022013147827237844,-0.018819810822606087,0.017116541042923927,-0.0007341948803514242,0.02448669821023941
0.031193997710943222,0.0024669989943504333,-0.018993772566318512,0.01620461419224739,-0.0009838701225817204,0.02390328422188759
0.03128214552998543,0.002547689015045762,-0.019178356975317,0.015943970531225204,-0.0009120983886532485,0.023757565766572952
0.031133944168686867,0.002442189259454608,-0.018537690863013268,0.016695939004421234,-0.0009062840254046023,0.02423211932182312
0.03155411779880524,0.002543319948017597,-0.018659837543964386,0.016506895422935486,-0.0008973318617790937,0.024715738371014595
0.031151507049798965,0.002663053572177887,-0.018889574334025383,0.01712050847709179,-0.0008843163377605379,0.02496461570262909
0.031310051679611206,0.002639318350702524,-0.01888154447078705,0.01668909192085266,-0.0008794579189270735,0.024644549936056137
0.03219103068113327,0.0027265537064522505,-0.019436385482549667,0.016976704820990562,-0.0008969976915977895,0.02479391358792782
0.03250708431005478,0.003132718848064542,-0.01854187436401844,0.016884757205843925,-0.0009007334592752159,0.02511209063231945
0.03112860396504402,0.002912834519520402,-0.018812375143170357,0.017810678109526634,-0.0008270833641290665,0.02518773265182972
0.030563047155737877,0.003105834824964404,-0.019288184121251106,0.01760208047926426,-0.0008051913464441895,0.02513337880373001
0.0313408188521862,0.003032341133803129,-0.018844321370124817,0.01780245266854763,-0.0007275662501342595,0.025519592687487602
0.032049473375082016,0.0038764558266848326,-0.019066669046878815,0.01821540668606758,-0.0007208511815406382,0.02562401257455349
0.031882915645837784,0.003425243543460965,-0.019333641976118088,0.01712561771273613,-0.0006682743551209569,0.025454184040427208
0.03280552476644516,0.0029761081095784903,-0.019235040992498398,0.016937395557761192,-0.0006800084374845028,0.025665434077382088
0.03252527862787247,0.0029736869037151337,-0.01906413957476616,0.016543248668313026,-0.0006306094583123922,0.025578923523426056
0.03195682913064957,0.0031610431615263224,-0.018918352201581,0.016702301800251007,-0.0005803993553854525,0.026412684470415115
0.031244415789842606,0.0034333961084485054,-0.018575068563222885,0.01759440079331398,-0.0004977253265678883,0.02523680403828621
0.03172004222869873,0.0038780197501182556,-0.01927468553185463,0.01771160028874874,-0.0004450713749974966,0.025318065658211708
0.031823910772800446,0.0038764432538300753,-0.01937548816204071,0.0181613527238369,-0.0004640536499209702,0.025493858382105827
0.03245176374912262,0.003498804522678256,-0.018621591851115227,0.01786084659397602,-0.00044416371383704245,0.025490080937743187
0.032369911670684814,0.0035113084595650434,-0.019667036831378937,0.017806733027100563,-0.0004447327519301325,0.02567148208618164
0.03241071105003357,0.0037276733200997114,-0.020236587151885033,0.018267882987856865,-0.00044383673230186105,0.025544481351971626
0.03241071105003357,0.0037276733200997114,-0.020236587151885033,0.018267882987856865,-0.00044383673230186105,0.025544481351971626
0.032001666724681854,0.0041039371863007545,-0.019766608253121376,0.018325166776776314,-0.00047183316200971603,0.02589333802461624
0.03247061371803284,0.004154953174293041,-0.01928715594112873,0.018120065331459045,-0.0006321001565083861,0.02608819119632244
0.032214295119047165,0.004359802696853876,-0.020176146179437637,0.017567651346325874,-0.0007068379200063646,0.026136115193367004
0.03253892436623573,0.00463746627792716,-0.01913551241159439,0.0169925969094038,-0.0007301030564121902,0.026278642937541008
0.03241449594497681,0.004227549768984318,-0.019360927864909172,0.017317241057753563,-0.001152894925326109,0.026190781965851784
0.032537516206502914,0.003943975083529949,-0.019669249653816223,0.017280470579862595,-0.0013781128218397498,0.025980878621339798
0.03326635807752609,0.004365992266684771,-0.019660066813230515,0.017696388065814972,-0.0012707080459222198,0.02585405483841896
0.031198272481560707,0.004580129869282246,-0.01972023770213127,0.017433620989322662,-0.0013902945211157203,0.02581639401614666
0.03335349261760712,0.004665611311793327,-0.02004050277173519,0.017084689810872078,-0.001201819395646453,0.02585688978433609
0.03334658592939377,0.004724840633571148,-0.019950734451413155,0.01785026118159294,-0.0011288276873528957,0.026105564087629318
0.03288399428129196,0.004710026551038027,-0.019787708297371864,0.01739826612174511,-0.0009551335242576897,0.027236049994826317
0.033380866050720215,0.00496013555675745,-0.019982384517788887,0.017683668062090874,-0.0008516501984559,0.027303040027618408
0.03365462273359299,0.004906831309199333,-0.019611386582255363,0.017139166593551636,-0.0006561960326507688,0.026512151584029198
0.03341476991772652,0.004738721996545792,-0.020355649292469025,0.017445795238018036,-0.0006734119378961623,0.025849120691418648
0.03380611538887024,0.004924222826957703,-0.020264027640223503,0.01713302917778492,-0.0006978771416470408,0.026314664632081985
0.033369988203048706,0.004854987375438213,-0.01936238445341587,0.017318416386842728,-0.0007120708469301462,0.027492837980389595
0.03370269015431404,0.004843208938837051,-0.019880129024386406,0.017692705616354942,-0.000781458627898246,0.027192097157239914
0.03414938226342201,0.004793127998709679,-0.020168030634522438,0.017987433820962906,-0.0008440069505013525,0.027089210227131844
0.03411007300019264,0.005087453406304121,-0.019509565085172653,0.01802634447813034,-0.000905801949556917,0.02779078297317028
0.03401193395256996,0.005028621293604374,-0.02014053985476494,0.017554977908730507,-0.000908612331841141,0.027452653273940086
0.033944495022296906,0.005425815936177969,-0.020710624754428864,0.01718122325837612,-0.001066704629920423,0.025082197040319443
0.03482523933053017,0.005751963704824448,-0.02015809342265129,0.017632199451327324,-0.0010642802808433771,0.026713645085692406
0.03533695638179779,0.005506246350705624,-0.019602632150053978,0.017318133264780045,-0.0010281361173838377,0.02747071348130703
0.03388936445116997,0.0055158198811113834,-0.01992996409535408,0.01771194115281105,-0.0009923327015712857,0.02782432548701763
0.033349860459566116,0.005398642271757126,-0.02004489116370678,0.017749935388565063,-0.0009274827898479998,0.02755303494632244
0.034924305975437164,0.00581879960373044,-0.019502148032188416,0.017163719981908798,-0.0008822224917821586,0.027166007086634636
0.034924305975437164,0.00581879960373044,-0.019502148032188416,0.017163719981908798,-0.0008822224917821586,0.027166007086634636
0.0345139354467392,0.005778607912361622,-0.019926104694604874,0.017763787880539894,-0.0008173091919161379,0.02746935561299324
0.03509974852204323,0.005574163980782032,-0.02008868008852005,0.017705077305436134,-0.0008000099915079772,0.027566753327846527
0.035564787685871124,0.005080516450107098,-0.01957559399306774,0.017747484147548676,-0.0007333203102461994,0.02780221216380596
0.03493591398000717,0.0056684925220906734,-0.019890766590833664,0.01736980862915516,-0.000658322183880955,0.027361039072275162
0.03413345664739609,0.00540528679266572,-0.01987551711499691,0.017257079482078552,-0.0006750693428330123,0.027490442618727684
0.034734684973955154,0.005398654844611883,-0.01944533921778202,0.01819663867354393,-0.0006274341139942408,0.027852414175868034
0.035952743142843246,0.005573659669607878,-0.019669778645038605,0.01775871030986309,-0.0005622044554911554,0.02799280732870102
0.03415173664689064,0.005576771218329668,-0.019451111555099487,0.017333224415779114,-0.0005734462756663561,0.028147811070084572
0.03615458682179451,0.005427960772067308,-0.019240988418459892,0.017419081181287766,-0.0005386259290389717,0.028399696573615074
0.03540544584393501,0.005712389945983887,-0.019959917291998863,0.017496570944786072,-0.0005237802979536355,0.028462721034884453
0.03619067370891571,0.006225142162293196,-0.01973540708422661,0.017640309408307076,-0.0005490239709615707,0.028640178963541985
0.03582237660884857,0.005650118924677372,-0.01994447037577629,0.01752835139632225,-0.000517822802066803,0.028149200603365898
0.03531016781926155,0.005767450667917728,-0.02003725990653038,0.017671622335910797,-0.0005582505255006254,0.027904486283659935
0.03625265508890152,0.005962277762591839,-0.019854167476296425,0.01734885759651661,-0.0005509995971806347,0.028127485886216164
0.03672288730740547,0.005846264306455851,-0.019585246220231056,0.017814140766859055,-0.0005396213382482529,0.028434257954359055
0.03628676012158394,0.006259865593165159,-0.020150236785411835,0.01790907233953476,-0.0005639896844513714,0.028382081538438797
0.03606165200471878,0.005907069891691208,-0.021037045866250992,0.017445899546146393,-0.0005630546947941184,0.02853032946586609
0.0374847911298275,0.005738281179219484,-0.019983232021331787,0.017960283905267715,-0.0005535350064747036,0.029509294778108597
0.037857551127672195,0.005845794454216957,-0.020393310114741325,0.017638787627220154,-0.0005199260776862502,0.029465684667229652
0.03520091995596886,0.005919546354562044,-0.02016592025756836,0.01752813346683979,-0.0005586588522419333,0.028955921530723572
0.03597545996308327,0.006529185920953751,-0.019247671589255333,0.017882348969578743,-0.0005962444702163339,0.027977116405963898
0.037372712045907974,0.0062162308022379875,-0.019922195002436638,0.01748996041715145,-0.0005863690748810768,0.02832902781665325
0.03698910027742386,0.006307023577392101,-0.02075113356113434,0.017890172079205513,-0.0005727427778765559,0.029234064742922783
0.03792426735162735,0.005731101147830486,-0.020397458225488663,0.017469849437475204,-0.0005923396674916148,0.028341513127088547
0.03776035085320473,0.005929912440478802,-0.019437285140156746,0.0178360752761364,-0.0006943643093109131,0.02877172641456127
0.03776035085320473,0.005929912440478802,-0.019437285140156746,0.0178360752761364,-0.0006943643093109131,0.02877172641456127
0.0360666923224926,0.006282981019467115,-0.02078890986740589,0.01826520636677742,-0.000755348417442292,0.030093608424067497
0.036619629710912704,0.0059932223521173,-0.020978227257728577,0.018450412899255753,-0.0007609387976117432,0.029083237051963806
0.03778250142931938,0.006087124813348055,-0.02053096331655979,0.018648600205779076,-0.0007023345096968114,0.028824172914028168
0.03765419125556946,0.005626427475363016,-0.02015949785709381,0.0189296193420887,-0.0007172743789851665,0.028444422408938408
0.03741994872689247,0.006046007853001356,-0.020815424621105194,0.01773506961762905,-0.0007850219262763858,0.02910914272069931
0.03717641159892082,0.006398713681846857,-0.01994110271334648,0.01728716306388378,-0.0008116784738376737,0.03028629720211029
0.03793247044086456,0.005903458688408136,-0.019896963611245155,0.01749323680996895,-0.0008244246710091829,0.030501091852784157
0.03768089786171913,0.005147223360836506,-0.020156824961304665,0.01794767938554287,-0.0008476828224956989,0.02988440915942192
0.037791185081005096,0.0036746039986610413,-0.020710892975330353,0.01835230551660061,-0.0009498214349150658,0.030067207291722298
0.03793640807271004,0.0026090387254953384,-0.020474117249250412,0.018070276826620102,-0.0008500427938997746,0.02967660315334797
0.03793640807271004,0.0026090387254953384,-0.020474117249250412,0.018070276826620102,-0.0008500427938997746,0.02967660315334797
0.038374368101358414,0.004841587506234646,-0.02020270749926567,0.018259424716234207,-0.0007548765279352665,0.030428718775510788
0.038103096187114716,0.0046392991207540035,-0.02031206339597702,0.01903456076979637,-0.0007641781703568995,0.030023008584976196
0.038299236446619034,0.003817897057160735,-0.0206874068826437,0.01844906248152256,-0.0007038107141852379,0.030026428401470184
0.03712516278028488,0.0035470896400511265,-0.020550306886434555,0.017663177102804184,-0.0006735019269399345,0.03003346547484398
0.038728948682546616,0.0036766917910426855,-0.020650027319788933,0.01779869943857193,-0.0006452665547840297,0.029952237382531166
0.038934893906116486,0.004084104672074318,-0.021509064361453056,0.016735641285777092,-0.000668913300614804,0.030259203165769577
0.03860832378268242,0.0041604130528867245,-0.021545127034187317,0.017022253945469856,-0.0006852077203802764,0.030175553634762764
0.03856855258345604,0.003990520723164082,-0.021318774670362473,0.01720765046775341,-0.0007182694389484823,0.030222700908780098
0.038644082844257355,0.004260614980012178,-0.0210507083684206,0.01698237657546997,-0.0006930317031219602,0.03061775118112564
0.038700032979249954,0.0036532848607748747,-0.021523645147681236,0.017603114247322083,-0.0007089936989359558,0.030333172529935837
0.03855443745851517,0.0034859529696404934,-0.021403485909104347,0.017819911241531372,-0.0007170213502831757,0.030435403808951378
0.03856528177857399,0.0035626767203211784,-0.02161121927201748,0.018182799220085144,-0.0006658600177615881,0.030469179153442383
0.038764797151088715,0.004269050434231758,-0.021640697494149208,0.01831831783056259,-0.0006451711524277925,0.030691523104906082
0.03817149996757507,0.00409986637532711,-0.02167331613600254,0.016238033771514893,-0.0006266506970860064,0.02997654676437378
0.03817149996757507,0.00409986637532711,-0.02167331613600254,0.016238033771514893,-0.0006266506970860064,0.02997654676437378
0.03918497636914253,0.003867862746119499,-0.02194054238498211,0.018260926008224487,-0.0006219290080480278,0.030960002914071083
0.038404837250709534,0.004610962700098753,-0.02117697149515152,0.018459603190422058,-0.00059274717932567,0.0314398892223835
0.038404837250709534,0.004610962700098753,-0.02117697149515152,0.018459603190422058,-0.00059274717932567,0.0314398892223835
0.03769459202885628,0.004271034616976976,-0.02170170657336712,0.018261916935443878,-0.00058290472952649,0.03228665888309479
0.03915591165423393,0.003946153912693262,-0.021944524720311165,0.017889630049467087,-0.0005696358857676387,0.03187112882733345
0.039448317140340805,0.004143623635172844,-0.021691836416721344,0.017914777621626854,-0.0005893990746699274,0.03067486360669136
0.040412090718746185,0.0046874526888132095,-0.021647028625011444,0.018224328756332397,-0.0005530613707378507,0.030229005962610245
0.03990933299064636,0.004701063968241215,-0.021625254303216934,0.017959455028176308,-0.0005858562071807683,0.030977990478277206
0.037899959832429886,0.004923740401864052,-0.021798843517899513,0.018209457397460938,-0.0006280579837039113,0.03120296820998192
0.03940649703145027,0.005186127033084631,-0.021807020530104637,0.018512258306145668,-0.0006506883655674756,0.031426265835762024
0.040100473910570145,0.004927716217935085,-0.021154260262846947,0.018876420333981514,-0.0006740957614965737,0.03231336176395416
0.03961796313524246,0.0049354685470461845,-0.02134733833372593,0.019396116957068443,-0.0008735950104892254,0.03211201727390289
0.03995503485202789,0.004919096827507019,-0.021908098831772804,0.01925140991806984,-0.0008035395294427872,0.03138399496674538
0.03921027481555939,0.005193029996007681,-0.0224662683904171,0.018267402425408363,-0.0008130616624839604,0.03065028041601181
0.04004822298884392,0.005647294223308563,-0.022096455097198486,0.017382748425006866,-0.0008252516272477806,0.03212077543139458
0.03912735357880592,0.005148547235876322,-0.021727094426751137,0.018027272075414658,-0.0007906776154413819,0.03198084607720375
0.03955346718430519,0.004899612627923489,-0.02157212421298027,0.01880434900522232,-0.0008127239998430014,0.03176669031381607
0.0393710657954216,0.0058378009125590324,-0.021735724061727524,0.0184430293738842,-0.0008250834653154016,0.031862903386354446
0.03969237953424454,0.005614852998405695,-0.022610649466514587,0.01758315972983837,-0.0008482576231472194,0.03131209313869476
0.04072558507323265,0.006055837031453848,-0.02230927348136902,0.01770170032978058,-0.001136203994974494,0.03188556432723999
0.03905411437153816,0.005702415481209755,-0.022361991927027702,0.018083728849887848,-0.0010481224162504077,0.031855057924985886
0.03858146071434021,0.005560855381190777,-0.022388746961951256,0.019571099430322647,-0.0010206738952547312,0.03177764266729355
0.04004416987299919,0.005359501112252474,-0.022749964147806168,0.019512608647346497,-0.000994570436887443,0.03183795139193535
0.039198387414216995,0.0057227713987231255,-0.022165076807141304,0.018629997968673706,-0.0008982945000752807,0.03220386058092117
0.04104980453848839,0.006500279065221548,-0.022547807544469833,0.018584784120321274,-0.0008120479178614914,0.03243933245539665
0.0398874394595623,0.005828360095620155,-0.0227196142077446,0.01760389283299446,-0.0008100605336949229,0.03102557733654976
0.038139116019010544,0.005743651185184717,-0.021859178319573402,0.017514990642666817,-0.0008053992060013115,0.03272319212555885
0.038139116019010544,0.005743651185184717,-0.021859178319573402,0.017514990642666817,-0.0008053992060013115,0.03272319212555885
0.040414970368146896,0.005389455705881119,-0.021870169788599014,0.0177100021392107,-0.0007890620618127286,0.032914333045482635
0.040427155792713165,0.005887631326913834,-0.023117415606975555,0.017598221078515053,-0.0007573891198262572,0.03262422978878021
0.04010562226176262,0.005472493823617697,-0.023164238780736923,0.01834508404135704,-0.0008197029819712043,0.033101968467235565
0.039889637380838394,0.005972608923912048,-0.022599847987294197,0.018665863201022148,-0.0008340277126990259,0.03272645175457001
0.03999060019850731,0.005810311064124107,-0.022106530144810677,0.0188071820884943,-0.0008426198619417846,0.03284881263971329
0.04064275696873665,0.0056390599347651005,-0.02265949547290802,0.019092625007033348,-0.0008044915739446878,0.032118331640958786
0.04060524329543114,0.005792297422885895,-0.022812262177467346,0.018649915233254433,-0.0009973215637728572,0.03306706249713898
0.03997788205742836,0.006207111291587353,-0.022787313908338547,0.01813776232302189,-0.000992549117654562,0.03390844911336899
0.04019264504313469,0.006275390274822712,-0.022721441462635994,0.018486646935343742,-0.0010127904824912548,0.03326140344142914
0.04065890982747078,0.006297245621681213,-0.022708706557750702,0.018313361331820488,-0.0010283624287694693,0.03187151625752449
0.04123988375067711,0.006161870900541544,-0.022883545607328415,0.018398096784949303,-0.0010866721859201789,0.0325411893427372
0.040808677673339844,0.006504980847239494,-0.02319098450243473,0.018845085054636,-0.0010398013982921839,0.03297676891088486
0.041393544524908066,0.006769535131752491,-0.023106779903173447,0.018769927322864532,-0.0010182876139879227,0.03352953493595123
0.04134928435087204,0.006444631610065699,-0.023192148655653,0.018349692225456238,-0.0009787381859496236,0.03455808758735657
0.04178421571850777,0.006126382388174534,-0.02300858311355114,0.01819237321615219,-0.0009400276467204094,0.03241939842700958
0.041424013674259186,0.00708128372207284,-0.02339584194123745,0.01894422248005867,-0.0009635225287638605,0.032150983810424805
0.041837725788354874,0.006705476436764002,-0.023463569581508636,0.018645960837602615,-0.0009815834928303957,0.033844977617263794
0.041944719851017,0.006488372106105089,-0.02313479408621788,0.01827140524983406,-0.0010241055861115456,0.033978138118982315
0.042357150465250015,0.006626555696129799,-0.023288127034902573,0.01870892383158207,-0.000969902437645942,0.03376493230462074
0.041884470731019974,0.006785843521356583,-0.023338085040450096,0.018959466367959976,-0.0009577313903719187,0.0346190370619297
0.04246438667178154,0.006621890235692263,-0.023630555719137192,0.018820831552147865,-0.0009763172711245716,0.03456719592213631
0.042451534420251846,0.0069648949429392815,-0.02377006784081459,0.0191341619938612,-0.0009603966027498245,0.034259721636772156
0.04222899302840233,0.006561715621501207,-0.023081736639142036,0.01869981549680233,-0.0009505431517027318,0.03408914804458618
0.04240306094288826,0.006855205167084932,-0.02287432551383972,0.018105827271938324,-0.0009435142274014652,0.03379978984594345
0.04401577264070511,0.007007998414337635,-0.0232149176299572,0.018569953739643097,-0.0008982745348475873,0.034112945199012756
0.04199811816215515,0.006695745047181845,-0.023799262940883636,0.01810564659535885,-0.0010134887415915728,0.03437095507979393
0.041444048285484314,0.006566054653376341,-0.023635217919945717,0.01827837899327278,-0.0010025331284850836,0.034509893506765366
0.04282485693693161,0.006445776671171188,-0.02351907268166542,0.01896575465798378,-0.0010052096331492066,0.0344400592148304
0.04282485693693161,0.006445776671171188,-0.02351907268166542,0.01896575465798378,-0.0010052096331492066,0.0344400592148304
0.04308931902050972,0.006489104125648737,-0.02302861399948597,0.018624113872647285,-0.000991055858321488,0.0346093513071537
0.04442675784230232,0.007148255128413439,-0.023196248337626457,0.018595784902572632,-0.0008970648050308228,0.03500081226229668
0.04293660447001457,0.0066869729198515415,-0.023683493956923485,0.018824199214577675,-0.0008921263506636024,0.03508016839623451
0.041604962199926376,0.006133725866675377,-0.024358944967389107,0.018559055402874947,-0.0008927156450226903,0.034711115062236786
0.043518539518117905,0.006071400362998247,-0.024110859259963036,0.018886638805270195,-0.0008858295041136444,0.03456700220704079
0.043546732515096664,0.007131653372198343,-0.02357623539865017,0.018906820565462112,-0.0008647717768326402,0.03482923284173012
0.0432698056101799,0.006944482214748859,-0.02298339270055294,0.01825864240527153,-0.0008883627015165985,0.03558088839054108
0.04333510249853134,0.006888335105031729,-0.023559659719467163,0.018342062830924988,-0.0008822171948850155,0.033957529813051224
0.04336743429303169,0.006577497813850641,-0.026109402999281883,0.01804950088262558,-0.0008915695361793041,0.03606163337826729
0.0437101386487484,0.006714968476444483,-0.02358761802315712,0.01801903545856476,-0.0009878460550680757,0.03726430982351303
0.043207839131355286,0.007496279664337635,-0.02337360382080078,0.018645619973540306,-0.0010724179446697235,0.03669087216258049
0.04356897622346878,0.007687793113291264,-0.024182461202144623,0.018591951578855515,-0.0010874496074393392,0.03440071642398834
0.04561784118413925,0.007027617190033197,-0.024739911779761314,0.018760960549116135,-0.0011626179330050945,0.0352327786386013
0.0429077111184597,0.006710865534842014,-0.024343222379684448,0.018425418063998222,-0.0012033407110720873,0.03622204810380936
0.043721068650484085,0.006355320103466511,-0.024164166301488876,0.0186622217297554,-0.001192636787891388,0.03720732778310776
0.04494412615895271,0.00631538825109601,-0.02385234273970127,0.01869589276611805,-0.0011779555352404714,0.03638783469796181
0.044641509652137756,0.005942326504737139,-0.0242049191147089,0.018643680959939957,-0.001129317213781178,0.03479788079857826
0.043483272194862366,0.006293423008173704,-0.024099471047520638,0.018774613738059998,-0.0010579570662230253,0.03515566140413284
0.0432463064789772,0.006791589315980673,-0.024080155417323112,0.018957529217004776,-0.001014606561511755,0.036500006914138794
0.04468808323144913,0.006372733972966671,-0.024142548441886902,0.01851026527583599,-0.000875525118317455,0.03650122880935669
