davideferrari95/blind_handover_controller/data/Test 178 - [2024-02-08 -- 11-21-28]/joint_states_data.csv
shoulder_pan_joint,shoulder_lift_joint,elbow_joint,wrist_1_joint,wrist_2_joint,wrist_3_joint
-0.01785554550588131,-0.014554443769156933,-0.01493794098496437,0.03242236003279686,0.0017746258527040482,-0.01864832267165184
-0.0177448857575655,-0.014841072261333466,-0.01501405704766512,0.032426733523607254,0.0014416485792025924,-0.018406370654702187
-0.0177448857575655,-0.014841072261333466,-0.01501405704766512,0.032426733523607254,0.0014416485792025924,-0.018406370654702187
-0.018137292936444283,-0.015056227333843708,-0.015602373518049717,0.03304416686296463,0.0013503007357940078,-0.018086552619934082
-0.018042631447315216,-0.014631377533078194,-0.014840465039014816,0.034347254782915115,0.001112176920287311,-0.017999669536948204
-0.017859559506177902,-0.015202894806861877,-0.015495608560740948,0.03325380012392998,0.0010472292779013515,-0.018131909891963005
-0.017859559506177902,-0.015202894806861877,-0.015495608560740948,0.03325380012392998,0.0010472292779013515,-0.018131909891963005
-0.018671687692403793,-0.014816466718912125,-0.014913488179445267,0.03267480805516243,0.0010210754116997123,-0.018098728731274605
-0.01844324916601181,-0.015225864015519619,-0.015137175098061562,0.032923560589551926,0.0010036489693447948,-0.017931822687387466
-0.017764665186405182,-0.014814362861216068,-0.015186500735580921,0.03334309160709381,0.0009249700233340263,-0.01825282908976078
-0.018429340794682503,-0.015026023611426353,-0.015498057007789612,0.033205050975084305,0.0009127383818849921,-0.018096741288900375
-0.01838417537510395,-0.014903616160154343,-0.015455483458936214,0.03267807886004448,0.0008765390957705677,-0.018093924969434738
-0.017899224534630775,-0.01505929883569479,-0.01519252173602581,0.03270762041211128,0.0008774292073212564,-0.01815519854426384
-0.017701420933008194,-0.014919453300535679,-0.015629002824425697,0.032425906509160995,0.0008388527785427868,-0.01838877610862255
-0.017604971304535866,-0.015398058108985424,-0.014943207614123821,0.03250735253095627,0.0009847917826846242,-0.018162090331315994
-0.018475128337740898,-0.015056212432682514,-0.016137104481458664,0.03238547965884209,0.000980174052529037,-0.01736259274184704
-0.018675798550248146,-0.015029284171760082,-0.015428608283400536,0.031956546008586884,0.000878324150107801,-0.017583660781383514
-0.01783030293881893,-0.015490046702325344,-0.016205022111535072,0.0318172350525856,0.0008748488035053015,-0.01791544444859028
-0.018447812646627426,-0.015089491382241249,-0.01565629430115223,0.03189708665013313,0.0008687670342624187,-0.017678523436188698
-0.018127603456377983,-0.015167991630733013,-0.015788478776812553,0.03194485977292061,0.0007581896497868001,-0.01756364107131958
-0.017138689756393433,-0.014998681843280792,-0.01547363493591547,0.031465787440538406,0.0007708030752837658,-0.017104752361774445
-0.017580829560756683,-0.015440068207681179,-0.017477117478847504,0.031251903623342514,0.0007640129188075662,-0.017462661489844322
-0.0175867211073637,-0.015063567087054253,-0.015507438220083714,0.031035635620355606,0.000704218284226954,-0.01845967210829258
-0.01856348104774952,-0.015552343800663948,-0.015022494830191135,0.03134165704250336,0.0007189619936980307,-0.018410904332995415
-0.018267814069986343,-0.015362506732344627,-0.015985336154699326,0.031452588737010956,0.0006814762600697577,-0.01785442791879177
-0.017251458019018173,-0.015676090493798256,-0.016029519960284233,0.031453706324100494,0.0006765500293113291,-0.0177548136562109
-0.017868464812636375,-0.015009715221822262,-0.016491450369358063,0.03173723444342613,0.0007014014408923686,-0.017665309831500053
-0.01774761639535427,-0.015495764091610909,-0.015397459268569946,0.03163943067193031,0.0007470286800526083,-0.01722552627325058
-0.017855042591691017,-0.015311727300286293,-0.015767285600304604,0.03214511647820473,0.0009869324276223779,-0.01685427688062191
-0.018308905884623528,-0.01566925086081028,-0.015195895917713642,0.03206086531281471,0.0010453362483531237,-0.01707160659134388
-0.01734294183552265,-0.014891051687300205,-0.01610247604548931,0.03214298561215401,0.0010260783601552248,-0.017218464985489845
-0.017834825441241264,-0.01572248712182045,-0.015562520362436771,0.031634241342544556,0.0009915276896208525,-0.017444869503378868
-0.01752668060362339,-0.015030184760689735,-0.015708481892943382,0.03313795477151871,0.0008336041355505586,-0.01697283238172531
-0.01743386499583721,-0.01534166932106018,-0.015958575531840324,0.031820446252822876,0.0007120242225937545,-0.017051570117473602
-0.017230534926056862,-0.015117852948606014,-0.01620042696595192,0.031132319942116737,0.0006736947107128799,-0.017587261274456978
-0.017230534926056862,-0.015117852948606014,-0.01620042696595192,0.031132319942116737,0.0006736947107128799,-0.017587261274456978
-0.01790028251707554,-0.0154583640396595,-0.015539932996034622,0.03160916641354561,0.000644983199890703,-0.017496995627880096
-0.01722470298409462,-0.014922911301255226,-0.01596062071621418,0.03183375671505928,0.0005791205330751836,-0.017409777268767357
-0.017039278522133827,-0.015144727192819118,-0.015425002202391624,0.03183187171816826,0.0006040447624400258,-0.016794830560684204
-0.016989797353744507,-0.014647805131971836,-0.015826107934117317,0.032706260681152344,0.0006142144557088614,-0.01692795753479004
-0.01673300564289093,-0.015154313296079636,-0.01492312178015709,0.03247217833995819,0.0005843503167852759,-0.016324883326888084
-0.017244495451450348,-0.01494850404560566,-0.015839045867323875,0.031180353835225105,0.0005727855022996664,-0.016792701557278633
-0.016720782965421677,-0.015340826474130154,-0.01574612595140934,0.030827810987830162,0.0006037682178430259,-0.017218930646777153
-0.016725929453969002,-0.014876228757202625,-0.015455154702067375,0.032506849616765976,0.0006315680220723152,-0.017553724348545074
-0.01700073480606079,-0.015179823152720928,-0.015210633166134357,0.032154858112335205,0.0008650647941976786,-0.01754237338900566
-0.01652519404888153,-0.014754530973732471,-0.015677405521273613,0.03139320760965347,0.0010797912254929543,-0.01697714254260063
-0.016655322164297104,-0.014829739928245544,-0.016102103516459465,0.031111612915992737,0.001062665251083672,-0.01682278700172901
-0.016314450651407242,-0.014510120265185833,-0.015291797928512096,0.030893513932824135,0.0009262221865355968,-0.017094537615776062
-0.01685035414993763,-0.014682616107165813,-0.015512255020439625,0.030840642750263214,0.0009152184939011931,-0.016939261928200722
-0.016731183975934982,-0.014323397539556026,-0.015049719251692295,0.030451538041234016,0.0008484584977850318,-0.016837414354085922
-0.016544828191399574,-0.014856788329780102,-0.015649674460291862,0.030034981667995453,0.000744734366890043,-0.01712283305823803
-0.01648908481001854,-0.014983108267188072,-0.01469647977501154,0.030183903872966766,0.000733694585505873,-0.017184937372803688
-0.016125040128827095,-0.014832457527518272,-0.015252010896801949,0.030233321711421013,0.0006707274005748332,-0.016787437722086906
-0.016533629968762398,-0.014572476036846638,-0.014867130666971207,0.030133573338389397,0.0006905498448759317,-0.016790149733424187
-0.016104651615023613,-0.014775263145565987,-0.015373345464468002,0.03013848513364792,0.0007050278363749385,-0.016783040016889572
-0.01643511839210987,-0.014227863401174545,-0.014704020693898201,0.03032039850950241,0.0007070662686601281,-0.016503548249602318
-0.015858741477131844,-0.014381453394889832,-0.015327543020248413,0.03019222430884838,0.0007398486486636102,-0.016797782853245735
-0.015970906242728233,-0.01461974810808897,-0.014933295547962189,0.030098622664809227,0.0007600085227750242,-0.016734013333916664
-0.016265973448753357,-0.01443265937268734,-0.014863814227283001,0.03032611683011055,0.0007754164398647845,-0.016625545918941498
-0.01575148105621338,-0.014574497006833553,-0.01457189116626978,0.03036683425307274,0.0009331195615231991,-0.01677025482058525
-0.016035327687859535,-0.014464649371802807,-0.0151042016223073,0.030436813831329346,0.0009816952515393496,-0.016873639076948166
-0.016035327687859535,-0.014464649371802807,-0.0151042016223073,0.030436813831329346,0.0009816952515393496,-0.016873639076948166
-0.01566045917570591,-0.014067428186535835,-0.015086696483194828,0.0301370732486248,0.0009537776932120323,-0.016783222556114197
-0.015423249453306198,-0.014359654858708382,-0.015082137659192085,0.030286727473139763,0.000848256575409323,-0.01651531085371971
-0.015422172844409943,-0.014245488680899143,-0.01485308725386858,0.030466319993138313,0.000770067679695785,-0.016656864434480667
-0.015806423500180244,-0.014403021894395351,-0.015283804386854172,0.03113155998289585,0.0006983636412769556,-0.016628626734018326
-0.016214555129408836,-0.014876814559102058,-0.014713067561388016,0.03080981969833374,0.0006077248835936189,-0.016726437956094742
-0.016062427312135696,-0.014404086396098137,-0.014978979714214802,0.02890681102871895,0.0005354894674383104,-0.01663609966635704
-0.015920965000987053,-0.014645718969404697,-0.014952359721064568,0.028165383264422417,0.0005671547842212021,-0.016449609771370888
-0.015704035758972168,-0.014486636035144329,-0.015086838975548744,0.02893763780593872,0.0005184373003430665,-0.016490787267684937
-0.015569175593554974,-0.013827050104737282,-0.014418245293200016,0.028831109404563904,0.0005465667927637696,-0.01646561361849308
-0.01614093966782093,-0.013976636342704296,-0.015247535891830921,0.02867349237203598,0.0005605395417660475,-0.01621752604842186
-0.015670284628868103,-0.014442612417042255,-0.014619067311286926,0.02948908507823944,0.000535633007530123,-0.016090484336018562
-0.016597360372543335,-0.01380231138318777,-0.015283867716789246,0.028979193419218063,0.0005056410445831716,-0.016504555940628052
-0.01582198776304722,-0.014228003099560738,-0.014493086375296116,0.027649501338601112,0.00046376773389056325,-0.01658543571829796
-0.016136055812239647,-0.014239046722650528,-0.01539492979645729,0.027020307257771492,0.0004935053875669837,-0.016432231292128563
-0.016349254176020622,-0.01442789938300848,-0.014872933737933636,0.02752412110567093,0.0005176561535336077,-0.016106240451335907
-0.015493223443627357,-0.013997280970215797,-0.014968514442443848,0.02851077914237976,0.000495074549689889,-0.016158178448677063
-0.015739569440484047,-0.014213446527719498,-0.014524434693157673,0.028497129678726196,0.0005211897077970207,-0.016593139618635178
-0.015790022909641266,-0.013858132995665073,-0.015320442616939545,0.028329337015748024,0.0004897805629298091,-0.01671244576573372
-0.01627623848617077,-0.014116036705672741,-0.014408777467906475,0.02807987481355667,0.0005875213537365198,-0.016185836866497993
-0.01582387089729309,-0.014056961052119732,-0.014988204464316368,0.028248345479369164,0.0005583470920100808,-0.016770590096712112
-0.016227634623646736,-0.014380763284862041,-0.014905909076333046,0.028426755219697952,0.0004991927416995168,-0.01687866821885109
-0.01554082054644823,-0.014251403510570526,-0.015212668105959892,0.028779499232769012,0.0005328132538124919,-0.01652730628848076
-0.015822218731045723,-0.014174683019518852,-0.015028132125735283,0.028829051181674004,0.000489886209834367,-0.01565880887210369
-0.015552199445664883,-0.013862140476703644,-0.014962583780288696,0.02913292497396469,0.0004856559098698199,-0.015353035181760788
-0.015822963789105415,-0.014356794767081738,-0.015178014524281025,0.02872995287179947,0.00048151324153877795,-0.01586594060063362
-0.015927305445075035,-0.013787375763058662,-0.015277710743248463,0.02870498225092888,0.0004804701602552086,-0.01649053953588009
-0.01575985550880432,-0.014101422391831875,-0.014689291827380657,0.02819398045539856,0.0004772909451276064,-0.01650400459766388
-0.01575985550880432,-0.014101422391831875,-0.014689291827380657,0.02819398045539856,0.0004772909451276064,-0.01650400459766388
-0.015023643150925636,-0.013364751823246479,-0.015186826698482037,0.02805391699075699,0.00039244501385837793,-0.016213569790124893
-0.015023643150925636,-0.013364751823246479,-0.015186826698482037,0.02805391699075699,0.00039244501385837793,-0.016213569790124893
-0.01571355201303959,-0.013501071371138096,-0.014050162397325039,0.027763385325670242,0.00033437658566981554,-0.016444198787212372
-0.01571355201303959,-0.013501071371138096,-0.014050162397325039,0.027763385325670242,0.00033437658566981554,-0.016444198787212372
-0.015259346924722195,-0.01423899456858635,-0.014940490946173668,0.027496498078107834,0.0003570044063962996,-0.016734758391976357
-0.01573347859084606,-0.013536551967263222,-0.014937024563550949,0.027491120621562004,0.0003482313477434218,-0.01613914966583252
-0.015482760965824127,-0.014071854762732983,-0.015217255800962448,0.02727833390235901,0.00032800438930280507,-0.015958193689584732
-0.015616504475474358,-0.013460446149110794,-0.014827966690063477,0.027231333777308464,0.0003538586897775531,-0.015465622767806053
-0.015299124643206596,-0.013806620612740517,-0.015412384644150734,0.02730470523238182,0.00034081339254043996,-0.015580843202769756
-0.015430900268256664,-0.013426492922008038,-0.015203781425952911,0.027109745889902115,0.0003637289337348193,-0.015477355569601059
-0.015574646182358265,-0.013524801470339298,-0.015056624077260494,0.026797408238053322,0.0004070772265549749,-0.015647370368242264
-0.015293699689209461,-0.013004431501030922,-0.0141404764726758,0.026369022205471992,0.0004228810721542686,-0.015553543344140053
-0.015417002141475677,-0.01291870791465044,-0.014889372512698174,0.026563603430986404,0.0004622064298018813,-0.015504284761846066
-0.015236863866448402,-0.013562005013227463,-0.014367790892720222,0.027172382920980453,0.0004829819081351161,-0.01537013053894043
-0.015632567927241325,-0.013341041281819344,-0.014906637370586395,0.026887452229857445,0.00046405752073042095,-0.015382237732410431
-0.015077495016157627,-0.013822169974446297,-0.014146695844829082,0.02592751942574978,0.00043321872362867,-0.015388009138405323
-0.014945647679269314,-0.01326407678425312,-0.014893854036927223,0.026230094954371452,0.00045926979510113597,-0.015114350244402885
-0.014798962511122227,-0.013559095561504364,-0.014460002072155476,0.02611107937991619,0.0004353324475232512,-0.01515910029411316
-0.015402466058731079,-0.013162617571651936,-0.015113849192857742,0.026445528492331505,0.0005433975020423532,-0.014857927337288857
-0.014520746655762196,-0.012811108492314816,-0.014254149980843067,0.0262434221804142,0.0004942435771226883,-0.015078039839863777
-0.014824170619249344,-0.013407611288130283,-0.014734462834894657,0.02641674131155014,0.0005286183441057801,-0.015129613690078259
-0.014641186222434044,-0.013507167808711529,-0.014100607484579086,0.026868389919400215,0.00048640588647685945,-0.015311050228774548
-0.015019298531115055,-0.013086297549307346,-0.014466955326497555,0.026739785447716713,0.00044650223571807146,-0.014838050119578838
-0.01477538701146841,-0.01306481659412384,-0.014129235409200191,0.025181207805871964,0.000476270099170506,-0.014901392161846161
-0.015236489474773407,-0.012992719188332558,-0.014423796907067299,0.024546140804886818,0.00044665182940661907,-0.014959094114601612
-0.014444679021835327,-0.012836572714149952,-0.01374957337975502,0.025200923904776573,0.0004611815675161779,-0.01513929758220911
-0.014777854084968567,-0.013302259147167206,-0.014248957857489586,0.02651969902217388,0.00044628194882534444,-0.014728246256709099
-0.014777854084968567,-0.013302259147167206,-0.014248957857489586,0.02651969902217388,0.00044628194882534444,-0.014728246256709099
-0.014821309596300125,-0.013003830797970295,-0.01454769168049097,0.026226522400975227,0.0004169973835814744,-0.014512749388813972
-0.014821309596300125,-0.013003830797970295,-0.01454769168049097,0.026226522400975227,0.0004169973835814744,-0.014512749388813972
-0.01473756693303585,-0.012946251779794693,-0.014288019388914108,0.02623891830444336,0.00042262967326678336,-0.014713608659803867
-0.014291096478700638,-0.012857376597821712,-0.013630809262394905,0.026436882093548775,0.0004489649145398289,-0.014962663874030113
-0.014738203026354313,-0.0128499586135149,-0.013868453912436962,0.026426538825035095,0.0004263111623004079,-0.014698623679578304
-0.014161701314151287,-0.012573962099850178,-0.013547689653933048,0.026268264278769493,0.00044911805889569223,-0.014753216877579689
-0.014535901136696339,-0.01238990854471922,-0.013865312561392784,0.025817781686782837,0.0004304124158807099,-0.014315522275865078
-0.014118783175945282,-0.012898128479719162,-0.013673427514731884,0.025739669799804688,0.0005375579930841923,-0.01454369816929102
-0.014465609565377235,-0.012272846885025501,-0.013879957608878613,0.025587279349565506,0.0005610344815067947,-0.014324294403195381
-0.01415092870593071,-0.0130705451592803,-0.01374185923486948,0.02580173872411251,0.0005287014064379036,-0.01618688926100731
-0.014407315291464329,-0.012368978001177311,-0.01307999063283205,0.025965502485632896,0.0004828608362004161,-0.01428599376231432
-0.014170886017382145,-0.012486579827964306,-0.013246139511466026,0.025282399728894234,0.0005119032575748861,-0.013844740577042103
-0.014452112838625908,-0.012416265904903412,-0.012861416675150394,0.02511046640574932,0.00047755788546055555,-0.014123204164206982
-0.013947726227343082,-0.012391177006065845,-0.013175738975405693,0.025036349892616272,0.0004989575827494264,-0.014590143226087093
-0.014198101125657558,-0.012468917295336723,-0.012816796079277992,0.02447870932519436,0.000473616411909461,-0.014193451032042503
-0.013521609827876091,-0.012217752635478973,-0.013298777863383293,0.024329911917448044,0.0004981158417649567,-0.014377648010849953
-0.014129796996712685,-0.012764225713908672,-0.012984980829060078,0.024406660348176956,0.0005356102483347058,-0.014624446630477905
-0.01370691042393446,-0.012028028257191181,-0.01347777433693409,0.024403871968388557,0.0005375905893743038,-0.01501228753477335
-0.013392237015068531,-0.012529876083135605,-0.01299732830375433,0.02444281429052353,0.0005294198053888977,-0.014748445712029934
-0.013811182230710983,-0.012145991437137127,-0.013088530860841274,0.024122629314661026,0.0004905922105535865,-0.014618054032325745
-0.014233354479074478,-0.012246963568031788,-0.013455480337142944,0.02331334352493286,0.000515734136570245,-0.014589066617190838
-0.013394475914537907,-0.01256602257490158,-0.01333005353808403,0.023510664701461792,0.0004849350661970675,-0.014641568064689636
-0.013748181983828545,-0.01222858764231205,-0.013313102535903454,0.02419414557516575,0.00045456018415279686,-0.014307304285466671
-0.013654964044690132,-0.012845225632190704,-0.01297889743000269,0.02524849772453308,0.0004928733105771244,-0.014213046990334988
-0.014075040817260742,-0.012209686450660229,-0.013608531095087528,0.025425929576158524,0.0004649925685953349,-0.014093061909079552
-0.01377051044255495,-0.012756576761603355,-0.01311895065009594,0.024667296558618546,0.0004227735917083919,-0.014278808608651161
-0.014039798639714718,-0.012048828415572643,-0.013822345063090324,0.023243386298418045,0.0003865162725560367,-0.0142271239310503
-0.01346388179808855,-0.01225938182324171,-0.01357406284660101,0.024123206734657288,0.0003954483545385301,-0.013978259637951851
-0.01346388179808855,-0.01225938182324171,-0.01357406284660101,0.024123206734657288,0.0003954483545385301,-0.013978259637951851
-0.013823438435792923,-0.012150384485721588,-0.013257622718811035,0.024446330964565277,0.00036871162592433393,-0.014321650378406048
-0.014243107289075851,-0.01255275122821331,-0.014065873809158802,0.024745620787143707,0.00037311925552785397,-0.01421364489942789
-0.01388916652649641,-0.012235098518431187,-0.013606381602585316,0.025442827492952347,0.00037654279731214046,-0.014042885974049568
-0.014081164263188839,-0.012229898013174534,-0.014050726778805256,0.02579946629703045,0.0003568895917851478,-0.013811337761580944
-0.013824576511979103,-0.011912823654711246,-0.014212723821401596,0.02487751841545105,0.0003378535038791597,-0.014088652096688747
-0.013609858229756355,-0.012178072705864906,-0.014209611341357231,0.024174846708774567,0.00036331472801975906,-0.013926173560321331
-0.014025459066033363,-0.012295976281166077,-0.013266113586723804,0.024228181689977646,0.00034850643714889884,-0.014055310748517513
-0.013650784268975258,-0.011859554797410965,-0.013989297673106194,0.023399602621793747,0.00033258614712394774,-0.013939062133431435
-0.013494497165083885,-0.012086785398423672,-0.014032989740371704,0.024008050560951233,0.0003186567628290504,-0.014144545421004295
-0.012892432510852814,-0.011826975271105766,-0.014092997647821903,0.024305835366249084,0.00029226343031041324,-0.014239594340324402
-0.01359289325773716,-0.012445196509361267,-0.014242448844015598,0.024164246395230293,0.0002740806376095861,-0.013962767086923122
-0.013070480898022652,-0.011884268373250961,-0.01369412336498499,0.024035736918449402,0.00025831538368947804,-0.013688202947378159
-0.013381307944655418,-0.011641355231404305,-0.014213625341653824,0.024186139926314354,0.00024428535834886134,-0.013778802007436752
-0.013093202374875546,-0.012310769408941269,-0.013960439711809158,0.024078454822301865,0.0002317020989721641,-0.013375102542340755
-0.013391622342169285,-0.011804517358541489,-0.014176033437252045,0.023813577368855476,0.0002613975666463375,-0.013627852313220501
-0.012920396402478218,-0.01216939091682434,-0.013517750427126884,0.023889074102044106,0.00025187869323417544,-0.013591308146715164
-0.013128519058227539,-0.011946038343012333,-0.013728484511375427,0.023863516747951508,0.0002408182917861268,-0.013742676936089993
-0.01334959827363491,-0.012070237658917904,-0.01396969985216856,0.023815641179680824,0.0002577848790679127,-0.013387300074100494
-0.01334959827363491,-0.012070237658917904,-0.01396969985216856,0.023815641179680824,0.0002577848790679127,-0.013387300074100494
-0.013707240112125874,-0.012009674683213234,-0.01443460676819086,0.02386891469359398,0.0002651222748681903,-0.013748825527727604
-0.012980995699763298,-0.012139403261244297,-0.01379486359655857,0.02425229176878929,0.0002713071880862117,-0.013645653612911701
-0.013240160420536995,-0.011327236890792847,-0.013330111280083656,0.023864513263106346,0.000262473156908527,-0.013608205132186413
-0.01259391475468874,-0.011442095972597599,-0.014128352515399456,0.023981571197509766,0.0002871039614547044,-0.013455015607178211
-0.013062667101621628,-0.011911099776625633,-0.013406334444880486,0.023856814950704575,0.000300690095173195,-0.01385371945798397
-0.012535970658063889,-0.011648967862129211,-0.01379823125898838,0.023685947060585022,0.0002838622604031116,-0.013633978553116322
-0.01267861295491457,-0.011558734811842442,-0.014301249757409096,0.023178046569228172,0.00030213885474950075,-0.013416597619652748
-0.01249257568269968,-0.011416712775826454,-0.013594425283372402,0.02269582450389862,0.0002865157148335129,-0.01328543946146965
-0.012692585587501526,-0.011649742722511292,-0.013803159818053246,0.022615475580096245,0.00027210061671212316,-0.01312057301402092
-0.012419920414686203,-0.011251026764512062,-0.013668264262378216,0.02310335822403431,0.0002964344748761505,-0.01304063480347395
-0.012435035780072212,-0.01196499727666378,-0.013568790629506111,0.023120122030377388,0.0002880044630728662,-0.013091221451759338
-0.012435035780072212,-0.01196499727666378,-0.013568790629506111,0.023120122030377388,0.0002880044630728662,-0.013091221451759338
-0.011954464949667454,-0.011293748393654823,-0.013309075497090816,0.02341615781188011,0.00030483337468467653,-0.012977592647075653
-0.012352118268609047,-0.011195413768291473,-0.013858083635568619,0.022990895435214043,0.0003012572124134749,-0.013334621675312519
-0.012251743115484715,-0.011550157330930233,-0.013820843771100044,0.022269777953624725,0.00037330432678572834,-0.013273416087031364
-0.012107951566576958,-0.010945853777229786,-0.013461432419717312,0.02284063957631588,0.00037049746606498957,-0.013474000617861748
-0.012009105645120144,-0.01107351016253233,-0.01358353067189455,0.022960346192121506,0.0004033832810819149,-0.013170096091926098
-0.011634120717644691,-0.01115280669182539,-0.013360514305531979,0.022352326661348343,0.0003829747438430786,-0.012969087809324265
-0.012210926972329617,-0.010758343152701855,-0.013616473414003849,0.022411199286580086,0.0003871031804010272,-0.01268500741571188
-0.011720605194568634,-0.011074758134782314,-0.012831395491957664,0.022727569565176964,0.00038982374826446176,-0.01265473198145628
-0.011765441857278347,-0.010691222734749317,-0.01347122061997652,0.02273554354906082,0.00040756925591267645,-0.012733396142721176
-0.011938498355448246,-0.010735277086496353,-0.013051810674369335,0.02267039194703102,0.0003973304701503366,-0.012914047576487064
-0.011529987677931786,-0.011189541779458523,-0.013731149025261402,0.023329714313149452,0.0003773041535168886,-0.013008840382099152
-0.01128372736275196,-0.010629387572407722,-0.01317480020225048,0.02346375398337841,0.0004619225801434368,-0.012798083946108818
-0.010951516218483448,-0.010700283572077751,-0.013668558560311794,0.023000292479991913,0.00043335670488886535,-0.01283248234540224
-0.011686408892273903,-0.011184417642652988,-0.013498086482286453,0.02209351770579815,0.0004697915574070066,-0.012986426241695881
-0.01132909394800663,-0.01069708727300167,-0.013588612899184227,0.021641183644533157,0.00043664753320626915,-0.012838681228458881
-0.010619123466312885,-0.011169438250362873,-0.01347628328949213,0.021684911102056503,0.00046240855590440333,-0.012810143642127514
-0.011141409166157246,-0.01111778523772955,-0.013785666786134243,0.022916996851563454,0.0004381780745461583,-0.013089814223349094
-0.010747323743999004,-0.010743529535830021,-0.013401116244494915,0.022069791331887245,0.0004607945156749338,-0.013087397441267967
-0.01051534153521061,-0.010994852520525455,-0.013066617771983147,0.021769745275378227,0.0004396001750137657,-0.012804384343326092
-0.01081435289233923,-0.010506412014365196,-0.013109620660543442,0.021359754726290703,0.00048732265713624656,-0.012635665014386177
-0.010690032504498959,-0.010829760693013668,-0.012613712809979916,0.021525761112570763,0.0005074632354080677,-0.012926432304084301
-0.011181589215993881,-0.010710461065173149,-0.013356857001781464,0.021327894181013107,0.000502177921589464,-0.012684120796620846
-0.011448387987911701,-0.010298795998096466,-0.013022664934396744,0.020978840067982674,0.0005283275968395174,-0.012615409679710865
-0.010406075976788998,-0.010328838601708412,-0.013121803291141987,0.02025051787495613,0.0005302777281031013,-0.01223218347877264
-0.010406075976788998,-0.010328838601708412,-0.013121803291141987,0.02025051787495613,0.0005302777281031013,-0.01223218347877264
-0.010814129374921322,-0.011374878697097301,-0.013708051294088364,0.02007947862148285,0.0007558052893728018,-0.012520750984549522
-0.010694392956793308,-0.01033069845288992,-0.013208243995904922,0.021173294633626938,0.0007499429048039019,-0.012453039176762104
-0.010694392956793308,-0.01033069845288992,-0.013208243995904922,0.021173294633626938,0.0007499429048039019,-0.012453039176762104
-0.01020964328199625,-0.010244145058095455,-0.01329542975872755,0.021380819380283356,0.0007625902071595192,-0.0122902300208807
-0.010253584012389183,-0.010523384436964989,-0.012835157103836536,0.021542159840464592,0.0008638079161755741,-0.012048053555190563
-0.010159264318645,-0.010555802844464779,-0.012813946232199669,0.0211675763130188,0.0008909197058528662,-0.012384945526719093
-0.010159264318645,-0.010555802844464779,-0.012813946232199669,0.0211675763130188,0.0008909197058528662,-0.012384945526719093
-0.009678665548563004,-0.010799668729305267,-0.013515847735106945,0.021230753511190414,0.0008080742554739118,-0.01250768918544054
-0.010170665569603443,-0.01009650994092226,-0.013101151213049889,0.021057896316051483,0.0008059791871346533,-0.012013223022222519
-0.009614448063075542,-0.010161248967051506,-0.013244018889963627,0.020639153197407722,0.0007355855777859688,-0.011860047467052937
-0.009434779174625874,-0.010356604121625423,-0.012469257228076458,0.020890669897198677,0.0006901402957737446,-0.012178482487797737
-0.010979995131492615,-0.009906018152832985,-0.01312047615647316,0.02120993845164776,0.0006923017790541053,-0.01220592763274908
-0.009031149558722973,-0.011140987277030945,-0.01297509204596281,0.020962299779057503,0.0007152795442380011,-0.012648641131818295
-0.009029321372509003,-0.010225080884993076,-0.012995767407119274,0.020447079092264175,0.0007110162987373769,-0.012146836146712303
-0.009509180672466755,-0.009495115838944912,-0.013039382174611092,0.02088053710758686,0.0008155607501976192,-0.012122304178774357
-0.009527670219540596,-0.010200700722634792,-0.012856709770858288,0.021280750632286072,0.0009376025409437716,-0.011811578646302223
-0.009432214312255383,-0.009624306112527847,-0.013291394338011742,0.020889222621917725,0.0009390130289830267,-0.012115659192204475
-0.009608873166143894,-0.009260302409529686,-0.012809816747903824,0.020698977634310722,0.0008890851750038564,-0.012152213603258133
-0.009774197824299335,-0.010837765410542488,-0.013492925092577934,0.02109721675515175,0.0008370755240321159,-0.011943497695028782
-0.008922010660171509,-0.00982984621077776,-0.012978140264749527,0.020991872996091843,0.0008618859574198723,-0.012195815332233906
-0.009496234357357025,-0.008830362930893898,-0.013499590568244457,0.02057705819606781,0.0008682067855261266,-0.01156282052397728
-0.009654815308749676,-0.010781843215227127,-0.012910513207316399,0.021110158413648605,0.0007636110531166196,-0.011912865564227104
-0.008899564854800701,-0.009900026954710484,-0.013239326886832714,0.02107878215610981,0.0007656095549464226,-0.012066307477653027
-0.009540553204715252,-0.00928770937025547,-0.013335051015019417,0.0208087507635355,0.0006941402098163962,-0.012111510150134563
-0.009574957191944122,-0.009507224895060062,-0.013793949037790298,0.02035643719136715,0.0006913018878549337,-0.012180632911622524
-0.009099919348955154,-0.008915815502405167,-0.013648071326315403,0.020268505439162254,0.000649104593321681,-0.011706878431141376
-0.009015701711177826,-0.008740375749766827,-0.013400854542851448,0.01997818611562252,0.000593682168982923,-0.011270947754383087
-0.00872922781854868,-0.009489316493272781,-0.013184976764023304,0.020591959357261658,0.0005390208098106086,-0.011420700699090958
-0.009026667103171349,-0.008621961809694767,-0.013643013313412666,0.021076565608382225,0.0005503087304532528,-0.011302580125629902
-0.009142046794295311,-0.008650324307382107,-0.013059902004897594,0.020482970401644707,0.0005415005725808442,-0.010729343630373478
-0.00843440555036068,-0.008970826864242554,-0.013410905376076698,0.019815487787127495,0.0005674507119692862,-0.011636468581855297
-0.008389445953071117,-0.008569639176130295,-0.01335153728723526,0.021146241575479507,0.0006989985122345388,-0.011831465177237988
-0.008389445953071117,-0.008569639176130295,-0.01335153728723526,0.021146241575479507,0.0006989985122345388,-0.011831465177237988
-0.009099705144762993,-0.008683474734425545,-0.013834968209266663,0.019594402983784676,0.0007370717939920723,-0.012006736360490322
-0.007914462126791477,-0.00894621666520834,-0.013498369604349136,0.019223829731345177,0.0007434090366587043,-0.01158621534705162
-0.0073843118734657764,-0.008487156592309475,-0.014074594713747501,0.020479504019021988,0.0006878130370751023,-0.01133993361145258
-0.007594726514071226,-0.008759272284805775,-0.013050750829279423,0.0210235845297575,0.0007039199117571115,-0.011395837180316448
-0.008058266714215279,-0.008578016422688961,-0.013667269609868526,0.020083479583263397,0.0007805291679687798,-0.011194626800715923
-0.007909276522696018,-0.00866535771638155,-0.013681769371032715,0.020008143037557602,0.0007852360140532255,-0.011062811128795147
-0.007325976155698299,-0.007838515564799309,-0.013472666032612324,0.020653918385505676,0.0007699207053519785,-0.011086562648415565
-0.007447576615959406,-0.008246743120253086,-0.012973233126103878,0.020273109897971153,0.0007327673374675214,-0.010866973549127579
-0.007623725570738316,-0.008411142975091934,-0.013157611712813377,0.019123893231153488,0.000728236569557339,-0.011000203900039196
-0.008095243945717812,-0.008070103824138641,-0.013755984604358673,0.019757678732275963,0.0006806914461776614,-0.011493127793073654
-0.006856714375317097,-0.007880574092268944,-0.013501273468136787,0.0193125382065773,0.0006740273674950004,-0.01178340706974268
-0.006755204405635595,-0.00785806868225336,-0.01412670686841011,0.019195757806301117,0.0006522397743538022,-0.010731413960456848
-0.007165277376770973,-0.008945509791374207,-0.012479906901717186,0.01986559107899666,0.000627475674264133,-0.010641196742653847
-0.007083503529429436,-0.008003225550055504,-0.012943500652909279,0.020240599289536476,0.0006461007869802415,-0.010779019445180893
-0.006655001547187567,-0.0078045399859547615,-0.012874397449195385,0.01969989947974682,0.0006585088558495045,-0.011142626404762268
-0.007218744605779648,-0.008285531774163246,-0.014163565821945667,0.019458292052149773,0.0006215955363586545,-0.010983933694660664
-0.007071609143167734,-0.008459612727165222,-0.013430265709757805,0.01947830431163311,0.00065539067145437,-0.010506577789783478
-0.007160964421927929,-0.0081685371696949,-0.013809575699269772,0.0193557757884264,0.0006936024292372167,-0.01113823615014553
-0.00724491011351347,-0.007842576131224632,-0.013334352523088455,0.019843921065330505,0.000717788643669337,-0.0112938666716218
-0.006647081580013037,-0.007693526800721884,-0.012984734028577805,0.01958015374839306,0.0007366135832853615,-0.010619904845952988
-0.007108426187187433,-0.008153976872563362,-0.01307184249162674,0.018852677196264267,0.0009250720613636076,-0.010594122111797333
-0.006797729060053825,-0.007791152223944664,-0.01340023335069418,0.018698394298553467,0.0009508382063359022,-0.011216653510928154
-0.006271291524171829,-0.0078320587053895,-0.012865221127867699,0.018186252564191818,0.0009389981278218329,-0.010535354726016521
-0.0059746066108345985,-0.007647374644875526,-0.013254211284220219,0.01851390115916729,0.0009552747360430658,-0.010412272997200489
-0.006510529667139053,-0.0074418834410607815,-0.012455330230295658,0.018386894837021828,0.0009461610461585224,-0.01060153916478157
-0.006510529667139053,-0.0074418834410607815,-0.012455330230295658,0.018386894837021828,0.0009461610461585224,-0.01060153916478157
-0.006897846236824989,-0.007957973517477512,-0.013297956436872482,0.01818039081990719,0.0009211638243868947,-0.01031766552478075
-0.0059471395798027515,-0.008106308057904243,-0.01285812258720398,0.018329361453652382,0.0008307581883855164,-0.010622270405292511
-0.005833994131535292,-0.007578094489872456,-0.013402356766164303,0.017967408522963524,0.0008329456904903054,-0.010801178403198719
-0.006523825693875551,-0.007281619589775801,-0.013183439150452614,0.018368694931268692,0.0007578932563774288,-0.010503485798835754
-0.0067186555825173855,-0.007335157599300146,-0.01288281474262476,0.018389664590358734,0.000684036931488663,-0.0100336242467165
-0.006177403032779694,-0.007444876711815596,-0.013111776672303677,0.018058400601148605,0.0005959540721960366,-0.010542983189225197
-0.0056766849011182785,-0.007315509486943483,-0.012872200459241867,0.018344711512327194,0.0006237435154616833,-0.009968445636332035
-0.005329155828803778,-0.00813362468034029,-0.013330779038369656,0.01812165416777134,0.0006100894534029067,-0.010005677118897438
-0.005815756041556597,-0.007882874459028244,-0.012984315864741802,0.01800341159105301,0.0005937095847912133,-0.00999461393803358
-0.005950120277702808,-0.00824170745909214,-0.013244562782347202,0.01837773062288761,0.0006173226283863187,-0.010506692342460155
-0.006045851856470108,-0.007161769550293684,-0.012479561381042004,0.017962364479899406,0.0006275625783018768,-0.010239684022963047
-0.005502369720488787,-0.007222372572869062,-0.013075252994894981,0.01798773556947708,0.0006527855875901878,-0.010451572015881538
-0.005488155875355005,-0.008131326176226139,-0.012593243271112442,0.018035242334008217,0.0006801065756008029,-0.010154508985579014
-0.005816965363919735,-0.007818492129445076,-0.013084565289318562,0.0175829716026783,0.0007141869864426553,-0.010201786644756794
-0.005842374172061682,-0.007401429582387209,-0.013078123331069946,0.018880732357501984,0.000910101574845612,-0.01039156224578619
-0.006057805847376585,-0.006918366067111492,-0.013067823834717274,0.01810317672789097,0.0009716915665194392,-0.009737971238791943
-0.005409877281636,-0.007151850499212742,-0.012669716961681843,0.017345519736409187,0.000964642851613462,-0.009337183088064194
-0.005806011147797108,-0.007458701729774475,-0.012023775838315487,0.017299002036452293,0.000956118106842041,-0.009768156334757805
-0.005367690231651068,-0.007438405882567167,-0.012657945975661278,0.01717894896864891,0.0009290038724429905,-0.009553375653922558
-0.00530186016112566,-0.006817310582846403,-0.012551959604024887,0.017231514677405357,0.0009147180244326591,-0.00968073308467865
-0.00555024528875947,-0.007093043066561222,-0.013186737895011902,0.016980234533548355,0.0008447825093753636,-0.009764283895492554
-0.0055269584991037846,-0.007299553602933884,-0.012521452270448208,0.016932258382439613,0.0008392750169150531,-0.009560476057231426
-0.0050240494310855865,-0.007001612335443497,-0.01269579492509365,0.017551904544234276,0.0008048046147450805,-0.009357875213027
-0.005282808560878038,-0.007188473828136921,-0.012069066986441612,0.01726141944527626,0.0007323579047806561,-0.008899787440896034
-0.005320944357663393,-0.007139868568629026,-0.012317938730120659,0.016978368163108826,0.0007474366575479507,-0.009267517365515232
-0.005320944357663393,-0.007139868568629026,-0.012317938730120659,0.016978368163108826,0.0007474366575479507,-0.009267517365515232
-0.005107158329337835,-0.007324995007365942,-0.011920362710952759,0.016570279374718666,0.0007658391259610653,-0.009887834079563618
-0.005286664701998234,-0.007372387684881687,-0.012527639046311378,0.016989443451166153,0.0007806419744156301,-0.009186096489429474
-0.004990976769477129,-0.007038711104542017,-0.012165423482656479,0.01670212671160698,0.0010214952053502202,-0.009400195442140102
-0.004881591536104679,-0.0072961291298270226,-0.012217189185321331,0.017109401524066925,0.001072298618964851,-0.009555618278682232
-0.005231786519289017,-0.007549906615167856,-0.012233896180987358,0.016462301835417747,0.0010689173359423876,-0.00906842015683651
-0.005092209670692682,-0.006577679421752691,-0.011562295258045197,0.016836069524288177,0.0013195087667554617,-0.009203610010445118
-0.0048462036065757275,-0.006610277108848095,-0.012217750772833824,0.017068101093173027,0.0012698377249762416,-0.009297734126448631
-0.005202218424528837,-0.007075311616063118,-0.012172682210803032,0.016877898946404457,0.0012058225693181157,-0.0085915457457304
-0.005053418222814798,-0.007066049613058567,-0.012827033177018166,0.01698717661201954,0.001111002522520721,-0.008721319027245045
-0.004836287349462509,-0.006666572764515877,-0.012198153883218765,0.016462747007608414,0.0010738581186160445,-0.008744209073483944
-0.005347327329218388,-0.007135143503546715,-0.011999637819826603,0.01700124330818653,0.0009668017737567425,-0.009108609519898891
-0.005040517542511225,-0.007441425230354071,-0.012101888656616211,0.016624432057142258,0.0009421574650332332,-0.009111660532653332
-0.004607540089637041,-0.006876405328512192,-0.011458764784038067,0.01614905148744583,0.0009196957107633352,-0.009233294986188412
-0.005018439143896103,-0.006621976383030415,-0.01194961741566658,0.016006626188755035,0.0008494383073411882,-0.009141780436038971
-0.004898144397884607,-0.006712676491588354,-0.011389590799808502,0.01595628634095192,0.0007548104040324688,-0.008630511350929737
-0.0048022703267633915,-0.006953521631658077,-0.01251163613051176,0.01707533374428749,0.0007687192410230637,-0.00892565120011568
-0.004612446762621403,-0.007341131567955017,-0.01257767342031002,0.016737310215830803,0.0007847368833608925,-0.008935578167438507
-0.004709780681878328,-0.007373035419732332,-0.012287694960832596,0.016465436667203903,0.0007906793616712093,-0.008785023353993893
-0.004673177842050791,-0.0074671595357358456,-0.012544515542685986,0.01563546061515808,0.0009611916029825807,-0.00900503434240818
-0.0048724012449383736,-0.00704774959012866,-0.01229831948876381,0.01589079760015011,0.0009740667883306742,-0.009022784419357777
-0.004775133449584246,-0.007520898710936308,-0.011896482668817043,0.01645662635564804,0.0009977640584111214,-0.009122615680098534
-0.004725454840809107,-0.007697641383856535,-0.011432752013206482,0.016562560573220253,0.0011351356515660882,-0.00884346105158329
-0.004649417009204626,-0.006765017285943031,-0.012062221765518188,0.016572725027799606,0.001157553168013692,-0.008591090328991413
-0.004613252356648445,-0.007206326816231012,-0.012935304082930088,0.015410167165100574,0.001191189861856401,-0.0087171271443367
-0.004613252356648445,-0.007206326816231012,-0.012935304082930088,0.015410167165100574,0.001191189861856401,-0.0087171271443367
-0.004529440309852362,-0.007476093713194132,-0.012555094435811043,0.016014814376831055,0.0011028278386220336,-0.008588519878685474
-0.0047372253611683846,-0.007178352680057287,-0.013153177686035633,0.015603799372911453,0.0011791696306318045,-0.008520098403096199
-0.004341672640293837,-0.0067860279232263565,-0.013028803281486034,0.016080396249890327,0.0011362208751961589,-0.00834874901920557
-0.004831736907362938,-0.007169343531131744,-0.012482749298214912,0.01584772765636444,0.0012331781908869743,-0.008418810553848743
-0.004831736907362938,-0.007169343531131744,-0.012482749298214912,0.01584772765636444,0.0012331781908869743,-0.008418810553848743
-0.004307365510612726,-0.006975553464144468,-0.012924537993967533,0.01581493392586708,0.0011336462339386344,-0.008305476047098637
-0.0039479052647948265,-0.006895028054714203,-0.01272222213447094,0.015886325389146805,0.0010491805151104927,-0.008087974973022938
-0.003814621828496456,-0.007299480028450489,-0.012941116467118263,0.01556064561009407,0.0010607198346406221,-0.008025643415749073
-0.004320858046412468,-0.007509687915444374,-0.012482348829507828,0.015785109251737595,0.0010563299292698503,-0.008509397506713867
-0.004460424650460482,-0.006761707831174135,-0.012895987369120121,0.015448165126144886,0.0010373067343607545,-0.008559132926166058
-0.004325552377849817,-0.006414345465600491,-0.012620425783097744,0.014922481961548328,0.0012848873157054186,-0.008079680614173412
-0.003996767103672028,-0.0069747064262628555,-0.01347599271684885,0.014839071780443192,0.00124985387083143,-0.007620709948241711
-0.004230650141835213,-0.007035986986011267,-0.012967174872756004,0.015572980046272278,0.0012194485170766711,-0.00794316828250885
-0.004256648011505604,-0.006827708333730698,-0.013304824009537697,0.015212923288345337,0.0013457955792546272,-0.00789596326649189
-0.003570247907191515,-0.006666337139904499,-0.012777158990502357,0.015565581619739532,0.0012913262471556664,-0.007685906253755093
-0.003910604398697615,-0.006859977729618549,-0.012712415307760239,0.01568470522761345,0.0012254113098606467,-0.007530358619987965
-0.004190597217530012,-0.007033331785351038,-0.012912024743855,0.015353255905210972,0.0012386208400130272,-0.00800509937107563
-0.004097534343600273,-0.0066544171422719955,-0.01297671813517809,0.015175933949649334,0.001229409477673471,-0.008053423836827278
-0.0040183886885643005,-0.006739444099366665,-0.013416840694844723,0.015214680694043636,0.0012108121300116181,-0.007873086258769035
-0.003944714087992907,-0.006753387860953808,-0.012346142902970314,0.015119068324565887,0.0015602584462612867,-0.007536998018622398
-0.0039130160585045815,-0.007367399055510759,-0.013148939236998558,0.014774573035538197,0.0015089046210050583,-0.007398753892630339
-0.003505067666992545,-0.006878790911287069,-0.012369614094495773,0.01494575385004282,0.00164482940454036,-0.007511091884225607
-0.00359690492041409,-0.006220268551260233,-0.012635757215321064,0.014672982506453991,0.00149619544390589,-0.007957114838063717
-0.0036651534028351307,-0.0066187684424221516,-0.012732257135212421,0.015083719044923782,0.001289169187657535,-0.007999208755791187
-0.003713514655828476,-0.0069535644724965096,-0.013145503588020802,0.015188595280051231,0.0012163214851170778,-0.007617883384227753
-0.0034311420749872923,-0.007497542537748814,-0.012905006296932697,0.015419968403875828,0.0010885216761380434,-0.008011335507035255
-0.003431880846619606,-0.006374178919941187,-0.012301634065806866,0.01464664377272129,0.0010484661906957626,-0.007827679626643658
-0.0036642386112362146,-0.005691980477422476,-0.012807094492018223,0.015281880274415016,0.0010597014334052801,-0.007612515706568956
-0.003291894681751728,-0.006252886727452278,-0.012439373880624771,0.014652781188488007,0.0010815446730703115,-0.007962729781866074
-0.0032187902834266424,-0.0066080838441848755,-0.012659767642617226,0.014897231943905354,0.0011383956298232079,-0.007822203449904919
-0.0032187902834266424,-0.0066080838441848755,-0.012659767642617226,0.014897231943905354,0.0011383956298232079,-0.007822203449904919
-0.0033143446780741215,-0.006152024492621422,-0.012869681231677532,0.014475744217634201,0.0012126617366448045,-0.0076336245983839035
-0.003390785539522767,-0.005719493143260479,-0.012527961283922195,0.013886918313801289,0.0013367185601964593,-0.007041448261588812
-0.0026598540134727955,-0.006022614426910877,-0.012893835082650185,0.013967771083116531,0.0015565045177936554,-0.007522447966039181
-0.0026598540134727955,-0.006022614426910877,-0.012893835082650185,0.013967771083116531,0.0015565045177936554,-0.007522447966039181
-0.0027012573555111885,-0.006188387982547283,-0.011937704868614674,0.014399931766092777,0.0016713595250621438,-0.007663691882044077
-0.0029618374537676573,-0.005867585074156523,-0.013882570900022984,0.013854189775884151,0.0019127466948702931,-0.007637147791683674
-0.00347861903719604,-0.005561775527894497,-0.011907988227903843,0.014256718568503857,0.0017006529960781336,-0.006921348161995411
-0.0032535740174353123,-0.0060315923765301704,-0.012267841957509518,0.013491008430719376,0.0015744392294436693,-0.0070042419247329235
-0.003047778969630599,-0.006440155673772097,-0.012811207212507725,0.014010079205036163,0.001376473344862461,-0.007336023263633251
-0.002541876630857587,-0.005797772202640772,-0.012148212641477585,0.013156034983694553,0.001387720345519483,-0.006911233067512512
-0.0022979911882430315,-0.005770702380686998,-0.012173612602055073,0.013503190129995346,0.0015613738214597106,-0.007026094011962414
-0.0023663630709052086,-0.005286355037242174,-0.011746248230338097,0.013218584470450878,0.0015577542362734675,-0.007097671739757061
-0.0026309865061193705,-0.005476650781929493,-0.012889710254967213,0.013366345316171646,0.0016261356649920344,-0.006690130569040775
-0.002562973415479064,-0.00568518228828907,-0.012451733462512493,0.012971419841051102,0.001705068163573742,-0.006924379151314497
-0.002428777515888214,-0.006150964647531509,-0.012204797938466072,0.012948966585099697,0.0015527529176324606,-0.0071306428872048855
-0.002191371750086546,-0.0056073665618896484,-0.01182911079376936,0.01323738880455494,0.0014007487334311008,-0.006920452229678631
-0.0022946095559746027,-0.00525331636890769,-0.011374464258551598,0.013003217987716198,0.0012872705701738596,-0.006890448741614819
-0.0022985413670539856,-0.00545907486230135,-0.01240250002592802,0.013506338931620121,0.0012337928637862206,-0.006958743557333946
-0.00221599661745131,-0.006435529328882694,-0.012066607363522053,0.012968421913683414,0.001189734786748886,-0.006841124966740608
-0.0024032897781580687,-0.005804307758808136,-0.012202585116028786,0.01318652555346489,0.0012471610680222511,-0.006556190084666014
-0.002163369208574295,-0.005829672794789076,-0.011713394895195961,0.012437480501830578,0.0012996450532227755,-0.006537489593029022
-0.0020809450652450323,-0.005252918228507042,-0.011680900119245052,0.012894753366708755,0.001368340919725597,-0.00692206434905529
-0.001920874579809606,-0.005375389009714127,-0.01234010886400938,0.013195108622312546,0.0014023961266502738,-0.007007348816841841
-0.0019157163333147764,-0.005783361848443747,-0.011333290487527847,0.012867238372564316,0.0014558661496266723,-0.00680551677942276
-0.0019069856498390436,-0.005301642697304487,-0.012221154756844044,0.013169053010642529,0.0013757034903392196,-0.006816506385803223
-0.0018731263699010015,-0.005159546621143818,-0.011869420297443867,0.012502916157245636,0.0014594021486118436,-0.006477020680904388
-0.0017116706585511565,-0.004947249311953783,-0.011399738490581512,0.012981347739696503,0.0015901951119303703,-0.006287473253905773
-0.0017116706585511565,-0.004947249311953783,-0.011399738490581512,0.012981347739696503,0.0015901951119303703,-0.006287473253905773
-0.0014003858668729663,-0.004587693605571985,-0.011521631851792336,0.012936861254274845,0.0016215532086789608,-0.006150790490210056
-0.001346507342532277,-0.004644747357815504,-0.011686399579048157,0.011600024998188019,0.0015584727516397834,-0.006584702059626579
-0.0012157679302617908,-0.004767186474055052,-0.011521303094923496,0.012883258052170277,0.0014726007357239723,-0.00667644152417779
-0.0012780081015080214,-0.004920504987239838,-0.01146715972572565,0.012333756312727928,0.001387739204801619,-0.006510734558105469
-0.0012543401680886745,-0.005097981542348862,-0.011727143079042435,0.011625824496150017,0.0013515312457457185,-0.0062444182112813
-0.0011023740516975522,-0.0048531233333051205,-0.011664137244224548,0.012115320190787315,0.001433011726476252,-0.006586229894310236
-0.0010224870638921857,-0.004135968163609505,-0.011675352230668068,0.011461316607892513,0.0015596386510878801,-0.006110241636633873
-0.0008347496041096747,-0.004192613530904055,-0.011583457700908184,0.012527641840279102,0.00165522750467062,-0.006008633878082037
-0.0008384775137528777,-0.005121707450598478,-0.011557933874428272,0.012314194813370705,0.0017189994687214494,-0.006277317646890879
-0.00080910325050354,-0.005002517718821764,-0.012073032557964325,0.011962730437517166,0.0018300266237929463,-0.006106112152338028
-0.0007499241037294269,-0.004487914498895407,-0.011640987358987331,0.012154482305049896,0.0017048843437805772,-0.0061845434829592705
-0.0007649112958461046,-0.00441213883459568,-0.012029419653117657,0.011574934236705303,0.0016446355730295181,-0.0058675180189311504
-0.0006439150893129408,-0.004571083001792431,-0.01193716935813427,0.012082189321517944,0.0016461240593343973,-0.005862499587237835
-0.0006574982544407248,-0.004195136018097401,-0.011645558290183544,0.012309008277952671,0.0016316738910973072,-0.006006483919918537
-0.0006614573649130762,-0.003985497169196606,-0.012225796468555927,0.011714035645127296,0.0016869117971509695,-0.00552027765661478
-0.000626648252364248,-0.004292836878448725,-0.012021541595458984,0.011706140823662281,0.0016159722581505775,-0.005904828198254108
-0.0005703119677491486,-0.004266700241714716,-0.012301318347454071,0.011247077956795692,0.001731577911414206,-0.0055226050317287445
-0.0005229606758803129,-0.00402311235666275,-0.011756833642721176,0.01198081485927105,0.0016241248231381178,-0.0052262889221310616
-0.0004828652599826455,-0.003850276116281748,-0.012163595296442509,0.011746715754270554,0.0017664210172370076,-0.005230045411735773
-0.000504854426253587,-0.004210910759866238,-0.012075497768819332,0.011279847472906113,0.0016963314265012741,-0.004956775810569525
-0.00042573214159347117,-0.003610319457948208,-0.012146475724875927,0.011245581321418285,0.0019156994530931115,-0.00489177368581295
-0.00039267083047889173,-0.0036174000706523657,-0.012425759807229042,0.010749042965471745,0.0018460411811247468,-0.005013894289731979
-0.00036954713868908584,-0.0032968763262033463,-0.01216741930693388,0.01116056740283966,0.0020203241147100925,-0.005285631399601698
-0.0003490667149890214,-0.003478031372651458,-0.012905767187476158,0.011105244979262352,0.0018659074557945132,-0.005472846329212189
-0.000330739509081468,-0.0036264238879084587,-0.01186456810683012,0.011023313738405704,0.001718153478577733,-0.0047067939303815365
-0.0003142400528304279,-0.003691626712679863,-0.012247144244611263,0.011331586167216301,0.0017294574063271284,-0.004497349727898836
-0.00029930946766398847,-0.0036748505663126707,-0.01276103314012289,0.010490452870726585,0.0017834131140261889,-0.004320232663303614
-0.00011609574721660465,-0.003137042513117194,-0.01281731203198433,0.010431493632495403,0.002121769590303302,-0.005278266500681639
-0.00011609574721660465,-0.003137042513117194,-0.01281731203198433,0.010431493632495403,0.002121769590303302,-0.005278266500681639
-9.757458610692993e-05,-0.0031928818207234144,-0.012368445284664631,0.010160593315958977,0.0020836335606873035,-0.004897266160696745
-9.757458610692993e-05,-0.0031928818207234144,-0.012368445284664631,0.010160593315958977,0.0020836335606873035,-0.004897266160696745
-9.255567420041189e-05,-0.0033662256319075823,-0.012337703257799149,0.009704179130494595,0.00189402443356812,-0.004285734612494707
-8.802860975265503e-05,-0.002776644891127944,-0.012501990422606468,0.009837989695370197,0.001719384454190731,-0.003921283408999443
-8.392402378376573e-05,-0.0027715074829757214,-0.012371078133583069,0.009986042976379395,0.0016981539083644748,-0.0038344375789165497
-8.018526568775997e-05,-0.002759601455181837,-0.012229886837303638,0.009968171827495098,0.0017917777877300978,-0.0042709349654614925
-7.676528912270442e-05,-0.0028882292099297047,-0.012142639607191086,0.009446348063647747,0.0018752382602542639,-0.00467646261677146
-7.362505857599899e-05,-0.002815117361024022,-0.011706095188856125,0.009641164913773537,0.002203538315370679,-0.004496254958212376
-4.7522367822239175e-05,-0.002914159093052149,-0.012810084968805313,0.009732802398502827,0.002095816656947136,-0.004517790861427784
-3.41918203048408e-05,-0.0031022962648421526,-0.012385998852550983,0.009476409293711185,0.0020013966131955385,-0.004448108375072479
-3.279107477283105e-05,-0.002999958349391818,-0.012306276708841324,0.009484096430242062,0.0018489537760615349,-0.0041722496971488
-1.2810119187633973e-06,-0.0026261466555297375,-0.01148134097456932,0.0091621158644557,0.0018712570890784264,-0.004029730800539255
-1.718640874059929e-08,-0.0026297669392079115,-0.011327332817018032,0.008565782569348812,0.0017524980939924717,-0.004345341585576534
-2.3057761255884657e-10,-0.0026524709537625313,-0.01174532063305378,0.008664468303322792,0.0017638795543462038,-0.004445728845894337
-3.093492692909927e-12,-0.00252032489515841,-0.011888542212545872,0.00897512212395668,0.0017843573587015271,-0.004565137438476086
-4.150315074252786e-14,-0.002608194015920162,-0.012279889546334743,0.008759911172091961,0.0017628793139010668,-0.004495450295507908
-5.568177543057037e-16,-0.002690017456188798,-0.011724044568836689,0.007862323895096779,0.0018532667309045792,-0.004165098071098328
-7.470421140379715e-18,-0.002474578097462654,-0.011246124282479286,0.008650697767734528,0.0020072050392627716,-0.0038240228313952684
-1.0022523552241103e-19,-0.0025491409469395876,-0.01179447490721941,0.008444718085229397,0.0019823124166578054,-0.0036605815403163433
0.00022974680177867413,-0.0023999332915991545,-0.011260154657065868,0.008031252771615982,0.002196419285610318,-0.003845791332423687
0.0036240580957382917,-0.0022287890315055847,-0.011440874077379704,0.008044383488595486,0.002230248646810651,-0.004428899381309748
0.004192167893052101,-0.0022779745049774647,-0.011732764542102814,0.008731386624276638,0.0023628498893231153,-0.004676211159676313
0.0033257624600082636,-0.002091099740937352,-0.011197341606020927,0.008456633426249027,0.0022364130709320307,-0.004458818584680557
0.0020277053117752075,-0.002205096883699298,-0.012268268503248692,0.007529819384217262,0.00199399353004992,-0.003994574770331383
0.0013773716054856777,-0.0020357666071504354,-0.0124644311144948,0.007833201438188553,0.001797032542526722,-0.0037372943479567766
0.0013773716054856777,-0.0020357666071504354,-0.0124644311144948,0.007833201438188553,0.001797032542526722,-0.0037372943479567766
0.0012599820038303733,-0.0019293592777103186,-0.011504976078867912,0.007677213754504919,0.0017140170093625784,-0.0033615771681070328
0.0013399278977885842,-0.001738078542985022,-0.011428766883909702,0.0073209586553275585,0.00167112669441849,-0.0031379961874336004
0.0013186701107770205,-0.0016452042618766427,-0.012333297170698643,0.007383514661341906,0.0030798069201409817,-0.003418778534978628
0.0013186701107770205,-0.0016452042618766427,-0.012333297170698643,0.007383514661341906,0.0030798069201409817,-0.003418778534978628
0.0028044062200933695,-0.0016462475759908557,-0.012018383480608463,0.007180273998528719,0.002964992541819811,-0.0034805682953447104
0.002401739126071334,-0.001698977779597044,-0.011525680311024189,0.007257342804223299,0.0025912499986588955,-0.0036152107641100883
0.002263814676553011,-0.0017939755925908685,-0.010992495343089104,0.0074889445677399635,0.0022504895459860563,-0.0033785009291023016
0.0020449357107281685,-0.001651405356824398,-0.011572511866688728,0.007166157942265272,0.0019505178788676858,-0.003084108466282487
0.0020665214397013187,-0.0018576018046587706,-0.011365205980837345,0.006895869038999081,0.0017552924109622836,-0.0028160279616713524
0.002496531931683421,-0.001691409619525075,-0.01168878749012947,0.007096712943166494,0.001483397209085524,-0.002913961885496974
0.003063847543671727,-0.0016670951154083014,-0.0117123918607831,0.007856102660298347,0.0014701526379212737,-0.0029091716278344393
0.0028295351658016443,-0.0015368283493444324,-0.011261295527219772,0.007687397301197052,0.0013934539165347815,-0.0034140392672270536
0.002668654778972268,-0.0015827714232727885,-0.011602071113884449,0.007430562749505043,0.0016227574087679386,-0.0033461451530456543
0.002641012193635106,-0.0016305875033140182,-0.011267603375017643,0.006912508979439735,0.0021546133793890476,-0.0034341812133789062
0.0024766719434410334,-0.001543167745694518,-0.010955719277262688,0.0071654957719147205,0.0022958337794989347,-0.003258002456277609
0.0029342297930270433,-0.0015940726734697819,-0.011372214183211327,0.007246834225952625,0.002657694276422262,-0.0030678126495331526
0.0032601531129330397,-0.0016426019137725234,-0.010703787207603455,0.007222115993499756,0.0025411732494831085,-0.002849062206223607
0.0033563885372132063,-0.0015308570582419634,-0.011267820373177528,0.007125253789126873,0.002375030191615224,-0.002774396212771535
0.003210461465641856,-0.001423086621798575,-0.01100353803485632,0.007067948114126921,0.002449385356158018,-0.0026121782138943672
0.004065219778567553,-0.0013135646004229784,-0.010819802060723305,0.006776446010917425,0.002231006510555744,-0.0025130684953182936
0.004574038553982973,-0.0012288537109270692,-0.011601420119404793,0.006999745033681393,0.0021242660004645586,-0.0023026331327855587
0.0043822699226439,-0.001048424863256514,-0.010899141430854797,0.0066464743576943874,0.0021574844140559435,-0.0023482705000787973
0.004061279818415642,-0.0009625458042137325,-0.010971113108098507,0.006956388242542744,0.002152172150090337,-0.0025141031946986914
0.004087734967470169,-0.0008594377432018518,-0.011176599189639091,0.006752104498445988,0.0023495727218687534,-0.002419819124042988
0.004248049110174179,-0.0009436648106202483,-0.010836372151970863,0.006657096557319164,0.0021725769620388746,-0.002512951847165823
0.004248049110174179,-0.0009436648106202483,-0.010836372151970863,0.006657096557319164,0.0021725769620388746,-0.002512951847165823
0.0048935492523014545,-0.0010304524330422282,-0.010918891988694668,0.00652086129412055,0.0020798288751393557,-0.002446200931444764
0.004637518897652626,-0.0009762140107341111,-0.010700163431465626,0.006669342517852783,0.002275145845487714,-0.0025332882069051266
0.00507293501868844,-0.0008834550390020013,-0.011260977946221828,0.006828157231211662,0.0025497961323708296,-0.002610389608889818
0.00496530020609498,-0.0007888370309956372,-0.010982850566506386,0.007000683341175318,0.0026272216346114874,-0.0023192293010652065
0.005341390147805214,-0.0007284041494131088,-0.011094770394265652,0.006455887574702501,0.002452079439535737,-0.0023412348236888647
0.005341390147805214,-0.0007284041494131088,-0.011094770394265652,0.006455887574702501,0.002452079439535737,-0.0023412348236888647
0.005589460488408804,-0.0006285185227170587,-0.010702582076191902,0.006193659733980894,0.0024680355563759804,-0.0020357505418360233
0.006512361112982035,-0.0006600525230169296,-0.011151930317282677,0.005967901553958654,0.002567099407315254,-0.0018458900740370154
0.006632538512349129,-0.0005894334171898663,-0.011027614586055279,0.006206527817994356,0.002700032200664282,-0.0017480225069448352
0.006111090537160635,-0.0005314124864526093,-0.01074752863496542,0.005869896151125431,0.002521190093830228,-0.0016281439457088709
0.006266264710575342,-0.0005363288219086826,-0.01181776262819767,0.0060983034782111645,0.0025801577139645815,-0.0016001616604626179
0.006940208841115236,-0.0005176117410883307,-0.011405001394450665,0.00665413960814476,0.002437174553051591,-0.0016404386842623353
0.00699572591111064,-0.00047861976781859994,-0.011392910033464432,0.006159685552120209,0.002350635826587677,-0.0015455440152436495
0.0072858515195548534,-0.0005074510700069368,-0.011067218147218227,0.00577040109783411,0.0024117794819176197,-0.0014383149100467563
0.007253080140799284,-0.0004748220380861312,-0.011023282073438168,0.005840589292347431,0.002476945286616683,-0.001324188313446939
0.007857847958803177,-0.00044545356649905443,-0.011693190783262253,0.005964688956737518,0.002464416204020381,-0.0012074207188561559
0.008001112379133701,-0.0004194942011963576,-0.010817213915288448,0.006044344045221806,0.0027342219837009907,-0.0010926509276032448
0.008003072813153267,-0.0003555030270945281,-0.010690156370401382,0.0055846874602139,0.0026234323158860207,-0.0009864313760772347
0.007925965823233128,-0.0003281165845692158,-0.011765649542212486,0.005695555359125137,0.002511729020625353,-0.0009655093890614808
0.008042077533900738,-0.0003057959256693721,-0.01135809812694788,0.005309517960995436,0.0026126084849238396,-0.0009558111778460443
0.008385994471609592,-0.00028633413603529334,-0.011397689580917358,0.005043258890509605,0.002433637622743845,-0.0009043434984050691
0.007907494902610779,-0.00031661163666285574,-0.010763977654278278,0.005680477246642113,0.002358709927648306,-0.0010525408433750272
0.00787676963955164,-0.00030471899663098156,-0.010906572453677654,0.006265864707529545,0.0023770052939653397,-0.0010355242993682623
0.008418694138526917,-0.00028851639945060015,-0.012410816736519337,0.005690219346433878,0.002511753933504224,-0.0010157141368836164
0.008868702687323093,-0.00015997134323697537,-0.011420505121350288,0.005278451833873987,0.0024766738060861826,-0.0009439701098017395
0.008351144380867481,0.00035357216256670654,-0.011265816166996956,0.004965724423527718,0.002637071069329977,-0.0009003165178000927
0.008273111656308174,0.0023639723658561707,-0.011359957978129387,0.005573691334575415,0.0026321150362491608,-0.0009032980888150632
0.00887515489012003,0.0018197669414803386,-0.01109230611473322,0.006068135146051645,0.0025108663830906153,-0.0008938982500694692
0.009511377662420273,-0.0005521865678019822,-0.010978428646922112,0.005075606983155012,0.0025416461285203695,-0.0007946141413412988
0.010190567001700401,-0.0004830891266465187,-0.011646760627627373,0.004803487565368414,0.0024952711537480354,-0.0007261934806592762
0.009187290444970131,-6.847673648735508e-05,-0.012009735219180584,0.004806342534720898,0.002633780939504504,-0.0006679721409454942
0.009739718399941921,-9.187028808810282e-07,-0.011479612439870834,0.005494164302945137,0.0025791546795517206,-0.0006854926468804479
0.009739718399941921,-9.187028808810282e-07,-0.011479612439870834,0.005494164302945137,0.0025791546795517206,-0.0006854926468804479
0.011007980443537235,0.00066075922222808,-0.011575534008443356,0.005340656265616417,0.0024446218740195036,-0.000670090492349118
0.010007086209952831,0.0016123998211696744,-0.011560985818505287,0.005165980663150549,0.0024790794122964144,-0.0006465812330134213
0.00947689637541771,0.0010460945777595043,-0.011192887090146542,0.004630674608051777,0.0026376289315521717,-0.0006615207530558109
0.010585187934339046,0.0005931539926677942,-0.012135906144976616,0.004532373044639826,0.0026573878712952137,-0.0006175744347274303
0.010216664522886276,0.00046909970114938915,-0.01130103599280119,0.004305467940866947,0.0032667715568095446,-0.0006588692776858807
0.010460794903337955,0.0003993289137724787,-0.012162388302385807,0.004479448311030865,0.003387135686352849,-0.000582200416829437
0.010362648405134678,0.00045870509347878397,-0.011504503898322582,0.0050936113111674786,0.002816752064973116,-0.0005158860003575683
0.010650449432432652,0.00022206456924322993,-0.0110438521951437,0.004588220734149218,0.0025905428919941187,-0.0004627753223758191
0.01120868418365717,0.000320424820529297,-0.011330495588481426,0.004536197055131197,0.0025786154437810183,-0.0004809880047105253
0.01095836702734232,0.00036201337934471667,-0.011338641867041588,0.00415946077555418,0.002770730759948492,-0.0004590283497236669
0.010811659507453442,0.0003570381668396294,-0.011646730825304985,0.0036609943490475416,0.0029065944254398346,-0.0004241832357365638
0.011912886053323746,0.0003251957823522389,-0.011483978480100632,0.003404853865504265,0.0029952230397611856,-0.0003933445259463042
0.011878211982548237,0.0002982471778523177,-0.011382981203496456,0.0036219668108969927,0.002786276862025261,-0.0003666246775537729
0.011678477749228477,0.0002754227607510984,-0.01159261167049408,0.003995916806161404,0.0027579977177083492,-0.0003433048550505191
0.011579957790672779,0.0005608723149634898,-0.011153780855238438,0.003974662162363529,0.002650962909683585,-0.00032277469290420413
0.011474154889583588,0.0005760765634477139,-0.011428522877395153,0.003891918808221817,0.002976334886625409,-0.00030456107924692333
0.011688217520713806,0.000549198011867702,-0.011516038328409195,0.0034198362845927477,0.0027733349706977606,-0.00028829494840465486
0.011682364158332348,0.0005530319758690894,-0.011614030227065086,0.003514867043122649,0.0027123515028506517,-0.00027367917937226593
0.012394286692142487,0.000532392761670053,-0.011633254587650299,0.003319394774734974,0.002841267501935363,-0.00026047363644465804
0.012670595198869705,0.0005603741155937314,-0.011133287101984024,0.003246822627261281,0.0030881946440786123,-0.0002484850992914289
0.012670595198869705,0.0005603741155937314,-0.011133287101984024,0.003246822627261281,0.0030881946440786123,-0.0002484850992914289
0.012380688451230526,0.0006498633301816881,-0.011837099678814411,0.003325103549286723,0.0030170923564583063,-0.00023755125585012138
0.012584562413394451,0.000695183640345931,-0.012551860883831978,0.003313611727207899,0.0029584774747490883,-0.000227540367632173
0.012367438524961472,0.0007188695017248392,-0.011515356600284576,0.0035744882188737392,0.0033456548117101192,-0.00021833782375324517
0.012975141406059265,0.0011176717234775424,-0.01077335886657238,0.0038472902961075306,0.0031655486673116684,-0.00020199967548251152
0.013208677992224693,0.001092336606234312,-0.011421882547438145,0.003329033497720957,0.0033664656803011894,-0.0001947151031345129
0.013268286362290382,0.0009731039754115045,-0.011640241369605064,0.0030516227707266808,0.0036507160402834415,-0.0001879375340649858
0.012621684931218624,0.0009623936493881047,-0.011367051862180233,0.002836834639310837,0.0033935438841581345,-0.00018161599291488528
0.012823298573493958,0.0009206068934872746,-0.011774634011089802,0.003115247469395399,0.0031470456160604954,-0.00017570586351212114
0.012573431245982647,0.0009228549315594137,-0.011311417445540428,0.0032913631293922663,0.002973414957523346,-0.00017016827769111842
0.013226884417235851,0.0009190220152959228,-0.011396650224924088,0.0035613090731203556,0.002985285595059395,-0.00016496905300300568
0.01312317606061697,0.0009169743279926479,-0.01144610345363617,0.003815034870058298,0.003166003618389368,-0.0001600784162292257
0.01308714784681797,0.0009925346821546555,-0.011314064264297485,0.0033817526418715715,0.0028709196485579014,-0.0001362750626867637
0.012875734828412533,0.000980208977125585,-0.011450784280896187,0.0027628918178379536,0.0030157023575156927,-0.0001263702433789149
0.01310058869421482,0.0010693836957216263,-0.011681797914206982,0.002587663708254695,0.0028187446296215057,-0.00012253181193955243
0.012956514023244381,0.0014205308398231864,-0.011544913053512573,0.002449235413223505,0.002683342667296529,-0.000119258307677228
0.013375934213399887,0.0015865117311477661,-0.011427957564592361,0.002372127026319504,0.0023852181620895863,-9.89567197393626e-05
0.013371776789426804,0.0024902455043047667,-0.011143192648887634,0.00248200842179358,0.0023828228004276752,-9.099541784962639e-05
0.011818775907158852,0.002292770892381668,-0.011995346285402775,0.0024239709600806236,0.0025280893314629793,-8.840396185405552e-05
0.011512826196849346,0.0021650209091603756,-0.011519718915224075,0.002280412008985877,0.0028266787994652987,-6.753363413736224e-05
0.011776672676205635,0.0018869115738198161,-0.011794177815318108,0.0022180520463734865,0.0028195830527693033,-6.336672231554985e-05
0.0122283436357975,0.0015876898542046547,-0.011632773093879223,0.002155255526304245,0.002838585525751114,-6.174873124109581e-05
0.012256375513970852,0.0016260932898148894,-0.011153883300721645,0.00240131258033216,0.002988471183925867,3.2308937079505995e-05
0.011519452556967735,0.001788154593668878,-0.01197920460253954,0.0024971880484372377,0.0032854594755917788,6.100864629843272e-05
0.012402825988829136,0.002299003768712282,-0.0121846292167902,0.002327353460714221,0.003302567871287465,6.566983938682824e-05
0.012224061414599419,0.002632197691127658,-0.011572987772524357,0.001898005255497992,0.0032905638217926025,8.457392686977983e-05
0.012373605743050575,0.0027702399529516697,-0.011461698450148106,0.0016020657494664192,0.0029900462832301855,0.00010218338866252452
0.012124794535338879,0.002428522566333413,-0.011295481584966183,0.00145136215724051,0.002990327775478363,0.0006939758313819766
0.012166534550487995,0.0024642255157232285,-0.012405743822455406,0.0013754660030826926,0.0027182672638446093,0.0009324511047452688
0.012625609524548054,0.0025863193441182375,-0.011894967406988144,0.0012319230008870363,0.002539087552577257,0.0013091018190607429
0.012301480397582054,0.0028972714208066463,-0.011801762506365776,0.0011662355391308665,0.0025803272146731615,0.0016925730742514133
0.012301480397582054,0.0028972714208066463,-0.011801762506365776,0.0011662355391308665,0.0025803272146731615,0.0016925730742514133
0.012414783239364624,0.0032322935294359922,-0.011029954068362713,0.0012782476842403412,0.002896903781220317,0.001579953939653933
0.012595784850418568,0.003345074597746134,-0.011619201861321926,0.0011697965674102306,0.0028929600957781076,0.0015731052262708545
0.012582174502313137,0.0034539378248155117,-0.011422095820307732,0.0010509609710425138,0.0030950342770665884,0.0016309574712067842
0.013115313835442066,0.0036494701635092497,-0.011074830777943134,0.0010152123868465424,0.003410632722079754,0.0017008247086778283
0.013451558537781239,0.003914912696927786,-0.011437143199145794,0.0009028629865497351,0.0034226325806230307,0.0020862931851297617
0.01380326971411705,0.004113362170755863,-0.010940805077552795,0.000763671298045665,0.0033757605124264956,0.002457133261486888
0.013042534701526165,0.004026905633509159,-0.011807123199105263,0.0007142540416680276,0.0033399274107068777,0.0026645881589502096
0.013138385489583015,0.004028954543173313,-0.011140130460262299,0.0006788673927076161,0.0035480638034641743,0.0024672457948327065
0.013895232230424881,0.004052998963743448,-0.010899830609560013,0.000654621166177094,0.0033241375349462032,0.002272586803883314
0.013358266092836857,0.004215131513774395,-0.011034674942493439,0.0006325046997517347,0.0034614948090165854,0.0020271562971174717
0.01393410935997963,0.004231146536767483,-0.010710150003433228,0.0006377586396411061,0.0036289154086261988,0.001960479887202382
0.013606865890324116,0.004918282851576805,-0.011446445249021053,0.000603139866143465,0.0034220560919493437,0.0021320392843335867
0.013785799033939838,0.004532471764832735,-0.011350639164447784,0.0005576229887083173,0.0033044111914932728,0.0025909331161528826
0.013692265376448631,0.004541085567325354,-0.010587083175778389,0.0005214993143454194,0.0034118997864425182,0.0032187127508223057
0.013828917406499386,0.004596513696014881,-0.011032023467123508,0.00047205868759192526,0.0034364783205091953,0.0041781142354011536
0.013671710155904293,0.005288454703986645,-0.010569876991212368,0.0004274985403753817,0.003133719554170966,0.00412603048607707
0.013963740319013596,0.00511897262185812,-0.010523192584514618,0.00045768002746626735,0.0029021247755736113,0.003658903297036886
0.01399710401892662,0.004993881098926067,-0.011170538142323494,0.0004303362511564046,0.0027635262813419104,0.00342027866281569
0.014274814166128635,0.005382522474974394,-0.010673237033188343,0.00039910784107632935,0.003118938533589244,0.0036230178084224463
0.01406419649720192,0.005161825567483902,-0.011190583929419518,0.0003716589417308569,0.003491816809400916,0.003894503228366375
0.014196393080055714,0.005235506687313318,-0.011210784316062927,0.00034771653008647263,0.0034171550069004297,0.004400883801281452
0.014397643506526947,0.005479282699525356,-0.010624739341437817,0.0003266709973104298,0.0032200489658862352,0.004134682938456535
0.014639784581959248,0.005640401504933834,-0.010775020346045494,0.0003080276073887944,0.0033089718781411648,0.0038792479317635298
0.014639784581959248,0.005640401504933834,-0.010775020346045494,0.0003080276073887944,0.0033089718781411648,0.0038792479317635298
0.014173764735460281,0.005812810268253088,-0.010171330533921719,0.00032721160096116364,0.0036600418388843536,0.0037731535267084837
0.01475090067833662,0.005590643733739853,-0.011109408922493458,0.00030678603798151016,0.0031616641208529472,0.004147321451455355
0.015359189361333847,0.005792274139821529,-0.010564436204731464,0.00029258179711177945,0.0029427148401737213,0.004610143601894379
0.014585972763597965,0.005813362076878548,-0.011124948039650917,0.0002795970067381859,0.002900537336245179,0.004963185638189316
0.014977634884417057,0.006251409649848938,-0.010965132154524326,0.00026771327247843146,0.0033087660558521748,0.004811196122318506
0.014913840219378471,0.006197189912199974,-0.010510338470339775,0.0002567990159150213,0.0034390513319522142,0.00428426219150424
0.015272162854671478,0.006290859542787075,-0.011076308786869049,0.00024673982989043,0.003350523766130209,0.004387151449918747
0.014672433026134968,0.006765600293874741,-0.010977602563798428,0.0002374389732722193,0.0030856886878609657,0.004360879771411419
0.015132901258766651,0.006796163972467184,-0.010851667262613773,0.0002288581890752539,0.0032479220535606146,0.004479952156543732
0.014978108927607536,0.0066515314392745495,-0.011029805056750774,9.789620526134968e-05,0.003527292748913169,0.004894976504147053
0.01576836034655571,0.0062992083840072155,-0.010503919795155525,8.544730371795595e-05,0.003506534267216921,0.005068149883300066
0.015309148468077183,0.006562458351254463,-0.011068574152886868,8.108740439638495e-05,0.003075795713812113,0.004856618121266365
0.015419906936585903,0.006837553810328245,-0.011458837427198887,7.755927072139457e-05,0.0029314348939806223,0.00479428144171834
0.015624615363776684,0.0066543505527079105,-0.01089213602244854,7.435301085934043e-05,0.0034278524108231068,0.005207210313528776
0.015509083867073059,0.0067459167912602425,-0.011718806810677052,7.140268280636519e-05,0.0038567965384572744,0.004766165744513273
0.015703251585364342,0.006556694395840168,-0.01133343018591404,6.867810589028522e-05,0.003557742340490222,0.005440413486212492
0.015899058431386948,0.0068145678378641605,-0.01098919939249754,6.615369784412906e-05,0.0032906809356063604,0.0054203541949391365
0.01611836813390255,0.006796358618885279,-0.011228756979107857,3.613771696109325e-05,0.0031299374531954527,0.005112187471240759
0.01571800373494625,0.008047478273510933,-0.010974379256367683,3.1088209652807564e-05,0.0034633621107786894,0.0051009878516197205
0.01636575162410736,0.00764870410785079,-0.012290481477975845,2.980980025313329e-05,0.004037668462842703,0.00502109806984663
0.016028238460421562,0.007643985096365213,-0.011419473215937614,2.883823799493257e-05,0.004018847830593586,0.005738531704992056
0.016222503036260605,0.007788245100528002,-0.011178441345691681,3.695402028824901e-06,0.0036036204546689987,0.005586868617683649
0.01579561084508896,0.008022181689739227,-0.0115595031529665,2.4128334530360007e-07,0.003455155296251178,0.005934242624789476
0.01579561084508896,0.008022181689739227,-0.0115595031529665,2.4128334530360007e-07,0.003455155296251178,0.005934242624789476
0.0163950864225626,0.007578615564852953,-0.011415207758545876,1.5754078930285687e-08,0.003968538250774145,0.005488961469382048
0.017104560509324074,0.007548249792307615,-0.011810907162725925,1.0286288487648676e-09,0.004589258227497339,0.005843674764037132
0.016414524987339973,0.007920854724943638,-0.01170350518077612,4.385206173879164e-12,0.0035720698069781065,0.006226611789315939
0.01658583991229534,0.008016428910195827,-0.011360879056155682,2.8632264202806124e-13,0.003212225390598178,0.006958038546144962
0.017164645716547966,0.007789399474859238,-0.011183190159499645,1.8694820133136406e-14,0.003144756890833378,0.006375584751367569
0.017015857622027397,0.009012555703520775,-0.011869647540152073,1.220638322101846e-15,0.0035120139364153147,0.005962270312011242
0.01672840304672718,0.008309331722557545,-0.011588466353714466,-0.00016297184629365802,0.0038226426113396883,0.005993231199681759
0.016999075189232826,0.007911954075098038,-0.011380137875676155,-0.0008970077615231276,0.003909722436219454,0.005994344130158424
0.01708279736340046,0.007868381217122078,-0.011848360300064087,-0.0010327359195798635,0.003807661822065711,0.006601768080145121
0.01742340251803398,0.008436398580670357,-0.011347527615725994,-0.0015730144223198295,0.0037465121131390333,0.006911340169608593
0.016390731558203697,0.008541261777281761,-0.011856847442686558,-0.0017541067209094763,0.0036945545580238104,0.006066790781915188
0.017369622364640236,0.007741276640444994,-0.01163688488304615,-0.002222691662609577,0.0036941003054380417,0.005818852223455906
0.017883697524666786,0.007868445478379726,-0.011117384769022465,-0.002233685925602913,0.0036744698882102966,0.006522686220705509
0.017285015434026718,0.00853798259049654,-0.011555299162864685,-0.002492503961548209,0.0036082554142922163,0.006666931789368391
0.017607593908905983,0.008330405689775944,-0.011340688914060593,-0.002748125232756138,0.00370376231148839,0.0063841696828603745
0.01795668713748455,0.008105115965008736,-0.01136105228215456,-0.0030308549758046865,0.0038408527616411448,0.0063170986250042915
0.018070969730615616,0.008920413441956043,-0.011405966244637966,-0.003075953107327223,0.0039315903559327126,0.006735797040164471
0.018315210938453674,0.008624420501291752,-0.011006654240190983,-0.003472737269476056,0.003975439351052046,0.006908539682626724
0.018064040690660477,0.008443678729236126,-0.011846802197396755,-0.004248075652867556,0.0035230033099651337,0.006805455312132835
0.018053583800792694,0.008703157305717468,-0.01149289682507515,-0.004134106915444136,0.0035039440263062716,0.006828596815466881
0.018027331680059433,0.008800975047051907,-0.011330283246934414,-0.003944849595427513,0.0032889521680772305,0.006652647163718939
0.018107902258634567,0.00888850912451744,-0.010866563767194748,-0.004002842586487532,0.003784840926527977,0.00707380473613739
0.018586521968245506,0.008873500861227512,-0.01074601523578167,-0.0040761325508356094,0.00422734534367919,0.007086934521794319
0.018570978194475174,0.009212707169353962,-0.011459426954388618,-0.00453037628903985,0.004518183879554272,0.007211287971585989
0.018080735579133034,0.008496647700667381,-0.011067119427025318,-0.0047241998836398125,0.004297087900340557,0.00730538833886385
0.018343668431043625,0.007707834243774414,-0.011605432257056236,-0.0050826771184802055,0.0037984317168593407,0.007592625450342894
0.018644966185092926,0.007775912061333656,-0.011012804694473743,-0.005622261203825474,0.0038584666326642036,0.0077904905192554
0.018889769911766052,0.008045139722526073,-0.011261220090091228,-0.005034348927438259,0.003944037482142448,0.007682265713810921
0.018889769911766052,0.008045139722526073,-0.011261220090091228,-0.005034348927438259,0.003944037482142448,0.007682265713810921
0.01907464489340782,0.007813366129994392,-0.011382580734789371,-0.004499424714595079,0.0036009030882269144,0.007748615462332964
0.018885647878050804,0.00769952405244112,-0.010877923108637333,-0.004545988515019417,0.003852570429444313,0.007709452882409096
0.01883411966264248,0.008026259019970894,-0.011610441841185093,-0.0051000965759158134,0.00399738596752286,0.008563564158976078
0.019297275692224503,0.008036704733967781,-0.010944119654595852,-0.005522896070033312,0.0038605467416346073,0.007925081066787243
0.019177837297320366,0.00829992163926363,-0.011639405973255634,-0.006110271438956261,0.003813082119449973,0.007582169957458973
0.018887458369135857,0.008744289167225361,-0.011512711644172668,-0.005303694400936365,0.0037108436226844788,0.007167653180658817
0.018898557871580124,0.007967689074575901,-0.011361794546246529,-0.00492421118542552,0.003459190484136343,0.007867454551160336
0.019469454884529114,0.008143624290823936,-0.011675705201923847,-0.005374821834266186,0.0035111485049128532,0.007872235961258411
0.019479429349303246,0.00811033882200718,-0.01154749933630228,-0.005549060646444559,0.0036848653107881546,0.007460154127329588
0.019061818718910217,0.009022972546517849,-0.010534881614148617,-0.005686137359589338,0.003433960024267435,0.0073487842455506325
0.019317537546157837,0.008545450866222382,-0.011765229515731335,-0.005808231886476278,0.0031657200306653976,0.0075800856575369835
0.01981331594288349,0.0082860067486763,-0.011324767954647541,-0.005881176330149174,0.0031960872001945972,0.007703069597482681
0.01965918578207493,0.008994816802442074,-0.011741701513528824,-0.006110582500696182,0.0035638194531202316,0.007490306627005339
0.019250519573688507,0.00871646124869585,-0.01066120807081461,-0.005976809188723564,0.0041246856562793255,0.007275497540831566
0.019959155470132828,0.008734336122870445,-0.010620824992656708,-0.006237742491066456,0.004239198751747608,0.008306206203997135
0.020728258416056633,0.00872732698917389,-0.01206356380134821,-0.006074000149965286,0.0036002267152071,0.0073991818353533745
0.0200455691665411,0.00901393685489893,-0.011561218649148941,-0.006047160364687443,0.003200935199856758,0.00772593030706048
0.019683923572301865,0.008730825036764145,-0.01032261922955513,-0.006397494114935398,0.0031302517745643854,0.007201610133051872
0.019725872203707695,0.008633049204945564,-0.010884650982916355,-0.0060509685426950455,0.003494218923151493,0.0072739142924547195
0.019985543563961983,0.009754625149071217,-0.010779711417853832,-0.006120252888649702,0.0037807663902640343,0.008006688207387924
0.020473046228289604,0.008962578140199184,-0.010400431230664253,-0.0065611982718110085,0.004281248897314072,0.007798787206411362
0.020282674580812454,0.008987806737422943,-0.010678841732442379,-0.006064432207494974,0.0045414939522743225,0.007433569058775902
0.02017374336719513,0.009405236691236496,-0.01027027890086174,-0.005953418090939522,0.004443338606506586,0.007739446125924587
0.019804969429969788,0.00977407582104206,-0.010270844213664532,-0.006485816091299057,0.00407038489356637,0.0077260807156562805
0.020326359197497368,0.009140403009951115,-0.010483616963028908,-0.006565821822732687,0.0034326433669775724,0.007878339849412441
0.020744958892464638,0.009685860946774483,-0.010899562388658524,-0.00635956646874547,0.0034287243615835905,0.007703438866883516
0.02068905346095562,0.009620385244488716,-0.010107835754752159,-0.007297385949641466,0.004163624253123999,0.008537309244275093
0.02110946923494339,0.00996576901525259,-0.00985726062208414,-0.007232773583382368,0.004238357301801443,0.00833597220480442
0.02110946923494339,0.00996576901525259,-0.00985726062208414,-0.007232773583382368,0.004238357301801443,0.00833597220480442
0.020180488005280495,0.009467392228543758,-0.010320416651666164,-0.007150229997932911,0.003646726720035076,0.008159137330949306
0.02050178125500679,0.009327026084065437,-0.010800865478813648,-0.007180779241025448,0.003858075011521578,0.007745630573481321
0.0209468025714159,0.009918035939335823,-0.009805033914744854,-0.007570362184196711,0.0042594256810843945,0.008602968417108059
0.021400725468993187,0.01054234430193901,-0.010322918184101582,-0.007872005924582481,0.0046126204542815685,0.008717870339751244
0.02068495750427246,0.00962213147431612,-0.010675274766981602,-0.007154272403568029,0.004580988548696041,0.00875071994960308
0.02124129980802536,0.009890244342386723,-0.010549400933086872,-0.0070504723116755486,0.004268783610314131,0.008856633678078651
0.021617291495203972,0.010321350768208504,-0.010540289804339409,-0.006687992252409458,0.0043092817068099976,0.00881192833185196
0.02315976284444332,0.009827039204537868,-0.01058540865778923,-0.007176785264164209,0.00408586161211133,0.008973558433353901
0.02027205005288124,0.010041621513664722,-0.011227395385503769,-0.007497595623135567,0.003959783352911472,0.008557281456887722
0.02119760401546955,0.010026292875409126,-0.010681096464395523,-0.007858272641897202,0.0038776835426688194,0.008680618368089199
0.021698951721191406,0.009975492022931576,-0.010484854690730572,-0.00710397819057107,0.004250438418239355,0.008689266629517078
0.021395418792963028,0.010541873052716255,-0.011347321793437004,-0.006811510305851698,0.004160881508141756,0.008819526992738247
0.02120818942785263,0.009731906466186047,-0.0106399180367589,-0.007380510214716196,0.004255380947142839,0.009019145742058754
0.021999992430210114,0.009890543296933174,-0.010644952766597271,-0.007539507932960987,0.004340858198702335,0.008846529759466648
0.021742157638072968,0.011049767956137657,-0.011003206484019756,-0.007593562826514244,0.004935374483466148,0.009044311940670013
0.02125992439687252,0.010162731632590294,-0.010549020953476429,-0.008002159185707569,0.00482385465875268,0.009324667975306511
0.021515363827347755,0.01000390574336052,-0.010862614028155804,-0.008199247531592846,0.0043459320440888405,0.009127679280936718
0.021877679973840714,0.010847306810319424,-0.01085163839161396,-0.008333118632435799,0.003925737924873829,0.009237664751708508
0.02150830626487732,0.010047624818980694,-0.010593932121992111,-0.007857740856707096,0.004206942860037088,0.009349456988275051
0.02144416980445385,0.010382234118878841,-0.011062843725085258,-0.00763217406347394,0.00424810778349638,0.009171201847493649
0.021693291142582893,0.011017361655831337,-0.010954705998301506,-0.0079012680798769,0.004334425088018179,0.009216698817908764
0.02209506183862686,0.010257198475301266,-0.01076272688806057,-0.007526024244725704,0.004261919297277927,0.009646057151257992
0.02219955064356327,0.011262019164860249,-0.010724949650466442,-0.008199828676879406,0.004092826042324305,0.009534673765301704
0.02219955064356327,0.011262019164860249,-0.010724949650466442,-0.008199828676879406,0.004092826042324305,0.009534673765301704
0.022784318774938583,0.010256020352244377,-0.011408796533942223,-0.008825849741697311,0.004268030636012554,0.009861146099865437
0.02263687551021576,0.010536197572946548,-0.011157354339957237,-0.008412824012339115,0.004283635877072811,0.009772056713700294
0.02287299558520317,0.010566376149654388,-0.011430144309997559,-0.008768855594098568,0.004147439729422331,0.009604280814528465
0.02287299558520317,0.010566376149654388,-0.011430144309997559,-0.008768855594098568,0.004147439729422331,0.009604280814528465
0.022335819900035858,0.011241198517382145,-0.011750463396310806,-0.008171724155545235,0.003944304771721363,0.010153716430068016
0.022607726976275444,0.010268060490489006,-0.010958531871438026,-0.008696441538631916,0.004007559735327959,0.010213783010840416
0.02338305115699768,0.010128025896847248,-0.011062396690249443,-0.00954403169453144,0.004235224798321724,0.010129814967513084
0.023845022544264793,0.010962790809571743,-0.010751410387456417,-0.009888963773846626,0.0044621555134654045,0.010544613003730774
0.023577218875288963,0.01067696139216423,-0.011545627377927303,-0.009562674909830093,0.00439990172162652,0.009815318509936333
0.022993749007582664,0.01076726708561182,-0.011292251758277416,-0.009671656414866447,0.0042992765083909035,0.010179192759096622
0.0227299015969038,0.010734866373240948,-0.010783834382891655,-0.009521755389869213,0.0040659792721271515,0.010798338800668716
0.023097524419426918,0.0103097939863801,-0.011951676569879055,-0.009075095877051353,0.004400220233947039,0.011140597052872181
0.02371300384402275,0.010395287536084652,-0.011291136033833027,-0.009050864726305008,0.004567516967654228,0.011315673589706421
0.02366352267563343,0.01046313252300024,-0.011351268738508224,-0.008987090550363064,0.0046202014200389385,0.011263152584433556
0.02323203720152378,0.010910827666521072,-0.011267868801951408,-0.009116279892623425,0.0045612105168402195,0.011190648190677166
0.023651443421840668,0.011438896879553795,-0.01078550424426794,-0.010343397967517376,0.0045277453027665615,0.011076018214225769
0.024214092642068863,0.010417789220809937,-0.011582755483686924,-0.009679604321718216,0.004238179884850979,0.010949425399303436
0.024079082533717155,0.01034904271364212,-0.011288058944046497,-0.00914628617465496,0.004272855818271637,0.011517377570271492
0.024480599910020828,0.010597644373774529,-0.01109253615140915,-0.009731336496770382,0.004512250889092684,0.011432292871177197
0.02382962591946125,0.010454711504280567,-0.011546751484274864,-0.010174049064517021,0.004583365749567747,0.011005500331521034
0.023580830544233322,0.010049175471067429,-0.010937677696347237,-0.010126027278602123,0.004446336533874273,0.011058147996664047
0.024001475423574448,0.011532626114785671,-0.01194994617253542,-0.009395197033882141,0.00407188618555665,0.010881142690777779
0.024483462795615196,0.010194385424256325,-0.011323507875204086,-0.009508547373116016,0.003980229143053293,0.011302790604531765
0.024211188778281212,0.010474947281181812,-0.011244934052228928,-0.010017369873821735,0.0044555990025401115,0.012153572402894497
0.02468852512538433,0.010700619779527187,-0.010973131284117699,-0.01055963896214962,0.004948364570736885,0.01126127876341343
0.02468852512538433,0.010700619779527187,-0.010973131284117699,-0.01055963896214962,0.004948364570736885,0.01126127876341343
0.02491922117769718,0.010071128606796265,-0.0110055822879076,-0.010520732030272484,0.004610253032296896,0.011486157774925232
0.02491922117769718,0.010071128606796265,-0.0110055822879076,-0.010520732030272484,0.004610253032296896,0.011486157774925232
0.024705303832888603,0.009907159022986889,-0.010816177353262901,-0.010206470265984535,0.0042708381079137325,0.012026648968458176
0.0249461866915226,0.010905739851295948,-0.011199995875358582,-0.010662761516869068,0.004159415606409311,0.011891737580299377
0.025446873158216476,0.010305794887244701,-0.01078540738672018,-0.011099912226200104,0.004083902575075626,0.011444746516644955
0.02527705207467079,0.010058922693133354,-0.011091968975961208,-0.010171192698180676,0.004726160783320665,0.01105840876698494
0.02561134472489357,0.01078508235514164,-0.011306734755635262,-0.010194123722612858,0.00501967640593648,0.011309666559100151
0.02600369043648243,0.010885949246585369,-0.01067173108458519,-0.010652689263224602,0.005254961550235748,0.011579606682062149
0.025800995528697968,0.010373299941420555,-0.011314225383102894,-0.010330689139664173,0.005033441819250584,0.011148492805659771
0.02551526203751564,0.010562817566096783,-0.011340489611029625,-0.010178495198488235,0.004332087002694607,0.01134849339723587
0.026112785562872887,0.010748835280537605,-0.010748134925961494,-0.010478495620191097,0.004400427453219891,0.011563454754650593
0.025893032550811768,0.011260658502578735,-0.011280706152319908,-0.010836346074938774,0.004259862937033176,0.011604594998061657
0.025709714740514755,0.010446853004395962,-0.010723103769123554,-0.011304770596325397,0.004523048177361488,0.011370711959898472
0.025790615007281303,0.010595055297017097,-0.010898650623857975,-0.010618187487125397,0.005504992790520191,0.011564143933355808
0.02623595856130123,0.010919086635112762,-0.011562665924429893,-0.010691716335713863,0.005487572867423296,0.01157898735255003
0.02632257342338562,0.01050016563385725,-0.011219196952879429,-0.010982485488057137,0.004875430837273598,0.01160554401576519
0.02614213526248932,0.010818684473633766,-0.011456274427473545,-0.010161752812564373,0.004163204226642847,0.011274736374616623
0.02627198025584221,0.010904372669756413,-0.011136451736092567,-0.010405429638922215,0.004279660526663065,0.011652965098619461
0.026515865698456764,0.010607382282614708,-0.011090585961937904,-0.010287121869623661,0.004683187231421471,0.011591802351176739
0.026512030512094498,0.011016092263162136,-0.01109942514449358,-0.010560463182628155,0.005297735333442688,0.011871897615492344
0.02670622058212757,0.011186705902218819,-0.010524772107601166,-0.010556343011558056,0.005523903761059046,0.01193876750767231
0.026599327102303505,0.0107988016679883,-0.011098068207502365,-0.010578311048448086,0.004815278574824333,0.012208460830152035
0.026501184329390526,0.011035896837711334,-0.011082340963184834,-0.010007322765886784,0.004442685283720493,0.011364270932972431
0.026501184329390526,0.011035896837711334,-0.011082340963184834,-0.010007322765886784,0.004442685283720493,0.011364270932972431
0.026298582553863525,0.010419134981930256,-0.010959695093333721,-0.010513965040445328,0.004152039065957069,0.011273802258074284
0.027584675699472427,0.011233964934945107,-0.011218437924981117,-0.010296791791915894,0.00496056629344821,0.01172504760324955
0.02710018679499626,0.01081489771604538,-0.010304437018930912,-0.01073674950748682,0.004600297659635544,0.01223557535558939
0.026348132640123367,0.011269510723650455,-0.011853015050292015,-0.010056345723569393,0.004564296919852495,0.012465226463973522
0.026810787618160248,0.010976827703416348,-0.010593484155833721,-0.010493787005543709,0.0049700005911290646,0.012255007401108742
0.027602626010775566,0.01122564822435379,-0.0106137003749609,-0.01114592608064413,0.0049375444650650024,0.012550361454486847
0.027306992560625076,0.012365199625492096,-0.011052735149860382,-0.010755175724625587,0.004581608809530735,0.012564289383590221
0.027026204392313957,0.011783336289227009,-0.010717079974710941,-0.010955546982586384,0.004337964579463005,0.011956978589296341
0.028019439429044724,0.012533089146018028,-0.010443970561027527,-0.011478004045784473,0.004305596463382244,0.011813513934612274
0.02786722220480442,0.011848680675029755,-0.010202647186815739,-0.011293811723589897,0.004826256539672613,0.012005399912595749
0.028071898967027664,0.012039781548082829,-0.01014767773449421,-0.011399137787520885,0.0050162626430392265,0.012227675877511501
0.026455188170075417,0.012872735038399696,-0.01110511738806963,-0.01107785478234291,0.005133297294378281,0.012504159472882748
0.027071403339505196,0.01237313449382782,-0.011106424033641815,-0.011648234911262989,0.004490010440349579,0.012863337062299252
0.027351006865501404,0.012975312769412994,-0.010252795182168484,-0.01249997690320015,0.004430452361702919,0.013078667223453522
0.02820645272731781,0.012202193960547447,-0.011730650439858437,-0.010905839502811432,0.00451565720140934,0.012805121950805187
0.02762848325073719,0.012851172126829624,-0.010534114204347134,-0.011626170016825199,0.00501393573358655,0.012668473646044731
0.02745223231613636,0.01260294672101736,-0.010775604285299778,-0.011700493283569813,0.006433404516428709,0.01262105442583561
0.027376968413591385,0.012679917737841606,-0.010878822766244411,-0.011531912721693516,0.005285187158733606,0.01280127465724945
0.02800273336470127,0.012710669077932835,-0.0104997418820858,-0.01156623288989067,0.004332710988819599,0.012565277516841888
0.027639832347631454,0.013315608724951744,-0.010968576185405254,-0.011028781533241272,0.003586284350603819,0.013585147447884083
0.027444185689091682,0.012807255610823631,-0.010818556882441044,-0.011658066883683205,0.003724487964063883,0.013398774899542332
0.02834250219166279,0.012778935953974724,-0.01034737192094326,-0.011463533155620098,0.0046030497178435326,0.012969552539288998
0.028199328109622,0.013703801669180393,-0.010931187309324741,-0.012461164966225624,0.004935768898576498,0.013034201227128506
0.028199328109622,0.013703801669180393,-0.010931187309324741,-0.012461164966225624,0.004935768898576498,0.013034201227128506
0.028210658580064774,0.013050093315541744,-0.01055261492729187,-0.012702696025371552,0.005131619982421398,0.012982146814465523
0.028485944494605064,0.013469748198986053,-0.010509936138987541,-0.012241094373166561,0.0055168019607663155,0.013124169781804085
0.0283416286110878,0.013426370918750763,-0.00995900109410286,-0.013000939972698689,0.0046709198504686356,0.012974156066775322
0.02865518629550934,0.01333718840032816,-0.011786097660660744,-0.013279345817863941,0.004424357321113348,0.013196668587625027
0.028805237263441086,0.013803428038954735,-0.011665930040180683,-0.012698525562882423,0.004905347246676683,0.013784637674689293
0.028630828484892845,0.013640372082591057,-0.010196682997047901,-0.012698158621788025,0.005125242751091719,0.013707051984965801
0.028580747544765472,0.013297484256327152,-0.010913061909377575,-0.01317794993519783,0.005422927439212799,0.013687185943126678
0.028931954875588417,0.013744194060564041,-0.01064301747828722,-0.013423401862382889,0.005657725501805544,0.013348834589123726
0.028929907828569412,0.013692362233996391,-0.010604209266602993,-0.013757536187767982,0.005159188527613878,0.01357031799852848
0.029020555317401886,0.013921122997999191,-0.010779830627143383,-0.013338398188352585,0.005243385210633278,0.013537036255002022
0.02913324348628521,0.013327626511454582,-0.01015632413327694,-0.013672856613993645,0.005032903980463743,0.013755017891526222
0.02872750721871853,0.013560698367655277,-0.01113163586705923,-0.012864082120358944,0.004647890105843544,0.01353304460644722
0.02997898869216442,0.013358205556869507,-0.011270235292613506,-0.013579688034951687,0.004974678158760071,0.013678699731826782
0.030141832306981087,0.0139272790402174,-0.010553690604865551,-0.013085019774734974,0.005292817950248718,0.01367055531591177
0.029633229598402977,0.013726739212870598,-0.010996228083968163,-0.013336353935301304,0.005030141212046146,0.013941840268671513
0.028509950265288353,0.01385349128395319,-0.010528678074479103,-0.012917018495500088,0.004884316120296717,0.013721199706196785
0.029183760285377502,0.013326697051525116,-0.01057906448841095,-0.013273220509290695,0.004782224539667368,0.013555826619267464
0.029870061203837395,0.01411532610654831,-0.01085738930851221,-0.013390597887337208,0.004698966164141893,0.013436613604426384
0.029150310903787613,0.013787595555186272,-0.010669528506696224,-0.013459370471537113,0.004829164128750563,0.013670218177139759
0.029714513570070267,0.014379994943737984,-0.011217160150408745,-0.013872477225959301,0.005276439245790243,0.013897018507122993
0.030384080484509468,0.013834400102496147,-0.011377480812370777,-0.013775542378425598,0.005309194792062044,0.01350201666355133
0.03013022616505623,0.014278104528784752,-0.010641093365848064,-0.014189928770065308,0.005488453898578882,0.013728938065469265
0.02957613579928875,0.014031633734703064,-0.010730612091720104,-0.013981831260025501,0.004729822278022766,0.013942290097475052
0.02954353205859661,0.014381160959601402,-0.010650443844497204,-0.013563833199441433,0.004577329847961664,0.013990597799420357
0.03049459122121334,0.014139781706035137,-0.01080311182886362,-0.013416390866041183,0.004692234564572573,0.01401015929877758
0.030490444973111153,0.014826862141489983,-0.011151148937642574,-0.014221429824829102,0.005624090321362019,0.013901841826736927
0.030576961115002632,0.01439900416880846,-0.011018620803952217,-0.013979833573102951,0.005398834124207497,0.01387935783714056
0.030576961115002632,0.01439900416880846,-0.011018620803952217,-0.013979833573102951,0.005398834124207497,0.01387935783714056
0.02957139164209366,0.014367500320076942,-0.011318388395011425,-0.013609055429697037,0.00466424785554409,0.013672726228833199
