davideferrari95/blind_handover_controller/data/Test 98 - [2024-02-07 -- 16-15-16]/joint_states_data.csv
shoulder_pan_joint,shoulder_lift_joint,elbow_joint,wrist_1_joint,wrist_2_joint,wrist_3_joint
0.009614340029656887,0.005253117997199297,-0.008986291475594044,0.005565669387578964,-0.00014860495866741985,0.009741157293319702
0.009614340029656887,0.005253117997199297,-0.008986291475594044,0.005565669387578964,-0.00014860495866741985,0.009741157293319702
0.009614340029656887,0.005253117997199297,-0.008986291475594044,0.005565669387578964,-0.00014860495866741985,0.009741157293319702
0.009881707839667797,0.005869376007467508,-0.008804066106677055,0.005515026394277811,-0.00014191590889822692,0.009933922439813614
0.010078511200845242,0.005887588486075401,-0.00908790621906519,0.005770136136561632,-0.00013878935715183616,0.009890047833323479
0.010078511200845242,0.005887588486075401,-0.00908790621906519,0.005770136136561632,-0.00013878935715183616,0.009890047833323479
0.009436254389584064,0.00535831693559885,-0.008794814348220825,0.00561537267640233,-0.0001518378412583843,0.010152230970561504
0.009882818907499313,0.005527634639292955,-0.009143971838057041,0.00499989977106452,-0.00014877734065521508,0.00975867547094822
0.009527082554996014,0.005678011104464531,-0.008474268950521946,0.004791647661477327,-0.00014577027468476444,0.00996842049062252
0.009527082554996014,0.005678011104464531,-0.008474268950521946,0.004791647661477327,-0.00014577027468476444,0.00996842049062252
0.009363142773509026,0.005827791057527065,-0.00866482313722372,0.005043322686105967,-0.0001428777613909915,0.010149974375963211
0.009781857952475548,0.005910974461585283,-0.009323562495410442,0.005233510863035917,-0.0001778468576958403,0.009776975028216839
0.01065792702138424,0.005507955327630043,-0.00869803037494421,0.005239252001047134,-0.00020557014795485884,0.009847204200923443
0.009576171636581421,0.005835080984979868,-0.009565976448357105,0.005042660515755415,-0.00019883013737853616,0.009896105155348778
0.009911996312439442,0.0055189249105751514,-0.010856845416128635,0.004708545748144388,-0.00019056226301472634,0.010637554340064526
0.010202955454587936,0.005968610290437937,-0.00982046127319336,0.004662483464926481,-0.00018282842938788235,0.009408618323504925
0.009323026984930038,0.005637939553707838,-0.009508521296083927,0.005258454009890556,-0.00017568971088621765,0.009130243211984634
0.009776033461093903,0.0055316900834441185,-0.01000664010643959,0.005838606506586075,-0.00016908679390326142,0.009330566972494125
0.009481271728873253,0.00530208507552743,-0.009522181004285812,0.0051452829502522945,-0.00015726681158412248,0.009355181828141212
0.009481271728873253,0.00530208507552743,-0.009522181004285812,0.0051452829502522945,-0.00015726681158412248,0.009355181828141212
0.009514984674751759,0.005511376075446606,-0.009867982007563114,0.004602411296218634,-0.00017612629744689912,0.009799977764487267
0.009157855063676834,0.005562941078096628,-0.010483472608029842,0.004835986066609621,-0.00017079230747185647,0.00955852773040533
0.009739327244460583,0.005417152773588896,-0.010376117192208767,0.00534857390448451,-0.00016557068738620728,0.009241876192390919
0.009538807906210423,0.005648513790220022,-0.009843681007623672,0.005553894210606813,-0.0001606455771252513,0.009777762927114964
0.009137199260294437,0.005286494269967079,-0.00991122331470251,0.004798028152436018,-0.00015600424376316369,0.009910186752676964
0.009680425748229027,0.005993363447487354,-0.010477343574166298,0.00450803991407156,-0.00015162375348154455,0.010285323485732079
0.009610648266971111,0.0054700556211173534,-0.009819163009524345,0.004439373034983873,-0.00014748208923265338,0.009873921982944012
0.009548469446599483,0.005411543883383274,-0.010087885893881321,0.004653060343116522,-0.00014356091560330242,0.009297535754740238
0.009769387543201447,0.005210285075008869,-0.010359926149249077,0.005291445646435022,-0.00015711653395555913,0.009183689951896667
0.00934650655835867,0.005891795735806227,-0.009609809145331383,0.005572935566306114,-0.00015863767475821078,0.009710111655294895
0.00871273223310709,0.005439110100269318,-0.009839672595262527,0.0052764262072741985,-0.0001550901070004329,0.010320374742150307
0.009182607755064964,0.00534857390448451,-0.010723130777478218,0.005474182777106762,-0.00015138664457481354,0.00928481761366129
0.009560970589518547,0.005535497330129147,-0.00987414363771677,0.005732721649110317,-0.00014783546794205904,0.009520520456135273
0.00910800602287054,0.005209175869822502,-0.009784464724361897,0.005361496936529875,-0.00014444593398366123,0.009656785987317562
0.008912211284041405,0.0057290601544082165,-0.010662248358130455,0.005887818988412619,-0.0001412083802279085,0.009535755962133408
0.009174886159598827,0.005430084653198719,-0.009373032487928867,0.005732303950935602,-0.00013811256212648004,0.01020315382629633
0.00894483644515276,0.005488394293934107,-0.009915643371641636,0.005759915336966515,-0.00014946954615879804,0.009757736697793007
0.00894483644515276,0.005488394293934107,-0.009915643371641636,0.005759915336966515,-0.00014946954615879804,0.009757736697793007
0.009124218486249447,0.0050767879001796246,-0.010411113500595093,0.005504413042217493,-0.00015088694635778666,0.009394731372594833
0.009155449457466602,0.005615485832095146,-0.008874431252479553,0.005069874692708254,-0.00014808097330387682,0.00943388044834137
0.009043225087225437,0.005359416361898184,-0.009775286540389061,0.005310080014169216,-0.00014511580229736865,0.009699427522718906
0.009091571904718876,0.005429515149444342,-0.009872960858047009,0.006010999903082848,-0.00014224988990463316,0.009649778716266155
0.009464144706726074,0.005717262160032988,-0.009299976751208305,0.0055423337034881115,-0.00013949403364676982,0.009640398435294628
0.00980108231306076,0.005586598068475723,-0.009087162092328072,0.006072711199522018,-0.0001368427328998223,0.009284256026148796
0.00891621969640255,0.005536234006285667,-0.009442783892154694,0.006274593528360128,-0.00013429051614366472,0.00899861566722393
0.009549898095428944,0.005308663938194513,-0.009786251932382584,0.005864852573722601,-0.00013183151895646006,0.009384552016854286
0.009465770795941353,0.005470178555697203,-0.009689471684396267,0.005958775989711285,-0.00012838192924391478,0.009864105843007565
0.009028160013258457,0.005443116184324026,-0.009237797930836678,0.0054374816827476025,-0.0001246610190719366,0.009200219064950943
0.009208926931023598,0.006117695476859808,-0.00911934208124876,0.005238030105829239,-0.00012129003880545497,0.008975077420473099
0.008658209815621376,0.005255211144685745,-0.009325857274234295,0.005141041241586208,-0.00011508511670399457,0.009748821146786213
0.0088850948959589,0.005395391024649143,-0.009026509709656239,0.005449849646538496,-0.00011221504973946139,0.008724220097064972
0.0088850948959589,0.005395391024649143,-0.009026509709656239,0.005449849646538496,-0.00011221504973946139,0.008724220097064972
0.009147749282419682,0.0052009508945047855,-0.009515666402876377,0.005270097404718399,-0.0001068841083906591,0.008680659346282482
0.009563343599438667,0.004424884915351868,-0.009323246777057648,0.005179970990866423,-0.00010440430924063548,0.008402452804148197
0.010175798088312149,0.004371713846921921,-0.008872675709426403,0.005622512195259333,-0.0001020368654280901,0.008715146221220493
0.009627625346183777,0.004626808222383261,-0.009417069144546986,0.005478489678353071,-9.977431909646839e-05,0.009030031971633434
0.009291088208556175,0.004740201402455568,-0.009124763309955597,0.005769399926066399,-9.761012915987521e-05,0.009117302484810352
0.00948707852512598,0.0047171395272016525,-0.008626905269920826,0.005402527749538422,-9.553766722092405e-05,0.00900234468281269
0.009752942249178886,0.004683022387325764,-0.0095853041857481,0.004500205162912607,-9.355149086331949e-05,0.009052934125065804
0.009688452817499638,0.0049983239732682705,-0.008927644230425358,0.004497708287090063,-9.16460994631052e-05,0.009176264517009258
0.009553994052112103,0.004971442744135857,-0.008403535932302475,0.004948429763317108,-8.981704741017893e-05,0.009056570939719677
0.009308893233537674,0.004626641981303692,-0.008785361424088478,0.005092330276966095,-8.805931429378688e-05,0.008926516398787498
0.009576878510415554,0.004870842210948467,-0.009032911621034145,0.005080090835690498,-8.636913844384253e-05,0.00875214021652937
0.010249919258058071,0.004937513265758753,-0.00947332102805376,0.005175302736461163,-8.474267087876797e-05,0.009154417552053928
0.010003024712204933,0.0048781572841107845,-0.008290475234389305,0.00497504323720932,-8.317634637933224e-05,0.009410412050783634
0.010003024712204933,0.0048781572841107845,-0.008290475234389305,0.00497504323720932,-8.317634637933224e-05,0.009410412050783634
0.009661787189543247,0.005163874942809343,-0.00879702065140009,0.004787595011293888,-8.166673796949908e-05,0.008981194347143173
0.009526332840323448,0.005245148669928312,-0.008893401362001896,0.00475752167403698,-8.02110880613327e-05,0.008764071390032768
0.009601275436580181,0.004602714907377958,-0.008993808180093765,0.00518954498693347,-7.880630437284708e-05,0.00896280724555254
0.009156682528555393,0.004573209676891565,-0.009371708147227764,0.004765950608998537,-9.191093704430386e-05,0.008939466439187527
0.010117348283529282,0.0050460235215723515,-0.00850285030901432,0.004621503874659538,-9.130035323323682e-05,0.00898802001029253
0.009420202113687992,0.004938523285090923,-0.008483911864459515,0.004847743548452854,-8.98428843356669e-05,0.008514860644936562
0.009343646466732025,0.004857824649661779,-0.008306792005896568,0.004763858858495951,-8.837650966597721e-05,0.008715793490409851
0.009571857750415802,0.004836260341107845,-0.008961562998592854,0.004488044884055853,-8.69536233949475e-05,0.008706800639629364
0.00944517645984888,0.004649654496461153,-0.009053326211869717,0.004453778732568026,-8.557570981793106e-05,0.008268475532531738
0.009380937553942204,0.0047029065899550915,-0.008512936532497406,0.004536763299256563,-8.424071711488068e-05,0.008691662922501564
0.009672397747635841,0.004521917086094618,-0.008966445922851562,0.004780954215675592,-8.169196371454746e-05,0.008495022542774677
0.009544187225401402,0.005068082828074694,-0.0086450707167387,0.004963520914316177,-8.047458686633036e-05,0.008729890920221806
0.009541012346744537,0.004994912538677454,-0.009987032040953636,0.004808241035789251,-9.078226139536127e-05,0.009388196282088757
0.009941039606928825,0.004453979432582855,-0.008937342092394829,0.004368986003100872,-9.105693607125431e-05,0.00800616480410099
0.009214093908667564,0.004379189107567072,-0.008379253558814526,0.004468945786356926,-8.986173634184524e-05,0.007653064094483852
0.009582333266735077,0.004602857865393162,-0.00913679227232933,0.005143341608345509,-8.860465459292755e-05,0.008530965074896812
0.009737861342728138,0.0046699997037649155,-0.009616544470191002,0.005057097878307104,-8.737620373722166e-05,0.00909482128918171
0.009625639766454697,0.004666130058467388,-0.00928589515388012,0.00475379079580307,-8.618103311164305e-05,0.008278784342110157
0.009797150269150734,0.004601671360433102,-0.008528110571205616,0.004607643000781536,-8.501802221871912e-05,0.008260443806648254
0.00952139776200056,0.004893260542303324,-0.009995535016059875,0.004683487117290497,-8.38859923533164e-05,0.008784794248640537
0.009053757414221764,0.004807107616215944,-0.009066453203558922,0.004739480558782816,-8.278367749881e-05,0.008670701645314693
0.010005478747189045,0.004702331963926554,-0.00848341267555952,0.0049182879738509655,-8.171000081347302e-05,0.00839451514184475
0.009743093512952328,0.00468672439455986,-0.009177290834486485,0.005181651096791029,-8.06638490757905e-05,0.008731694892048836
0.009743093512952328,0.00468672439455986,-0.009177290834486485,0.005181651096791029,-8.06638490757905e-05,0.008731694892048836
0.009596532210707664,0.005043127574026585,-0.008746122941374779,0.00474871601909399,-8.95088305696845e-05,0.008195197209715843
0.009596617892384529,0.004978116136044264,-0.008931447751820087,0.004282924346625805,-8.875269122654572e-05,0.008637622930109501
0.009596617892384529,0.004978116136044264,-0.008931447751820087,0.004282924346625805,-8.875269122654572e-05,0.008637622930109501
0.009490755386650562,0.004857566207647324,-0.009361919946968555,0.004017368424683809,-8.769430860411376e-05,0.008694595657289028
0.009520729072391987,0.005104551091790199,-0.009365205653011799,0.004354606848210096,-8.664062625030056e-05,0.008581126108765602
0.009214552119374275,0.004814182873815298,-0.008853800594806671,0.00487663596868515,-8.561045251553878e-05,0.008334656246006489
0.008916087448596954,0.004523050505667925,-0.00912751816213131,0.005037817172706127,-8.460455137537792e-05,0.00845488253980875
0.009362144395709038,0.00489395996555686,-0.008981325663626194,0.004807566292583942,-8.362194057554007e-05,0.008567634038627148
0.009625722654163837,0.004974366631358862,-0.00902100745588541,0.004486827179789543,-8.266188524430618e-05,0.008049250580370426
0.009249554015696049,0.004761718213558197,-0.009296199306845665,0.004092241637408733,-8.172366506187245e-05,0.008644890040159225
0.01014980673789978,0.00460852961987257,-0.009116867557168007,0.004403696395456791,-8.08327313279733e-05,0.008290363475680351
0.009457913227379322,0.004401730839163065,-0.009562596678733826,0.00516971992328763,-7.98491746536456e-05,0.00796385295689106
0.009166388772428036,0.00469234911724925,-0.009420037269592285,0.004969272296875715,-7.846445078030229e-05,0.00826173648238182
0.009383492171764374,0.005139750428497791,-0.008599963039159775,0.004785086493939161,-7.71202685427852e-05,0.008196388371288776
0.009272102266550064,0.0048398347571492195,-0.009259003214538097,0.004520772956311703,-7.582084072055295e-05,0.007898873649537563
0.009197595529258251,0.0046465531922876835,-0.009077377617359161,0.004721526987850666,-7.456454477505758e-05,0.0076274811290204525
0.009403366595506668,0.004509694408625364,-0.008692322298884392,0.004906035494059324,-7.334915426326916e-05,0.008039142936468124
0.009415069594979286,0.004721528384834528,-0.008594030514359474,0.004787875339388847,-8.288898970931768e-05,0.00798314344137907
0.009415069594979286,0.004721528384834528,-0.008594030514359474,0.004787875339388847,-8.288898970931768e-05,0.00798314344137907
0.010115785524249077,0.00469220383092761,-0.009045888669788837,0.004661338869482279,-8.49973876029253e-05,0.007808934431523085
0.009228188544511795,0.00480964919552207,-0.00867371540516615,0.004770110826939344,-8.389962022192776e-05,0.008565763011574745
0.009728929027915001,0.004932431969791651,-0.008392001502215862,0.004808236379176378,-8.263046038337052e-05,0.008146884851157665
0.009155943989753723,0.004824228119105101,-0.009959733113646507,0.004718094132840633,-8.138595876516774e-05,0.00807147566229105
0.009907732717692852,0.004631669260561466,-0.009033606387674809,0.004672727547585964,-8.01776404841803e-05,0.008133657276630402
0.009206052869558334,0.0043168137781322,-0.008878077380359173,0.004731048829853535,-7.900468335719779e-05,0.008780864998698235
0.009258711710572243,0.0044945525005459785,-0.009369820356369019,0.004861421417444944,-8.914839418139309e-05,0.008242175914347172
0.009780093096196651,0.004591620992869139,-0.00974210537970066,0.004788506310433149,-8.944108412833884e-05,0.007900495082139969
0.009665078483521938,0.004781260155141354,-0.009035520255565643,0.004738258197903633,-8.828947466099635e-05,0.007595627103000879
0.00952694471925497,0.00474055390805006,-0.009912393055856228,0.004697469994425774,-8.70757648954168e-05,0.007985568605363369
0.009719871915876865,0.004657846409827471,-0.010351084172725677,0.004671905189752579,-8.588912896811962e-05,0.008178560994565487
0.00957966223359108,0.00424762861803174,-0.008962043561041355,0.004655301570892334,-9.603759826859459e-05,0.0077102030627429485
0.009312190115451813,0.004313027486205101,-0.009970898739993572,0.004592324607074261,-9.550133836455643e-05,0.008093983866274357
0.009708921425044537,0.004447064362466335,-0.00931062363088131,0.00504763750359416,-9.42987171583809e-05,0.008105223998427391
0.0095264483243227,0.004690967965871096,-0.009570823982357979,0.0049726031720638275,-9.308279550168663e-05,0.008070139214396477
0.009234714321792126,0.0047732386738061905,-0.009767613373696804,0.004528795834630728,-0.0001391310797771439,0.008391405455768108
0.00954813975840807,0.004486792255192995,-0.009749245829880238,0.004453117493540049,-0.00017820787616074085,0.007960084825754166
0.009992126375436783,0.004354311153292656,-0.009188471361994743,0.005106139462441206,-0.0001742212480166927,0.007365092169493437
0.009419431909918785,0.00455147959291935,-0.009785303846001625,0.004910274408757687,-0.00016188179142773151,0.007861535996198654
0.009462663903832436,0.004581882152706385,-0.009335341863334179,0.004752707201987505,-0.00017938528617378324,0.007890808396041393
0.009268537163734436,0.004569835960865021,-0.009218748658895493,0.004688972141593695,-0.0001806883083190769,0.007928756065666676
0.010140035301446915,0.0048652454279363155,-0.009516439400613308,0.004723142366856337,-0.00017529947217553854,0.00744120217859745
0.009767367504537106,0.0047196149826049805,-0.009063903242349625,0.005187897477298975,-0.00016981744556687772,0.007421694230288267
0.009157653898000717,0.004866476636379957,-0.008883313275873661,0.005396707449108362,-0.00016464134387206286,0.007837559096515179
0.009146553464233875,0.004734990186989307,-0.009304244071245193,0.004742181394249201,-0.00015976984286680818,0.00824987143278122
0.009579225443303585,0.004383070860058069,-0.009238353930413723,0.004573678132146597,-0.0001551782916067168,0.00790504738688469
0.010050218552350998,0.004807064309716225,-0.00894372072070837,0.0044975485652685165,-0.00016318551206495613,0.008128898218274117
0.009361914359033108,0.004959653131663799,-0.009892662987112999,0.004191837273538113,-0.0001703653106233105,0.007961198687553406
0.009844766929745674,0.004534098319709301,-0.009490630589425564,0.004515942186117172,-0.00016661699919495732,0.007753290235996246
0.009844766929745674,0.004534098319709301,-0.009490630589425564,0.004515942186117172,-0.00016661699919495732,0.007753290235996246
0.009535360150039196,0.004422308411449194,-0.008880415931344032,0.004742732737213373,-0.00016237185627687722,0.007618111092597246
0.009192392230033875,0.004686607513576746,-0.009467152878642082,0.004813808016479015,-0.00015829509356990457,0.007715417537838221
0.009998850524425507,0.004696038085967302,-0.009537348523736,0.0049417465925216675,-0.00015441529103554785,0.007718335371464491
0.009696610271930695,0.004692344926297665,-0.008899974636733532,0.005010717548429966,-0.0001507209672126919,0.007675625383853912
0.00950494036078453,0.004515272565186024,-0.00948550645262003,0.004502027295529842,-0.00016682174464222044,0.0074953134171664715
0.009976875968277454,0.004981932695955038,-0.009591064415872097,0.004436512943357229,-0.000164294833666645,0.0074653010815382
0.00967093650251627,0.004844674840569496,-0.008889307267963886,0.0049388050101697445,-0.00016071111895143986,0.007760584820061922
0.009456893429160118,0.004748286679387093,-0.008990143425762653,0.005096855573356152,-0.00015720745432190597,0.007509034592658281
0.010250396095216274,0.004404360894113779,-0.009194874204695225,0.004944897722452879,-0.00015384839207399637,0.007081060204654932
0.009665112942457199,0.004430707544088364,-0.008821992203593254,0.00520865386351943,-0.00015062974125612527,0.007225613109767437
0.009431120939552784,0.004562282469123602,-0.008986011147499084,0.004691516514867544,-0.00014754307630937546,0.007414461579173803
0.010608403012156487,0.004723395220935345,-0.009649327024817467,0.0046249437145888805,-0.00014477396325673908,0.007417032029479742
0.009825038723647594,0.004727833438664675,-0.009452316910028458,0.005116282030940056,-0.0001642246643314138,0.0073007927276194096
0.009353427216410637,0.004656532779335976,-0.009856931865215302,0.005413879174739122,-0.00016000140749383718,0.007376755587756634
0.009687687270343304,0.004819644149392843,-0.009476539678871632,0.005074074491858482,-0.00015460945724043995,0.007882432080805302
0.009635034017264843,0.004722306039184332,-0.008730679750442505,0.005056037567555904,-0.00014467370056081563,0.007295746821910143
0.009635889902710915,0.005104987416416407,-0.009566664695739746,0.004898714367300272,-0.00014016724890097976,0.007630740292370319
0.010120401158928871,0.004976217169314623,-0.009409668855369091,0.00490108085796237,-0.0001359327434329316,0.007162038702517748
0.009902847930788994,0.0047905584797263145,-0.009123284369707108,0.004801470320671797,-0.0001514921896159649,0.007088511250913143
0.01005533430725336,0.004712217953056097,-0.009447341784834862,0.004689863882958889,-0.00015337832155637443,0.007141851354390383
0.009711981751024723,0.005227488465607166,-0.009166308678686619,0.0048011974431574345,-0.0001495351316407323,0.007292944006621838
0.0095992935821414,0.004591547418385744,-0.00896537397056818,0.005059876013547182,-0.0001455315505154431,0.007136846426874399
0.010000434704124928,0.004567540716379881,-0.009388783015310764,0.00500695314258337,-0.00014171359362080693,0.007263730280101299
0.009758463129401207,0.005178564693778753,-0.009505179710686207,0.005230381153523922,-0.0001380896574119106,0.007479687221348286
0.009580194018781185,0.005063504446297884,-0.00901542603969574,0.005493088625371456,-0.00013464629591908306,0.00763365812599659
0.009863636456429958,0.004846007563173771,-0.009116725996136665,0.005146017298102379,-0.00014760158956050873,0.007039298303425312
0.009736553765833378,0.004748445004224777,-0.009088962338864803,0.005257030017673969,-0.00014925537107046694,0.007344227749854326
0.00980606023222208,0.005053325556218624,-0.009179433807730675,0.004671878647059202,-0.0001461298525100574,0.007148526608943939
0.00980606023222208,0.005053325556218624,-0.009179433807730675,0.004671878647059202,-0.0001461298525100574,0.007148526608943939
0.010081279091536999,0.005122165195643902,-0.009042501449584961,0.00458746962249279,-0.00014283864584285766,0.006793264299631119
0.010253132320940495,0.005726468283683062,-0.009437941946089268,0.005119596607983112,-0.00013967302220407873,0.0070842113345861435
0.010320909321308136,0.005331483669579029,-0.008996959775686264,0.005367731675505638,-0.0001366435899399221,0.007203269749879837
0.009508784860372543,0.004784575197845697,-0.009281261824071407,0.004933617543429136,-0.00014016444038134068,0.007240916136652231
0.009508784860372543,0.004784575197845697,-0.009281261824071407,0.004933617543429136,-0.00014016444038134068,0.007240916136652231
0.010407707653939724,0.005147687159478664,-0.009185945615172386,0.005082171875983477,-0.00014600265421904624,0.0074595436453819275
0.010952362790703773,0.005253117997199297,-0.00909904483705759,0.005069418344646692,-0.00014365639071911573,0.006993329152464867
0.010049810633063316,0.0051614041440188885,-0.009456832893192768,0.005310553126037121,-0.00014088251919019967,0.0066653089597821236
0.009922745637595654,0.004935706965625286,-0.009026071056723595,0.005228960886597633,-0.00013818101433571428,0.006705890875309706
0.009985892102122307,0.0047533889301121235,-0.008880986832082272,0.004962722305208445,-0.00013557937927544117,0.007246298249810934
0.009800311177968979,0.005237258970737457,-0.009371484629809856,0.004755500704050064,-0.00015382791752927005,0.006945265457034111
0.010400351136922836,0.005174572579562664,-0.009347397834062576,0.004702476784586906,-0.00015534610429313034,0.007093926426023245
0.010049796663224697,0.005060251336544752,-0.009180180728435516,0.004832197446376085,-0.00015059325960464776,0.00701527763158083
0.009713609702885151,0.005157995969057083,-0.008578084409236908,0.005316352937370539,-0.00014574437227565795,0.006944529712200165
0.010548111982643604,0.00494489585980773,-0.009230255149304867,0.005519414786249399,-0.00014117379032541066,0.007071234285831451
0.011108217760920525,0.004812028259038925,-0.008844980970025063,0.005070267710834742,-0.000157151444000192,0.006699300836771727
0.010143885388970375,0.005026437342166901,-0.009390533901751041,0.004858136642724276,-0.0001548047730466351,0.007266640197485685
0.010036728344857693,0.005856673698872328,-0.009153530932962894,0.004845024552196264,-0.00015051673108246177,0.0069840531796216965
0.01040292251855135,0.005225309170782566,-0.008672837167978287,0.0054912506602704525,-0.00014643653412349522,0.006942995823919773
0.011096673086285591,0.004540822934359312,-0.009567047469317913,0.005167819559574127,-0.00016017904272302985,0.006506563629955053
0.010347949340939522,0.005029406398534775,-0.00834309495985508,0.00481785973533988,-0.0001616513036424294,0.0063554164953529835
0.010594974271953106,0.005470624193549156,-0.008748029358685017,0.004876566585153341,-0.0001579627423780039,0.0066770026460289955
0.011249230243265629,0.0053140162490308285,-0.00989130325615406,0.004804526921361685,-0.00015412227367050946,0.006633871700614691
0.010661314241588116,0.005829928908497095,-0.009792018681764603,0.004864340182393789,-0.00015044320025481284,0.0068192812614142895
0.010547551326453686,0.005284889135509729,-0.00888064131140709,0.005274677183479071,-0.00014693420962430537,0.0067718843929469585
0.010799964889883995,0.005296812392771244,-0.009117196314036846,0.005668334662914276,-0.0001587954757269472,0.0064399633556604385
0.010799964889883995,0.005296812392771244,-0.009117196314036846,0.005668334662914276,-0.0001587954757269472,0.0064399633556604385
0.010464677587151527,0.005171883851289749,-0.009381655603647232,0.005222908221185207,-0.0001600944233359769,0.006362281274050474
0.010764048434793949,0.005445194896310568,-0.00915998313575983,0.004780665971338749,-0.00015692073793616146,0.006348710972815752
0.010391791351139545,0.005804657936096191,-0.009659073315560818,0.004668653476983309,-0.00015359398094005883,0.006393501069396734
0.010401103645563126,0.005582122132182121,-0.009320098906755447,0.0047282385639846325,-0.00015038688434287906,0.006307833828032017
0.01094871200621128,0.005463127512484789,-0.008987370878458023,0.005719171836972237,-0.00014732418640051037,0.006559109780937433
0.010590591467916965,0.005025671329349279,-0.009184161201119423,0.005490770563483238,-0.00019609942683018744,0.006560568232089281
0.010920945554971695,0.005420439876616001,-0.009804452769458294,0.0050811441615223885,-0.00019136662012897432,0.006230528000742197
0.010816341266036034,0.005252833012491465,-0.009426213800907135,0.005085249897092581,-0.00018378597451373935,0.006328149698674679
0.010711920447647572,0.005039811599999666,-0.009305983781814575,0.005014543421566486,-0.00017658794240560383,0.006274423561990261
0.011135296896100044,0.005213761702179909,-0.009468707256019115,0.005192473530769348,-0.00016991960001178086,0.006225476041436195
0.011022803373634815,0.00494244834408164,-0.008725297637283802,0.00555835198611021,-0.0001637362438486889,0.006394730880856514
0.010922242887318134,0.004812656901776791,-0.00892908126115799,0.005113940220326185,-0.00015798694221302867,0.006456176284700632
0.011215937323868275,0.005083877127617598,-0.009621478617191315,0.00505688413977623,-0.00017688011575955898,0.006118591409176588
0.011215937323868275,0.005083877127617598,-0.009621478617191315,0.00505688413977623,-0.00017688011575955898,0.006118591409176588
0.011181735433638096,0.005741622298955917,-0.008781361393630505,0.005007663741707802,-0.00017149980703834444,0.005815448705106974
0.010124674998223782,0.005240126978605986,-0.009632650762796402,0.005360813345760107,-0.00016127119306474924,0.005394331179559231
0.010935037396848202,0.0049190460704267025,-0.009105113334953785,0.005645608063787222,-0.00015659445489291102,0.005934055428951979
0.011456096544861794,0.005081749055534601,-0.009868687018752098,0.005305101163685322,-0.000152181091834791,0.006169148720800877
0.011662746779620647,0.00558916199952364,-0.009675154462456703,0.004812513943761587,-0.00014801103679928929,0.006086993962526321
0.01164113450795412,0.005341808311641216,-0.009479104541242123,0.004702060017734766,-0.0001558519434183836,0.005797851365059614
0.01105779130011797,0.0043326751329004765,-0.010399912483990192,0.00576534029096365,-0.00016290544590447098,0.005318553186953068
0.011446483433246613,0.0038800856564193964,-0.009745623916387558,0.005864922422915697,-0.00015950466331560165,0.0057627009227871895
0.011503571644425392,0.0038390490226447582,-0.009102934040129185,0.005453065037727356,-0.0001556121278554201,0.0058418395929038525
0.011503571644425392,0.0038390490226447582,-0.009102934040129185,0.005453065037727356,-0.0001556121278554201,0.0058418395929038525
0.011233183555305004,0.004217112902551889,-0.009675503708422184,0.005370953120291233,-0.00015186402015388012,0.006259780842810869
0.012437975965440273,0.004680143669247627,-0.009857945144176483,0.005205235909670591,-0.00014828929852228612,0.006242551375180483
0.01139707863330841,0.004737652372568846,-0.009701663628220558,0.005257660057395697,-0.00014487923181150109,0.0055967047810554504
0.011566360481083393,0.004870997741818428,-0.010476144030690193,0.005301665049046278,-0.00014162223669700325,0.005771868396550417
0.011769247241318226,0.004303146153688431,-0.009593522176146507,0.0056472294963896275,-0.00013851304538547993,0.005751855205744505
0.01190159097313881,0.004045816604048014,-0.009135729633271694,0.005311797372996807,-0.00013552894233725965,0.006133390124887228
0.012005888856947422,0.0040727341547608376,-0.009704135358333588,0.0050390032120049,-0.00013267436588648707,0.005885581020265818
0.011763391084969044,0.004502222407609224,-0.009701725095510483,0.004991586320102215,-0.0001299379364354536,0.005598155781626701
0.012038487941026688,0.004244867712259293,-0.0097103426232934,0.004970355425029993,-0.00012731211609207094,0.00535753695294261
0.011913198046386242,0.004433561582118273,-0.010913907550275326,0.004900894593447447,-0.0001335606793873012,0.005677033215761185
0.01228772196918726,0.004342679399996996,-0.010239392518997192,0.005060252733528614,-0.000139259995194152,0.00638606445863843
0.012581055983901024,0.004063651897013187,-0.009611153043806553,0.005082421004772186,-0.00013714541273657233,0.005923889111727476
0.011916695162653923,0.0038732029497623444,-0.01030297577381134,0.004997034091502428,-0.0001346152857877314,0.005369152873754501
0.01195069495588541,0.004091499373316765,-0.00919791217893362,0.005217161029577255,-0.00012976529251318425,0.005560575518757105
0.012014009989798069,0.003934343811124563,-0.010119164362549782,0.005666259676218033,-0.00012746785068884492,0.005838542245328426
0.011618289165198803,0.003867171239107847,-0.010293780826032162,0.005389664322137833,-0.0001252544898306951,0.005643639247864485
0.01161673478782177,0.00422137463465333,-0.009763372130692005,0.005697254091501236,-0.00012310982856433839,0.005482545588165522
0.012358203530311584,0.00461281044408679,-0.010677646845579147,0.00541698420420289,-0.00012103936751373112,0.005258540157228708
0.011651554144918919,0.004248646087944508,-0.009829296730458736,0.005864786449819803,-0.00011904176062671468,0.0052620964124798775
0.012158645316958427,0.003930922597646713,-0.010160746984183788,0.005544437561184168,-0.00011710305989254266,0.005435483064502478
0.012348871678113937,0.004353044088929892,-0.010047479532659054,0.005959837697446346,-0.00011523145076353103,0.005615623667836189
0.01202600821852684,0.004171533975750208,-0.009620435535907745,0.005479666404426098,-0.00011341382924001664,0.005199388600885868
0.012006277218461037,0.004395459778606892,-0.01003230456262827,0.005315794609487057,-0.00011165732576046139,0.004915771074593067
0.011596626602113247,0.004460770171135664,-0.010862959548830986,0.005058577284216881,-0.00010995171032845974,0.005098987370729446
0.011890982277691364,0.004611541051417589,-0.010374436154961586,0.005300427787005901,-0.00010833201667992398,0.005199653096497059
0.011772682890295982,0.0042799594812095165,-0.009499279782176018,0.006002899259328842,-9.887231863103807e-05,0.005577160976827145
0.011713995598256588,0.00453004939481616,-0.00988135114312172,0.005694607738405466,-9.629388659959659e-05,0.00542633468285203
0.011713995598256588,0.00453004939481616,-0.00988135114312172,0.005694607738405466,-9.629388659959659e-05,0.00542633468285203
0.01227148063480854,0.004733416251838207,-0.010261301882565022,0.005395412445068359,-9.424400923307985e-05,0.0052589732222259045
0.01216744165867567,0.004317532293498516,-0.010065212845802307,0.00526675209403038,-9.231126750819385e-05,0.005189930088818073
0.012294430285692215,0.004024201538413763,-0.01031425315886736,0.005503538064658642,-9.045504702953622e-05,0.005105501972138882
0.012123925611376762,0.004326171707361937,-0.01005169190466404,0.005441784858703613,-8.867322321748361e-05,0.005284298211336136
0.012591627426445484,0.004910728428512812,-0.010370226576924324,0.00579459173604846,-8.695969881955534e-05,0.0052835410460829735
0.01255795732140541,0.004411780741065741,-0.010004128329455853,0.005763464607298374,-8.53086676215753e-05,0.0050465743988752365
0.012168819084763527,0.0044818962924182415,-0.009560337290167809,0.0055828518234193325,-8.372365118702874e-05,0.004751675762236118
0.012434928677976131,0.004471162799745798,-0.01016596145927906,0.005717904306948185,-8.219462324632332e-05,0.004626837093383074
0.012420001439750195,0.004232841543853283,-0.01033040415495634,0.00590652646496892,-8.07201286079362e-05,0.004528134595602751
0.012617047876119614,0.004369645845144987,-0.009730807505548,0.005598880350589752,-7.929773710202426e-05,0.004436946939677
0.012408380396664143,0.004725783132016659,-0.010866639204323292,0.00557486480101943,-7.792452379362658e-05,0.004976162686944008
0.012534585781395435,0.004802859853953123,-0.010268399491906166,0.0054224589839577675,-7.659817492822185e-05,0.0054330104030668736
0.01240221131592989,0.004280871711671352,-0.010878599248826504,0.005752975586801767,-8.839221118250862e-05,0.0048419153317809105
0.012895626947283745,0.004763727076351643,-0.011306838132441044,0.006036600098013878,-8.741930651012808e-05,0.004812660627067089
0.012379909865558147,0.004338099621236324,-0.010181908495724201,0.005671719554811716,-8.605603215983137e-05,0.004710661247372627
0.012668082490563393,0.004906104877591133,-0.010835622437298298,0.005537196062505245,-8.47081610118039e-05,0.0045075323432683945
0.01234935037791729,0.004635491408407688,-0.010488788597285748,0.005742669105529785,-8.340000931639224e-05,0.004725868813693523
0.012908436357975006,0.004554229322820902,-0.009850251488387585,0.005978285800665617,-8.213149703806266e-05,0.004736383445560932
0.012275421060621738,0.004502510651946068,-0.010114905424416065,0.006016304716467857,-8.090101619018242e-05,0.004384811967611313
0.01281342189759016,0.004590727388858795,-0.009727982804179192,0.00572566781193018,-7.970689330250025e-05,0.00411591911688447
0.013398382812738419,0.004676923155784607,-0.01023331843316555,0.005595447029918432,-7.854753494029865e-05,0.00447139423340559
0.013125893659889698,0.004523755516856909,-0.011094611138105392,0.0053274016827344894,-7.742138404864818e-05,0.004578938242048025
0.01301626954227686,0.004725093487650156,-0.009814468212425709,0.0059989201836287975,-7.632705091964453e-05,0.004656402859836817
0.012550384737551212,0.004781162366271019,-0.010210632346570492,0.00613328255712986,-7.526322588091716e-05,0.0048888251185417175
0.012550384737551212,0.004781162366271019,-0.010210632346570492,0.00613328255712986,-7.526322588091716e-05,0.0048888251185417175
0.013678479939699173,0.004222019109874964,-0.010029444471001625,0.0060937050729990005,-7.422864291584119e-05,0.004625956993550062
0.012450004927814007,0.004385740030556917,-0.01029091514647007,0.005836309865117073,-8.461807010462508e-05,0.004361502826213837
0.01247475016862154,0.004522405564785004,-0.010590053163468838,0.00579344155266881,-8.423034159932286e-05,0.004080775659531355
0.012371553108096123,0.004705850034952164,-0.0102844825014472,0.006056752521544695,-8.316690218634903e-05,0.004225420765578747
0.01275158952921629,0.00476666446775198,-0.00992252305150032,0.006108646746724844,-8.20864734123461e-05,0.004556696861982346
0.012830913998186588,0.004830852150917053,-0.011126532219350338,0.006302348338067532,-8.10308993095532e-05,0.004728196654468775
0.013334982097148895,0.0047437045723199844,-0.010230925865471363,0.006269068922847509,-8.000197703950107e-05,0.00484406016767025
0.013131116516888142,0.004911802709102631,-0.009232563897967339,0.006019276566803455,-7.899876072769985e-05,0.004280963912606239
0.01280373614281416,0.004985211882740259,-0.010405730456113815,0.0061647058464586735,-7.802044274285436e-05,0.004075496457517147
0.013008585199713707,0.00487220985814929,-0.010061836801469326,0.006312704179435968,-7.706601900281385e-05,0.003944768104702234
0.012802580371499062,0.005215307231992483,-0.010000145062804222,0.006072174292057753,-8.149620407493785e-05,0.0039012739434838295
0.012936747632920742,0.00458061508834362,-0.009933355264365673,0.006290513556450605,-8.493433415424079e-05,0.0037747668102383614
0.013119405135512352,0.004542585462331772,-0.010545539669692516,0.006365624256432056,-8.396546036237851e-05,0.0037681846879422665
0.013248994015157223,0.004911745898425579,-0.010310132056474686,0.006531235761940479,-8.299900946440175e-05,0.0035413973964750767
0.012989274226129055,0.005014943424612284,-0.009736386127769947,0.006274095736443996,-8.205320773413405e-05,0.003566864412277937
0.013009262271225452,0.005357598420232534,-0.009811494499444962,0.006091861054301262,-8.11286226962693e-05,0.003920142538845539
0.014134716242551804,0.005107702687382698,-0.01073511317372322,0.005918827373534441,-8.022470865398645e-05,0.004039646591991186
0.012761876918375492,0.004794098436832428,-0.010183792561292648,0.006330452393740416,-4.0217746573034674e-05,0.0038921942468732595
0.012288549914956093,0.004553021863102913,-0.009957036934792995,0.006394637748599052,-2.6259315291099483e-06,0.0037098508328199387
0.013358358293771744,0.00480171712115407,-0.010165118612349033,0.006613235455006361,-1.7145455899481021e-07,0.0034273925703018904
0.013235392048954964,0.004859950393438339,-0.009811793453991413,0.0065692877396941185,-8.509546751156449e-05,0.0034886535722762346
0.01369054988026619,0.004842335823923349,-0.009714565239846706,0.00652247853577137,-8.992981747724116e-05,0.003923006355762482
0.012860914692282677,0.005062253680080175,-0.010169299319386482,0.006260572001338005,-8.858634100761265e-05,0.004041867796331644
0.013260828331112862,0.004888576455414295,-0.010115194134414196,0.00628176424652338,-8.690344111528248e-05,0.003816730808466673
0.013074961490929127,0.004228402394801378,-0.01048815343528986,0.006197000853717327,-8.52586526889354e-05,0.003450676565989852
0.013074961490929127,0.004228402394801378,-0.01048815343528986,0.006197000853717327,-8.52586526889354e-05,0.003450676565989852
0.013261927291750908,0.003914470784366131,-0.010019021108746529,0.006070069968700409,-8.367352711502463e-05,0.003470023162662983
0.01334051787853241,0.004336094483733177,-0.009695199318230152,0.006292549893260002,-9.433831291971728e-05,0.003282124176621437
0.013349856249988079,0.004467658698558807,-0.010195860639214516,0.006977468263357878,-9.653145389165729e-05,0.003502700012177229
0.013508858159184456,0.004735919646918774,-0.010249768383800983,0.00640933308750391,-9.50850298977457e-05,0.0037244120612740517
0.013161644339561462,0.004752521403133869,-0.009676622226834297,0.0060598780401051044,-9.345595026388764e-05,0.0038271076045930386
0.013543413020670414,0.004303911235183477,-0.010497194714844227,0.005889654625207186,-9.18670411920175e-05,0.003368652891367674
0.012752589769661427,0.004406933672726154,-0.010294560343027115,0.006152068264782429,-9.033045353135094e-05,0.0030033322982490063
0.013694108463823795,0.0044716433621943,-0.009850401431322098,0.0064165000803768635,-0.00010266854224028066,0.0029641904402524233
0.0133726941421628,0.0047285365872085094,-0.010942450724542141,0.006794977933168411,-0.00010190973989665508,0.0029347524978220463
0.013495382852852345,0.004816635046154261,-0.010005752556025982,0.00648631202057004,-0.00010034539445769042,0.003335755318403244
0.013238766230642796,0.004874661564826965,-0.009235105477273464,0.006398098077625036,-9.87759922281839e-05,0.00322318309918046
0.01323745958507061,0.0046737175434827805,-0.010649005882441998,0.006571218371391296,-0.00011022315447917208,0.0031439156737178564
0.01326696202158928,0.004403248894959688,-0.010188345797359943,0.006588849704712629,-0.00010939469939330593,0.003182264044880867
0.01328181941062212,0.004026974551379681,-0.008560961112380028,0.006763142067939043,-0.00010781198216136545,0.00319407950155437
0.01316286064684391,0.00463933777064085,-0.01014737319201231,0.0066382186487317085,-0.00021064345492050052,0.0026243352331221104
0.013560713268816471,0.004663808736950159,-0.010067061521112919,0.006794593296945095,-0.0002441777614876628,0.0025420296005904675
0.013388912193477154,0.004644033964723349,-0.009928567335009575,0.0065824007615447044,-0.000238798966165632,0.002685157349333167
0.01359561923891306,0.004547208081930876,-0.009596702642738819,0.006669086869806051,-0.000257231731666252,0.002865562681108713
0.013080300763249397,0.00407958310097456,-0.0102138826623559,0.006313067860901356,-0.0002556967083364725,0.0028865544591099024
0.013672047294676304,0.004320411942899227,-0.010880314745008945,0.006398860830813646,-0.00024628156097605824,0.00303271203301847
0.01323273777961731,0.004454885609447956,-0.010826707817614079,0.006373206153512001,-0.00023705099010840058,0.0028599489014595747
0.013799339532852173,0.004790833219885826,-0.010112863965332508,0.006592569872736931,-0.0002284560032421723,0.0025266828015446663
0.013522041961550713,0.004925452172756195,-0.010762117803096771,0.006636151112616062,-0.0002204610500484705,0.00250563258305192
0.013471796177327633,0.004824858158826828,-0.00985072273761034,0.006816923152655363,-0.00024137880245689303,0.0024810857139527798
0.0134741785004735,0.004260615445673466,-0.01019345037639141,0.007125135511159897,-0.000235338433412835,0.002585782203823328
0.013757510110735893,0.00423445925116539,-0.010359471663832664,0.006578114815056324,-0.00022800610167905688,0.0026795833837240934
0.013757510110735893,0.00423445925116539,-0.010359471663832664,0.006578114815056324,-0.00022800610167905688,0.0026795833837240934
0.013859007507562637,0.0046010976657271385,-0.009848112240433693,0.006192345637828112,-0.00022101437207311392,0.0026711567770689726
0.01361042633652687,0.004740172065794468,-0.011009320616722107,0.006306844297796488,-0.00021443197329062968,0.0024318781215697527
0.013467403128743172,0.004362329840660095,-0.010862226597964764,0.006553133949637413,-0.00020823022350668907,0.0022821524180471897
0.013404647819697857,0.0044842977076768875,-0.010020093061029911,0.006686394568532705,-0.0002023767592618242,0.002293121535331011
0.013697219081223011,0.004474961664527655,-0.010846486315131187,0.006745724473148584,-0.0001968435535673052,0.0022542946971952915
0.013434091582894325,0.004308707546442747,-0.010332340374588966,0.006593928672373295,-0.0001916051987791434,0.0024615416768938303
0.013769520446658134,0.004366395529359579,-0.009907246567308903,0.0064614503644406796,-0.00023132060596253723,0.0026732005644589663
0.013698326423764229,0.0041074021719396114,-0.010628997348248959,0.006628126837313175,-0.00022630671446677297,0.0026947660371661186
0.013827349990606308,0.0043975552543997765,-0.01106202695518732,0.006852741353213787,-0.00021588114032056183,0.0027576519642025232
0.013241159729659557,0.004306870512664318,-0.01166570745408535,0.00651850551366806,-0.0002261543704662472,0.0024419284891337156
0.013595625758171082,0.00453209737315774,-0.011136682704091072,0.006999336648732424,-0.00023502820113208145,0.002242318820208311
0.013542002066969872,0.004436108283698559,-0.010779854841530323,0.007695887237787247,-0.00022639671806246042,0.002029211726039648
0.01404624991118908,0.004126726184040308,-0.011324653401970863,0.00822093803435564,-0.0002173614630009979,0.001964518101885915
0.01376395858824253,0.003889242885634303,-0.011397375725209713,0.007909202016890049,-0.0002089546323986724,0.0020131291821599007
0.013754233717918396,0.004193546250462532,-0.010979369282722473,0.007469198666512966,-0.00020977786334697157,0.002303212648257613
0.013754233717918396,0.004193546250462532,-0.010979369282722473,0.007469198666512966,-0.00020977786334697157,0.002303212648257613
0.013465228490531445,0.004694629460573196,-0.010498262010514736,0.006931748706847429,-0.00021103139442857355,0.0020032902248203754
0.013769451528787613,0.004282716661691666,-0.011456618085503578,0.0072556957602500916,-0.00020425175898708403,0.0019094767048954964
0.013615388423204422,0.004084003157913685,-0.010927991941571236,0.0077115511521697044,-0.00019784120377153158,0.00180021021515131
0.01396041177213192,0.0037975013256073,-0.011011947877705097,0.0072158160619437695,-0.00019181700190529227,0.0018008805345743895
0.013893421739339828,0.003707681782543659,-0.010345909744501114,0.006884122733026743,-0.00020584434969350696,0.00210627936758101
0.013957716524600983,0.003856200724840164,-0.010146846994757652,0.006518818438053131,-0.00020618524285964668,0.0019482075003907084
0.014184882864356041,0.003988921642303467,-0.010697723366320133,0.006843688432127237,-0.0002008408191613853,0.002053310861811042
0.01409531943500042,0.004807780496776104,-0.010896135121583939,0.007756787817925215,-0.00019541611254680902,0.0018528731307014823
0.013651552610099316,0.004530707839876413,-0.011009860783815384,0.007486040238291025,-0.00019025422807317227,0.0017188858473673463
0.0140978479757905,0.004370091017335653,-0.011153241619467735,0.006869721692055464,-0.00021382499835453928,0.0017245982307940722
0.01408328115940094,0.0042434209026396275,-0.010346566326916218,0.006952031049877405,-0.00020825561659876257,0.00158438622020185
0.01408328115940094,0.0042434209026396275,-0.010346566326916218,0.006952031049877405,-0.00020825561659876257,0.00158438622020185
0.014118564315140247,0.004022752866148949,-0.010660465806722641,0.007838104851543903,-0.00021879907581023872,0.001477757003158331
0.01498019602149725,0.004139241762459278,-0.010755696333944798,0.007874490693211555,-0.00022772046213503927,0.0015105479396879673
0.014558546245098114,0.004065762739628553,-0.010548754595220089,0.007078684400767088,-0.00021964315965306014,0.001534852315671742
0.014445087872445583,0.0043587093241512775,-0.011147263459861279,0.006589238997548819,-0.00021113130787853152,0.0014809700660407543
0.014551999978721142,0.004621605854481459,-0.011125481687486172,0.007012957241386175,-0.00020319083705544472,0.0014412039890885353
0.014476696960628033,0.004400666803121567,-0.011095169000327587,0.007248816080391407,-0.00021180773910600692,0.0015156620647758245
0.015012314543128014,0.004049523267894983,-0.011105882003903389,0.0070494296960532665,-0.0002193756663473323,0.0015001731226220727
0.015213430859148502,0.0043451921083033085,-0.010224086232483387,0.007329175248742104,-0.00021293648751452565,0.001381728332489729
0.015123543329536915,0.004203134682029486,-0.010297021828591824,0.007483537308871746,-0.0002060364349745214,0.0012903070310130715
0.015061913058161736,0.003980568144470453,-0.010159791447222233,0.007337442599236965,-0.00021349191956687719,0.0012133404379710555
0.015709681436419487,0.003913506865501404,-0.009963905438780785,0.006059607490897179,-0.00022006846847943962,0.0011805990943685174
0.015245539136230946,0.003930287901312113,-0.010669793002307415,0.007386278826743364,-0.00021437174291349947,0.0010989838046953082
0.015285133384168148,0.004102272912859917,-0.010659783147275448,0.007565530017018318,-0.00020822780788876116,0.001150381052866578
0.015596684999763966,0.0037134469021111727,-0.010766127146780491,0.0069884564727544785,-0.0002704512153286487,0.0010407485533505678
0.01536728348582983,0.003638124791905284,-0.010747256688773632,0.007334267254918814,-0.00025640276726335287,0.001081885420717299
0.016047179698944092,0.003515177173539996,-0.010439339093863964,0.00805763527750969,-0.0002663206832949072,0.0009766209404915571
0.015266620554029942,0.0035725217312574387,-0.011150048114359379,0.0077962507493793964,-0.0002746711834333837,0.0008316910243593156
0.016140472143888474,0.003933091182261705,-0.010960504412651062,0.007717845495790243,-0.00030066919862292707,0.0009428625926375389
0.01604478247463703,0.003964514471590519,-0.011171296238899231,0.007680103182792664,-0.0003228672139812261,0.0008464035927318037
0.016072766855359077,0.003870233427733183,-0.011483821086585522,0.008087744936347008,-0.0003186205867677927,0.0007580871460959315
0.016127223148941994,0.0037792532239109278,-0.010998345911502838,0.007879132404923439,-0.0004177139198873192,0.0006858311826363206
0.016045017167925835,0.004174575209617615,-0.011228765361011028,0.008037440478801727,-0.00047798827290534973,0.0006261208327487111
0.01650264486670494,0.0040520732291042805,-0.01098477840423584,0.007998156361281872,-0.0005138076958246529,0.0005759827909059823
0.015869474038481712,0.004005733411759138,-0.010850452817976475,0.007599376142024994,-0.0005374795873649418,0.0005908274324610829
0.016327135264873505,0.0034684552811086178,-0.011296485550701618,0.007299935445189476,-0.0005125422612763941,0.0005579509306699038
0.01615430973470211,0.0041770292446017265,-0.010944305919110775,0.007379226386547089,-0.0005381847149692476,0.00048779984354041517
0.01615430973470211,0.0041770292446017265,-0.010944305919110775,0.007379226386547089,-0.0005381847149692476,0.00048779984354041517
0.016248730942606926,0.004221348557621241,-0.01145523227751255,0.007702220696955919,-0.000504639174323529,0.00041940645314753056
0.016210531815886497,0.003945087548345327,-0.011859062127768993,0.007698033004999161,-0.0006042532040737569,0.00044301082380115986
0.016093121841549873,0.00426601292565465,-0.010897769592702389,0.007422676309943199,-0.0006044174078851938,0.0004651564813684672
0.016176404431462288,0.004169155843555927,-0.011137351393699646,0.007873895578086376,-0.0005871869507245719,0.0004918870981782675
0.01593511365354061,0.0040022023022174835,-0.010787932202219963,0.008553734049201012,-0.0005751707358285785,0.00047683206503279507
0.016893211752176285,0.0038839613553136587,-0.011019257828593254,0.008296472020447254,-0.0005625641788356006,0.0005826274864375591
0.016565771773457527,0.0034196607302874327,-0.011375924572348595,0.008209330961108208,-0.0005187492934055626,0.000626452558208257
0.016564631834626198,0.004143383353948593,-0.01177859678864479,0.007828465662896633,-0.0004794092383235693,0.0005570383509621024
0.016524208709597588,0.0045266966335475445,-0.01245575025677681,0.007924314588308334,-0.00044549323501996696,0.0004960573860444129
0.016562283039093018,0.004387849010527134,-0.011974851600825787,0.0084761967882514,-0.00047133315820246935,0.00044676222023554146
0.0168159119784832,0.004023774992674589,-0.011421173810958862,0.008312229998409748,-0.00044574757339432836,0.0004063666856382042
0.016519900411367416,0.0038302310276776552,-0.011504081077873707,0.008381156250834465,-0.00041997319203801453,0.0003726760623976588
0.016971254721283913,0.004080434795469046,-0.011241275817155838,0.008749914355576038,-0.0003979746834374964,0.00034414889523759484
0.01702631078660488,0.004020816180855036,-0.011727950535714626,0.008389212191104889,-0.0003574277798179537,0.00031968086841516197
0.016746334731578827,0.0043711066246032715,-0.012190849520266056,0.008446043357253075,-0.00033056415850296617,0.0002984645252581686
0.016633834689855576,0.004325387999415398,-0.012008467689156532,0.008400171995162964,-0.0002881613909266889,0.00026349324616603553
0.016913898289203644,0.004216648638248444,-0.011434807442128658,0.008587460964918137,-0.00032120986725203693,0.00024891254724934697
0.01711573265492916,0.0040013850666582584,-0.012547478079795837,0.008899969980120659,-0.0003062732284888625,0.00023586067254655063
0.017562951892614365,0.003908669110387564,-0.010406481102108955,0.008766323328018188,-0.0002900316321756691,0.00022411045210901648
0.017525285482406616,0.0043108356185257435,-0.012332306243479252,0.00844946876168251,-0.00027525689802132547,0.00021347533038351685
0.017295438796281815,0.004197223577648401,-0.012279576621949673,0.008415594696998596,-0.00026190365315414965,0.00020380469504743814
0.017712298780679703,0.004046090878546238,-0.011941703036427498,0.008544916287064552,-0.000249785662163049,0.0001949720608536154
0.01677493378520012,0.004228647798299789,-0.012101588770747185,0.00819197203963995,-0.0002387395070400089,0.00018687373085413128
0.016687164083123207,0.004465907346457243,-0.012081613764166832,0.008236768655478954,-0.00025678612291812897,0.000179421273060143
0.016834767535328865,0.0042091417126357555,-0.012412875890731812,0.008449162356555462,-0.00025524836382828653,0.00017254042904824018
0.01721196621656418,0.003994406666606665,-0.012103298678994179,0.00864794198423624,-0.0002458647941239178,0.00016616810171399266
0.017561011016368866,0.00428374158218503,-0.01154374610632658,0.008373756892979145,-0.00023666518973186612,0.00013653755013365299
0.017561011016368866,0.00428374158218503,-0.01154374610632658,0.008373756892979145,-0.00023666518973186612,0.00013653755013365299
0.017041079699993134,0.004292508587241173,-0.01198774017393589,0.00798896886408329,-0.00022809820075053722,0.00012433533265721053
0.017308523878455162,0.004543262999504805,-0.011852587573230267,0.008219435811042786,-0.00022012664703652263,0.00011971082130912691
0.017321377992630005,0.004492823034524918,-0.012686358764767647,0.008191215805709362,-0.0002126942272298038,0.00011582663137232885
0.01734539121389389,0.00415483582764864,-0.012028909288346767,0.007584917824715376,-0.0002057475649053231,0.00011221374734304845
0.017978165298700333,0.004310935270041227,-0.012685286812484264,0.008072871714830399,-0.0002131985529558733,9.54731585807167e-05
0.01790679804980755,0.004206772428005934,-0.01223871111869812,0.008465642109513283,-0.00021977434516884387,8.01259302534163e-05
0.01759653352200985,0.00459450064226985,-0.012225054204463959,0.008175979368388653,-0.00021409406326711178,7.702183211222291e-05
0.017548756673932076,0.004757380113005638,-0.012686754576861858,0.008062765933573246,-0.00020796555327251554,-2.4895793103496544e-05
0.01736428774893284,0.004351331852376461,-0.012278757058084011,0.009043201804161072,-0.00020213004609104246,-5.563340164371766e-05
0.017662443220615387,0.004330312367528677,-0.012783730402588844,0.008233842439949512,-0.00019661082478705794,-8.030459139263257e-05
0.017612922936677933,0.004527394659817219,-0.012578936293721199,0.008019287139177322,-0.0001913840969791636,-8.136776887113228e-05
0.018172595649957657,0.004269755911082029,-0.012652771547436714,0.008590816520154476,-0.00018642807845026255,-0.0001038399786921218
0.01848238706588745,0.004535219166427851,-0.012274472042918205,0.009043504483997822,-0.00018172271666117013,-0.00012643533409573138
0.01794990710914135,0.004119722172617912,-0.012791166082024574,0.008470255881547928,-0.00015864557644817978,-0.000756049354095012
0.017759041860699654,0.0043192459270358086,-0.012883186340332031,0.008285551331937313,-0.00015094848640728742,-0.0008460468961857259
0.017799988389015198,0.004470612853765488,-0.012446502223610878,0.008730538189411163,-0.00014589863712899387,-0.0008157974807545543
0.018006471917033195,0.004876452963799238,-0.012754912488162518,0.008638521656394005,-0.00014130648924037814,-0.0007757498533464968
0.01774449460208416,0.003936036489903927,-0.012514892965555191,0.009218573570251465,-0.00013295510143507272,-0.001009673811495304
0.018269741907715797,0.004351833835244179,-0.012601233087480068,0.008727354928851128,-0.0001291394146392122,-0.0010579577647149563
0.018472038209438324,0.004175154957920313,-0.01290056761354208,0.00845069345086813,-0.00014413718599826097,-0.0010591652244329453
0.017732812091708183,0.004387264605611563,-0.013057777658104897,0.00833041500300169,-0.00014613008534070104,-0.0013990842271596193
0.018461236730217934,0.004198305308818817,-0.012638373300433159,0.008908226154744625,-0.00014265476784203202,-0.001434024889022112
0.018666692078113556,0.0042829676531255245,-0.012863853015005589,0.008651564829051495,-0.00013900735939387232,-0.0014930658508092165
0.01828586868941784,0.0040958113968372345,-0.012041646987199783,0.007978907786309719,-0.00013552010932471603,-0.0015845871530473232
0.018839318305253983,0.004349945578724146,-0.013087211176753044,0.00870500784367323,-0.00013220235996413976,-0.0015076767886057496
0.018637018278241158,0.004154234658926725,-0.01222673524171114,0.008969717659056187,-0.00014498781820293516,-0.0017169147031381726
0.018630698323249817,0.004442899953573942,-0.012509594671428204,0.008832935243844986,-0.00014667338109575212,-0.0018932014936581254
0.019227365031838417,0.004093415103852749,-0.012372718192636967,0.009253602474927902,-0.00014365921379067004,-0.002040358493104577
0.019227365031838417,0.004093415103852749,-0.012372718192636967,0.009253602474927902,-0.00014365921379067004,-0.002040358493104577
0.018860438838601112,0.004360870458185673,-0.012250479310750961,0.009683622978627682,-0.0001404772774549201,-0.0019432371482253075
0.018649453297257423,0.004238314460963011,-0.012699645012617111,0.00950414314866066,-0.00015446711040567607,-0.0019508936675265431
0.019268766045570374,0.0043161893263459206,-0.012195486575365067,0.010387632064521313,-0.0001535247138235718,-0.0020898187067359686
0.019134098663926125,0.0040280879475176334,-0.012724103406071663,0.010086942464113235,-0.00015046972839627415,-0.00211125984787941
0.01871095597743988,0.0037813428789377213,-0.012262193486094475,0.009635363705456257,-0.00014750813716091216,-0.002424933947622776
0.019177261739969254,0.004277592990547419,-0.012836014851927757,0.010343995876610279,-0.00020452120224945247,-0.0022713204380124807
0.01898578368127346,0.0041304645128548145,-0.011962269432842731,0.0099232979118824,-0.00019961255020461977,-0.0025783188175410032
0.018826737999916077,0.004372237715870142,-0.012192657217383385,0.009391956962645054,-0.00019139326468575746,-0.0023808602709323168
0.019267361611127853,0.0046714008785784245,-0.012368164025247097,0.009325596503913403,-0.00021782185649499297,-0.002293662168085575
0.019204437732696533,0.00446149380877614,-0.011912336573004723,0.009845246560871601,-0.00021152087720111012,-0.0022739653941243887
0.019349506124854088,0.004349838476628065,-0.013143641874194145,0.00974899809807539,-0.0002331236464669928,-0.0021205481607466936
0.01912636123597622,0.004120182245969772,-0.012233404442667961,0.009479175321757793,-0.00022871191322337836,-0.002243748167529702
0.01885082758963108,0.00434093875810504,-0.01267196424305439,0.008895643055438995,-0.00024833407951518893,-0.002308216644451022
0.01919446885585785,0.004043946973979473,-0.012288742698729038,0.008775736205279827,-0.0004359907179605216,-0.0023729815147817135
0.01965121366083622,0.0044339546002447605,-0.012406560592353344,0.00927512813359499,-0.00045417537330649793,-0.0032114533241838217
0.019191890954971313,0.0046745906583964825,-0.012769819237291813,0.01029319129884243,-0.0004935319302603602,-0.004299742169678211
0.01984378881752491,0.0045507983304560184,-0.01255094725638628,0.00952283013612032,-0.0004216710804030299,-0.00419799517840147
0.01981363445520401,0.004598280414938927,-0.012052055448293686,0.009756678715348244,-0.00039112826925702393,-0.0034713600762188435
0.01946694776415825,0.004414280876517296,-0.01227038074284792,0.009345498867332935,-0.0003646968398243189,-0.0033981376327574253
0.01971895806491375,0.004560318309813738,-0.012028473429381847,0.009147931821644306,-0.00038352026604115963,-0.0031240233220160007
0.019817138090729713,0.004295033868402243,-0.012385950423777103,0.009749646298587322,-0.0003738425439223647,-0.003425363916903734
0.020076539367437363,0.004389201756566763,-0.012785575352609158,0.00956533569842577,-0.00035370283876545727,-0.004143943544477224
0.02062055468559265,0.004521166905760765,-0.01223631203174591,0.009166494943201542,-0.00033494579838588834,-0.004055052064359188
0.02037317119538784,0.004173289053142071,-0.012741376645863056,0.009794957935810089,-0.0003180358908139169,-0.0038988005835562944
0.019774189218878746,0.00448598200455308,-0.01232956163585186,0.010027002543210983,-0.0003027475322596729,-0.00387594080530107
0.01973940245807171,0.004689163062721491,-0.012944438494741917,0.00960804708302021,-0.0002888625022023916,-0.00348462862893939
0.019998688250780106,0.004310576245188713,-0.012439578771591187,0.009668444283306599,-0.0002761952637229115,-0.003983811475336552
0.01972530223429203,0.004297696985304356,-0.01256414782255888,0.00931365042924881,-0.0002998162235599011,-0.004083873704075813
0.01972530223429203,0.004297696985304356,-0.01256414782255888,0.00931365042924881,-0.0002998162235599011,-0.004083873704075813
0.02024228498339653,0.004172508139163256,-0.013250129297375679,0.009120198898017406,-0.0002900329418480396,-0.003999732434749603
0.020467225462198257,0.0043976265005767345,-0.012962911278009415,0.009640881791710854,-0.00027894441154785454,-0.0038740294985473156
0.01997983083128929,0.004593388643115759,-0.011749610304832458,0.009994334541261196,-0.0002685489598661661,-0.003852332942187786
0.01995653659105301,0.0046831220388412476,-0.012984535656869411,0.009821501560509205,-0.00024609750835224986,-0.0038692066445946693
0.020872758701443672,0.004230692982673645,-0.01371748186647892,0.010300948284566402,-0.0002227738732472062,-0.004371748771518469
0.020665433257818222,0.003917277790606022,-0.012646710500121117,0.010256337933242321,-0.00021156814182177186,-0.00466043408960104
0.021684037521481514,0.004191217012703419,-0.012891372665762901,0.010233291424810886,-0.00020202000450808555,-0.004388970788568258
0.020523864775896072,0.004512334708124399,-0.012675889767706394,0.010178478434681892,-0.00019333498494233936,-0.004036360420286655
0.01999778486788273,0.0041847024112939835,-0.012796272523701191,0.010293802246451378,-0.0002199178998125717,-0.00417608767747879
0.020537909120321274,0.004476808477193117,-0.012801405042409897,0.010469918139278889,-0.00021347639267332852,-0.004539139568805695
0.020651457831263542,0.00463787280023098,-0.012601526454091072,0.010661221109330654,-0.0002054978540400043,-0.004725418984889984
0.02167259342968464,0.004265643190592527,-0.01301716547459364,0.009949459694325924,-0.00019797250570263714,-0.0047743069007992744
0.021553540602326393,0.003975693602114916,-0.012219583615660667,0.009989275597035885,-0.00019097095355391502,-0.004669844638556242
0.020748209208250046,0.004242907278239727,-0.013206924311816692,0.01036579068750143,-0.00019951301510445774,-0.004704451188445091
0.021306313574314117,0.00449871551245451,-0.012948418967425823,0.009982137009501457,-0.00020705675706267357,-0.005145906005054712
0.021490195766091347,0.004146121442317963,-0.013210359960794449,0.009997816756367683,-0.0002013593475567177,-0.005195083096623421
0.021176906302571297,0.003997187130153179,-0.013092076405882835,0.011056255549192429,-0.00019518108456395566,-0.004912056028842926
0.021519066765904427,0.004503429401665926,-0.013795968145132065,0.01015652995556593,-0.00018931913655251265,-0.005077708046883345
0.021246396005153656,0.004194044973701239,-0.013177112676203251,0.010020175948739052,-0.00020658437279053032,-0.004935982637107372
0.021557170897722244,0.004217271693050861,-0.013572431169450283,0.009646555408835411,-0.00019845609494950622,-0.005335930734872818
0.021271580830216408,0.0040427385829389095,-0.013134158216416836,0.010096363723278046,-0.00023380386119242758,-0.005034708883613348
0.02098521776497364,0.0038661241997033358,-0.013538222759962082,0.01017165556550026,-0.00023519170645158738,-0.005218942184001207
0.02093985117971897,0.004051224794238806,-0.013170693069696426,0.009846960194408894,-0.00022435362916439772,-0.00520941149443388
0.021150801330804825,0.0041633122600615025,-0.01379042211920023,0.00993033405393362,-0.0002507762110326439,-0.005322502460330725
0.02130725607275963,0.004399857483804226,-0.013264382258057594,0.010258940979838371,-0.00024449799093417823,-0.005472010467201471
0.02154974639415741,0.004459822550415993,-0.014058955945074558,0.010087791830301285,-0.0002533092920202762,-0.005158443469554186
0.021756334230303764,0.004248012788593769,-0.013490963727235794,0.010646793991327286,-0.00026061967946588993,-0.005062842275947332
0.021703200414776802,0.00442569050937891,-0.013983543962240219,0.01011950708925724,-0.00025138226919807494,-0.0049433596432209015
0.02129201404750347,0.004145507235080004,-0.013085700571537018,0.01043729018419981,-0.00024180782202165574,-0.005226184614002705
0.02129201404750347,0.004145507235080004,-0.013085700571537018,0.01043729018419981,-0.00024180782202165574,-0.005226184614002705
0.021968737244606018,0.003907687962055206,-0.013679618015885353,0.010289598256349564,-0.0002638848964124918,-0.005106162279844284
0.021968752145767212,0.004063928499817848,-0.013606829568743706,0.010150184854865074,-0.0002565052709542215,-0.004991177935153246
0.02169877663254738,0.004791890736669302,-0.014465180225670338,0.010220793075859547,-0.00024780823150649667,-0.005177758634090424
0.021667955443263054,0.0043123625218868256,-0.013790717348456383,0.010352925397455692,-0.00023993325885385275,-0.005243001971393824
0.022085392847657204,0.004412543028593063,-0.014024629257619381,0.010445416904985905,-0.00033158157020807266,-0.005033424589782953
0.022149892523884773,0.0041951644234359264,-0.01425399724394083,0.010084987618029118,-0.0003154909354634583,-0.005465017631649971
0.0221759844571352,0.003978317137807608,-0.01460357941687107,0.010579529218375683,-0.0002952498907689005,-0.00563576677814126
0.021990006789565086,0.0038822952192276716,-0.013884459622204304,0.01013422291725874,-0.0003178959887009114,-0.006138127762824297
0.021936697885394096,0.00429440476000309,-0.014129559509456158,0.01032001432031393,-0.00031226137070916593,-0.005818538833409548
0.0220049936324358,0.004271440673619509,-0.013842358253896236,0.010711162351071835,-0.00029597533284686506,-0.005797026213258505
0.022316940128803253,0.004307472612708807,-0.014305820688605309,0.010587066411972046,-0.0003241936501581222,-0.0059583173133432865
0.022825732827186584,0.0040051294490695,-0.014321324415504932,0.010886788368225098,-0.00031102797947824,-0.005965683609247208
0.022458411753177643,0.004271405283361673,-0.014830444939434528,0.010768911801278591,-0.00029656884726136923,-0.00654353853315115
0.022397371008992195,0.004074702039361,-0.014305039308965206,0.010842148214578629,-0.00032094097696244717,-0.006274397484958172
0.021795829758048058,0.003926280420273542,-0.014007923193275928,0.011229215189814568,-0.00030959717696532607,-0.006080481689423323
0.022049587219953537,0.004250562284141779,-0.014760890044271946,0.010144075378775597,-0.0003500398888718337,-0.006328584160655737
0.022429324686527252,0.0045322515070438385,-0.014608446508646011,0.010616835206747055,-0.00035700120497494936,-0.006372478790581226
0.022422175854444504,0.004291085992008448,-0.014963162131607533,0.01028602384030819,-0.000362021557521075,-0.005882997531443834
0.022371144965291023,0.004199399147182703,-0.014685596339404583,0.010291281156241894,-0.0003410447097849101,-0.005831331480294466
0.022471219301223755,0.003934284672141075,-0.01496844831854105,0.01005325186997652,-0.0003671446174848825,-0.006133797112852335
0.022745205089449883,0.003687953809276223,-0.014932261779904366,0.009900382719933987,-0.00035290420055389404,-0.006154258735477924
0.022342661395668983,0.0036809544544667006,-0.015251853503286839,0.010533341206610203,-0.0003759379906114191,-0.006204255856573582
0.022617772221565247,0.0043072449043393135,-0.01507141999900341,0.010341356508433819,-0.0003626876568887383,-0.006205465644598007
0.022031595930457115,0.004608768969774246,-0.01500575803220272,0.010206611827015877,-0.00034564349334686995,-0.006589149124920368
0.0218027513474226,0.004404720850288868,-0.01442427933216095,0.010976205579936504,-0.0003743516281247139,-0.006757752504199743
0.022101199254393578,0.004109070636332035,-0.015215713530778885,0.01075477059930563,-0.000384926883270964,-0.006754271686077118
0.02185612916946411,0.003953847102820873,-0.015062238089740276,0.010712556540966034,-0.0003571519919205457,-0.00624390272423625
0.02301514521241188,0.0043024467304348946,-0.01591077446937561,0.011289224028587341,-0.0003796858654823154,-0.006423428654670715
0.023058122023940086,0.0041932715103030205,-0.014575316570699215,0.010588367469608784,-0.0003688767028506845,-0.0067768036387860775
0.023058122023940086,0.0041932715103030205,-0.014575316570699215,0.010588367469608784,-0.0003688767028506845,-0.0067768036387860775
0.022604219615459442,0.004295602440834045,-0.014587923884391785,0.0107236597687006,-0.00038868316914886236,-0.0066370172426104546
0.022304948419332504,0.004645706154406071,-0.014386423863470554,0.011510947719216347,-0.00037863836041651666,-0.0068351454101502895
0.0227627232670784,0.004680799786001444,-0.0142140444368124,0.011118898168206215,-0.0003829032357316464,-0.00668472982943058
0.023060869425535202,0.0043883188627660275,-0.015140757896006107,0.011164018884301186,-0.00038547234726138413,-0.006949266418814659
0.023069089278578758,0.00452346121892333,-0.015911048278212547,0.011530262418091297,-0.0003692745231091976,-0.006976000033318996
0.02305014058947563,0.0042542144656181335,-0.014643301256000996,0.011285172775387764,-0.00043382163858041167,-0.0074003273621201515
0.02350427396595478,0.004004036542028189,-0.014761674217879772,0.011678650975227356,-0.00044048629933968186,-0.007441064342856407
0.02367531694471836,0.004019145853817463,-0.014959599822759628,0.011450918391346931,-0.00044022142537869513,-0.007587046828120947
0.023514211177825928,0.004137334413826466,-0.015598752535879612,0.011713594198226929,-0.00046806252794340253,-0.007013820111751556
0.02300647646188736,0.004550160374492407,-0.015145227313041687,0.011139255948364735,-0.0004432879213709384,-0.007136236410588026
0.023435838520526886,0.0046713282354176044,-0.01521968375891447,0.010899008251726627,-0.00045821661478839815,-0.007294205017387867
0.02384280040860176,0.004392922390252352,-0.015433977358043194,0.011521894484758377,-0.0005427826545201242,-0.007245050743222237
0.02384280040860176,0.004392922390252352,-0.015433977358043194,0.011521894484758377,-0.0005427826545201242,-0.007245050743222237
0.023796821013092995,0.0035062627866864204,-0.01534716784954071,0.012140614911913872,-0.0005395480548031628,-0.007316578645259142
0.023690253496170044,0.0040674032643437386,-0.015533962287008762,0.01182423997670412,-0.0005533611983992159,-0.006936101242899895
0.023666270077228546,0.0041716983541846275,-0.015217599458992481,0.01226852461695671,-0.0005259208264760673,-0.007247420027852058
0.023940520361065865,0.004196894820779562,-0.01574031449854374,0.012208929285407066,-0.000551101635210216,-0.007817123085260391
0.023873882368206978,0.004263570997864008,-0.015047911554574966,0.012082339264452457,-0.0005184764740988612,-0.007877949625253677
0.02393997274339199,0.004430060274899006,-0.01563199982047081,0.011970898136496544,-0.0005735438317060471,-0.007998456247150898
0.02402721531689167,0.004050693474709988,-0.015066848136484623,0.012488726526498795,-0.0006113798008300364,-0.008322249166667461
0.02388249710202217,0.003884506644681096,-0.015280845575034618,0.012109315022826195,-0.0006228859419934452,-0.008236686699092388
0.024019984528422356,0.0038579029496759176,-0.015027916990220547,0.012075355276465416,-0.0005861370591446757,-0.0084923654794693
0.024060560390353203,0.004411737900227308,-0.015307553112506866,0.012477327138185501,-0.0005374745815061033,-0.008489293977618217
0.02377285435795784,0.004548604134470224,-0.014809707179665565,0.012346506118774414,-0.000547202886082232,-0.008379491977393627
0.023885799571871758,0.004516260232776403,-0.014957718551158905,0.012658217921853065,-0.0005235193530097604,-0.008076664060354233
0.02453448809683323,0.004462146665900946,-0.01584145799279213,0.012161497958004475,-0.0004890006384812295,-0.007992275059223175
0.02453448809683323,0.004462146665900946,-0.01584145799279213,0.012161497958004475,-0.0004890006384812295,-0.007992275059223175
0.02494843117892742,0.0040045022033154964,-0.015861622989177704,0.011797388084232807,-0.0004597733495756984,-0.00798827689141035
0.024645745754241943,0.004206569865345955,-0.015567116439342499,0.012107854709029198,-0.00045265714288689196,-0.008133498951792717
0.02481270395219326,0.004093577619642019,-0.014897276647388935,0.011362075805664062,-0.00041358653106726706,-0.007791591342538595
0.024073069915175438,0.004008925054222345,-0.01546519435942173,0.011782804504036903,-0.00044927303679287434,-0.006883864291012287
0.024679046124219894,0.0038835029117763042,-0.015172147192060947,0.01184166967868805,-0.00045284503721632063,-0.0070932903327047825
0.025193164125084877,0.00444800453260541,-0.015877103433012962,0.012420108541846275,-0.0004515784967225045,-0.007307545281946659
0.025015274062752724,0.0046778516843914986,-0.015650495886802673,0.012436146847903728,-0.0004677629331126809,-0.007477830164134502
0.024664051830768585,0.004162827972322702,-0.016365984454751015,0.011963531374931335,-0.00045236782170832157,-0.007455545011907816
0.025201428681612015,0.003790953429415822,-0.015752330422401428,0.012206842191517353,-0.0005289263790473342,-0.008177235722541809
0.025934843346476555,0.0038181717973202467,-0.015847178176045418,0.01199125312268734,-0.0005793226882815361,-0.008417866192758083
0.025341110303997993,0.003899144474416971,-0.016255049034953117,0.012221953831613064,-0.0005740373744629323,-0.008047863841056824
0.024964259937405586,0.003813730552792549,-0.016388727352023125,0.012102670036256313,-0.0005307634128257632,-0.008087804540991783
0.02519606053829193,0.004799695685505867,-0.0159038957208395,0.012789355590939522,-0.0005501746782101691,-0.008131274953484535
0.02597717009484768,0.004977285396307707,-0.016230609267950058,0.01233192440122366,-0.000518757151439786,-0.008159994147717953
0.025754669681191444,0.004361907485872507,-0.01583314873278141,0.012736937031149864,-0.0005783223896287382,-0.007855525240302086
0.025584951043128967,0.0035419114865362644,-0.016466962173581123,0.012122329324483871,-0.0005941713461652398,-0.007600265555083752
0.02536385878920555,0.0035969659220427275,-0.016395006328821182,0.012318332679569721,-0.0005791002768091857,-0.007885763421654701
0.026084143668413162,0.004169832915067673,-0.016572266817092896,0.01199934259057045,-0.0005680853500962257,-0.008185794577002525
0.02618533931672573,0.004294358193874359,-0.0165081936866045,0.011714582331478596,-0.0005562452715821564,-0.008305956609547138
0.026469068601727486,0.004060886800289154,-0.016436530277132988,0.011897802352905273,-0.000576671096496284,-0.008344121277332306
0.026469068601727486,0.004060886800289154,-0.016436530277132988,0.011897802352905273,-0.000576671096496284,-0.008344121277332306
0.026100488379597664,0.004016373306512833,-0.016989855095744133,0.011607101187109947,-0.0005420115776360035,-0.00818163063377142
0.026014016941189766,0.003945562057197094,-0.01711134798824787,0.012721963226795197,-0.000594509590882808,-0.008339275605976582
0.026160620152950287,0.0037983909714967012,-0.01726667582988739,0.013144651427865028,-0.0006176156457513571,-0.008800873532891273
0.02637540176510811,0.0037019778974354267,-0.017015865072607994,0.013553987257182598,-0.0005766642861999571,-0.008842981420457363
0.026196645572781563,0.003522291546687484,-0.016715647652745247,0.013481741771101952,-0.0006032492965459824,-0.008958345279097557
0.026041584089398384,0.0037720813415944576,-0.01733533851802349,0.013193031772971153,-0.0006135735311545432,-0.008653667755424976
0.026099644601345062,0.0038207811303436756,-0.016615116968750954,0.012772430665791035,-0.000582262349780649,-0.008975479751825333
0.026249079033732414,0.003770957002416253,-0.017062313854694366,0.01270399708300829,-0.0006670625880360603,-0.009764958173036575
0.026127243414521217,0.0037801165599375963,-0.017194747924804688,0.01304315309971571,-0.0006567184464074671,-0.009181005880236626
0.0263400599360466,0.0036329987924546003,-0.016476109623908997,0.01267625205218792,-0.0006319706444628537,-0.009039008058607578
0.026487331837415695,0.0035430246498435736,-0.018055344000458717,0.01339622214436531,-0.0006380001432262361,-0.008720901794731617
0.026660356670618057,0.0036035773809999228,-0.01682695746421814,0.013004877604544163,-0.0005988017073832452,-0.008820808492600918
0.026775674894452095,0.0038741491734981537,-0.016840623691678047,0.013067744672298431,-0.0006155503797344863,-0.009178759530186653
0.02656630054116249,0.003654075087979436,-0.017090708017349243,0.013163959607481956,-0.000575577316340059,-0.008884775452315807
0.027023131027817726,0.003521108301356435,-0.01770087145268917,0.01295904628932476,-0.000576354912482202,-0.009145143441855907
0.026220394298434258,0.0037022829055786133,-0.017075955867767334,0.013088246807456017,-0.0006079740123823285,-0.00878972839564085
0.027433233335614204,0.004159861244261265,-0.017551006749272346,0.012427995912730694,-0.0006281603127717972,-0.009506537578999996
0.0272640660405159,0.003970998805016279,-0.017037803307175636,0.012877319939434528,-0.000614079472143203,-0.00977942906320095
0.026790009811520576,0.00375863048247993,-0.01685478910803795,0.013289681635797024,-0.0007396160508506,-0.009479101747274399
0.024133777245879173,0.0037519701290875673,-0.017287563532590866,0.012941011227667332,-0.0007863807259127498,-0.009441028349101543
0.027150800451636314,0.004243841394782066,-0.01702689565718174,0.013230493292212486,-0.0008030964527279139,-0.010030403733253479
0.027597701177001,0.004108849912881851,-0.017570925876498222,0.012973268516361713,-0.0007376535795629025,-0.009793708100914955
0.02654513344168663,0.003965290263295174,-0.016773680225014687,0.013339725323021412,-0.0007495923200622201,-0.009437584318220615
0.02752181887626648,0.0043342565186321735,-0.01696990802884102,0.013572289608418941,-0.0007876125164330006,-0.01037663035094738
0.02752181887626648,0.0043342565186321735,-0.01696990802884102,0.013572289608418941,-0.0007876125164330006,-0.01037663035094738
0.027617553249001503,0.004335763864219189,-0.017552100121974945,0.013387627899646759,-0.0008066103328019381,-0.010052085854113102
0.027605080977082253,0.004052461590617895,-0.016871171072125435,0.013277392834424973,-0.0008194880210794508,-0.009827729314565659
0.02766875922679901,0.0038618610706180334,-0.01703621819615364,0.013102305121719837,-0.0008023715345188975,-0.009910721331834793
0.026375658810138702,0.003785738255828619,-0.01671604998409748,0.013147401623427868,-0.0007649205508641899,-0.010450371541082859
0.026468604803085327,0.004270134028047323,-0.017077190801501274,0.013092520646750927,-0.0008179391734302044,-0.010270609520375729
0.02760184183716774,0.004132377449423075,-0.01719198189675808,0.013736304827034473,-0.0007110884180292487,-0.010598288848996162
0.027740690857172012,0.003941848408430815,-0.01667901873588562,0.013087992556393147,-0.0007288149208761752,-0.010191843844950199
0.027441971004009247,0.0038478586357086897,-0.017246663570404053,0.013431958854198456,-0.0006486412021331489,-0.01009081769734621
0.026827504858374596,0.003900463692843914,-0.01663343794643879,0.013241351582109928,-0.0006257997010834515,-0.010540381073951721
0.02716020867228508,0.003984817303717136,-0.016985613852739334,0.01357225701212883,-0.0006071387906558812,-0.010812577791512012
0.02765495516359806,0.0040101599879562855,-0.017091164365410805,0.013493134640157223,-0.0005562219303101301,-0.010490666143596172
0.027155697345733643,0.003770923474803567,-0.01676279865205288,0.01330548245459795,-0.0005647987127304077,-0.010584092698991299
0.02720971405506134,0.003464456181973219,-0.017214851453900337,0.013732841238379478,-0.0005391096347011626,-0.009935886599123478
0.027593150734901428,0.0036609042435884476,-0.016561191529035568,0.014000331982970238,-0.0005025446880608797,-0.010256285779178143
0.027569886296987534,0.00396638922393322,-0.01714967004954815,0.014303525909781456,-0.00047297117998823524,-0.010883789509534836
0.027944060042500496,0.00395830487832427,-0.01645665057003498,0.014485588297247887,-0.00038783164927735925,-0.010544850490987301
0.027951568365097046,0.004363018553704023,-0.016885634511709213,0.014462674036622047,-0.00038863674853928387,-0.01051134429872036
0.027630401775240898,0.004019919782876968,-0.017117254436016083,0.014375085942447186,-0.00039667723467573524,-0.010721811093389988
0.027696173638105392,0.003886349033564329,-0.017773674800992012,0.013739723712205887,-0.0003989606339018792,-0.011301819235086441
0.027785681188106537,0.004260324407368898,-0.0170243252068758,0.013941309414803982,-0.0004165500868111849,-0.011310012079775333
0.028000233694911003,0.004333668854087591,-0.01715015061199665,0.014203342609107494,-0.00040559787885285914,-0.011509241536259651
0.02848171442747116,0.004066286608576775,-0.017350008711218834,0.014273188076913357,-0.00038473703898489475,-0.011606578715145588
0.027966409921646118,0.0038948419969528913,-0.016649486497044563,0.01458215992897749,-0.00046323571586981416,-0.011279339902102947
0.028170686215162277,0.003887793282046914,-0.01736101135611534,0.01458821538835764,-0.00045002545812167227,-0.011875931173563004
0.02876049280166626,0.0038303181063383818,-0.017088253051042557,0.014424529857933521,-0.00041105214040726423,-0.011484596878290176
0.02854003570973873,0.004268030170351267,-0.01780668832361698,0.014296742156147957,-0.00044672450167126954,-0.011247256770730019
0.028583956882357597,0.004139502067118883,-0.01761592924594879,0.01467499416321516,-0.0004167984297964722,-0.011559336446225643
0.028583956882357597,0.004139502067118883,-0.01761592924594879,0.01467499416321516,-0.0004167984297964722,-0.011559336446225643
0.028820084407925606,0.004066666588187218,-0.016825351864099503,0.01488030981272459,-0.00041850065463222563,-0.011429212987422943
0.028914373368024826,0.0040223426185548306,-0.017804505303502083,0.01481532584875822,-0.00041933415923267603,-0.011282036080956459
0.027852455154061317,0.003959290683269501,-0.017975276336073875,0.015175696462392807,-0.00044370221439749,-0.011572311632335186
0.02866433374583721,0.004168161656707525,-0.018270162865519524,0.014261800795793533,-0.00042613898403942585,-0.011357007548213005
0.029462648555636406,0.004263618960976601,-0.017815398052334785,0.014533821493387222,-0.00047250092029571533,-0.011751077137887478
0.029194826260209084,0.004359154496341944,-0.017012735828757286,0.01506015844643116,-0.0005134182283654809,-0.011411433108150959
0.02937874011695385,0.004553616978228092,-0.018159039318561554,0.015061614103615284,-0.000542090623639524,-0.011247408576309681
0.028475912287831306,0.004620166029781103,-0.018019964918494225,0.013858062215149403,-0.0005706684314645827,-0.011493174359202385
0.028365246951580048,0.004404579754918814,-0.017400339245796204,0.013959518633782864,-0.0005417315405793488,-0.011545747518539429
0.02909221686422825,0.004469410050660372,-0.01775318570435047,0.014274178072810173,-0.0007420608890242875,-0.011587217450141907
0.029104232788085938,0.00450722873210907,-0.01807195506989956,0.014864595606923103,-0.0007743500755168498,-0.011433876119554043
0.029141182079911232,0.0041223857551813126,-0.017603404819965363,0.015382706187665462,-0.0006851062644273043,-0.011591535061597824
0.030654165893793106,0.004295902792364359,-0.0184185653924942,0.01508068572729826,-0.0006823039730079472,-0.011650869622826576
0.030001631006598473,0.004213960375636816,-0.01777997985482216,0.015062733553349972,-0.0006360298721119761,-0.011651943437755108
0.029481500387191772,0.004479971248656511,-0.018054408952593803,0.014576992020010948,-0.0006557803135365248,-0.011582029983401299
0.02876329980790615,0.004238540772348642,-0.017807751893997192,0.015119231306016445,-0.0006204626406542957,-0.011475317180156708
0.028765229508280754,0.004215276800096035,-0.017347533255815506,0.014759254641830921,-0.0005638595321215689,-0.011669199913740158
0.029654329642653465,0.003872091881930828,-0.017757883295416832,0.014378105290234089,-0.0005356021574698389,-0.011527828872203827
0.0293826162815094,0.004278285428881645,-0.017867999151349068,0.014708160422742367,-0.0005318302428349853,-0.013249309733510017
0.029138486832380295,0.00450970558449626,-0.017986908555030823,0.014709843322634697,-0.0005238431040197611,-0.011636367999017239
0.02958718314766884,0.004702538717538118,-0.01756659522652626,0.015304754488170147,-0.0005457033985294402,-0.011461567133665085
0.029325032606720924,0.004285077564418316,-0.01805233024060726,0.01464805006980896,-0.0005729234544560313,-0.011502648703753948
0.02926674857735634,0.004187034443020821,-0.017910519614815712,0.01501498557627201,-0.00064042245503515,-0.011250326409935951
0.02933570183813572,0.004064273554831743,-0.01781369000673294,0.014366119168698788,-0.000646174477878958,-0.01158993225544691
0.029104411602020264,0.0044113402254879475,-0.01827768236398697,0.014942234382033348,-0.0006701220409013331,-0.01155006606131792
0.02943718247115612,0.004604407586157322,-0.01768290251493454,0.01429038681089878,-0.0006514927954412997,-0.011299464851617813
0.02943718247115612,0.004604407586157322,-0.01768290251493454,0.01429038681089878,-0.0006514927954412997,-0.011299464851617813
0.029302209615707397,0.004721006378531456,-0.01794923096895218,0.014965591952204704,-0.0008220029412768781,-0.011835707351565361
0.029723305255174637,0.004452425520867109,-0.018202543258666992,0.014338488690555096,-0.0008600006112828851,-0.011909350752830505
0.029514998197555542,0.004421329591423273,-0.01783301867544651,0.014568398706614971,-0.0008671507821418345,-0.012027900665998459
0.029513921588659286,0.00428198603913188,-0.018140370026230812,0.013927959837019444,-0.0008637235150672495,-0.011958989314734936
0.030505672097206116,0.004290508572012186,-0.01787509396672249,0.014658394269645214,-0.0009008171036839485,-0.011943352408707142
0.02992011047899723,0.004583172500133514,-0.0180869922041893,0.014685111120343208,-0.0007907445542514324,-0.011907423846423626
0.029268337413668633,0.004723419435322285,-0.018650591373443604,0.01497543603181839,-0.0007995918858796358,-0.011859032325446606
0.02957851067185402,0.004658299032598734,-0.017999771982431412,0.0144112017005682,-0.000812100654002279,-0.012041927315294743
0.02978692203760147,0.00478945579379797,-0.01830887980759144,0.014504016377031803,-0.0008016485953703523,-0.011700925417244434
0.0312589555978775,0.004732715431600809,-0.01861388050019741,0.014516117982566357,-0.0007425322546623647,-0.011983861215412617
0.031179042533040047,0.004611627664417028,-0.01822461187839508,0.015344773419201374,-0.0007112511666491628,-0.012333582155406475
0.030136529356241226,0.004262167494744062,-0.018743867054581642,0.015228393487632275,-0.0006220302311703563,-0.012020310387015343
0.029505126178264618,0.004318071994930506,-0.018532251939177513,0.015340760350227356,-0.0006406944594345987,-0.012223568744957447
0.03041437827050686,0.004631444346159697,-0.018066758289933205,0.015359773300588131,-0.0005840288940817118,-0.011912903748452663
0.030390428379178047,0.0048003410920500755,-0.018813807517290115,0.015316646546125412,-0.0006034084944985807,-0.011842289008200169
0.030610008165240288,0.004807593300938606,-0.018686503171920776,0.015756482258439064,-0.0005600483273155987,-0.011703044176101685
0.031152701005339622,0.004341897554695606,-0.01834874600172043,0.015665892511606216,-0.0005504984874278307,-0.01180632971227169
0.03094477392733097,0.00397910363972187,-0.018511949107050896,0.01601734198629856,-0.0005415364867076278,-0.012428897432982922
0.029895711690187454,0.004184653516858816,-0.01866268552839756,0.01587495766580105,-0.00046665259287692606,-0.012220017611980438
0.030407991260290146,0.004428062587976456,-0.018956124782562256,0.01524420641362667,-0.0004852586716879159,-0.012434272095561028
0.031317587941884995,0.004641833249479532,-0.018294641748070717,0.015702540054917336,-0.0004627979069482535,-0.012100918218493462
0.030914179980754852,0.004677502904087305,-0.018418433144688606,0.01556067168712616,-0.0004888554103672504,-0.011487090028822422
0.030964331701397896,0.004163306672126055,-0.018983762711286545,0.01607608050107956,-0.0004614795616362244,-0.011086128652095795
0.03120829351246357,0.004135944880545139,-0.018582448363304138,0.016043448820710182,-0.0004603482084348798,-0.011607160791754723
0.03118239715695381,0.004066586494445801,-0.01915166713297367,0.015896713361144066,-0.0004584691778291017,-0.011758471839129925
0.03130485862493515,0.004820072557777166,-0.018912484869360924,0.016281818971037865,-0.0005220927996560931,-0.011728872545063496
0.030750298872590065,0.004933374468237162,-0.018733451142907143,0.015980781987309456,-0.0004960726364515722,-0.01211445964872837
0.031943630427122116,0.00476829195395112,-0.019446974620223045,0.015926243737339973,-0.0005258546443656087,-0.012334875762462616
0.032110001891851425,0.004547464195638895,-0.019479816779494286,0.015515525825321674,-0.0004888232797384262,-0.012176129966974258
0.03165704756975174,0.004395782947540283,-0.018795369192957878,0.01590793766081333,-0.0004488480626605451,-0.01203814148902893
0.03165704756975174,0.004395782947540283,-0.018795369192957878,0.01590793766081333,-0.0004488480626605451,-0.01203814148902893
0.03142709285020828,0.0044257789850234985,-0.01986945979297161,0.015482387505471706,-0.0004786037898156792,-0.01235592644661665
0.03169222176074982,0.004331471398472786,-0.019997647032141685,0.016135798767209053,-0.00047980897943489254,-0.012343729846179485
0.0318257175385952,0.004062220454216003,-0.01900939829647541,0.01584508642554283,-0.0004768124199472368,-0.012243261560797691
0.032225269824266434,0.004381424281746149,-0.019090574234724045,0.016048986464738846,-0.0004507008125074208,-0.012293150648474693
0.03238559886813164,0.004249126184731722,-0.01987391710281372,0.015453599393367767,-0.0005125429597683251,-0.01235922146588564
0.03229868412017822,0.004378386773169041,-0.019602110609412193,0.015261869877576828,-0.0005162300076335669,-0.012428030371665955
0.03229868412017822,0.004378386773169041,-0.019602110609412193,0.015261869877576828,-0.0005162300076335669,-0.012428030371665955
0.03222918137907982,0.004137750249356031,-0.01977493241429329,0.015267753042280674,-0.0005100601119920611,-0.012749215587973595
0.032527483999729156,0.004440282937139273,-0.019740713760256767,0.01590535417199135,-0.0005237445584498346,-0.012353953905403614
0.032426416873931885,0.004581470042467117,-0.019407611340284348,0.015743663534522057,-0.0005027687293477356,-0.012626414187252522
0.03235922008752823,0.004256576299667358,-0.01963195949792862,0.016164518892765045,-0.000601018953602761,-0.012661361135542393
0.0327935554087162,0.0044312612153589725,-0.0193560142070055,0.015004998072981834,-0.0005693454877473414,-0.013444692827761173
0.033300984650850296,0.00448870612308383,-0.02021200768649578,0.015715865418314934,-0.0006020498694851995,-0.012470010668039322
0.03315568342804909,0.0044558909721672535,-0.019970737397670746,0.015626590698957443,-0.0005472998600453138,-0.012094810605049133
0.033026691526174545,0.004291027318686247,-0.01803590916097164,0.015729639679193497,-0.0005579294520430267,-0.012664705514907837
0.03316619619727135,0.004521464463323355,-0.02028263360261917,0.015681620687246323,-0.000529741810169071,-0.012613954953849316
0.03433193266391754,0.00464762095361948,-0.02141581103205681,0.015910649672150612,-0.0005547811742872,-0.012604126706719398
0.032337598502635956,0.005042111501097679,-0.01977907307446003,0.016118161380290985,-0.0004844190552830696,-0.012749182991683483
0.034132108092308044,0.0047676051035523415,-0.019976038485765457,0.01623333990573883,-0.00047099811490625143,-0.013130178675055504
0.033756326884031296,0.004681335762143135,-0.020220965147018433,0.015510817989706993,-0.00043012440437451005,-0.012662806548178196
0.03343717008829117,0.004792629741132259,-0.020116649568080902,0.015623564831912518,-0.0004657545068766922,-0.013099095784127712
0.034389518201351166,0.004789231810718775,-0.020581120625138283,0.01503224577754736,-0.00043314608046784997,-0.01275879330933094
0.03420606628060341,0.004582666326314211,-0.021262336522340775,0.0156263317912817,-0.00045897605014033616,-0.01296489778906107
0.03314392641186714,0.004835145082324743,-0.0211261548101902,0.015428963117301464,-0.00046537071466445923,-0.013092562556266785
0.033179253339767456,0.0047194515354931355,-0.020496351644396782,0.01645617187023163,-0.0004636325757019222,-0.013069761916995049
0.034745071083307266,0.0046117305755615234,-0.020623434334993362,0.017333734780550003,-0.0005465351860038936,-0.01341803465038538
0.03417346626520157,0.003860738128423691,-0.020803183317184448,0.01687268726527691,-0.0005973840015940368,-0.01348563190549612
0.03417346626520157,0.003860738128423691,-0.020803183317184448,0.01687268726527691,-0.0005973840015940368,-0.01348563190549612
0.03395849093794823,0.0034931006375700235,-0.02057352103292942,0.016410475596785545,-0.0005611189408227801,-0.013344410806894302
0.03454052284359932,0.003700789762660861,-0.020596366375684738,0.015441899187862873,-0.0005829485598951578,-0.013304167427122593
0.034368570894002914,0.003993394784629345,-0.02093079499900341,0.016076205298304558,-0.0005802540108561516,-0.013573580421507359
0.034508831799030304,0.004027640912681818,-0.02105633169412613,0.016340577974915504,-0.0005729722906835377,-0.013169260695576668
0.03415307030081749,0.004384732339531183,-0.020574554800987244,0.01652902364730835,-0.0007954303873702884,-0.013264761306345463
0.03426780179142952,0.004074347671121359,-0.0210203155875206,0.01726628467440605,-0.0008212627726607025,-0.01354908011853695
0.034149862825870514,0.0038486940320581198,-0.02073086053133011,0.01689556986093521,-0.0008046263828873634,-0.013396838679909706
0.03460686281323433,0.003846441162750125,-0.020929982885718346,0.016988223418593407,-0.0007668962352909148,-0.012894581072032452
0.03442969545722008,0.003941638860851526,-0.020908666774630547,0.01651420071721077,-0.0008778549963608384,-0.013003057800233364
0.03440956026315689,0.0036871121264994144,-0.02140440046787262,0.01639775186777115,-0.0009013977833092213,-0.01317679788917303
0.03405774384737015,0.0035423662047833204,-0.02127200737595558,0.016236603260040283,-0.0008438536315225065,-0.013460671529173851
0.035526905208826065,0.004152216017246246,-0.02072678692638874,0.016328981146216393,-0.0007810095557942986,-0.013483649119734764
0.035526905208826065,0.004152216017246246,-0.02072678692638874,0.016328981146216393,-0.0007810095557942986,-0.013483649119734764
0.036431167274713516,0.0038709056098014116,-0.02084464207291603,0.015889832749962807,-0.0007250865455716848,-0.013733334839344025
0.03565414249897003,0.0036761476658284664,-0.02135341241955757,0.01632676273584366,-0.0006647940608672798,-0.013530801981687546
0.0338948629796505,0.003793891752138734,-0.021610522642731667,0.016185365617275238,-0.0005828996654599905,-0.013523071072995663
0.03502221032977104,0.003955906722694635,-0.021249037235975266,0.016734382137656212,-0.0005656686844304204,-0.013393319211900234
0.03563077002763748,0.003879282157868147,-0.021619083359837532,0.016714483499526978,-0.0005520818522199988,-0.01350034773349762
0.03529408574104309,0.003751872107386589,-0.021098004654049873,0.016968099400401115,-0.0005813655443489552,-0.013284564949572086
0.03597426041960716,0.004445650614798069,-0.020671891048550606,0.017279384657740593,-0.0005370416329242289,-0.013770908117294312
0.0351184606552124,0.003941288683563471,-0.021188072860240936,0.016899654641747475,-0.0005234057316556573,-0.013658526353538036
0.03495866805315018,0.0038115824572741985,-0.020940084010362625,0.016528358682990074,-0.0005112721119076014,-0.013678581453859806
0.03573274984955788,0.004228025209158659,-0.02048248052597046,0.017056351527571678,-0.00046859573922120035,-0.014207547530531883
0.035918865352869034,0.00427123112604022,-0.02150983363389969,0.01748012565076351,-0.00048718490870669484,-0.014299897477030754
0.036163777112960815,0.004487110301852226,-0.022111903876066208,0.01728462055325508,-0.0004644849104806781,-0.013370986096560955
0.0357196182012558,0.004203795921057463,-0.02181221731007099,0.0179316233843565,-0.0004904961097054183,-0.01327313482761383
0.035350997000932693,0.00422993628308177,-0.020746996626257896,0.017842667177319527,-0.0005200831219553947,-0.013824866153299809
0.03588974475860596,0.004000208806246519,-0.021190738305449486,0.018027842044830322,-0.0005967597244307399,-0.014086440205574036
0.03634203225374222,0.003828545333817601,-0.02124168910086155,0.018081802874803543,-0.0006141395424492657,-0.014345276169478893
0.03634203225374222,0.003828545333817601,-0.02124168910086155,0.018081802874803543,-0.0006141395424492657,-0.014345276169478893
0.0359412282705307,0.004343596287071705,-0.021153327077627182,0.01726440340280533,-0.0006472084787674248,-0.01407274603843689
0.035870857536792755,0.0046141729690134525,-0.021698657423257828,0.017052391543984413,-0.0005841419915668666,-0.0139373280107975
0.034891385585069656,0.004609198309481144,-0.021807430312037468,0.017523888498544693,-0.0005984484450891614,-0.013977796770632267
0.034891385585069656,0.004609198309481144,-0.021807430312037468,0.017523888498544693,-0.0005984484450891614,-0.013977796770632267
0.036539770662784576,0.004722802434116602,-0.02167578972876072,0.018132388591766357,-0.000585511268582195,-0.013968789018690586
0.03667956590652466,0.004674178082495928,-0.021509366109967232,0.01809399016201496,-0.0005999908898957074,-0.013944496400654316
0.03635738417506218,0.004185609519481659,-0.021706661209464073,0.017995599657297134,-0.0005488403839990497,-0.014417869970202446
0.03666773438453674,0.004361575003713369,-0.021745499223470688,0.01732037402689457,-0.0005812897579744458,-0.014386864379048347
0.03674805164337158,0.004680993501096964,-0.021938368678092957,0.016695545986294746,-0.0005727795651182532,-0.014715990051627159
0.03655574470758438,0.004492720123380423,-0.021617252379655838,0.016734881326556206,-0.0005606200429610908,-0.014299377799034119
0.037020228803157806,0.005053835920989513,-0.021890180185437202,0.016408054158091545,-0.0005808403948321939,-0.014207209460437298
0.036789748817682266,0.0049531105905771255,-0.021946972236037254,0.017205456271767616,-0.0006203762604855001,-0.014045070856809616
0.036716219037771225,0.004254376515746117,-0.02131100930273533,0.017560413107275963,-0.0007721952279098332,-0.014270584098994732
0.036843858659267426,0.0038544440176337957,-0.021002478897571564,0.01769932173192501,-0.0008026228751987219,-0.013940646313130856
0.037143856287002563,0.004273364786058664,-0.021988684311509132,0.017281658947467804,-0.000767787336371839,-0.014271740801632404
0.03681142255663872,0.004141474142670631,-0.022344905883073807,0.016599850729107857,-0.00100312614813447,-0.014485195279121399
0.036771260201931,0.004350754898041487,-0.02133817784488201,0.017685217782855034,-0.000985751743428409,-0.014917783439159393
0.03826219215989113,0.005005385726690292,-0.021267669275403023,0.018011290580034256,-0.0009360070107504725,-0.015135047025978565
0.035896334797143936,0.0044624656438827515,-0.022003423422574997,0.01805337332189083,-0.0008687736699357629,-0.014191745780408382
0.03637498617172241,0.004318407736718655,-0.021551964804530144,0.017746372148394585,-0.0007855676230974495,-0.014348361641168594
0.03773579001426697,0.004690779838711023,-0.0210656076669693,0.017891041934490204,-0.0007898429757915437,-0.014491274952888489
0.03727954998612404,0.004789772443473339,-0.021797064691781998,0.017267970368266106,-0.0008033569902181625,-0.01414178591221571
0.037733256816864014,0.004956213757395744,-0.02199898660182953,0.017060820013284683,-0.000775089196395129,-0.013886336237192154
0.03752153739333153,0.004929302725940943,-0.021682314574718475,0.017855875194072723,-0.0007407196098938584,-0.014068681746721268
0.03646256774663925,0.005065211094915867,-0.02128392830491066,0.018391182646155357,-0.0007945804391056299,-0.013940642587840557
0.03646256774663925,0.005065211094915867,-0.02128392830491066,0.018391182646155357,-0.0007945804391056299,-0.013940642587840557
0.03630293905735016,0.004969718866050243,-0.0214949119836092,0.018581293523311615,-0.0008223028853535652,-0.014744855463504791
0.03585781902074814,0.004388615023344755,-0.02116529829800129,0.018731705844402313,-0.0007355893030762672,-0.014107194729149342
0.03585781902074814,0.004388615023344755,-0.02116529829800129,0.018731705844402313,-0.0007355893030762672,-0.014107194729149342
