davideferrari95/blind_handover_controller/data/Test 137 - [2024-02-07 -- 17-22-13]/joint_states_data.csv
shoulder_pan_joint,shoulder_lift_joint,elbow_joint,wrist_1_joint,wrist_2_joint,wrist_3_joint
0.003889055922627449,-0.003950001671910286,-0.01464560255408287,0.01379330363124609,-0.0,0.004816524684429169
0.003889055922627449,-0.003950001671910286,-0.01464560255408287,0.01379330363124609,-0.0,0.004816524684429169
0.004391191061586142,-0.004056854639202356,-0.01521418709307909,0.014386720024049282,-0.0,0.004973577335476875
0.004391191061586142,-0.004056854639202356,-0.01521418709307909,0.014386720024049282,-0.0,0.004973577335476875
0.004138960037380457,-0.003739076666533947,-0.014485417865216732,0.014131970703601837,-0.0,0.004813321866095066
0.004256502725183964,-0.0035592452622950077,-0.015238156542181969,0.014499805867671967,-0.0,0.004597876686602831
0.004285427741706371,-0.0035319619346410036,-0.01535000093281269,0.014076757244765759,-0.0,0.004623333923518658
0.004067570902407169,-0.0034777941182255745,-0.014740927144885063,0.014419017359614372,-0.0,0.004906767513602972
0.004043326713144779,-0.0035857842303812504,-0.013322154991328716,0.014055178500711918,-0.0,0.005387919954955578
0.004225997254252434,-0.003890635445713997,-0.015513503924012184,0.01436561904847622,-0.0,0.005472124088555574
0.0043892995454370975,-0.0036958386190235615,-0.015152248553931713,0.01469667162746191,-0.0,0.00510971387848258
0.004014038015156984,-0.003567725419998169,-0.014730856753885746,0.015107512474060059,-0.0,0.004787781275808811
0.004290435463190079,-0.0031934669241309166,-0.01467649731785059,0.014408068731427193,-0.0,0.004370721057057381
0.004338553640991449,-0.0035247791092842817,-0.01492044236510992,0.014764237217605114,-0.0,0.004393467213958502
0.004577887710183859,-0.0037845878396183252,-0.015261397697031498,0.014167391695082188,-0.0,0.005158537067472935
0.004213295411318541,-0.0037704717833548784,-0.014342251233756542,0.014590003527700901,-0.0,0.005155352875590324
0.004168754443526268,-0.0036556124687194824,-0.014418496750295162,0.014317628927528858,-0.0,0.005256508942693472
0.004223482217639685,-0.0036594304256141186,-0.013959354721009731,0.01508699357509613,-0.0,0.005069802515208721
0.0044220127165317535,-0.0032328860834240913,-0.014724229462444782,0.0150636350736022,-0.0,0.004830885212868452
0.004139891359955072,-0.0034045896027237177,-0.01432738546282053,0.015453064814209938,-0.0,0.004731581546366215
0.004849944729357958,-0.003105949377641082,-0.015094414353370667,0.015349131077528,-0.0,0.005284561309963465
0.004047184716910124,-0.0034982915967702866,-0.01489331480115652,0.0153557900339365,-0.0,0.005156572908163071
0.004071264062076807,-0.0034031306859105825,-0.014204788953065872,0.015673814341425896,-0.0,0.004937938880175352
0.0041528004221618176,-0.0034867965150624514,-0.01461268961429596,0.015485820360481739,-0.0,0.004561565816402435
0.0043767765164375305,-0.0032886953558772802,-0.01410121750086546,0.015139976516366005,-1.5488354620174505e-05,0.004551538731902838
0.004151124972850084,-0.0035801841877400875,-0.014876935631036758,0.014915615320205688,-1.011278982332442e-06,0.004912212025374174
0.004444205667823553,-0.00336003047414124,-0.014529095962643623,0.014699045568704605,-6.602928692700516e-08,0.005015450995415449
0.004702783655375242,-0.0034395502880215645,-0.015314394608139992,0.014801655896008015,-4.3112402536849e-09,0.004970981273800135
0.004702783655375242,-0.0034395502880215645,-0.015314394608139992,0.014801655896008015,-4.3112402536849e-09,0.004970981273800135
0.004537404049187899,-0.0029687981586903334,-0.014649703167378902,0.015022325329482555,-2.8149318986869787e-10,0.005512038245797157
0.004172371234744787,-0.002372566144913435,-0.015071815811097622,0.015510717406868935,-1.8379494107212402e-11,0.0051816850900650024
0.00387523602694273,-0.0018518526339903474,-0.014361861161887646,0.015212465077638626,-1.2000494998762323e-12,0.00496714236214757
0.004261672031134367,-0.0016252697678282857,-0.014973855577409267,0.015119180083274841,-7.835466758927823e-14,0.00486271595582366
0.00466535659506917,-0.0012422357685863972,-0.014641025103628635,0.01427073497325182,-5.115999380318932e-15,0.004878947511315346
0.004614200908690691,-0.001265831757336855,-0.015492691658437252,0.014844669960439205,-3.3403821595003123e-16,0.0062445467337965965
0.004363675601780415,-0.0019016677979379892,-0.014671273529529572,0.014687057584524155,-2.1810307607132633e-17,0.00533813051879406
0.004316518548876047,-0.0021295049227774143,-0.015132240951061249,0.01568565145134926,-1.4240572887663117e-18,0.0045259431935846806
0.004693514667451382,-0.0022900698240846395,-0.014255850575864315,0.015475325286388397,-9.29807489435804e-20,0.004087591078132391
0.004755476955324411,-0.00215516216121614,-0.01459374651312828,0.016104621812701225,-6.0709794186303576e-21,0.004396010655909777
0.0043697780929505825,-0.0018573966808617115,-0.014073570258915424,0.01599542610347271,-3.963915986862088e-22,0.005555308889597654
0.004573700483888388,-0.0018335349159315228,-0.014933626167476177,0.016265640035271645,-2.588154022416987e-23,0.005549349822103977
0.004342485684901476,-0.001594875706359744,-0.014524813741445541,0.015941636636853218,-1.6898796873636314e-24,0.0053806547075510025
0.004519408103078604,-0.0016468679532408714,-0.015037822537124157,0.016260016709566116,-1.1033706269284126e-25,0.004958605393767357
0.0049633001908659935,-0.0015570257091894746,-0.01470057014375925,0.015177377499639988,-7.204222142752336e-27,0.004781886003911495
0.00446520047262311,-0.0017657235730439425,-0.014548481442034245,0.015118533745408058,-4.703841703475317e-28,0.005364581942558289
0.004472964908927679,-0.0016266355523839593,-0.014214012771844864,0.016111329197883606,-3.071272658223926e-29,0.005308899562805891
0.004204122349619865,-0.001709886360913515,-0.014489124529063702,0.015706604346632957,-2.0053217043671964e-30,0.0053476011380553246
0.005055083893239498,-0.0015410720370709896,-0.014604993164539337,0.01551349088549614,-8.548999398126019e-33,0.005132861435413361
0.005025909747928381,-0.0015844769077375531,-0.015086363069713116,0.015999404713511467,-5.581886352757481e-34,0.005102881696075201
0.004677992779761553,-0.001502841361798346,-0.014918994158506393,0.015360957011580467,-3.644572882046796e-35,0.004958166740834713
0.004307325929403305,-0.0016120629152283072,-0.014315216802060604,0.015709469094872475,-2.3796456812347507e-36,0.0048248921521008015
0.00435754144564271,-0.0016611871542409062,-0.01440003328025341,0.015640923753380775,-1.5537386617144537e-37,0.0050046793185174465
0.004569336771965027,-0.0018500251462683082,-0.014251588843762875,0.015122064389288425,-1.0144803928565873e-38,0.0052324156276881695
0.004569336771965027,-0.0018500251462683082,-0.014251588843762875,0.015122064389288425,-1.0144803928565873e-38,0.0052324156276881695
0.004949952010065317,-0.0017852858873084188,-0.01460027601569891,0.014917888678610325,-6.623825736986264e-40,0.005091414786875248
0.0049997251480817795,-0.001829453045502305,-0.014580383896827698,0.014726844616234303,-4.324827450445683e-41,0.004853302147239447
0.004856357350945473,-0.0016830696258693933,-0.01487390324473381,0.01493419986218214,-2.8236164056145064e-42,0.005118268076330423
0.004754979629069567,-0.0016908729448914528,-0.014316610991954803,0.014936002902686596,-1.8497139729087585e-43,0.004736746195703745
0.004654149059206247,-0.0017738776514306664,-0.014714071527123451,0.015061907470226288,-1.2611686178923354e-44,0.004934787750244141
0.004521338269114494,-0.001838215976022184,-0.014388573355972767,0.0147319994866848,-1.401298464324817e-45,0.005336075555533171
0.0050221155397593975,-0.002101052552461624,-0.014608264900743961,0.015228670090436935,-0.0,0.0048789288848638535
0.004884968511760235,-0.001858051517046988,-0.01446986198425293,0.015343538485467434,-0.0,0.004645060282200575
0.004929210990667343,-0.001813579467125237,-0.015307921916246414,0.015923066064715385,-0.0,0.0045007094740867615
0.004969550762325525,-0.0016520255012437701,-0.015204264782369137,0.0157919991761446,-0.0,0.004555585328489542
0.004820919129997492,-0.0015859185950830579,-0.015071932226419449,0.016074014827609062,-0.0,0.0046150400303304195
0.0045838928781449795,-0.0015810128534212708,-0.014671728014945984,0.015442070551216602,-0.0,0.004714857321232557
0.004834751598536968,-0.0018031352665275335,-0.014917751774191856,0.015611715614795685,-0.0,0.005065924488008022
0.005331253632903099,-0.0016792420065030456,-0.015215265564620495,0.015447921119630337,-0.0,0.004900346975773573
0.0049303206615149975,-0.0017221557209268212,-0.014776777476072311,0.01539595890790224,-0.0,0.004793158266693354
0.004967149347066879,-0.001809215173125267,-0.014710510149598122,0.015606098808348179,-0.0,0.004960861522704363
0.004867836833000183,-0.0016471251146867871,-0.014454341493546963,0.01595008186995983,-0.0,0.005184239707887173
0.005098856985569,-0.0016810513334348798,-0.014443525113165379,0.015852537006139755,-0.0,0.004916913341730833
0.005511672701686621,-0.001779831014573574,-0.014986347407102585,0.01557381171733141,-0.0,0.004665707238018513
0.005057410802692175,-0.0017853688914328814,-0.014392366632819176,0.015171525068581104,-0.0,0.004725993145257235
0.005423419643193483,-0.0018248801352456212,-0.015066882595419884,0.0159887857735157,-0.0,0.005163441877812147
0.005137381609529257,-0.0018234886229038239,-0.014739642851054668,0.015574004501104355,-0.0,0.005654850974678993
0.004915700759738684,-0.0021147842053323984,-0.014761957339942455,0.015494270250201225,-0.0,0.00529455067589879
0.004915700759738684,-0.0021147842053323984,-0.014761957339942455,0.015494270250201225,-0.0,0.00529455067589879
0.005035036709159613,-0.0018987935036420822,-0.014233911409974098,0.014892002567648888,-0.0,0.005215540993958712
0.005325748585164547,-0.0020761408377438784,-0.014825367368757725,0.01528006698936224,-0.0,0.005104868207126856
0.005530626978725195,-0.0018589318497106433,-0.014536379836499691,0.015225804410874844,-0.0,0.004911236464977264
0.005071957595646381,-0.0018210692796856165,-0.014851790852844715,0.015150995925068855,-0.0,0.00523758539929986
0.004452708177268505,-0.0018181689083576202,-0.014481374993920326,0.015072353184223175,-0.0,0.005210957955569029
0.004440311808139086,-0.002036576857790351,-0.014867953956127167,0.01507696695625782,-0.0,0.00494798319414258
0.005314570851624012,-0.0019052919233217835,-0.01417248509824276,0.015491941943764687,-0.0,0.004833809100091457
0.0052628666162490845,-0.002158818067982793,-0.014858590438961983,0.015252374112606049,-0.0,0.004844101145863533
0.005212859716266394,-0.0020661549642682076,-0.01423444040119648,0.01549161970615387,-0.0,0.004921650979667902
0.004914683289825916,-0.00204079388640821,-0.014690592885017395,0.015019699931144714,-0.0,0.005099945235997438
0.004900322761386633,-0.002213008003309369,-0.014121501706540585,0.015425425954163074,-0.0,0.004929026588797569
0.004782108124345541,-0.0021142621990293264,-0.014755881391465664,0.015207866206765175,-0.0,0.004816748201847076
0.005281166173517704,-0.0020917474757879972,-0.013670038431882858,0.015704704448580742,-0.0,0.005088650155812502
0.005225350148975849,-0.002027245005592704,-0.014449754729866982,0.015352265909314156,-0.0,0.004911516327410936
0.00483468733727932,-0.002063313266262412,-0.013888916932046413,0.015565624460577965,-0.0,0.0046675303019583225
0.004769965074956417,-0.0020772016141563654,-0.01459730975329876,0.015400471165776253,-0.0,0.004607736598700285
0.004774606786668301,-0.002322731539607048,-0.013820813037455082,0.01580604910850525,-0.0,0.004578517284244299
0.004882311914116144,-0.002263047033920884,-0.014530966058373451,0.016513613983988762,-0.0,0.005025307182222605
0.005613770801573992,-0.002187194535508752,-0.013961018063127995,0.016445087268948555,-0.0,0.005062690004706383
0.005281717516481876,-0.0019122667144984007,-0.014548509381711483,0.016806384548544884,-0.0,0.004955733194947243
0.005314542446285486,-0.0018704289104789495,-0.013964638113975525,0.015987861901521683,-0.0,0.004831584170460701
0.00497134355828166,-0.0019833713304251432,-0.014082939364016056,0.01470116339623928,-0.0,0.005231653340160847
0.004981891717761755,-0.0020752011332660913,-0.014624758623540401,0.015034375712275505,-0.0,0.005705076269805431
0.004981891717761755,-0.0020752011332660913,-0.014624758623540401,0.015034375712275505,-0.0,0.005705076269805431
0.005600448697805405,-0.0020994944497942924,-0.01402018591761589,0.014749514870345592,-0.0,0.005552398506551981
0.0055368272587656975,-0.001978096319362521,-0.01348286122083664,0.016309982165694237,-0.0,0.005092673934996128
0.00512642040848732,-0.0018031568033620715,-0.014316416345536709,0.014714554883539677,-0.0,0.005013371352106333
0.005338531918823719,-0.0018410865450277925,-0.014068576507270336,0.014082767069339752,-0.0,0.005338827148079872
0.005338531918823719,-0.0018410865450277925,-0.014068576507270336,0.014082767069339752,-0.0,0.005338827148079872
0.005289607215672731,-0.0017405205871909857,-0.014409344643354416,0.015155771747231483,-0.0,0.005956025328487158
0.005055299494415522,-0.0019950689747929573,-0.013877490535378456,0.014953816309571266,-0.0,0.005618698429316282
0.005251570604741573,-0.00201309472322464,-0.014177951030433178,0.015899140387773514,-0.0,0.005179302301257849
0.005141028668731451,-0.002034391276538372,-0.013650483451783657,0.01572718285024166,-0.0,0.004956533201038837
0.005190418567508459,-0.0018551916582509875,-0.013962590135633945,0.01553655881434679,-0.0,0.004912759643048048
0.005247893277555704,-0.0018587883096188307,-0.014021307229995728,0.015699353069067,-0.0,0.005231012590229511
0.005012588109821081,-0.0017300054896622896,-0.014038579538464546,0.015173505991697311,-0.0,0.005679857451468706
0.006152726709842682,-0.0019034979632124305,-0.013823316432535648,0.014757883735001087,-0.0,0.005884342826902866
0.005137777421623468,-0.0020647014025598764,-0.014274832792580128,0.014532226137816906,-0.0,0.005383053794503212
0.005148572381585836,-0.002313076751306653,-0.013729418627917767,0.01519653107970953,-0.0,0.004947900306433439
0.005435011349618435,-0.0022469155956059694,-0.013487569987773895,0.015353002585470676,-0.0,0.005092424340546131
0.005292376037687063,-0.002128488617017865,-0.013955854810774326,0.01631082035601139,-0.0,0.005168621428310871
0.005836437456309795,-0.0019823298789560795,-0.01358590368181467,0.01619199477136135,-0.0,0.0053777433931827545
0.005600845441222191,-0.0019355977419763803,-0.01379750482738018,0.016070561483502388,-0.0,0.0052680992521345615
0.005757808685302734,-0.0019783827010542154,-0.01367886085063219,0.015580500476062298,-0.0,0.004871430341154337
0.005283823236823082,-0.002008176641538739,-0.013803807087242603,0.01557198353111744,-0.0,0.004820596426725388
0.005306730046868324,-0.0023602719884365797,-0.013407229445874691,0.015519430860877037,-0.0,0.0049221087247133255
0.005306730046868324,-0.0023602719884365797,-0.013407229445874691,0.015519430860877037,-0.0,0.0049221087247133255
0.0058166212402284145,-0.002052589552477002,-0.013978736475110054,0.015589382499456406,-0.0,0.005097411572933197
0.0058166212402284145,-0.002052589552477002,-0.013978736475110054,0.015589382499456406,-0.0,0.005097411572933197
0.005642247851938009,-0.0020135969389230013,-0.013379564508795738,0.015736768022179604,-0.0,0.0046922327019274235
0.005733846221119165,-0.001809599343687296,-0.01428760401904583,0.015204720199108124,-0.0,0.004635343328118324
0.005365547724068165,-0.0018753589829429984,-0.01381788868457079,0.01567656733095646,-0.0,0.005333995446562767
0.005847895983606577,-0.0017562382854521275,-0.014424306340515614,0.015117024071514606,-0.0,0.005683974362909794
0.005568542517721653,-0.0019521784270182252,-0.013506714254617691,0.01542798150330782,-0.0,0.005767141934484243
0.005995761137455702,-0.001844105776399374,-0.013900784775614738,0.015035624615848064,-0.0,0.005520552862435579
0.005685755517333746,-0.0020562205463647842,-0.012697256170213223,0.01536732167005539,-0.0,0.0052179028280079365
0.005700660869479179,-0.002334654564037919,-0.01450048852711916,0.014886444434523582,-0.0,0.0049149044789373875
0.0057905069552361965,-0.0022034039720892906,-0.014341604895889759,0.01505749300122261,-0.0,0.0051184953190386295
0.005981906782835722,-0.002091832924634218,-0.014177137985825539,0.015365560539066792,-0.0,0.005416626576334238
0.006388104986399412,-0.0020157448016107082,-0.01380788255482912,0.015447014942765236,-0.0,0.005379531532526016
0.006055255886167288,-0.0020356939639896154,-0.015073424205183983,0.015423323959112167,-0.0,0.005719727836549282
0.00580232311040163,-0.0019851147662848234,-0.014245549216866493,0.015466774813830853,-0.0,0.005541239865124226
0.005724357441067696,-0.0022309126798063517,-0.014332626946270466,0.015845714136958122,-0.0,0.005711836274713278
0.005886745173484087,-0.0020584044978022575,-0.013750379905104637,0.015089101158082485,-0.0,0.006215756293386221
0.006090269889682531,-0.0021975995041429996,-0.014319970272481441,0.015047258697450161,-0.0,0.005497991573065519
0.006060672923922539,-0.0020550962071865797,-0.01412472128868103,0.014725211076438427,-0.0,0.005179296713322401
0.0059312800876796246,-0.0021994905546307564,-0.014380569569766521,0.015153095126152039,-0.0,0.005645005032420158
0.005616529379040003,-0.002170727588236332,-0.0141146220266819,0.015036115422844887,-0.0,0.005367585923522711
0.005984389688819647,-0.0020795282907783985,-0.014305909164249897,0.015274278819561005,-0.0,0.005036070942878723
0.006095562130212784,-0.0020343856886029243,-0.01425916887819767,0.01498539187014103,-0.0,0.005527667701244354
0.006102315150201321,-0.0019815985579043627,-0.014393642544746399,0.015734471380710602,-0.0,0.005754920653998852
0.006003065500408411,-0.0020814493764191866,-0.013951209373772144,0.01552928239107132,-0.0,0.005759673658758402
0.006230087019503117,-0.002050712937489152,-0.014548836275935173,0.015191958285868168,-0.0,0.005268732085824013
0.006075129844248295,-0.0023613772355020046,-0.01444520615041256,0.014515461400151253,-0.0,0.005693652667105198
0.006360301747918129,-0.002475304063409567,-0.014402919448912144,0.015071415342390537,-0.0,0.005686634685844183
0.006360301747918129,-0.002475304063409567,-0.014402919448912144,0.015071415342390537,-0.0,0.005686634685844183
0.005923151969909668,-0.0021726987324655056,-0.014408392831683159,0.01551815029233694,-0.0,0.005491240415722132
0.006490243598818779,-0.0020711696706712246,-0.014292187988758087,0.015651272609829903,-0.0,0.00583777017891407
0.005896312650293112,-0.0019854602869600058,-0.014506977051496506,0.015083697624504566,-0.0,0.005434731021523476
0.005826245527714491,-0.0019998822826892138,-0.014064582996070385,0.014871111139655113,-0.0,0.005851452704519033
0.006463424768298864,-0.002042783424258232,-0.014193582348525524,0.014420818537473679,-0.0,0.005726865492761135
0.00635350588709116,-0.0019836225546896458,-0.014165068976581097,0.015617946162819862,-0.0,0.005819858517497778
0.006409285124391317,-0.0016820324817672372,-0.014171958900988102,0.014800557866692543,-0.0,0.006082959473133087
0.006621303036808968,-0.001482383580878377,-0.013874288648366928,0.014683029614388943,-0.0,0.005747567396610975
0.006741825956851244,-0.0013502024812623858,-0.014234913513064384,0.015144872479140759,-0.0,0.0058592925779521465
0.006332704331725836,-0.0012569186510518193,-0.014265034347772598,0.01621227152645588,-0.0,0.006165878381580114
0.006404441315680742,-0.0009904805338010192,-0.014172355644404888,0.015864841639995575,-0.0,0.006113401614129543
0.006983615458011627,-0.0011038817465305328,-0.014261709526181221,0.015613466501235962,-0.0,0.006112650968134403
0.0068496218882501125,-0.0015225987881422043,-0.014125745743513107,0.01495604682713747,-0.0,0.005486724432557821
0.006734324153512716,-0.0017711309483274817,-0.014457046054303646,0.015795430168509483,-0.0,0.00538102351129055
0.006310941185802221,-0.0015988574596121907,-0.013878216966986656,0.015521686524152756,-0.0,0.005722672678530216
0.006756665650755167,-0.0013936333125457168,-0.014210772700607777,0.01600966416299343,-0.0,0.006005441769957542
0.006995998788625002,-0.0012793263886123896,-0.014205108396708965,0.015417389571666718,-0.0,0.005516300909221172
0.006854373496025801,-0.0012060495791956782,-0.01445345114916563,0.015402489341795444,-0.0,0.005808590445667505
0.006622130982577801,-0.0011575337266549468,-0.013997474685311317,0.014982440508902073,-0.0,0.006037289742380381
0.006779641378670931,-0.0010660182451829314,-0.01421117503196001,0.015211327001452446,-0.0,0.00641981465741992
0.00719479052349925,-0.0010853951098397374,-0.013777069747447968,0.015084637328982353,-0.0,0.006176033988595009
0.006774937734007835,-0.0013612497132271528,-0.014071845449507236,0.01488965842872858,-0.0,0.005872048437595367
0.006724324077367783,-0.0013829718809574842,-0.014016750268638134,0.01556777860969305,-0.0,0.0060164956375956535
0.0066452473402023315,-0.0012908002827316523,-0.014099345542490482,0.01519259624183178,-0.0,0.005952854175120592
0.00719513138756156,-0.0012070519151166081,-0.013636195100843906,0.015634700655937195,-0.0,0.006070019211620092
0.006682672072201967,-0.0008780910284258425,-0.013552084565162659,0.015220928005874157,-0.0,0.006222357973456383
0.006384828127920628,-0.000879466999322176,-0.01420739758759737,0.014783347025513649,-0.0,0.005978941451758146
0.006384828127920628,-0.000879466999322176,-0.01420739758759737,0.014783347025513649,-0.0,0.005978941451758146
0.007063258904963732,-0.0009639516938477755,-0.013639488257467747,0.015229383483529091,-0.0,0.006530046463012695
0.006872069556266069,-0.0012048337375745177,-0.013624411076307297,0.01495202537626028,-0.0,0.006372963078320026
0.006872069556266069,-0.0012048337375745177,-0.013624411076307297,0.01495202537626028,-0.0,0.006372963078320026
0.007191312965005636,-0.0011606377083808184,-0.014227284118533134,0.014610344544053078,-0.0,0.006128391250967979
0.006747548934072256,-0.0010600381065160036,-0.013678674586117268,0.015073101036250591,-0.0,0.005870911292731762
0.007033000700175762,-0.001185959903523326,-0.014039171859622002,0.014814743772149086,-0.0,0.005951337516307831
0.007100749760866165,-0.0010243499418720603,-0.013642961159348488,0.015054195187985897,-0.0,0.006585588678717613
0.006811104714870453,-0.0010028344113379717,-0.014632217586040497,0.01471220888197422,-0.0,0.006169003900140524
0.0067935301922261715,-0.0009885459439828992,-0.013951491564512253,0.014983030967414379,-0.0,0.005941388197243214
0.00723887188360095,-0.0009979637106880546,-0.01459850650280714,0.01484040915966034,-0.0,0.0055991606786847115
0.007378647103905678,-0.0010174188064411283,-0.013911162503063679,0.015235922299325466,-0.0,0.005897164810448885
0.006888944189995527,-0.001011581509374082,-0.014371094293892384,0.015393526293337345,-0.0,0.0065694162622094154
0.006388116627931595,-0.0013396390713751316,-0.013978378847241402,0.015384091064333916,-0.0,0.006576984189450741
0.006829013116657734,-0.0013050270499661565,-0.014495261944830418,0.015430008992552757,-0.0,0.006460771895945072
0.007105330470949411,-0.0012479599099606276,-0.014112229458987713,0.015396987088024616,-0.0,0.006158527918159962
0.006851707585155964,-0.001164076616987586,-0.015017719939351082,0.01598796620965004,-0.0,0.006488385144621134
0.006804341915994883,-0.0012416911777108908,-0.01402477826923132,0.01538853719830513,-0.0,0.006661765743046999
0.007268963381648064,-0.001220307545736432,-0.014743323437869549,0.01577625796198845,-0.0,0.006217976566404104
0.007553987670689821,-0.0012180351186543703,-0.01425635814666748,0.015330555848777294,-0.0,0.006078380160033703
0.007613512687385082,-0.001296003581956029,-0.014564360491931438,0.015677353367209435,-0.0,0.006441818550229073
0.006987228058278561,-0.0012643112568184733,-0.013826457783579826,0.015009759925305843,-0.0,0.006346448324620724
0.006451882887631655,-0.0012419652193784714,-0.014563051052391529,0.01547742448747158,-0.0,0.006276886444538832
0.007348141632974148,-0.0012929540826007724,-0.014867940917611122,0.0153946653008461,-0.0,0.006827060598880053
0.006642666179686785,-0.0014221022138372064,-0.014430652372539043,0.01538113597780466,-0.0,0.006471927743405104
0.006642666179686785,-0.0014221022138372064,-0.014430652372539043,0.01538113597780466,-0.0,0.006471927743405104
0.007241157814860344,-0.0013168022269383073,-0.014297404326498508,0.015340541489422321,-0.0,0.006348154973238707
0.007241157814860344,-0.0013168022269383073,-0.014297404326498508,0.015340541489422321,-0.0,0.006348154973238707
0.00747990608215332,-0.0014254755806177855,-0.01519095804542303,0.015377339906990528,-0.0,0.0063898563385009766
0.007495729718357325,-0.0013324376195669174,-0.014636971987783909,0.015424325130879879,-0.0,0.006476696114987135
0.006909838877618313,-0.0013983786338940263,-0.015084697864949703,0.01575879007577896,-0.0,0.006578736938536167
0.007375556509941816,-0.001342887175269425,-0.014739574864506721,0.015321465209126472,-0.0,0.0063906400464475155
0.006989836692810059,-0.0012600047048181295,-0.01574559509754181,0.014752832241356373,-0.0,0.007006455212831497
0.006870149169117212,-0.0012117570731788874,-0.01482276152819395,0.014931435696780682,-0.0,0.0066773113794624805
0.00702972337603569,-0.0012215878814458847,-0.015281854197382927,0.0146976662799716,-0.0,0.006911213044077158
0.007288109045475721,-0.0012006197357550263,-0.014242625795304775,0.015240312553942204,-0.0,0.006736730691045523
0.007020656950771809,-0.001169108203612268,-0.015138555318117142,0.014911743812263012,-0.0,0.006475929170846939
0.0072163911536335945,-0.0013317654374986887,-0.014737236313521862,0.015267075039446354,-0.0,0.00648343563079834
0.007083266042172909,-0.0012627780670300126,-0.014865216799080372,0.014830823987722397,-0.0,0.006837441120296717
0.00724374083802104,-0.0012294185580685735,-0.01492139883339405,0.015116430819034576,-0.0,0.007398699875921011
0.007413261104375124,-0.0013504818780347705,-0.015028384514153004,0.014993865974247456,-0.0,0.00681440532207489
0.00731262844055891,-0.0012765321880578995,-0.01485482044517994,0.015324186533689499,-0.0,0.006637966260313988
0.007095708511769772,-0.0012493812246248126,-0.015147915109992027,0.01515650749206543,-0.0,0.006625382229685783
0.00749411853030324,-0.0013250381452962756,-0.01456528715789318,0.015196279622614384,-0.0,0.007327398285269737
0.007874595932662487,-0.0014035729691386223,-0.014754436910152435,0.015241875313222408,-0.0,0.007935216650366783
0.007827783934772015,-0.0014069959288462996,-0.014435207471251488,0.01526000164449215,-0.0,0.006862304639071226
0.007243584841489792,-0.0014541840646415949,-0.014496517367661,0.015232343226671219,-0.0,0.0062693022191524506
0.0075671980157494545,-0.0014030331512913108,-0.0148202795535326,0.014839641749858856,-0.0,0.006516752764582634
0.008586718700826168,-0.0014555489178746939,-0.014580672606825829,0.014416823163628578,-0.0,0.0072312792763113976
0.008005707524716854,-0.0012972221011295915,-0.01454219501465559,0.014918321743607521,-0.0,0.007787075359374285
0.00789552927017212,-0.001206376007758081,-0.01498410850763321,0.015406420454382896,-0.0,0.007709459867328405
0.007979095913469791,-0.0012770025059580803,-0.014681289903819561,0.01598697155714035,-0.0,0.007685415912419558
0.007979095913469791,-0.0012770025059580803,-0.014681289903819561,0.01598697155714035,-0.0,0.007685415912419558
0.008241286501288414,-0.0012489164946600795,-0.014704518020153046,0.015405222773551941,-0.0,0.007494597230106592
0.007903620600700378,-0.0014087138697504997,-0.014309719204902649,0.015440760180354118,-0.0,0.007437869440764189
0.008983924984931946,-0.001369594014249742,-0.014750753529369831,0.01480162888765335,-0.0,0.007450626697391272
0.008181935176253319,-0.0012906697811558843,-0.014605658128857613,0.014973354525864124,-0.0,0.0076475790701806545
0.007755659054964781,-0.001389321289025247,-0.014461146667599678,0.014384005218744278,-0.0,0.007432738319039345
0.008118094876408577,-0.0012914511607959867,-0.014462162740528584,0.015165427699685097,-0.0,0.007114811334758997
0.007934579625725746,-0.001222067978233099,-0.01466882973909378,0.01502291951328516,-0.0,0.0073772515170276165
0.00817128736525774,-0.0011004286352545023,-0.01448094006627798,0.016149623319506645,-0.0,0.007104902528226376
0.00825628824532032,-0.0010519222123548388,-0.01457738783210516,0.0157184898853302,-0.0,0.007336657959967852
0.008222797885537148,-0.001061314600519836,-0.014743032865226269,0.015221848152577877,-0.0,0.007893739268183708
0.008513372391462326,-0.0010488498955965042,-0.01496370043605566,0.014865467324852943,-0.0,0.007924460805952549
0.009041364304721355,-0.001255603856407106,-0.014324215240776539,0.015362279489636421,-0.0,0.007736415136605501
0.008446326479315758,-0.0012359718093648553,-0.014492442831397057,0.01571432501077652,-0.0,0.007493351586163044
0.008596100844442844,-0.001180680701509118,-0.014842819422483444,0.015647782012820244,-0.0,0.007428508717566729
0.008960708975791931,-0.0011379639618098736,-0.014979937113821507,0.015397279523313046,-0.0,0.00791856087744236
0.008315881714224815,-0.0011319654295220971,-0.014577317982912064,0.014852317981421947,-0.0,0.008217337541282177
0.008658463135361671,-0.0010919318301603198,-0.014441421255469322,0.015041851438581944,-0.0,0.007853520102798939
0.008903221227228642,-0.0010731141082942486,-0.014318249188363552,0.014837176539003849,-0.0,0.007470738608390093
0.008202306926250458,-0.0012137393932789564,-0.014534207060933113,0.014914066530764103,-0.0,0.007995500229299068
0.00866266805678606,-0.0011713384883478284,-0.014426943846046925,0.014987688511610031,-0.0,0.007778035011142492
0.008919689804315567,-0.0011439103400334716,-0.014470207504928112,0.01551929209381342,-0.0,0.007676443085074425
0.008948500268161297,-0.0013432578416541219,-0.014103077352046967,0.014926185831427574,-0.0,0.0076237628236413
0.008558227680623531,-0.001256763469427824,-0.01446853019297123,0.015822576358914375,-0.0,0.008145329542458057
0.008771524764597416,-0.001097874017432332,-0.014373484067618847,0.015482300892472267,-1.4037384516996099e-06,0.007799933664500713
0.008879125118255615,-0.0010803157929331064,-0.014201722107827663,0.01486717164516449,-9.165409409206404e-08,0.007447438780218363
0.008879125118255615,-0.0010803157929331064,-0.014201722107827663,0.01486717164516449,-9.165409409206404e-08,0.007447438780218363
0.008982322178781033,-0.001151936943642795,-0.014700434170663357,0.01624545454978943,-5.984357009936048e-09,0.007828237488865852
0.009440379217267036,-0.0013138105859979987,-0.014370357617735863,0.01567143015563488,-3.9073572155601255e-10,0.007573441602289677
0.008517913520336151,-0.001438441569916904,-0.014415211044251919,0.014901642687618732,-2.5512250298453942e-11,0.0074702040292322636
0.009420469403266907,-0.0013535642065107822,-0.014209358021616936,0.015233245678246021,-1.6657676757056428e-12,0.007457460276782513
0.008873342536389828,-0.0012784488499164581,-0.014215799048542976,0.01567949913442135,-1.0876273026736577e-13,0.008103865198791027
0.008848371915519238,-0.0011428529396653175,-0.01396302878856659,0.015768129378557205,-7.1014293620899616e-15,0.007865152321755886
0.009179143235087395,-0.0010977364145219326,-0.014403528533875942,0.015205321833491325,-4.63672611590582e-16,0.008062276989221573
0.00925031490623951,-0.0009769308380782604,-0.01414028462022543,0.015938546508550644,-3.0274506016975393e-17,0.007885152474045753
0.009319725446403027,-0.000966752297244966,-0.014662062749266624,0.01539017166942358,-1.9767089603246012e-18,0.008240806870162487
0.008430233225226402,-0.0009237765334546566,-0.014490196481347084,0.01576598733663559,-1.2906497805195184e-19,0.008073958568274975
0.009303519502282143,-0.0009198497864417732,-0.014421450905501842,0.015130438841879368,-8.427020428244744e-21,0.008598989807069302
0.009299751371145248,-0.0009173088474199176,-0.014041922986507416,0.016081413254141808,-5.502242462350609e-22,0.008637780323624611
0.009016855619847775,-0.0010368648217990994,-0.014385834336280823,0.015754321590065956,-3.5925710122174593e-23,0.008467433974146843
0.009424678981304169,-0.001081553753465414,-0.014252988621592522,0.01570931263267994,-2.345692298386199e-24,0.008262807503342628
0.009579619392752647,-0.0010641851695254445,-0.014367914758622646,0.015494738705456257,-1.5315693799225519e-25,0.008377384394407272
0.009116501547396183,-0.0010404209606349468,-0.014356917701661587,0.01551029086112976,-1.0000054583676443e-26,0.008630081079900265
0.00942967552691698,-0.0009805691661313176,-0.014540120959281921,0.01527369488030672,-4.263180145144146e-29,0.008938015438616276
0.00942967552691698,-0.0009805691661313176,-0.014540120959281921,0.01527369488030672,-4.263180145144146e-29,0.008938015438616276
0.009268362075090408,-0.000873157347086817,-0.014503424987196922,0.01562489103525877,-2.7835520029166598e-30,0.008922149427235126
0.00971103273332119,-0.0008719306788407266,-0.014581992290914059,0.015219136141240597,-1.8174604978684988e-31,0.008549520745873451
0.00969537254422903,-0.0008664697525091469,-0.015263345092535019,0.015501725487411022,-0.00010389454109827057,0.008238598704338074
0.009591765701770782,-0.0007868320681154728,-0.014384063892066479,0.01539233885705471,-0.00018357267254032195,0.008445514366030693
0.009788071736693382,-0.0007212065975181758,-0.014564603567123413,0.014579659327864647,-0.00017493957420811057,0.009178293868899345
0.009482449851930141,-0.0007307843188755214,-0.015045970678329468,0.014719287864863873,-0.00019332651572767645,0.008624373935163021
0.009482449851930141,-0.0007307843188755214,-0.015045970678329468,0.014719287864863873,-0.00019332651572767645,0.008624373935163021
0.010212532244622707,-0.0006017156993038952,-0.014664936810731888,0.015028991736471653,-0.00018798638484440744,0.008619586005806923
0.00980079174041748,-0.0005492389318533242,-0.014625131152570248,0.015140566043555737,-0.00018169455870520324,0.008444052189588547
0.00980079174041748,-0.0005492389318533242,-0.014625131152570248,0.015140566043555737,-0.00018169455870520324,0.008444052189588547
0.010219600982964039,-0.0005051822517998517,-0.015081530436873436,0.015521518886089325,-0.00017578103870619088,0.009431595914065838
0.010340267792344093,-0.0004676699172705412,-0.015146676450967789,0.015401653945446014,-0.00019485798839014024,0.008885885588824749
0.009453420527279377,-0.0004949521971866488,-0.014869892969727516,0.01552781742066145,-0.00019229679310228676,0.007874930277466774
0.00982891209423542,-0.00046533855493180454,-0.014446942135691643,0.015548146329820156,-0.00018681494111660868,0.007833781652152538
0.010201498866081238,-0.00041451986180618405,-0.015356495976448059,0.015186832286417484,-0.00018144898058380932,0.008617776446044445
0.010456154122948647,-0.0003776169032789767,-0.014613351784646511,0.01456225011497736,-0.00017636972188483924,0.008937765844166279
0.010142868384718895,-0.00040962561615742743,-0.015278917737305164,0.014466254971921444,-0.00017156609101220965,0.009200732223689556
0.010485327802598476,-0.00038786939694546163,-0.014697701670229435,0.014754083007574081,-0.00016701767162885517,0.009233133867383003
0.009859857149422169,-0.00040144004742614925,-0.015004798769950867,0.015028715133666992,-0.00016270393098238856,0.009178701788187027
0.010036429390311241,-0.00039551747613586485,-0.01459534652531147,0.015113761648535728,-0.00015860745043028146,0.008683497086167336
0.010913168080151081,-0.00037236447678878903,-0.01510919164866209,0.014645997434854507,-0.00015471229562535882,0.009053408168256283
0.01004717592149973,-0.0003516106808092445,-0.014123925007879734,0.014685793779790401,-0.00015100390010047704,0.008990084752440453
0.010198883712291718,-0.0003330219187773764,-0.014621289446949959,0.014329825527966022,-0.0001657660905038938,0.009200462140142918
0.010207370854914188,-0.0003608447150327265,-0.013980228453874588,0.015147530473768711,-0.0001645002921577543,0.009292785078287125
0.010126486420631409,-0.0003441948792897165,-0.01468217745423317,0.014771630987524986,-0.00016098668857011944,0.009317439049482346
0.010966220870614052,-0.00032849746639840305,-0.014035222120583057,0.01499107014387846,-0.00015747638826724142,0.009162349626421928
0.011195845901966095,-0.00031416432466357946,-0.014361727051436901,0.014945657923817635,-0.00015410641208291054,0.009202901273965836
0.010307188145816326,-0.0003338178794365376,-0.013924770057201385,0.015067041851580143,-0.0001508770219516009,0.00922002736479044
0.01034784410148859,-0.0003122075868304819,-0.014789280481636524,0.014414113014936447,-0.0001477802434237674,0.009176958352327347
0.010268304497003555,-0.0002919675025623292,-0.014151082374155521,0.015072053298354149,-0.0001448080292902887,0.009028078056871891
0.010261301882565022,-0.0002741759526543319,-0.014361969195306301,0.01400972343981266,-0.00014195285621099174,0.009571409784257412
0.010473238304257393,-0.0003093749692197889,-0.013825062662363052,0.014991032890975475,-0.00013920826313551515,0.009543176740407944
0.010748685337603092,-0.00029325965442694724,-0.01463443972170353,0.013526073656976223,-0.0001365677744615823,0.009380919858813286
0.010320737026631832,-0.00030679727206006646,-0.01476852037012577,0.01432583387941122,-0.00014023577386979014,0.00915889348834753
0.010432818904519081,-0.0002941855345852673,-0.014312447048723698,0.015270986594259739,-0.00013608913286589086,0.009143329225480556
0.010722805745899677,-0.00028108112746849656,-0.015119212679564953,0.014546460472047329,-0.00013209997268859297,0.00983660388737917
0.010564150288701057,-0.0002690760011319071,-0.01456950232386589,0.015166468918323517,-0.0001283327874261886,0.009875323623418808
0.010564150288701057,-0.0002690760011319071,-0.01456950232386589,0.015166468918323517,-0.0001283327874261886,0.009875323623418808
0.010266311466693878,-0.00025805391487665474,-0.015122893266379833,0.015186600387096405,-0.000124774276628159,0.009642047807574272
0.01080984529107809,-0.0002478992973919958,-0.014245378784835339,0.015262464061379433,-0.00012140750914113596,0.010057604871690273
0.011020973324775696,-0.00027211051201447845,-0.01458971481770277,0.014598282054066658,-0.00011821784573839977,0.010178099386394024
0.010629519820213318,-0.0002626369532663375,-0.014144055545330048,0.014896395616233349,-0.00011519157123984769,0.009392094798386097
0.010726124048233032,-0.00025339919375255704,-0.015070385299623013,0.015088322572410107,-0.0001332753017777577,0.009560792706906796
0.010579715482890606,-0.0002449308231007308,-0.014632364735007286,0.015313306823372841,-0.00013139918155502528,0.00946947280317545
0.011016109958291054,-0.000252445723162964,-0.014841924421489239,0.015318086370825768,-0.00012836478708777577,0.009501359425485134
0.01098899357020855,-0.00023930618772283196,-0.014184685423970222,0.015327132306993008,-0.00012539008457679302,0.009821067564189434
0.01114912424236536,-0.00022722475114278495,-0.014582553878426552,0.015244717709720135,-0.0001225445739692077,0.009563046507537365
0.01116931438446045,-0.0002446560247335583,-0.014214287512004375,0.015164712443947792,-0.00011982543946942315,0.009196066297590733
0.010773920454084873,-0.00024745779228396714,-0.014818457886576653,0.015043968334794044,-0.00011722401541192085,0.009582506492733955
0.01110928226262331,-0.00023679361038375646,-0.014477184042334557,0.014949706383049488,-0.00011473345512058586,0.009694898501038551
0.011179827153682709,-0.00022684811847284436,-0.014433519914746284,0.0150343282148242,-0.0001298220013268292,0.009682797826826572
0.011754251085221767,-0.00021770242892671376,-0.014310394413769245,0.014926310628652573,-0.0001283178135054186,0.010468232445418835
0.011202705092728138,-0.00020926528668496758,-0.014792908914387226,0.01533876545727253,-0.00012582918861880898,0.010286853648722172
0.010929442010819912,-0.00020145827147644013,-0.014249736443161964,0.014914480037987232,-0.00012337001680862159,0.009893770329654217
0.010984113439917564,-0.0001942124217748642,-0.014557650312781334,0.015273739583790302,-0.00012100085587007925,0.010340658947825432
0.01142970286309719,-0.00021503190509974957,-0.014551936648786068,0.014705892652273178,-0.00011872062896145508,0.010199900716543198
0.011088483035564423,-0.00021132727852091193,-0.01495304238051176,0.014800675213336945,-0.00011652469402179122,0.010424712672829628
0.011207062751054764,-0.00020451401360332966,-0.014565653167665005,0.014445262029767036,-0.00012653802696149796,0.010236718691885471
0.011498012579977512,-0.00019808423530776054,-0.014700934290885925,0.014993483200669289,-0.0001281452423427254,0.010241919197142124
0.011427310295403004,-0.0001920457580126822,-0.013909080065786839,0.014506153762340546,-0.00012615209561772645,0.010079728439450264
0.011261481791734695,-0.00018636503955349326,-0.014601822011172771,0.014817829243838787,-0.00012399606930557638,0.010161807760596275
0.011918345466256142,-0.00019800274458248168,-0.0149740194901824,0.014399880543351173,-0.00013909663539379835,0.010420880280435085
0.011566661298274994,-0.00019562577654141933,-0.014743604697287083,0.014435450546443462,-0.0001471769792260602,0.01028159074485302
0.011304942891001701,-0.00019045255612581968,-0.014762808568775654,0.014990171417593956,-0.0001425838709110394,0.009753511287271976
0.012293953448534012,-0.00018554512644186616,-0.015308774076402187,0.01482938788831234,-0.0001621963019715622,0.010270989499986172
0.012293953448534012,-0.00018554512644186616,-0.015308774076402187,0.01482938788831234,-0.0001621963019715622,0.010270989499986172
0.01333038043230772,-0.00018088342039845884,-0.0149427754804492,0.015480873174965382,-0.00016067006799858063,0.01019223965704441
0.013162417337298393,-0.00017645071784500033,-0.015016334131360054,0.015326336026191711,-0.00015623701619915664,0.010500547476112843
0.013083054684102535,-0.0001722298184176907,-0.014827248640358448,0.015511756762862206,-0.0001518570352345705,0.010523880831897259
0.012744192034006119,-0.00016436634177807719,-0.015213104896247387,0.015189255587756634,-0.00016762534505687654,0.01026998646557331
0.012744192034006119,-0.00016436634177807719,-0.015213104896247387,0.015189255587756634,-0.00016762534505687654,0.01026998646557331
0.01282828114926815,-0.00014748514513485134,-0.015665777027606964,0.015426255762577057,-0.00018067342170979828,0.010157382115721703
0.013471568003296852,-0.00013763312017545104,-0.015227164141833782,0.015505996532738209,-0.00018160785839427263,0.010620650835335255
0.01294227410107851,-0.00015158101450651884,-0.01553258765488863,0.015521096996963024,-0.00027178984601050615,0.01007351279258728
0.013282833620905876,-0.00015058310236781836,-0.014572717249393463,0.015178808011114597,-0.00033959001302719116,0.010746960528194904
0.013424338772892952,-0.00014752709830645472,-0.015333026647567749,0.01547620166093111,-0.00032113533234223723,0.010978258214890957
0.014092436991631985,-0.00014456531789619476,-0.015115553513169289,0.014798570424318314,-0.00030008761677891016,0.010979203507304192
0.013605862855911255,-0.00012607709504663944,-0.01625269651412964,0.01489444263279438,-0.00028134038439020514,0.01152124535292387
0.013993144035339355,-0.0001216389937326312,-0.015000609681010246,0.014761810190975666,-0.0003140607150271535,0.011314581148326397
0.013540581800043583,-0.00011930863547604531,-0.015161431394517422,0.015134068205952644,-0.0002998324343934655,0.01124813687056303
0.01368687767535448,-0.00011709083628375083,-0.015234239399433136,0.015987319871783257,-0.0002842535905074328,0.01117989607155323
0.013505172915756702,-0.00011495430953800678,-0.016033895313739777,0.014690395444631577,-0.00027004722505807877,0.011016597971320152
0.01363393384963274,-0.00011289460235275328,-0.015087833628058434,0.013644793070852757,-0.000257182982750237,0.011098670773208141
0.013504245318472385,-0.00011090706539107487,-0.01465938612818718,0.014787637628614902,-0.0002454881905578077,0.011150792241096497
0.013606175780296326,-0.000108988446299918,-0.01545203011482954,0.01471051573753357,-0.00026872006128542125,0.011066198348999023
0.01388560514897108,-0.00010713508527260274,-0.015216263011097908,0.01509700808674097,-0.0002621863386593759,0.010990409180521965
0.013796940445899963,-0.00010534366447245702,-0.01541263796389103,0.014419362880289555,-0.0002520011621527374,0.010744954459369183
0.013972603715956211,-0.00010361124441260472,-0.014882360585033894,0.015420706011354923,-0.00024232662690337747,0.01104472205042839
0.013839518651366234,-0.00010193487105425447,-0.015215772204101086,0.015224553644657135,-0.0002333500888198614,0.011076320894062519
0.014198850840330124,-0.00010031188139691949,-0.014737207442522049,0.015285803936421871,-0.0002487962192390114,0.010883061215281487
0.013790758326649666,-9.873977251118049e-05,-0.015460029244422913,0.01469037588685751,-0.0002477446396369487,0.011367049999535084
0.013653621077537537,-0.00010922947694780305,-0.01519976556301117,0.014999814331531525,-0.0002322668005945161,0.011109170503914356
0.013851183466613293,-0.00010777546413009986,-0.01477712020277977,0.01549094170331955,-0.00022500941122416407,0.011177903041243553
0.013856355100870132,-9.309559391112998e-05,-0.015367033891379833,0.015564164146780968,-0.00021819010726176202,0.011369126848876476
0.014261702075600624,-9.156690066447482e-05,-0.014776602387428284,0.01538114808499813,-0.00021232700964901596,0.012024199590086937
0.01367118675261736,-9.025284089148045e-05,-0.015356871299445629,0.015297126956284046,-0.00019608291040640324,0.011599654331803322
0.01367118675261736,-9.025284089148045e-05,-0.015356871299445629,0.015297126956284046,-0.00019608291040640324,0.011599654331803322
0.014191243797540665,-8.897824591258541e-05,-0.014841265976428986,0.015177877619862556,-0.00018745545821730047,0.011429312638938427
0.01381550170481205,-8.773894660407677e-05,-0.015264295972883701,0.015063025988638401,-0.00017992901848629117,0.01164480485022068
0.014191442169249058,-8.65339461597614e-05,-0.015093217603862286,0.014359665103256702,-0.00017300868057645857,0.011559788137674332
0.013518258929252625,-8.536148379789665e-05,-0.015346922911703587,0.015050157904624939,-0.00018292004824616015,0.011582676321268082
0.014430849812924862,-8.422036626143381e-05,-0.014843808487057686,0.01505147572606802,-0.0001916736800922081,0.01178834680467844
0.0137445954605937,-8.310936391353607e-05,-0.015117489732801914,0.015492931008338928,-0.00018606532830744982,0.011980267241597176
0.014196451753377914,-8.202734170481563e-05,-0.015582909807562828,0.014894303865730762,-0.00017992993525695056,0.012223836965858936
0.013783400878310204,-8.097304089460522e-05,-0.015310549177229404,0.014806170016527176,-0.0001741315791150555,0.012108887545764446
0.01413972582668066,-7.994551560841501e-05,-0.0157355647534132,0.01427204068750143,-0.0001824814680730924,0.01249225065112114
0.014162451028823853,-7.894375448813662e-05,-0.01510618720203638,0.015266857109963894,-0.00018990867829415947,0.012918009422719479
0.014430862851440907,-7.79669062467292e-05,-0.01540540624409914,0.014776306226849556,-0.0001851715351222083,0.011800645850598812
0.01399651262909174,-3.349196049384773e-05,-0.01481411512941122,0.015199744142591953,-0.00017993745859712362,0.011963539756834507
0.01390264742076397,-2.7394131393521093e-05,-0.015553047880530357,0.014593738131225109,-0.00018721343076322228,0.012226710096001625
0.014014015905559063,-2.6909607186098583e-05,-0.015189383178949356,0.014962779358029366,-0.00019370341033209115,0.012448359280824661
0.014627099968492985,-2.6512245312915184e-05,-0.01580069027841091,0.014514392241835594,-0.00018936167180072516,0.01257350854575634
0.014356336556375027,-2.6127419914701022e-05,-0.01483889389783144,0.01520113181322813,-0.00018475123215466738,0.012670163065195084
0.01433934923261404,-2.5753595764399506e-05,-0.015321421436965466,0.014415130019187927,-0.00024585286155343056,0.012614085339009762
0.014195779338479042,-2.5390347218490206e-05,-0.015117222443223,0.015073748305439949,-0.00023752974811941385,0.013156718574464321
0.01462525874376297,-2.5037177692865953e-05,-0.015550644136965275,0.015172689221799374,-0.00022590697335544974,0.013273850083351135
0.014174667187035084,-2.4693727027624846e-05,-0.01534931268543005,0.0152752585709095,-0.00023613461235072464,0.013251512311398983
0.014361676760017872,-2.4359538656426594e-05,-0.01526765339076519,0.015538427978754044,-0.00024493204546160996,0.013268942944705486
0.014413544908165932,-2.3717640942777507e-05,-0.015285233035683632,0.015552610158920288,-0.00022575812181457877,0.012645931914448738
0.013979236595332623,-2.340919672860764e-05,-0.015589595772325993,0.015111343935132027,-0.00024340092204511166,0.012478628195822239
0.013979236595332623,-2.340919672860764e-05,-0.015589595772325993,0.015111343935132027,-0.00024340092204511166,0.012478628195822239
0.014494904316961765,-2.2815773263573647e-05,-0.015323740430176258,0.01554351020604372,-0.00023399341444019228,0.012963226065039635
0.01496930606663227,-2.253018828923814e-05,-0.015037289820611477,0.015797704458236694,-0.00024143813061527908,0.013430994004011154
0.01496930606663227,-2.253018828923814e-05,-0.015037289820611477,0.015797704458236694,-0.00024143813061527908,0.013430994004011154
0.014380879700183868,-1.15685434138868e-05,-0.015622219070792198,0.015145691111683846,-0.00024789266171865165,0.013322751969099045
0.014837908558547497,-1.0995923730661161e-05,-0.014855967834591866,0.015637479722499847,-0.00024057389236986637,0.013376723043620586
0.014282191172242165,-1.072799386747647e-05,-0.014891652390360832,0.015697874128818512,-0.0003028089413419366,0.012958800420165062
0.014282191172242165,-1.072799386747647e-05,-0.014891652390360832,0.015697874128818512,-0.0003028089413419366,0.012958800420165062
0.014224687591195107,-1.0601629583106842e-05,-0.015538501553237438,0.015062147751450539,-0.0002844274858944118,0.013341237790882587
0.01474978681653738,-1.047820296662394e-05,-0.014913767576217651,0.014990048483014107,-0.0003069765807595104,0.013125811703503132
0.014571281149983406,-1.0357622159062885e-05,-0.015542563050985336,0.014561517164111137,-0.0003021268639713526,0.013663413934409618
0.01513156108558178,-1.023978074954357e-05,-0.01498754695057869,0.015990858897566795,-0.0002868778246920556,0.013310729525983334
0.014676575548946857,-1.0124593245564029e-05,-0.015143380500376225,0.014788119122385979,-0.0002946105960290879,0.01320188120007515
0.014845451340079308,-1.0011962331191171e-05,-0.015288550406694412,0.01455279067158699,-0.00030107537168078125,0.013200193643569946
0.014167729765176773,-3.379323516128352e-06,-0.01548836287111044,0.014592448249459267,-0.0002886227739509195,0.01292453147470951
0.014679051004350185,-4.533794140115788e-08,-0.01488281600177288,0.014838414266705513,-0.00031023018527776003,0.012849703431129456
0.014386261813342571,-6.082663261963717e-10,-0.015026358887553215,0.014834736473858356,-0.00030191318364813924,0.012850328348577023
0.01556076854467392,-8.160669189016811e-12,-0.01571587473154068,0.015026678331196308,-0.0002900554100051522,0.013411111198365688
0.015127163380384445,-1.0948579147245993e-13,-0.015588426031172276,0.015044186264276505,-0.00033335218904539943,0.014022240415215492
0.014976500533521175,-1.4688916087225831e-15,-0.016268949955701828,0.014853944070637226,-0.00035929083242081106,0.013982782140374184
0.014895222149789333,-1.970705531592875e-17,-0.015259540639817715,0.014842056669294834,-0.00036536777042783797,0.0138078723102808
0.015534929931163788,-2.6439530640671587e-19,-0.015955887734889984,0.014869208447635174,-0.00037196307675912976,0.013827248476445675
0.014765234664082527,-3.547200074839569e-21,-0.015103904530405998,0.015121512115001678,-0.00037557780160568655,0.013859090395271778
0.014827811159193516,-4.759021451899957e-23,-0.015300821512937546,0.014805558137595654,-0.0003808232140727341,0.014272531494498253
0.015036314725875854,-6.384834569985446e-25,-0.015035755932331085,0.014449745416641235,-0.00038354017306119204,0.013114131055772305
0.015031854622066021,-8.566069547215906e-27,-0.015890557318925858,0.01434708945453167,-0.00036556783015839756,0.013466485776007175
0.015285633504390717,-1.1492475367989352e-28,-0.01562479231506586,0.014875402674078941,-0.0004786529461853206,0.013609131798148155
0.015805555507540703,-2.0686051304079094e-32,-0.015184733085334301,0.015262667089700699,-0.000503860239405185,0.014131383039057255
0.01522902213037014,-2.7752978516645246e-34,-0.01496050413697958,0.014674345031380653,-0.00047019441262818873,0.014236070215702057
0.01522902213037014,-2.7752978516645246e-34,-0.01496050413697958,0.014674345031380653,-0.00047019441262818873,0.014236070215702057
0.015066739171743393,-3.7234163818647236e-36,-0.016014786437153816,0.015032622031867504,-0.0005001883837394416,0.013814624398946762
0.015141853131353855,-4.995438448726825e-38,-0.015896763652563095,0.014666358940303326,-0.00046747003216296434,0.014019783586263657
0.015303934924304485,-6.702018191295589e-40,-0.015674486756324768,0.014386042952537537,-0.0004932719748467207,0.013856656849384308
0.015137283131480217,-8.992132245572351e-42,-0.015635119751095772,0.014557267539203167,-0.0004651794442906976,0.014239002019166946
0.015641819685697556,-1.2051166793193427e-43,-0.016047745943069458,0.014972692355513573,-0.00048520139534957707,0.013775750063359737
0.015346999280154705,-1.401298464324817e-45,-0.015050109475851059,0.015035601332783699,-0.0004810196696780622,0.013653573580086231
0.015742361545562744,-0.0,-0.016005733981728554,0.015483097173273563,-0.00043735196231864393,0.013531732372939587
0.015721028670668602,0.0,-0.014977202750742435,0.015225687064230442,-0.00039875798393040895,0.014369835145771503
0.016720285639166832,0.0,-0.017128773033618927,0.015379420481622219,-0.0003662792150862515,0.014270651154220104
0.01683550328016281,0.0,-0.014933576807379723,0.015017731115221977,-0.0003386891621630639,0.014134147204458714
0.016497895121574402,0.0,-0.015234926715493202,0.015472841449081898,-0.00037353549851104617,0.013897189870476723
0.016958119347691536,0.0,-0.015627246350049973,0.015656383708119392,-0.0003529312089085579,0.014611843042075634
0.0166196096688509,0.0,-0.015882330015301704,0.016377706080675125,-0.00033150502713397145,0.014512703754007816
0.01713748462498188,0.0,-0.01583833061158657,0.015775974839925766,-0.0003123384085483849,0.014586912468075752
0.016746845096349716,0.0,-0.015570199117064476,0.01562619023025036,-0.00034106403472833335,0.014465419575572014
0.016914529725909233,0.0,-0.015656733885407448,0.01569291204214096,-0.00032637742697261274,0.014664617367088795
0.016909455880522728,0.0,-0.015130141749978065,0.015221192501485348,-0.0003104819916188717,0.014352956786751747
0.016631191596388817,0.0,-0.01587716117501259,0.01498355157673359,-0.00031655572820454836,0.014464739710092545
0.01712455227971077,0.0,-0.015115185640752316,0.014622300863265991,-0.0003215941251255572,0.014224533922970295
0.01696322299540043,0.0,-0.015858378261327744,0.015197467058897018,-0.0003090419340878725,0.014513751491904259
0.01708688773214817,0.0,-0.015237702056765556,0.015489532612264156,-0.00029639931744895875,0.014656784944236279
0.017440032213926315,0.0,-0.015705188736319542,0.01612989977002144,-0.00028468368691392243,0.01543627679347992
0.01712665893137455,7.349751831497997e-05,-0.015534154139459133,0.01545507088303566,-0.0002517412358429283,0.015395967289805412
0.017213672399520874,0.00023780667106620967,-0.015997905284166336,0.01493806578218937,-0.00022402896138373762,0.014879928901791573
0.01761760376393795,0.00022590042499359697,-0.01599089615046978,0.015184702351689339,-0.00025314383674412966,0.014775507152080536
0.01773577183485031,0.00021510176884476095,-0.015787087380886078,0.014903439208865166,-0.0002442820114083588,0.014579279348254204
0.01731443777680397,0.00020528826280497015,-0.015107951126992702,0.015255200676620007,-0.0002701881167013198,0.016281722113490105
0.01775171048939228,0.00023399671772494912,-0.016087114810943604,0.01527301874011755,-0.00027963280444964767,0.014918556436896324
0.017408955842256546,0.00022572655871044844,-0.015493413433432579,0.015430155210196972,-0.0002857204235624522,0.015222939662635326
0.0176479984074831,0.00024038483388721943,-0.016040155664086342,0.015368969179689884,-0.0004547335847746581,0.015596017241477966
0.01754041761159897,0.00024288361601065844,-0.015164047479629517,0.015408891253173351,-0.0004656367236748338,0.015211100690066814
0.01754041761159897,0.00024288361601065844,-0.015164047479629517,0.015408891253173351,-0.0004656367236748338,0.015211100690066814
0.017480922862887383,0.0002340191713301465,-0.015488103032112122,0.015822265297174454,-0.0005043880664743483,0.015181242488324642
0.01812618225812912,0.00022563980019185692,-0.015162590891122818,0.015382996760308743,-0.00046621012734249234,0.015690062195062637
0.0178839098662138,0.00024061904696282,-0.015196203254163265,0.014970577321946621,-0.0004634743672795594,0.016089199110865593
0.0178839098662138,0.00024061904696282,-0.015196203254163265,0.014970577321946621,-0.0004634743672795594,0.016089199110865593
0.018010079860687256,0.0003109081881120801,-0.015720129013061523,0.015749668702483177,-0.0004855470033362508,0.015559056773781776
0.018214285373687744,0.00030045941821299493,-0.015779683366417885,0.01639610156416893,-0.00046171649591997266,0.01532107312232256
0.01846548356115818,0.000281781074590981,-0.015526172704994678,0.014768335036933422,-0.0005047948798164725,0.015828153118491173
0.01875973492860794,0.0003160232736263424,-0.01535242609679699,0.01474708877503872,-0.0005225841887295246,0.015781594440340996
0.01865595206618309,0.00030047071049921215,-0.015103066340088844,0.01575513556599617,-0.0005156569532118738,0.015582411549985409
0.018998293206095695,0.00031573354499414563,-0.015821803361177444,0.015372779220342636,-0.000511367223225534,0.015850204974412918
0.018295815214514732,0.00031524975202046335,-0.015211790800094604,0.015216507948935032,-0.0005051333573646843,0.016245221719145775
0.01798884943127632,0.0003382464055903256,-0.015585210174322128,0.01539920549839735,-0.0005022730911150575,0.016417574137449265
0.019157718867063522,0.00032764673233032227,-0.01522534154355526,0.015569360926747322,-0.0004974620533175766,0.01658705249428749
0.019484881311655045,0.00046802847646176815,-0.015802953392267227,0.015796123072504997,-0.00047006006934680045,0.016690094023942947
0.01913766749203205,0.0005055712535977364,-0.015571638941764832,0.01536934170871973,-0.0005324779776856303,0.016257481649518013
0.018973570317029953,0.0004709518689196557,-0.016151385381817818,0.0157519169151783,-0.0005726963863708079,0.016178423538804054
0.019359957426786423,0.0005044406279921532,-0.016186119988560677,0.015101569704711437,-0.0005873615737073123,0.015997521579265594
0.01923714205622673,0.0005115808453410864,-0.015744265168905258,0.015183661133050919,-0.0006139317410998046,0.016473617404699326
0.01980610005557537,0.0004974918556399643,-0.016436273232102394,0.01497271005064249,-0.0005834997282363474,0.017044752836227417
0.0196288600564003,0.0006455362890847027,-0.015611613169312477,0.015631049871444702,-0.0007223390857689083,0.017221620306372643
0.019182762131094933,0.0006880335276946425,-0.01618693396449089,0.014921717345714569,-0.0007588705630041659,0.016909152269363403
0.019582370296120644,0.0006890158401802182,-0.015932422131299973,0.014992590993642807,-0.0006800653645768762,0.016175244003534317
0.01934586465358734,0.0006501003517769277,-0.015930240973830223,0.014563065953552723,-0.0006914568948559463,0.016330009326338768
0.019418492913246155,0.000672651338391006,-0.015740040689706802,0.015209847129881382,-0.000633625837508589,0.016693999990820885
0.020561061799526215,0.0007690985221415758,-0.016242362558841705,0.015220951288938522,-0.0005833588656969368,0.016641715541481972
0.02016347460448742,0.0007094172760844231,-0.016714490950107574,0.015283240005373955,-0.0005554623203352094,0.016600720584392548
0.0202028825879097,0.0007304808241315186,-0.016642317175865173,0.0156847033649683,-0.000516696716658771,0.017620950937271118
0.02070038951933384,0.000748080259654671,-0.015818079933524132,0.016132429242134094,-0.00048410138697363436,0.015917152166366577
0.020543426275253296,0.0009324232232756913,-0.016902968287467957,0.015974219888448715,-0.00042394112097099423,0.01626547984778881
0.02022019401192665,0.0009663966484367847,-0.016496028751134872,0.01630575954914093,-0.00038652803050354123,0.016715608537197113
0.020350856706500053,0.0009579860488884151,-0.01694849692285061,0.015810901299118996,-0.0003903286124113947,0.016683073714375496
0.020350856706500053,0.0009579860488884151,-0.01694849692285061,0.015810901299118996,-0.0003903286124113947,0.016683073714375496
0.02043183520436287,0.0010570829035714269,-0.016837775707244873,0.015926068648695946,-0.00039332013693638146,0.016753610223531723
0.020684540271759033,0.001096254214644432,-0.016310032457113266,0.01549670472741127,-0.00036852259654551744,0.01678020879626274
0.02031696029007435,0.0010280472924932837,-0.017593329772353172,0.015798548236489296,-0.00038742745527997613,0.017073770985007286
0.020733729004859924,0.0009235581965185702,-0.016341468319296837,0.015368197113275528,-0.00037743127904832363,0.017038898542523384
0.02112676203250885,0.0009192826109938323,-0.016997532919049263,0.015914365649223328,-0.0003817503456957638,0.017228415235877037
0.02135401964187622,0.0009463567403145134,-0.01653236150741577,0.016007130965590477,-0.00038437065086327493,0.017685743048787117
0.020825572311878204,0.000973274523857981,-0.016764862462878227,0.016008732840418816,-0.00036631576949730515,0.017641883343458176
0.02081230841577053,0.0009736401261761785,-0.01731027662754059,0.01600378192961216,-0.00034866947680711746,0.017427342012524605
0.02120625413954258,0.0013771129306405783,-0.01694139465689659,0.015782544389367104,-0.0003719002415891737,0.01745016500353813
0.020865805447101593,0.0014346438692882657,-0.017333418130874634,0.016098367050290108,-0.0003494883421808481,0.01770833134651184
0.021526357159018517,0.0017596360994502902,-0.017062662169337273,0.01565679721534252,-0.00038505138945765793,0.01752573437988758
0.021524103358387947,0.001806106069125235,-0.016891688108444214,0.01619574800133705,-0.0003631125146057457,0.016979359090328217
0.02137456089258194,0.0016579602379351854,-0.016885897144675255,0.01603216491639614,-0.0003680649388115853,0.017371399328112602
0.0211808942258358,0.0016737286932766438,-0.016503822058439255,0.016300352290272713,-0.0003717562649399042,0.0174717977643013
0.021695014089345932,0.001552659785374999,-0.016944611445069313,0.015583541244268417,-0.0003526070504449308,0.01761624589562416
0.02181442640721798,0.0015014344826340675,-0.016594557091593742,0.015558913350105286,-0.0003692055179271847,0.017847681418061256
0.02153082564473152,0.0015695939073339105,-0.017224380746483803,0.0159770455211401,-0.0003616947797127068,0.017808835953474045
0.0212000273168087,0.0018937401473522186,-0.016738232225179672,0.016171537339687347,-0.00034507710370235145,0.01812921091914177
0.02184458076953888,0.0019665411673486233,-0.016746703535318375,0.01684989035129547,-0.0003724092966876924,0.01832500472664833
0.022115012630820274,0.0021238899789750576,-0.0171985886991024,0.016046976670622826,-0.00041907443664968014,0.018081288784742355
0.021577676758170128,0.0019586479756981134,-0.017351478338241577,0.015641583129763603,-0.00039428877062164247,0.01815962605178356
0.021789144724607468,0.001862479723058641,-0.016755424439907074,0.015877801924943924,-0.0003675891493912786,0.018059607595205307
0.021789144724607468,0.001862479723058641,-0.016755424439907074,0.015877801924943924,-0.0003675891493912786,0.018059607595205307
0.022737285122275352,0.001821752986870706,-0.01680503413081169,0.015883134678006172,-0.0003937354777008295,0.018286393955349922
0.02216985821723938,0.00197576149366796,-0.01677662320435047,0.016826186329126358,-0.00035607157042250037,0.018078314140439034
0.020096896216273308,0.00201631267555058,-0.016851089894771576,0.01639852114021778,-0.0003370443591848016,0.018733790144324303
0.02237548492848873,0.0024526789784431458,-0.01630236767232418,0.016496429219841957,-0.000319924030918628,0.017522187903523445
0.02237548492848873,0.0024526789784431458,-0.01630236767232418,0.016496429219841957,-0.000319924030918628,0.017522187903523445
0.02277379296720028,0.0026824718806892633,-0.01698189415037632,0.01599973440170288,-0.0003044583718292415,0.01784466952085495
0.02232481725513935,0.0024747068528085947,-0.017150426283478737,0.01628294587135315,-0.0002904195280279964,0.018309229984879494
0.021693982183933258,0.002268141135573387,-0.016603980213403702,0.016176017001271248,-0.000277619285043329,0.01852613501250744
0.02253156527876854,0.0022059916518628597,-0.01703903265297413,0.016758929938077927,-0.00030129449442029,0.01886722631752491
0.02237132005393505,0.0023065670393407345,-0.01644027605652809,0.016557462513446808,-0.00029140710830688477,0.019160209223628044
0.022513654083013535,0.0025908902753144503,-0.016985507681965828,0.016065800562500954,-0.00028021412435919046,0.019346600398421288
0.022373227402567863,0.002516839187592268,-0.016640979796648026,0.01624434068799019,-0.0002697249874472618,0.01950540393590927
0.022488657385110855,0.002742445794865489,-0.016720924526453018,0.015439387410879135,-0.00026044645346701145,0.01878461427986622
0.02209515869617462,0.002823360962793231,-0.01676100119948387,0.016667300835251808,-0.00024688756093382835,0.018376629799604416
0.022196512669324875,0.0024544198531657457,-0.01645384356379509,0.015179277397692204,-0.00023408839479088783,0.018614208325743675
0.022627245634794235,0.0024832969065755606,-0.016978247091174126,0.015450309962034225,-0.00022251250629778951,0.018625570461153984
0.023032695055007935,0.002642669016495347,-0.016484320163726807,0.0156695619225502,-0.00021202526113484055,0.01886495016515255
0.02314135618507862,0.0033149607479572296,-0.016987744718790054,0.016200106590986252,-0.00024021051649469882,0.01907867006957531
0.022816315293312073,0.0032366602681577206,-0.016480611637234688,0.01594865508377552,-0.00023233381216414273,0.018548229709267616
0.02275499887764454,0.003481373656541109,-0.016599975526332855,0.015845298767089844,-0.00022290255583357066,0.019124537706375122
0.022422995418310165,0.003171780379489064,-0.01696273870766163,0.016062363982200623,-0.0002450033789500594,0.01941712014377117
0.022851482033729553,0.003242594189941883,-0.01652969978749752,0.01594053953886032,-0.00023991908528842032,0.01952887326478958
0.02331407554447651,0.0033165577333420515,-0.0172099769115448,0.016233017668128014,-0.0002475740038789809,0.019506540149450302
0.022953618317842484,0.003650066675618291,-0.016612406820058823,0.016296446323394775,-0.0002462889242451638,0.01826634258031845
0.023215414956212044,0.0038121873512864113,-0.016771061345934868,0.016087491065263748,-0.0002391336893197149,0.018820373341441154
0.023215414956212044,0.0038121873512864113,-0.016771061345934868,0.016087491065263748,-0.0002391336893197149,0.018820373341441154
0.02296321652829647,0.003917500376701355,-0.016668595373630524,0.016180314123630524,-0.00030966976191848516,0.01934104599058628
0.02344324067234993,0.0034279031679034233,-0.01729399524629116,0.016020556911826134,-0.00029505763086490333,0.01910788007080555
0.023297423496842384,0.003552788868546486,-0.016979334875941277,0.016206169500947,-0.0003251867019571364,0.019493723288178444
0.023324940353631973,0.0033378442749381065,-0.017278188839554787,0.016646720468997955,-0.00031291405321098864,0.019711874425411224
0.022950202226638794,0.003542083315551281,-0.0171304102987051,0.016017867252230644,-0.00033257147879339755,0.01925339177250862
0.023082071915268898,0.004275964107364416,-0.01695842668414116,0.01642981357872486,-0.0003267491119913757,0.019402379170060158
0.0233527310192585,0.0036341736558824778,-0.017377862706780434,0.016482612118124962,-0.0003330585896037519,0.01962140016257763
0.023494262248277664,0.003558167489245534,-0.016131214797496796,0.016508912667632103,-0.00033762853126972914,0.019416412338614464
0.023551929742097855,0.003683428978547454,-0.01689831167459488,0.016380485147237778,-0.0003237639903090894,0.020294955000281334
0.023570923134684563,0.003762743901461363,-0.016871638596057892,0.016036290675401688,-0.0003111246624030173,0.019139260053634644
0.02342182956635952,0.0037502411287277937,-0.01742187887430191,0.016589967533946037,-0.0004010248521808535,0.019275406375527382
0.02364276349544525,0.003732625162228942,-0.01732581853866577,0.016168782487511635,-0.00044009656994603574,0.01981486938893795
0.023863591253757477,0.004127832129597664,-0.016368165612220764,0.01620430126786232,-0.0004155388451181352,0.01984027773141861
0.024133233353495598,0.004256802145391703,-0.017524274066090584,0.016154158860445023,-0.00041764695197343826,0.019721372053027153
0.02374076656997204,0.004048805218189955,-0.0168906282633543,0.016524609178304672,-0.00041855324525386095,0.019955545663833618
0.02383078634738922,0.0044597480446100235,-0.017282957211136818,0.016853636130690575,-0.0004429309628903866,0.02003248780965805
0.02420954592525959,0.004270089324563742,-0.017293116077780724,0.01677555777132511,-0.00042363785905763507,0.019656481221318245
0.024574384093284607,0.003952519502490759,-0.01693654991686344,0.01680920645594597,-0.0005192997050471604,0.019897839054465294
0.024391958490014076,0.00397523632273078,-0.017617665231227875,0.015981394797563553,-0.0005752501892857254,0.020279742777347565
0.023032257333397865,0.004004506394267082,-0.016750674694776535,0.015745462849736214,-0.0005863042315468192,0.02032238431274891
0.02429090440273285,0.004483139608055353,-0.01700112409889698,0.014991174452006817,-0.0005738974432460964,0.020034421235322952
0.02489529922604561,0.0046674711629748344,-0.017130466178059578,0.01544472761452198,-0.0005837854696437716,0.020375190302729607
0.025043891742825508,0.004476247355341911,-0.016618099063634872,0.015481710433959961,-0.0005560036515817046,0.020601673051714897
0.024585237726569176,0.004558938089758158,-0.017509227618575096,0.01616305112838745,-0.0006740833632647991,0.020424092188477516
0.024386174976825714,0.004334809258580208,-0.017102720215916634,0.01590117998421192,-0.0006157209863886237,0.020437533035874367
0.02414936199784279,0.004916216246783733,-0.017043452709913254,0.01610717736184597,-0.0005742069333791733,0.021398479118943214
0.02414936199784279,0.004916216246783733,-0.017043452709913254,0.01610717736184597,-0.0005742069333791733,0.021398479118943214
0.024627264589071274,0.004533390514552593,-0.0168597549200058,0.016056906431913376,-0.0006008603959344327,0.020913053303956985
0.025128038600087166,0.004545158706605434,-0.01746443286538124,0.016917072236537933,-0.0005533905932679772,0.020708560943603516
0.024309389293193817,0.004630155395716429,-0.016582069918513298,0.01684531196951866,-0.0005765382666140795,0.02012193575501442
0.0258212648332119,0.004544197116047144,-0.01699371077120304,0.016265125945210457,-0.0005237142322584987,0.020341355353593826
0.0258212648332119,0.004544197116047144,-0.01699371077120304,0.016265125945210457,-0.0005237142322584987,0.020341355353593826
0.0252559632062912,0.004548588767647743,-0.017205607146024704,0.0160678643733263,-0.0005529746995307505,0.02085355669260025
0.0252598337829113,0.004524284042418003,-0.01736663654446602,0.015835870057344437,-0.0005529125337488949,0.021539896726608276
0.02496546134352684,0.004898931831121445,-0.01672162488102913,0.015536034479737282,-0.0005431901663541794,0.02094115875661373
0.024659104645252228,0.004869443830102682,-0.017162661999464035,0.015973946079611778,-0.0005642624455504119,0.021169867366552353
0.024978654459118843,0.0049427589401602745,-0.016833379864692688,0.015791883692145348,-0.0006385563756339252,0.021224815398454666
0.024998566135764122,0.004581921733915806,-0.01701054908335209,0.016883743926882744,-0.0006506284698843956,0.021522577852010727
0.025180771946907043,0.004803669173270464,-0.017363637685775757,0.016416486352682114,-0.0006728862645104527,0.02077428810298443
0.025428099557757378,0.0048285298980772495,-0.016990508884191513,0.016226522624492645,-0.0006104685016907752,0.020670201629400253
0.025691621005535126,0.004947357345372438,-0.017186881974339485,0.016018318012356758,-0.0006340795080177486,0.020669717341661453
0.02605828456580639,0.004640168976038694,-0.017125247046351433,0.016165824607014656,-0.0005811297451145947,0.020876696333289146
0.025673585012555122,0.004903364926576614,-0.017298966646194458,0.01620395854115486,-0.0006029662908986211,0.020611833781003952
0.025206690654158592,0.0048855021595954895,-0.01800736039876938,0.015997907146811485,-0.0005647293874062598,0.02142501063644886
0.025225508958101273,0.0038077719509601593,-0.01745343953371048,0.015865972265601158,-0.0005545891472138464,0.021614357829093933
0.025345105677843094,0.00264454516582191,-0.01775059662759304,0.015445796772837639,-0.0005826256820000708,0.02134997770190239
0.025096001103520393,0.0021234077867120504,-0.017425406724214554,0.016490496695041656,-0.0005796378827653825,0.02141483686864376
0.02550758793950081,0.0014411380980163813,-0.017614973708987236,0.016592811793088913,-0.0005671026301570237,0.021484950557351112
0.025403514504432678,0.0015429484192281961,-0.017931904643774033,0.016149776056408882,-0.0005773979355581105,0.021494610235095024
0.025716818869113922,0.0024970732629299164,-0.01712982915341854,0.015883613377809525,-0.0005503750289790332,0.021580006927251816
0.026065466925501823,0.0035930080339312553,-0.017836809158325195,0.016188541427254677,-0.0005123113514855504,0.021813208237290382
0.026211949065327644,0.0027527729980647564,-0.017615776509046555,0.015903139486908913,-0.0005033239140175283,0.021962957456707954
0.02653438225388527,0.002258028369396925,-0.017867345362901688,0.01639542169868946,-0.0005374815664254129,0.021948525682091713
0.02632737345993519,0.0020549169275909662,-0.017733005806803703,0.0158027745783329,-0.0004938272177241743,0.021987183019518852
0.02551066130399704,0.0019868246745318174,-0.01799546182155609,0.015487083233892918,-0.0004527448327280581,0.02238992229104042
0.02551066130399704,0.0019868246745318174,-0.01799546182155609,0.015487083233892918,-0.0004527448327280581,0.02238992229104042
0.02599257230758667,0.0023368406109511852,-0.01804545149207115,0.015029319562017918,-0.00048240492469631135,0.022522443905472755
0.02607514150440693,0.002342810621485114,-0.017632585018873215,0.015843667089939117,-0.00045199700980447233,0.022162403911352158
0.02677660621702671,0.002496581058949232,-0.017932722344994545,0.016179298982024193,-0.0004663242434617132,0.022462906315922737
0.027379149571061134,0.0021889545023441315,-0.01800384558737278,0.016366541385650635,-0.00045094918459653854,0.02257235161960125
0.027763094753026962,0.0020708893425762653,-0.01811639778316021,0.016213983297348022,-0.0004440332413651049,0.02229689061641693
0.026297543197870255,0.0018926970660686493,-0.01885271444916725,0.016093367710709572,-0.00042288750410079956,0.022393088787794113
0.026297543197870255,0.0018926970660686493,-0.01885271444916725,0.016093367710709572,-0.00042288750410079956,0.022393088787794113
0.026946865022182465,0.0022211065515875816,-0.018281061202287674,0.01591682620346546,-0.0004234033985994756,0.02235124632716179
0.02725246548652649,0.0021638565231114626,-0.01814485713839531,0.016440805047750473,-0.0004452290013432503,0.022454887628555298
0.026795528829097748,0.002389833563938737,-0.017264636233448982,0.01624991185963154,-0.00043021165765821934,0.02279217354953289
0.027189552783966064,0.002527602482587099,-0.018140358850359917,0.016571396961808205,-0.000453489541541785,0.02286779321730137
0.027921639382839203,0.0024222799111157656,-0.018112139776349068,0.016340045258402824,-0.0005261854385025799,0.022914579138159752
0.027561495080590248,0.0025362474843859673,-0.018015895038843155,0.01628873124718666,-0.0005517271929420531,0.022794265300035477
0.027145393192768097,0.0025470948312431574,-0.01811990886926651,0.016737964004278183,-0.0005888206651434302,0.02284201793372631
0.026902899146080017,0.0024228966794908047,-0.017756270244717598,0.016946343705058098,-0.0006196799804456532,0.022815536707639694
0.0271022766828537,0.0025192848406732082,-0.018135612830519676,0.01750526763498783,-0.0006395893869921565,0.022560181096196175
0.02784094028174877,0.002716116374358535,-0.018232563510537148,0.01727793924510479,-0.0008019445231184363,0.022725963965058327
0.02783677913248539,0.002844800939783454,-0.017811181023716927,0.016825854778289795,-0.0007412511622533202,0.023033732548356056
0.027974648401141167,0.002911811461672187,-0.01763468235731125,0.017078164964914322,-0.0007585952407680452,0.02303875982761383
0.027757644653320312,0.002897175494581461,-0.017547473311424255,0.01650310680270195,-0.0007681819843128324,0.023346995934844017
0.02805260941386223,0.0030861946288496256,-0.018458174541592598,0.016012314707040787,-0.0007167815347202122,0.023074626922607422
0.026991358026862144,0.00288588460534811,-0.017505591735243797,0.01629883423447609,-0.000693886133376509,0.023149289190769196
0.026991358026862144,0.00288588460534811,-0.017505591735243797,0.01629883423447609,-0.000693886133376509,0.023149289190769196
0.028579767793416977,0.003341919044032693,-0.01891210302710533,0.016819549724459648,-0.0006406808970496058,0.02230965346097946
0.028579767793416977,0.003341919044032693,-0.01891210302710533,0.016819549724459648,-0.0006406808970496058,0.02230965346097946
0.028529439121484756,0.0031803292222321033,-0.018325550481677055,0.017361050471663475,-0.0006646862020716071,0.02296716347336769
0.028672264888882637,0.0033876511733978987,-0.01827632077038288,0.01699758693575859,-0.0006871112855151296,0.024111978709697723
0.028348643332719803,0.0032295736018568277,-0.01838737353682518,0.017185229808092117,-0.0007782427710480988,0.024340743198990822
0.028685597702860832,0.0030523480381816626,-0.018002307042479515,0.01717074029147625,-0.0008124512969516218,0.0230809785425663
0.028546888381242752,0.003090025158599019,-0.018720900639891624,0.016619842499494553,-0.0008168743806891143,0.022408802062273026
0.029041288420557976,0.0032230280339717865,-0.018762899562716484,0.016386181116104126,-0.0007861939957365394,0.02306140772998333
0.028878239914774895,0.003176094964146614,-0.018438933417201042,0.01597888581454754,-0.0007502025691792369,0.024069974198937416
0.02867179363965988,0.003542217193171382,-0.018863366916775703,0.01690158061683178,-0.0007715870160609484,0.023618264123797417
0.028937963768839836,0.0033155756536871195,-0.01868506148457527,0.016826868057250977,-0.0007875484880059958,0.023604964837431908
0.029139919206500053,0.00307935057207942,-0.018763219937682152,0.016812151297926903,-0.000715449801646173,0.0245216004550457
0.029570145532488823,0.0030067418701946735,-0.01893199048936367,0.016601961106061935,-0.0007312751258723438,0.025601504370570183
0.02964743599295616,0.0032032423187047243,-0.018717875704169273,0.01627526432275772,-0.0007422176422551274,0.024392850697040558
0.029167216271162033,0.0036003279965370893,-0.018785007297992706,0.01693701185286045,-0.000690992979798466,0.023169655352830887
0.029509112238883972,0.003525833133608103,-0.018907582387328148,0.01658143661916256,-0.0006904565962031484,0.022994179278612137
0.029688984155654907,0.0034478106535971165,-0.01897151954472065,0.01658281683921814,-0.0007163711707107723,0.023900555446743965
0.03012944757938385,0.003670930629596114,-0.019134020432829857,0.016520898789167404,-0.0006902694585733116,0.024845214560627937
0.03006632812321186,0.0038977141957730055,-0.019029712304472923,0.016826655715703964,-0.0006635913741774857,0.024924013763666153
0.029923023656010628,0.0035852566361427307,-0.018427370116114616,0.01751948893070221,-0.000677211326546967,0.025022659450769424
0.02995459921658039,0.0034850568044930696,-0.01884172484278679,0.017302347347140312,-0.0006283329566940665,0.024712080135941505
0.03050398640334606,0.0036404868587851524,-0.01911710575222969,0.01715783402323723,-0.0006318551022559404,0.024451319128274918
0.03140753507614136,0.0037866022903472185,-0.018704216927289963,0.01652325503528118,-0.0006677865167148411,0.02446410059928894
0.028785036876797676,0.0037257936783134937,-0.018909916281700134,0.01650463044643402,-0.0006278731161728501,0.024642573669552803
0.031001709401607513,0.0042417459189891815,-0.018506987020373344,0.01676364615559578,-0.0005735213635489345,0.024509061127901077
0.031001709401607513,0.0042417459189891815,-0.018506987020373344,0.01676364615559578,-0.0005735213635489345,0.024509061127901077
0.03146231174468994,0.004143652971833944,-0.019145864993333817,0.017182182520627975,-0.0005955544766038656,0.024347815662622452
0.030967479571700096,0.004004094749689102,-0.019358256831765175,0.017241625115275383,-0.0005542418803088367,0.02463856339454651
0.03162708133459091,0.003969855140894651,-0.018427886068820953,0.017225930467247963,-0.0005666884244419634,0.024560220539569855
0.03204828128218651,0.0045468490570783615,-0.01902369037270546,0.01696678251028061,-0.00057084986474365,0.024544980376958847
0.031657878309488297,0.004607852548360825,-0.01932808943092823,0.01722129061818123,-0.0005578889977186918,0.024792911484837532
0.030494673177599907,0.003633820451796055,-0.018772652372717857,0.01778079755604267,-0.0005703719216398895,0.02498004026710987
0.031171269714832306,0.0035020606592297554,-0.01905685104429722,0.01733318157494068,-0.0005407166900113225,0.024702690541744232
0.032097723335027695,0.003863223595544696,-0.018842678517103195,0.017449256032705307,-0.000533639220520854,0.02480573020875454
0.031688392162323,0.004586511757224798,-0.019088873639702797,0.017218180000782013,-0.0005261957994662225,0.025049341842532158
0.031914934515953064,0.004718834534287453,-0.019390780478715897,0.016821974888443947,-0.0004922676016576588,0.024888835847377777
0.03219853714108467,0.004268436226993799,-0.018871624022722244,0.016897380352020264,-0.0004626952577382326,0.02514665760099888
0.03186142072081566,0.0042473445646464825,-0.018877476453781128,0.016315408051013947,-0.0004743075405713171,0.024742750450968742
0.03213758021593094,0.004602409899234772,-0.01919417642056942,0.016906321048736572,-0.0004743626923300326,0.025094693526625633
0.031884126365184784,0.004661803599447012,-0.019457699730992317,0.017303526401519775,-0.0004709395579993725,0.025976287201046944
0.03190859407186508,0.004814122803509235,-0.019222235307097435,0.01747659407556057,-0.0004980461671948433,0.026224032044410706
0.03195152059197426,0.004857158754020929,-0.019811073318123817,0.01749669946730137,-0.0004695909155998379,0.0253662820905447
0.032031092792749405,0.004828786943107843,-0.019657591357827187,0.016875825822353363,-0.0004375254502519965,0.02454315312206745
0.03186561167240143,0.004644486121833324,-0.018945667892694473,0.01688760705292225,-0.00046349718468263745,0.02440614067018032
0.032236646860837936,0.0047060651704669,-0.019409170374274254,0.01647978089749813,-0.0004387871886137873,0.025419650599360466
0.03223423287272453,0.00448345672339201,-0.019503707066178322,0.016889410093426704,-0.00048003182746469975,0.025682397186756134
0.03241584450006485,0.00438957754522562,-0.019911352545022964,0.017040802165865898,-0.000498649082146585,0.025833092629909515
0.032325953245162964,0.004873125813901424,-0.01939401589334011,0.0174378901720047,-0.0005205607740208507,0.026119709014892578
0.033291589468717575,0.004777633119374514,-0.01939905248582363,0.017280466854572296,-0.000523089780472219,0.025822686031460762
0.033291589468717575,0.004777633119374514,-0.01939905248582363,0.017280466854572296,-0.000523089780472219,0.025822686031460762
0.032078392803668976,0.00432543596252799,-0.020534362643957138,0.01732437126338482,-0.0005170470685698092,0.02521066553890705
0.030903887003660202,0.004462132696062326,-0.020199107006192207,0.017228003591299057,-0.0006642713560722768,0.024831710383296013
0.03125949949026108,0.005039514973759651,-0.018592288717627525,0.01688193716108799,-0.0006917014252394438,0.025303242728114128
0.03284565359354019,0.005161463748663664,-0.0198514387011528,0.017621170729398727,-0.0006384600419551134,0.026339903473854065
0.032436419278383255,0.004881459288299084,-0.019676975905895233,0.01743808202445507,-0.0006610152777284384,0.026381760835647583
0.03308485448360443,0.004748029168695211,-0.01879121921956539,0.017652124166488647,-0.0006035203114151955,0.026052484288811684
0.032882750034332275,0.004790204577147961,-0.019697917625308037,0.01715787500143051,-0.0006188989500515163,0.026139797642827034
0.032681699842214584,0.004433081950992346,-0.02003578096628189,0.016981761902570724,-0.0005783942760899663,0.026236094534397125
0.03184642642736435,0.004525889176875353,-0.01898890733718872,0.01775096356868744,-0.0005732029094360769,0.02629040740430355
0.031966857612133026,0.004540161695331335,-0.019490892067551613,0.017774643376469612,-0.0005218922160565853,0.026132427155971527
0.03232887387275696,0.005208706483244896,-0.019649334251880646,0.01782361976802349,-0.0005369200953282416,0.02607296034693718
0.03294171392917633,0.0050322869792580605,-0.019407466053962708,0.017823925241827965,-0.0005075153894722462,0.02660583332180977
0.03304993733763695,0.0045347511768341064,-0.01952574960887432,0.016696391627192497,-0.0005026114522479475,0.026650112122297287
0.03281413018703461,0.004518427420407534,-0.019714869558811188,0.01663931831717491,-0.0004970718873664737,0.026482293382287025
0.03254208341240883,0.005093919578939676,-0.019038159400224686,0.016657549887895584,-0.0005198654253035784,0.026292022317647934
0.03297136351466179,0.0050063482485711575,-0.01954481564462185,0.017189141362905502,-0.0005725817172788084,0.026145944371819496
0.032859835773706436,0.005096265114843845,-0.020175296813249588,0.01731877215206623,-0.0006121682235971093,0.026700276881456375
0.03266221284866333,0.005232540890574455,-0.019494451582431793,0.017177432775497437,-0.0006190300919115543,0.02611985057592392
0.03304125368595123,0.005034071393311024,-0.01947537064552307,0.017306268215179443,-0.000602839223574847,0.026614541187882423
0.03337749093770981,0.004379295278340578,-0.019881024956703186,0.017104636877775192,-0.0006106046494096518,0.026803819462656975
0.03381342813372612,0.003950093872845173,-0.019741397351026535,0.01766098663210869,-0.0005795109318569303,0.026860922574996948
0.03274335712194443,0.003916735760867596,-0.01921684481203556,0.017691778019070625,-0.0006561607006005943,0.026933155953884125
0.033531032502651215,0.004058621358126402,-0.01939653791487217,0.01739189401268959,-0.0006969214882701635,0.026915213093161583
0.033502884209156036,0.004325424786657095,-0.019166842103004456,0.01735878549516201,-0.0007161263492889702,0.02699768915772438
0.033502884209156036,0.004325424786657095,-0.019166842103004456,0.01735878549516201,-0.0007161263492889702,0.02699768915772438
0.03375157341361046,0.0041691334918141365,-0.01924901269376278,0.017403507605195045,-0.0007946505793370306,0.026583204045891762
0.03390108793973923,0.004256886430084705,-0.018900191411376,0.01691434346139431,-0.0008182761957868934,0.026951851323246956
0.03390108793973923,0.004256886430084705,-0.018900191411376,0.01691434346139431,-0.0008182761957868934,0.026951851323246956
0.03401965647935867,0.004247773438692093,-0.019057590514421463,0.017588775604963303,-0.0008139762212522328,0.026944929733872414
0.034041933715343475,0.004541283007711172,-0.019214319065213203,0.017851119861006737,-0.0007965979166328907,0.026883460581302643
0.03420815244317055,0.004352693911641836,-0.018869927152991295,0.017964528873562813,-0.0007599318050779402,0.02675090916454792
0.03448851779103279,0.004413652699440718,-0.019299156963825226,0.01813330128788948,-0.0007317388663068414,0.026688093319535255
0.03460436686873436,0.004443288315087557,-0.0191712137311697,0.01751876063644886,-0.0006693447940051556,0.027386512607336044
0.03435426577925682,0.00422437209635973,-0.018954532220959663,0.017778072506189346,-0.0005851699970662594,0.02816561982035637
0.03414364904165268,0.003996302839368582,-0.019357100129127502,0.01802438125014305,-0.0006138061871752143,0.02811598591506481
0.034361857920885086,0.003861718811094761,-0.019302666187286377,0.018170539289712906,-0.0005567230400629342,0.027058780193328857
0.035577718168497086,0.004137735348194838,-0.018800966441631317,0.018609004095196724,-0.0005831052549183369,0.026589350774884224
0.035500433295965195,0.004223467316478491,-0.019130192697048187,0.018100518733263016,-0.0006046983762644231,0.027150074020028114
0.03377852961421013,0.0045080180279910564,-0.01948379911482334,0.018215635791420937,-0.0005664530326612294,0.027971534058451653
0.034322213381528854,0.004208934027701616,-0.019235407933592796,0.01843867264688015,-0.0005472227348946035,0.027766529470682144
0.0353698804974556,0.00417906790971756,-0.01982068456709385,0.01835184171795845,-0.000544105947483331,0.028049547225236893
0.035019755363464355,0.004131873603910208,-0.019645022228360176,0.018582697957754135,-0.000533713900949806,0.02870725654065609
0.03595021739602089,0.0044497414492070675,-0.01896703988313675,0.018473852425813675,-0.0005638300790451467,0.028083864599466324
0.03505896404385567,0.00462619261816144,-0.019184716045856476,0.01782301254570484,-0.0005915167275816202,0.026443343609571457
0.03462361916899681,0.004801264498382807,-0.019699960947036743,0.018049484118819237,-0.0007789286901243031,0.027592914178967476
0.0342370979487896,0.0048783645033836365,-0.01908322423696518,0.017762724310159683,-0.000890613766387105,0.028426019474864006
0.03561883047223091,0.004874682519584894,-0.0197079349309206,0.017671963199973106,-0.0008405758999288082,0.028826335445046425
0.03496143966913223,0.004372370429337025,-0.01868029497563839,0.017833655700087547,-0.0008631128584966063,0.027627095580101013
0.03634112328290939,0.004562703426927328,-0.01930970884859562,0.017973793670535088,-0.0008101860294118524,0.027812525629997253
0.03634112328290939,0.004562703426927328,-0.01930970884859562,0.017973793670535088,-0.0008101860294118524,0.027812525629997253
0.03634112328290939,0.004562703426927328,-0.01930970884859562,0.017973793670535088,-0.0008101860294118524,0.027812525629997253
0.03541172295808792,0.004922263324260712,-0.019549958407878876,0.01742037758231163,-0.0008213254623115063,0.02806113101541996
0.03536398708820343,0.004820230416953564,-0.019923970103263855,0.01749514788389206,-0.0007441142806783319,0.027927091345191002
0.035982947796583176,0.004319410305470228,-0.018986647948622704,0.017472321167588234,-0.0007175267091952264,0.027956318110227585
0.035982947796583176,0.004319410305470228,-0.018986647948622704,0.017472321167588234,-0.0007175267091952264,0.027956318110227585
0.035961609333753586,0.004186870530247688,-0.019436834380030632,0.017476877197623253,-0.0006341087282635272,0.02800401858985424
0.03577388823032379,0.004284819588065147,-0.01977504789829254,0.016868095844984055,-0.0006597021711058915,0.028468826785683632
0.035492487251758575,0.004953986499458551,-0.01955590583384037,0.017393631860613823,-0.0006789674516767263,0.028308551758527756
0.03575679659843445,0.0049241576343774796,-0.02003825269639492,0.017366472631692886,-0.0007004293147474527,0.028414584696292877
0.036957189440727234,0.004475580994039774,-0.02006479538977146,0.017688047140836716,-0.000739019422326237,0.028227830305695534
0.036464933305978775,0.004274153616279364,-0.019437072798609734,0.018092188984155655,-0.0008171761292032897,0.028576647862792015
0.03455854207277298,0.004120924044400454,-0.019343392923474312,0.01757805421948433,-0.0008484343416057527,0.0285258237272501
0.03629181534051895,0.004515841603279114,-0.019949136301875114,0.0180970449000597,-0.0008559977868571877,0.028913557529449463
0.03651309385895729,0.00461071589961648,-0.019417814910411835,0.018050825223326683,-0.0009223062079399824,0.02876366302371025
0.03638509660959244,0.004874014761298895,-0.019274022430181503,0.01730470173060894,-0.0009634806192480028,0.028566589578986168
0.03716607391834259,0.004466697573661804,-0.020006032660603523,0.017439695075154305,-0.0008859295048750937,0.028534403070807457
0.037420403212308884,0.004518592730164528,-0.01992150768637657,0.017256509512662888,-0.0008578687557019293,0.02904975600540638
0.035094089806079865,0.004891243763267994,-0.019547373056411743,0.01767726242542267,-0.00077986711403355,0.030053764581680298
0.03638092428445816,0.0049278829246759415,-0.019863996654748917,0.01726585626602173,-0.0007808630471117795,0.02946087345480919
0.03746717795729637,0.004779897630214691,-0.02041778899729252,0.017227796837687492,-0.0007149141165427864,0.028586095198988914
0.03672586753964424,0.004668664187192917,-0.01988104358315468,0.017602259293198586,-0.000624983455054462,0.028461361303925514
0.03697478398680687,0.005128968041390181,-0.01988481916487217,0.017429782077670097,-0.000600636878516525,0.029313890263438225
0.03685034066438675,0.004906230140477419,-0.020144300535321236,0.01787116937339306,-0.0005824867403134704,0.029067398980259895
0.0376528725028038,0.004874564241617918,-0.01987249031662941,0.018299521878361702,-0.0005929247126914561,0.029310330748558044
0.03712822124361992,0.004902117419987917,-0.01992194727063179,0.01772741787135601,-0.0006189967389218509,0.030295878648757935
0.03733738884329796,0.005682878661900759,-0.020018190145492554,0.017945874482393265,-0.0007678424008190632,0.029453730210661888
0.03733738884329796,0.005682878661900759,-0.020018190145492554,0.017945874482393265,-0.0007678424008190632,0.029453730210661888
0.03692800551652908,0.005450691096484661,-0.020331406965851784,0.017647143453359604,-0.0007643916760571301,0.0286289993673563
0.03762810677289963,0.0052631935104727745,-0.021165072917938232,0.01809694990515709,-0.0007287083426490426,0.029022343456745148
0.037785060703754425,0.004988866858184338,-0.021032972261309624,0.017686493694782257,-0.0007431175326928496,0.030264467000961304
0.037709105759859085,0.0051267691887915134,-0.02063216082751751,0.01784065179526806,-0.0006844804156571627,0.030470408499240875
0.03792101889848709,0.005471105687320232,-0.020835664123296738,0.01772257313132286,-0.0007421160116791725,0.030037015676498413
0.03701392933726311,0.005099532660096884,-0.021246381103992462,0.017536228522658348,-0.0007661936106160283,0.030034834519028664
0.039067380130290985,0.00494981836527586,-0.02063932456076145,0.017857620492577553,-0.000699644791893661,0.029935698956251144
0.03840167075395584,0.005254939664155245,-0.020867571234703064,0.017647115513682365,-0.0007102708332240582,0.030611595138907433
0.03840167075395584,0.005254939664155245,-0.020867571234703064,0.017647115513682365,-0.0007102708332240582,0.030611595138907433
0.03850102797150612,0.004886535927653313,-0.02074757218360901,0.017900211736559868,-0.0007422030903398991,0.030764127150177956
0.03850102797150612,0.004886535927653313,-0.02074757218360901,0.017900211736559868,-0.0007422030903398991,0.030764127150177956
0.03863484784960747,0.005374947562813759,-0.020936626940965652,0.018526561558246613,-0.0007630602922290564,0.03076636977493763
0.03894506022334099,0.005128623452037573,-0.021566975861787796,0.018802089616656303,-0.0007533605094067752,0.0304708294570446
0.0387193039059639,0.005178716965019703,-0.021627791225910187,0.0187482051551342,-0.0007228631293401122,0.03042297624051571
0.03847229480743408,0.005180224776268005,-0.020754273980855942,0.019193347543478012,-0.0008043875568546355,0.030800119042396545
0.03824882581830025,0.0050911977887153625,-0.021058116108179092,0.018287621438503265,-0.0007968403515405953,0.03079143911600113
0.039371442049741745,0.00517112435773015,-0.021527398377656937,0.01753220148384571,-0.0007499663042835891,0.03090466558933258
0.04057714715600014,0.00531037850305438,-0.021629933267831802,0.017989858984947205,-0.000714851776137948,0.03164827078580856
0.03846704587340355,0.0055870069190859795,-0.02127211168408394,0.018135299906134605,-0.0006844160961918533,0.030829157680273056
0.03769589960575104,0.005044643301516771,-0.021723758429288864,0.018602510914206505,-0.0006963295163586736,0.031139472499489784
0.03909296914935112,0.004575530998408794,-0.021792149171233177,0.0188064593821764,-0.0006914408295415342,0.03130362927913666
0.03937329724431038,0.005077834241092205,-0.021308552473783493,0.01848980225622654,-0.0007226461311802268,0.03144393116235733
0.04023498296737671,0.004945496562868357,-0.02080390974879265,0.01855848729610443,-0.0007442697533406317,0.030079515650868416
0.039965614676475525,0.005171424243599176,-0.02121441625058651,0.01831986755132675,-0.0007610789616592228,0.031523603945970535
0.037754107266664505,0.005514061544090509,-0.0220918208360672,0.017798010259866714,-0.0009159056353382766,0.031626228243112564
0.038842178881168365,0.005017772316932678,-0.022034944966435432,0.018001744523644447,-0.0009673158056102693,0.0315275602042675
0.039620526134967804,0.005637893453240395,-0.022131431847810745,0.017381787300109863,-0.000977237825281918,0.032034214586019516
0.0394449345767498,0.005404388066381216,-0.02263016812503338,0.017423469573259354,-0.0011260631727054715,0.030829783529043198
0.0394449345767498,0.005404388066381216,-0.02263016812503338,0.017423469573259354,-0.0011260631727054715,0.030829783529043198
0.03937701880931854,0.005195309408009052,-0.022166183218359947,0.01750713773071766,-0.0010947491973638535,0.03062429465353489
0.03955712541937828,0.00564772542566061,-0.02143201418220997,0.0177980475127697,-0.000996720278635621,0.03215166553854942
0.03991331532597542,0.005114961415529251,-0.021345237269997597,0.017883721739053726,-0.000978762749582529,0.03163595125079155
0.03923853486776352,0.004956884775310755,-0.022086290642619133,0.017998864874243736,-0.0008958164835348725,0.03209693357348442
0.03940054029226303,0.00538600655272603,-0.022051608189940453,0.018232163041830063,-0.0008905375143513083,0.032565467059612274
0.039183225482702255,0.005166653543710709,-0.021850137040019035,0.01782943867146969,-0.000874461664352566,0.03207789734005928
0.03969734534621239,0.00570317916572094,-0.02209484949707985,0.0167393758893013,-0.0007938710041344166,0.030965052545070648
0.04058067500591278,0.004916949197649956,-0.022024422883987427,0.018362851813435555,-0.0008001623791642487,0.030827851966023445
0.03921118751168251,0.004977022297680378,-0.022635355591773987,0.01893789693713188,-0.0007693558000028133,0.032295286655426025
0.03860994800925255,0.0049757640808820724,-0.022370191290974617,0.018502363935112953,-0.0007968863355927169,0.03263679891824722
0.039918407797813416,0.005193904973566532,-0.022038599476218224,0.01776191219687462,-0.0008113468065857887,0.032441407442092896
0.039453089237213135,0.005569762550294399,-0.02217217907309532,0.017660919576883316,-0.0007953617023304105,0.03240465745329857
0.04094506800174713,0.005293706897646189,-0.021580925211310387,0.018377898260951042,-0.0008935395744629204,0.03224697336554527
0.039937231689691544,0.004925303626805544,-0.022186269983649254,0.018014879897236824,-0.0008592911181040108,0.0322679728269577
0.03835272416472435,0.005102957598865032,-0.022226644679903984,0.017746204510331154,-0.0008632659446448088,0.03254309669137001
0.040169116109609604,0.005110186990350485,-0.02257605269551277,0.01758682169020176,-0.0008680801838636398,0.03251922130584717
0.04019888490438461,0.005129849072545767,-0.02270698733627796,0.017578423023223877,-0.0008718802127987146,0.031974002718925476
0.03983430936932564,0.005605020560324192,-0.02296661213040352,0.018561912700533867,-0.0008706293883733451,0.032194558531045914
0.039841972291469574,0.005387281533330679,-0.02214670740067959,0.018985945731401443,-0.0008723919745534658,0.032508015632629395
0.03983944281935692,0.005208012647926807,-0.02211529202759266,0.017871933057904243,-0.000876090896781534,0.032806169241666794
0.040189944207668304,0.005054804962128401,-0.022336764261126518,0.018320316448807716,-0.0008790363790467381,0.0326855294406414
0.04049689695239067,0.00490220682695508,-0.02273746021091938,0.01807575859129429,-0.0008750856504775584,0.03348912298679352
0.040064964443445206,0.005317014176398516,-0.022770503535866737,0.01759910397231579,-0.000798553810454905,0.03296874463558197
0.04022981971502304,0.005269666202366352,-0.022280065342783928,0.017998095601797104,-0.0008083388675004244,0.03285686671733856
0.04052744805812836,0.0058382488787174225,-0.02235042303800583,0.018135126680135727,-0.0008118676487356424,0.03265278786420822
0.04041752964258194,0.005308438558131456,-0.022887008264660835,0.018513133749365807,-0.0007432030979543924,0.03232072293758392
0.04062272235751152,0.005634517874568701,-0.0226603876799345,0.017795702442526817,-0.0006958754966035485,0.03252425044775009
0.041374146938323975,0.005353118292987347,-0.022105440497398376,0.018097495660185814,-0.000714063411578536,0.033919863402843475
0.041374146938323975,0.005353118292987347,-0.022105440497398376,0.018097495660185814,-0.000714063411578536,0.033919863402843475
