davideferrari95/blind_handover_controller/data/Test 6 - [2024-02-07 -- 13-01-16]/joint_states_data.csv
shoulder_pan_joint,shoulder_lift_joint,elbow_joint,wrist_1_joint,wrist_2_joint,wrist_3_joint
0.007251333445310593,0.003909364342689514,-0.007251988165080547,0.0026838502380996943,0.0,0.007070387713611126
0.007251333445310593,0.003909364342689514,-0.007251988165080547,0.0026838502380996943,0.0,0.007070387713611126
0.006639162544161081,0.0034865736961364746,-0.006350172217935324,0.002430587774142623,0.0,0.007020312361419201
0.006737654563039541,0.00368031719699502,-0.006488324608653784,0.0024883844889700413,0.0,0.006974490359425545
0.006837006658315659,0.004245727322995663,-0.007155293133109808,0.0025046332739293575,0.0,0.007218188606202602
0.006745857186615467,0.0036071387585252523,-0.006428923457860947,0.00240156427025795,0.0,0.007587377913296223
0.007363482378423214,0.0035849905107170343,-0.0062423949129879475,0.0024504077155143023,0.0,0.00711365370079875
0.007363482378423214,0.0035849905107170343,-0.0062423949129879475,0.0024504077155143023,0.0,0.00711365370079875
0.007559478748589754,0.003810328897088766,-0.006367694120854139,0.002351850038394332,0.0,0.006618648301810026
0.007705030031502247,0.00399712985381484,-0.006413239054381847,0.0024476121179759502,0.0,0.006743746344000101
0.006780612748116255,0.0039414456114172935,-0.006604061461985111,0.0026016533374786377,0.0,0.007376385387033224
0.006746476981788874,0.004318784922361374,-0.0059510632418096066,0.002387965563684702,0.0,0.0069635650143027306
0.007155844010412693,0.004199379589408636,-0.005694183520972729,0.002276268322020769,0.0,0.0068461718037724495
0.007111096289008856,0.003519427729770541,-0.006346283946186304,0.002299233339726925,0.0,0.006832926534116268
0.007050398737192154,0.003576175309717655,-0.007084284909069538,0.0021852694917470217,0.0,0.007386503741145134
0.006957834120839834,0.003326539881527424,-0.0065809590741992,0.002079036785289645,0.0,0.007186463102698326
0.007353374268859625,0.0034864044282585382,-0.005966490600258112,0.002104861196130514,0.0,0.007133744657039642
0.007027490995824337,0.004039405379444361,-0.006358464248478413,0.0023112911731004715,0.0,0.006841891445219517
0.0065331473015248775,0.004254859406501055,-0.006446569226682186,0.0026207324117422104,0.0,0.006967345252633095
0.006396750919520855,0.004045277368277311,-0.006421189289540052,0.0025460056494921446,0.0,0.007156488485634327
0.006913101300597191,0.0038967544678598642,-0.006140804383903742,0.0024347053840756416,0.0,0.006842569913715124
0.007091343868523836,0.0038539222441613674,-0.006568528711795807,0.0023183058947324753,0.0,0.0067108809016644955
0.006840800400823355,0.0034415987320244312,-0.0061384933069348335,0.0024463387671858072,0.0,0.007028890307992697
0.00640516122803092,0.003556491108611226,-0.006004334893077612,0.0024682623334228992,0.0,0.007037473376840353
0.006361306179314852,0.003687243675813079,-0.006659180857241154,0.002395517658442259,0.0,0.007196457125246525
0.006955323275178671,0.004089602269232273,-0.006017345003783703,0.0023763165809214115,0.0,0.006805441342294216
0.006537085864692926,0.004225306212902069,-0.005965182092040777,0.002399998949840665,0.0,0.006558336317539215
0.006449094507843256,0.004048511385917664,-0.00617508077993989,0.00233003799803555,0.0,0.006820262875407934
0.006525167264044285,0.0039744325913488865,-0.006168989930301905,0.0023585318122059107,0.0,0.006927984766662121
0.006712538190186024,0.003905427874997258,-0.006596554536372423,0.0023263476323336363,0.0,0.006864429917186499
0.006948661524802446,0.003903451142832637,-0.006131626199930906,0.0024807611480355263,0.0,0.006454430520534515
0.0068817404098808765,0.004183994606137276,-0.005853499285876751,0.002280332613736391,0.0,0.00681687705218792
0.0068817404098808765,0.004183994606137276,-0.005853499285876751,0.002280332613736391,0.0,0.00681687705218792
0.0065871295519173145,0.004036550875753164,-0.006422682665288448,0.0024319873191416264,0.0,0.006300431676208973
0.006701590958982706,0.004173524212092161,-0.006166868843138218,0.0024182889610528946,0.0,0.006485738325864077
0.006701590958982706,0.004173524212092161,-0.006166868843138218,0.0024182889610528946,0.0,0.006485738325864077
0.006678326521068811,0.004262763541191816,-0.0055712927132844925,0.0024972346145659685,0.0,0.006869512610137463
0.006585408933460712,0.00393123971298337,-0.005659954156726599,0.0023881930392235518,0.0,0.0066019282676279545
0.006616210099309683,0.0036559405270963907,-0.006628745701164007,0.002481997013092041,0.0,0.006352114025503397
0.0066624172031879425,0.0037005830090492964,-0.006738944444805384,0.0023688250221312046,0.0,0.006450514774769545
0.006857641041278839,0.00388821167871356,-0.005818219855427742,0.0022273894865065813,0.0,0.006749702151864767
0.007152986247092485,0.003946197684854269,-0.005801114719361067,0.0022865780629217625,0.0,0.007091361563652754
0.006983306258916855,0.004362780135124922,-0.005478668957948685,0.00222665723413229,0.0,0.0068533639423549175
0.006808634847402573,0.0046355328522622585,-0.006472788285464048,0.002404942875728011,0.0,0.006469446700066328
0.006794974207878113,0.004202566109597683,-0.006518824957311153,0.0024076662957668304,0.0,0.006483786273747683
0.006983318366110325,0.004322826396673918,-0.005646091885864735,0.0024019365664571524,0.0,0.00674409931525588
0.006734129041433334,0.004150388762354851,-0.005863709840923548,0.002619887934997678,0.0,0.006094385404139757
0.006956382654607296,0.0041216216050088406,-0.005864743608981371,0.00278623984195292,0.0,0.005971706937998533
0.0066572995856404305,0.004176790826022625,-0.006494528613984585,0.0027899921406060457,0.0,0.006716924253851175
0.007203925866633654,0.004514493513852358,-0.00634914031252265,0.002584892325103283,0.0,0.006964649073779583
0.006623222026973963,0.004709469620138407,-0.005457822699099779,0.0024472486693412066,0.0,0.006813501473516226
0.006862655282020569,0.004831471014767885,-0.005906283855438232,0.002241983776912093,0.0,0.006172094028443098
0.006706209387630224,0.004312878008931875,-0.005630853120237589,0.00227094953879714,0.0,0.005817134864628315
0.0068827178329229355,0.003942706622183323,-0.006435279734432697,0.0023528262972831726,0.0,0.005901504307985306
0.0068827178329229355,0.003942706622183323,-0.006435279734432697,0.0023528262972831726,0.0,0.005901504307985306
0.006752423942089081,0.004082231316715479,-0.005862179212272167,0.002306309761479497,0.0,0.006263216491788626
0.008031264878809452,0.00403977558016777,-0.005795668810606003,0.0024184035137295723,0.0,0.00657550198957324
0.006216489244252443,0.004792262800037861,-0.005788044072687626,0.0025747292675077915,0.0,0.006040115375071764
0.006338399834930897,0.004446797072887421,-0.005778988357633352,0.002751309657469392,0.0,0.00631291326135397
0.006851559039205313,0.004011026583611965,-0.005923328455537558,0.002722417935729027,-3.8229674828471616e-05,0.0065023573115468025
0.006851559039205313,0.004011026583611965,-0.005923328455537558,0.002722417935729027,-3.8229674828471616e-05,0.0065023573115468025
0.0066771553829312325,0.0039962287992239,-0.005488926079124212,0.0028195299673825502,-0.00035585471778176725,0.00604866212233901
0.006761674769222736,0.00446923216804862,-0.005812849849462509,0.0027244265656918287,-0.0003253149916417897,0.005949402693659067
0.006589917466044426,0.004784086253494024,-0.005726425442844629,0.0026194637175649405,-0.0003034526016563177,0.0064703840762376785
0.006589917466044426,0.004784086253494024,-0.005726425442844629,0.0026194637175649405,-0.0003034526016563177,0.0064703840762376785
0.007004647050052881,0.004790793638676405,-0.005695486906915903,0.0026319841854274273,-0.000326129695167765,0.006338230334222317
0.006749569904059172,0.0045027658343315125,-0.005984093062579632,0.0025984388776123524,-0.0003198746417183429,0.006255483720451593
0.0065033892169594765,0.004063604399561882,-0.00558059336617589,0.002578509273007512,-0.00030278859776444733,0.006009620148688555
0.00657131290063262,0.003801420098170638,-0.005973071325570345,0.0025361403822898865,-0.0002867583534680307,0.0059249550104141235
0.007191276643425226,0.003826563712209463,-0.006262477021664381,0.0024794552009552717,-0.00027229817351326346,0.006168338470160961
0.006737879477441311,0.0043828655034303665,-0.005562905687838793,0.0023754569701850414,-0.00029663770692422986,0.0059141237288713455
0.006554072257131338,0.004552510567009449,-0.005852970760315657,0.0024844962172210217,-0.0002881922700908035,0.005612424109131098
0.006335897836834192,0.00464864494279027,-0.005864300765097141,0.002646574517711997,-0.0002759039925877005,0.0054627456702291965
0.007154742255806923,0.004380710422992706,-0.006229599006474018,0.0025905435904860497,-0.0002643459592945874,0.005848263390362263
0.007024597376585007,0.004012535326182842,-0.0065060947090387344,0.0025448466185480356,-0.00025370073853991926,0.006041082553565502
0.00715272594243288,0.004046826157718897,-0.005633129738271236,0.002341910731047392,-0.00024387738085351884,0.0059797680005431175
0.006677154451608658,0.004124810919165611,-0.005810989998281002,0.0023916331119835377,-0.00023478781804442406,0.005904556717723608
0.006752704735845327,0.003962434362620115,-0.00592484325170517,0.0023333809804171324,-0.0002564960450399667,0.005822527687996626
0.00705787492915988,0.004264768213033676,-0.006355624180287123,0.002221090253442526,-0.000249570730375126,0.0056364936754107475
0.007103573065251112,0.004201928153634071,-0.006372644100338221,0.002268516691401601,-0.00024133252736646682,0.005649632774293423
0.006929993629455566,0.004506211262196302,-0.005866478197276592,0.002433630172163248,-0.00023351379786618054,0.006046502850949764
0.006461392622441053,0.004581183195114136,-0.005643436685204506,0.002446384634822607,-0.0002261775080114603,0.005990913603454828
0.0073077986016869545,0.004193221218883991,-0.005692807026207447,0.0028856934513896704,-0.00021928813657723367,0.00590453390032053
0.0073077986016869545,0.004193221218883991,-0.005692807026207447,0.0028856934513896704,-0.00021928813657723367,0.00590453390032053
0.006705296691507101,0.003974823746830225,-0.005884431302547455,0.002640495775267482,-0.00020092814520467073,0.0061080241575837135
0.006705296691507101,0.003974823746830225,-0.005884431302547455,0.002640495775267482,-0.00020092814520467073,0.0061080241575837135
0.007211780175566673,0.004367562010884285,-0.00613868935033679,0.0023839410860091448,-0.00017657697026152164,0.005585206672549248
0.0070970673114061356,0.004695530980825424,-0.0060645053163170815,0.0022901352494955063,-0.00016759922436904162,0.005706048104912043
0.00721721351146698,0.004435312934219837,-0.006069667637348175,0.0025172755122184753,-0.00016142905224114656,0.005450807977467775
0.006874512881040573,0.004031773656606674,-0.0065462104976177216,0.002544349990785122,-0.00015582807827740908,0.005836040712893009
0.007290072273463011,0.0038553064223378897,-0.006096119526773691,0.002482511568814516,-0.00015061130397953093,0.005671200342476368
0.00688421493396163,0.004221070092171431,-0.006043763365596533,0.002520031528547406,-0.00014573312364518642,0.005400742404162884
0.00704455329105258,0.004213852342218161,-0.0064683775417506695,0.002628894057124853,-0.00014116097008809447,0.004916086792945862
0.006682286970317364,0.004013453610241413,-0.0068883830681443214,0.0025645967107266188,-0.00015029670612420887,0.004860119428485632
0.006594573613256216,0.003911719657480717,-0.006552895065397024,0.0026818844489753246,-0.00015848218754399568,0.005518670193850994
0.007402960676699877,0.004214656073600054,-0.006223504431545734,0.0028058551251888275,-0.00015476258704438806,0.005541978869587183
0.0077803777530789375,0.00448988750576973,-0.006254707463085651,0.0030693288426846266,-0.00015050303773023188,0.00544808991253376
0.0070685031823813915,0.00408173305913806,-0.0060759009793400764,0.002922692568972707,-0.00014642521273344755,0.0052796341478824615
0.006712749600410461,0.00426887022331357,-0.006542464252561331,0.0030398222152143717,-0.00014255958376452327,0.005519802216440439
0.008021384477615356,0.004330509342253208,-0.0067703393287956715,0.0027650806587189436,-0.00013889270485378802,0.005276571027934551
0.00807456485927105,0.004562802612781525,-0.006057171616703272,0.0026041995733976364,-0.00013540958752855659,0.0049984692595899105
0.007837566547095776,0.004135620780289173,-0.006023117806762457,0.0027045011520385742,-0.0001512158924015239,0.005226631183177233
0.00675166817381978,0.0040718079544603825,-0.006721881218254566,0.0029498788062483072,-0.0001502440427429974,0.005196061450988054
0.007127626333385706,0.004154878668487072,-0.007056973874568939,0.0028521837666630745,-0.00014691219257656485,0.005057017784565687
0.007490938063710928,0.00449324818328023,-0.006880691275000572,0.002686729421839118,-0.0001435753219993785,0.00492507079616189
0.007382142823189497,0.004170957952737808,-0.006313451565802097,0.003267790423706174,-0.0001403768837917596,0.004802961368113756
0.007241266779601574,0.003970817197114229,-0.00638993177562952,0.0032211749348789454,-0.00013731702347286046,0.0048212013207376
0.006971897557377815,0.0039291661232709885,-0.00727623887360096,0.0031740586273372173,-0.00015106583305168897,0.005562047939747572
0.006971897557377815,0.0039291661232709885,-0.00727623887360096,0.0031740586273372173,-0.00015106583305168897,0.005562047939747572
0.007024048361927271,0.004314185585826635,-0.006468912120908499,0.002608362352475524,-0.00014434769400395453,0.004766435828059912
0.007024048361927271,0.004314185585826635,-0.006468912120908499,0.002608362352475524,-0.00014434769400395453,0.004766435828059912
0.00725946668535471,0.004262989386916161,-0.0063212779350578785,0.002731942804530263,-0.00014151108916848898,0.004622793290764093
0.007246369030326605,0.004485900979489088,-0.0071086944080889225,0.0027328829746693373,-0.00013878366735298187,0.004572516772896051
0.007405861746519804,0.0040900977328419685,-0.006837709806859493,0.0025842455215752125,-0.0001361589238513261,0.004839514382183552
0.007195358630269766,0.004056223668158054,-0.006374182179570198,0.0025426456704735756,-0.00013363183825276792,0.004813036881387234
0.007408473175019026,0.0040229191072285175,-0.006337117403745651,0.002647663000971079,-0.00014632118109147996,0.004697205498814583
0.00778335751965642,0.0038543243426829576,-0.007020385470241308,0.002599758096039295,-0.00014665088383480906,0.004743747413158417
0.007618415635079145,0.003791322698816657,-0.0068112523294985294,0.0028267833404242992,-0.00014234494301490486,0.005050003994256258
0.007354656234383583,0.0043738665990531445,-0.006486883852630854,0.002850943012163043,-0.00013800093438476324,0.005027846433222294
0.00744888000190258,0.004144899547100067,-0.006084641441702843,0.002591969445347786,-0.00013389583909884095,0.004544692579656839
0.007388788741081953,0.004392462782561779,-0.006486885249614716,0.00260996469296515,-0.00013002661580685526,0.004480548202991486
0.007783598266541958,0.0041908156126737595,-0.00646973354741931,0.0024376444052904844,-0.00012637473992072046,0.004418590571731329
0.007658622693270445,0.004008923657238483,-0.006337788887321949,0.0023813520092517138,-0.0001411378034390509,0.004434441681951284
0.008309186436235905,0.0029328123200684786,-0.0061178929172456264,0.0025586627889424562,-0.0001431687705917284,0.004369553178548813
0.007948033511638641,0.0027308929711580276,-0.006391269154846668,0.0027419435791671276,-0.00013983820099383593,0.004485246725380421
0.008287305012345314,0.0026781766209751368,-0.006704043131321669,0.002857833169400692,-0.0001363324117846787,0.00424664793536067
0.007987339049577713,0.0034328398760408163,-0.006551905535161495,0.002744212979450822,-0.00013297636178322136,0.004322657827287912
0.007853098213672638,0.003981153480708599,-0.006132951937615871,0.002895798534154892,-0.00012978061567991972,0.004034820012748241
0.007747344672679901,0.003506943117827177,-0.005995750892907381,0.0030571273528039455,-0.00012673463788814843,0.004243760369718075
0.00769733777269721,0.003138307249173522,-0.007130174897611141,0.0033785360865294933,-0.0001238283875863999,0.003701386507600546
0.008067645132541656,0.002939781406894326,-0.006788597907871008,0.00316379452124238,-0.00013097097689751536,0.004045856650918722
0.00822898093611002,0.003250886918976903,-0.006278146989643574,0.002851978875696659,-0.00013746153854299337,0.004107986576855183
0.007608517073094845,0.0037420622538775206,-0.006189840380102396,0.0026952004991471767,-0.0001351238606730476,0.004020349588245153
0.007608517073094845,0.0037420622538775206,-0.006189840380102396,0.0026952004991471767,-0.0001351238606730476,0.004020349588245153
0.008117747493088245,0.0033806958235800266,-0.0059926570393145084,0.0027281048242002726,-0.00013232544006314129,0.004203295800834894
0.008554643951356411,0.0030299301724880934,-0.006499063223600388,0.0026383069343864918,-0.00012960565800312907,0.004243906587362289
0.007654095534235239,0.0029758168384432793,-0.005981813184916973,0.0026425637770444155,-0.0001244839368155226,0.0037433116231113672
0.007471279241144657,0.0031871539540588856,-0.005876033566892147,0.00289909727871418,-0.0001220719568664208,0.003508203662931919
0.009018385782837868,0.003466747235506773,-0.006514779292047024,0.0028192601166665554,-0.00011975153756793588,0.003338754177093506
0.00870739109814167,0.003237465862184763,-0.006818768568336964,0.0030844854190945625,-0.00011751775309676304,0.0034761293791234493
0.007755772676318884,0.003046086523681879,-0.0066313426941633224,0.0030821384862065315,-0.00011536567762959749,0.003945878706872463
0.008203338831663132,0.003359386930242181,-0.006073169410228729,0.0028910397086292505,-0.00011329111293889582,0.004166474565863609
0.008438345976173878,0.0030249038245528936,-0.0061006806790828705,0.0027098702266812325,-0.00011128970800200477,0.003570620436221361
0.008636841550469398,0.0030907336622476578,-0.0071597653441131115,0.0027986662462353706,-0.00011704862845363095,0.0032327717635780573
0.007785717956721783,0.0030216698069125414,-0.0067625162191689014,0.002878342755138874,-0.0001223301369464025,0.003122620051726699
0.0079748360440135,0.0032893195748329163,-0.006252045277506113,0.0030935429967939854,-0.0001207534151035361,0.0031990946736186743
0.008108524605631828,0.003206998808309436,-0.006270240526646376,0.0029172992799431086,-0.00011879203520948067,0.003162527922540903
0.007793700322508812,0.003195083001628518,-0.006083360873162746,0.002912788651883602,-0.00011686600191751495,0.003469968680292368
0.008169897831976414,0.003202034393325448,-0.006484404671937227,0.003075994551181793,-0.00011499950778670609,0.003308891551569104
0.00869905948638916,0.0032020052894949913,-0.0070597887970507145,0.0031163939274847507,-0.00011337454634485766,0.003120326204225421
0.008176571689546108,0.0033958805724978447,-0.0064271255396306515,0.003069505328312516,-0.00012646189134102315,0.0029275575652718544
0.00826649833470583,0.003213495947420597,-0.00596608268097043,0.002896866062656045,-0.00012403893924783915,0.0027693375013768673
0.007900542579591274,0.0030391148757189512,-0.006472586188465357,0.0029607638716697693,-0.00012077910650987178,0.002775391098111868
0.008921999484300613,0.002970913890749216,-0.007069914136081934,0.0028641577810049057,-0.00011762635404011235,0.0026521729305386543
0.008094122633337975,0.003044580575078726,-0.00675160950049758,0.002841772511601448,-0.0001345374039374292,0.002729596570134163
0.007601043209433556,0.003173030912876129,-0.00628880737349391,0.002732925582677126,-0.00013394207053352147,0.002813452621921897
0.008486372418701649,0.0033880341798067093,-0.006158153060823679,0.0029360875487327576,-0.00013087480328977108,0.002769277198240161
0.008570263162255287,0.003209369722753763,-0.006694147363305092,0.002877839608117938,-0.00013825642236042768,0.002763169351965189
0.008442564867436886,0.0030392284970730543,-0.006867289077490568,0.002590406686067581,-0.00014493452908936888,0.002772510750219226
0.007879638113081455,0.0033883308060467243,-0.006477161776274443,0.0026725158095359802,-0.00014230461965780705,0.0027284014504402876
0.007879638113081455,0.0033883308060467243,-0.006477161776274443,0.0026725158095359802,-0.00014230461965780705,0.0027284014504402876
0.008381175808608532,0.003217782359570265,-0.0061806379817426205,0.0029724882915616035,-0.0001392023841617629,0.0026229494251310825
0.008504021912813187,0.003254567040130496,-0.0072400919161736965,0.0030145810451358557,-0.0001522738893982023,0.002736413851380348
0.008300894871354103,0.003106445074081421,-0.00742995273321867,0.002750882413238287,-0.00014936481602489948,0.0026081064715981483
0.008716032840311527,0.0032680919393897057,-0.006858479231595993,0.0026858956553041935,-0.00028983602533116937,0.0026514895725995302
0.008816863410174847,0.0036793372128158808,-0.0063481866382062435,0.002990804146975279,-0.00028151809237897396,0.002531324280425906
0.008216344751417637,0.0034063896164298058,-0.006821502465754747,0.00306199723854661,-0.00031147978734225035,0.0023357500322163105
0.008473292924463749,0.003578966250643134,-0.00709256436675787,0.0029638938140124083,-0.0003004682366736233,0.0022955364547669888
0.008917862549424171,0.003357415087521076,-0.006816389970481396,0.0029472638852894306,-0.0003261344972997904,0.0022488918621093035
0.008144634775817394,0.003352006198838353,-0.006398954428732395,0.0028665720019489527,-0.0003154568839818239,0.002398096490651369
0.00846777856349945,0.0033999450970441103,-0.006093111354857683,0.0029504112899303436,-0.0003379759727977216,0.0023836763575673103
0.008807540871202946,0.003339399117976427,-0.006981414742767811,0.0033562302123755217,-0.00032836347236298025,0.0022301608696579933
0.00841209664940834,0.003419176209717989,-0.006803346797823906,0.0032533188350498676,-0.0004930951981805265,0.0017426460981369019
0.008181213401257992,0.0032443893142044544,-0.006661111954599619,0.0030727062840014696,-0.0005410889280028641,0.0016280543059110641
0.009114508517086506,0.0034361856523901224,-0.006600143853574991,0.0028957747854292393,-0.0005583611782640219,0.0015503531321883202
0.008325987495481968,0.0033271268475800753,-0.007570644374936819,0.0031661815010011196,-0.0005672399420291185,0.0015408021863549948
0.008160518482327461,0.0033178525045514107,-0.006879013497382402,0.0032464093528687954,-0.0005579394055530429,0.0016020730836316943
0.009548594243824482,0.0031152365263551474,-0.006453443318605423,0.0034229913726449013,-0.0008042646804824471,0.002047252841293812
0.009587541222572327,0.003306459868326783,-0.006541907321661711,0.003160276683047414,-0.0008474050555378199,0.0019569643773138523
0.009237709455192089,0.0034917460288852453,-0.006556426640599966,0.0030975842382758856,-0.0008998998091556132,0.0019316142424941063
0.00837678648531437,0.003447341499850154,-0.007146965712308884,0.0032909985166043043,-0.0012136561563238502,0.0016903425566852093
0.008693758398294449,0.003324623219668865,-0.0067189717665314674,0.00324497208930552,-0.0012898428831249475,0.001508199144154787
0.009074750356376171,0.0032352630514651537,-0.006299172528088093,0.0034590966533869505,-0.0012512197718024254,0.0011757268803194165
0.00881517305970192,0.0033802057150751352,-0.006573727820068598,0.0032549777533859015,-0.0012177643366158009,0.001079659559763968
0.009523308835923672,0.003336773719638586,-0.007378030102699995,0.00303311157040298,-0.001149496529251337,0.0011670204112306237
0.010166586376726627,0.0033818690571933985,-0.007076787296682596,0.0030013849027454853,-0.0009853813098743558,0.0015024942113086581
0.00863382127135992,0.0030958775896579027,-0.006518466863781214,0.003038413356989622,-0.0009542841580696404,0.001538876793347299
0.009428480640053749,0.00345867988653481,-0.006841840222477913,0.003112470731139183,-0.0008422985556535423,0.0014158554840832949
0.009124649688601494,0.003378459019586444,-0.007089495658874512,0.003427165560424328,-0.0007597818621434271,0.0011738499160856009
0.009124649688601494,0.003378459019586444,-0.007089495658874512,0.003427165560424328,-0.0007597818621434271,0.0011738499160856009
0.009871425107121468,0.003236382966861129,-0.007031778339296579,0.0033357657957822084,-0.0006945779896341264,0.00111524504609406
0.009623494930565357,0.0033380896784365177,-0.006963198538869619,0.0033401232212781906,-0.0005457276129163802,0.0010203075362369418
0.008912846446037292,0.0036839148961007595,-0.006657319609075785,0.003291795728728175,-0.0005291296984069049,0.0009442753507755697
0.009390691295266151,0.0034332452341914177,-0.006993221119046211,0.0033998608123511076,-0.0005195336416363716,0.000761280010920018
0.009626513347029686,0.0034997044131159782,-0.0066952151246368885,0.0033503540325909853,-0.00047637728857807815,0.0007693832740187645
0.009183310903608799,0.003712135599926114,-0.0065947179682552814,0.00349466223269701,-0.0005056860391050577,0.0007849945686757565
0.008999011479318142,0.0038755997084081173,-0.007167045492678881,0.0035843730438500643,-0.0004721934092231095,0.000797764805611223
0.010156269185245037,0.0033765756525099277,-0.007083042990416288,0.0036917957477271557,-0.00048568384954705834,0.0009087304933927953
0.009302450343966484,0.0033502064179629087,-0.007424033712595701,0.0033491146750748158,-0.0004684642481151968,0.000927839835640043
0.009584348648786545,0.003515062388032675,-0.006664409302175045,0.003543703816831112,-0.0004686642496380955,0.0008014310733415186
0.00973207876086235,0.003519610268995166,-0.006588878575712442,0.003730219090357423,-0.0004499563074205071,0.0007979974034242332
0.009773406200110912,0.00350006390362978,-0.006789721082895994,0.0038331670220941305,-0.0004107004206161946,0.0007201387197710574
0.009662323631346226,0.0036421052645891905,-0.007156159728765488,0.003393791615962982,-0.0004316332924645394,0.0006469535874202847
0.010018806904554367,0.0037786217872053385,-0.007290877867490053,0.003359574591740966,-0.0004155120113864541,0.0005866819992661476
0.009793822653591633,0.00384790007956326,-0.006956162862479687,0.0036180203314870596,-0.0003868497733492404,0.0005366531549952924
0.009600114077329636,0.003865511156618595,-0.0073973941616714,0.0037429919466376305,-0.0004170032334513962,0.000494490610435605
0.010599879547953606,0.0033805500715970993,-0.007033824920654297,0.003798808204010129,-0.00039453344652429223,0.0004584775888361037
0.00987148191779852,0.003520853351801634,-0.00667632557451725,0.0042955633252859116,-0.0003973353304900229,0.00042735430179163814
0.010386185720562935,0.003566096303984523,-0.0069745443761348724,0.003553596558049321,-0.0003796628152485937,0.00037627803976647556
0.010386185720562935,0.003566096303984523,-0.0069745443761348724,0.003553596558049321,-0.0003796628152485937,0.00037627803976647556
0.009994479827582836,0.003483824897557497,-0.0075393193401396275,0.0034570740535855293,-0.0003906437777914107,0.0003550620749592781
0.010361171327531338,0.0036424058489501476,-0.007490669377148151,0.003594291163608432,-0.00036938488483428955,0.00033611198887228966
0.010438473895192146,0.003291838336735964,-0.006907149218022823,0.004225731361657381,-0.0003419996064621955,0.000319082522764802
0.010136013850569725,0.0034358641132712364,-0.006947861053049564,0.004362704697996378,-0.0002968879707623273,0.00028972633299417794
0.010969642549753189,0.0033602144103497267,-0.0074222758412361145,0.004103303421288729,-0.0002785032265819609,0.0002769851125776768
0.010969642549753189,0.0033602144103497267,-0.0074222758412361145,0.004103303421288729,-0.0002785032265819609,0.0002769851125776768
0.010010766796767712,0.0033341506496071815,-0.007002404425293207,0.0036244469229131937,-0.00029714146512560546,0.00025459396420046687
0.01001445110887289,0.0032082288525998592,-0.007169059477746487,0.003427955089136958,-0.0002818361099343747,0.0002447030274197459
0.01001445110887289,0.0032082288525998592,-0.007169059477746487,0.003427955089136958,-0.0002818361099343747,0.0002447030274197459
0.010937025770545006,0.0035336141008883715,-0.007313826121389866,0.0035716055426746607,-0.0002678640012163669,0.00012012753722956404
0.010495013557374477,0.0031396159902215004,-0.006864293944090605,0.003740942105650902,-0.0002866035792976618,7.867890235502273e-05
0.010124706663191319,0.0031541739590466022,-0.007018952164798975,0.0038000859785825014,-0.0002835700288414955,7.311072840820998e-05
0.009794127196073532,0.0033899107947945595,-0.007057701237499714,0.0042524030432105064,-0.0002719714248087257,7.010756235104054e-05
0.010372687131166458,0.0031979025807231665,-0.007183015812188387,0.004183994606137276,-0.00028828365611843765,6.746907456545159e-05
0.00991097278892994,0.0031307407189160585,-0.007333953399211168,0.0040366388857364655,-0.00028552787262015045,3.4717948437901214e-05
0.009767243638634682,0.00290013593621552,-0.0069452328607439995,0.0035545395221561193,-0.0002762814983725548,3.15251418214757e-05
0.010135496035218239,0.0029054181650280952,-0.007329253945499659,0.003840689081698656,-0.0002720585325732827,3.0333305403473787e-05
0.010572793893516064,0.0028121122159063816,-0.007743601221591234,0.004152754787355661,-0.00030184112256392837,1.980548177016317e-06
0.009829196147620678,0.002639452926814556,-0.0068824109621346,0.004075387492775917,-0.0003275760682299733,1.293156515203009e-07
0.010085375048220158,0.0024423166178166866,-0.005894942674785852,0.004038892686367035,-0.0003224600222893059,8.443388210821468e-09
0.010271918959915638,0.002456914633512497,-0.0073087639175355434,0.004133996553719044,-0.0003455235273577273,5.5129290021938e-10
0.010354108177125454,0.002628620248287916,-0.008156920783221722,0.004516873508691788,-0.0005294744041748345,3.599548437094313e-11
0.010528161190450191,0.0025234564673155546,-0.007457276340574026,0.0043045105412602425,-0.0007278619450516999,2.350248251223319e-12
0.010553206317126751,0.0027316182386130095,-0.006793676409870386,0.004334164317697287,-0.0006768882158212364,-0.0002443758421577513
0.011261207982897758,0.002680982695892453,-0.006847730837762356,0.004121602047234774,-0.0006969987298361957,-0.0011868149740621448
0.01048683188855648,0.002482987241819501,-0.0075055696070194244,0.0038255262188613415,-0.0007109983125701547,-0.0013224453432485461
0.010277210734784603,0.002389395609498024,-0.0073357536457479,0.0036795474588871002,-0.0006642347434535623,-0.0015955861890688539
0.01048304419964552,0.0022333080414682627,-0.0069612921215593815,0.003770293667912483,-0.0007275542011484504,-0.0016095131868496537
0.010549183934926987,0.0023567231837660074,-0.006743330974131823,0.004016507882624865,-0.0007281838916242123,-0.0016083301743492484
0.010338502004742622,0.002426781225949526,-0.007613917347043753,0.004782129544764757,-0.0006668540299870074,-0.0017160916468128562
0.010658308863639832,0.002383100800216198,-0.007454739883542061,0.004560808651149273,-0.0006427447078749537,-0.002083658007904887
0.01060500368475914,0.0026387437246739864,-0.0071256584487855434,0.004074539989233017,-0.0006220517680048943,-0.0022126261610537767
0.010814780369400978,0.0023389451671391726,-0.007372492458671331,0.00421001436188817,-0.0005934906075708568,-0.0026631709188222885
0.010814780369400978,0.0023389451671391726,-0.007372492458671331,0.00421001436188817,-0.0005934906075708568,-0.0026631709188222885
0.010814780369400978,0.0023389451671391726,-0.007372492458671331,0.00421001436188817,-0.0005934906075708568,-0.0026631709188222885
0.011213175021111965,0.0025530336424708366,-0.007579275872558355,0.004029355943202972,-0.0005939099937677383,-0.002366315107792616
0.011187625117599964,0.0025193688925355673,-0.007168342359364033,0.004200218711048365,-0.0006243641255423427,-0.0022407195065170527
0.010673236101865768,0.002523086965084076,-0.007305595092475414,0.0046480512246489525,-0.0006439746357500553,-0.0023467044811695814
0.01104163657873869,0.0021755106281489134,-0.007704876828938723,0.0044059352949261665,-0.0008706017979420722,-0.0025500955525785685
0.011317524127662182,0.00226569757796824,-0.007288472261279821,0.004448283463716507,-0.0009240198414772749,-0.003603965975344181
0.01049247570335865,0.002248727483674884,-0.0070123388431966305,0.004154704511165619,-0.0008239633752964437,-0.004310621879994869
0.010825907811522484,0.0022554141469299793,-0.007473563309758902,0.0039624967612326145,-0.0008275107829831541,-0.00453756982460618
0.010764333419501781,0.0026340167969465256,-0.007605032529681921,0.004306806717067957,-0.0007883484358899295,-0.004368841648101807
0.010925245471298695,0.002775168279185891,-0.00715962378308177,0.004654197487980127,-0.0007515975157730281,-0.003826834261417389
0.011230455711483955,0.002502785762771964,-0.007067130412906408,0.004694254603236914,-0.0006918451399542391,-0.0034673106856644154
0.0106517244130373,0.002532436978071928,-0.008370938710868359,0.004218643065541983,-0.0006687577697448432,-0.0034869802184402943
0.010734901763498783,0.002426058053970337,-0.008303558453917503,0.004221632611006498,-0.0006931292591616511,-0.0037730459589511156
0.010735021904110909,0.0025669755414128304,-0.0074134329333901405,0.004221137147396803,-0.0007150950841605663,-0.003914589062333107
0.010077117942273617,0.0027352184988558292,-0.007244173437356949,0.004063820466399193,-0.0006911555537953973,-0.004724186845123768
0.01094480324536562,0.0027653297875076532,-0.008741374127566814,0.004377910867333412,-0.0008315959712490439,-0.005083686206489801
0.010785367339849472,0.0023784986697137356,-0.008342098444700241,0.004441387020051479,-0.0008546994649805129,-0.004912054631859064
0.010373838245868683,0.002224515425041318,-0.0076280259527266026,0.004243369214236736,-0.0008618345018476248,-0.00468064472079277
0.010726802051067352,0.002341798273846507,-0.0075808241963386536,0.004430221859365702,-0.0008665556088089943,-0.005218675825744867
0.01034242007881403,0.002236270345747471,-0.00793734285980463,0.004648168571293354,-0.0008619941072538495,-0.005446691997349262
0.010815173387527466,0.002278681844472885,-0.008220947347581387,0.004249192774295807,-0.0009218243649229407,-0.0059362356550991535
0.01108942087739706,0.0022446438670158386,-0.007779745385050774,0.004316300619393587,-0.0009044663165695965,-0.00616238359361887
0.011236282996833324,0.002320975298061967,-0.00819715578109026,0.004206797108054161,-0.0008178480202332139,-0.0057787285186350346
0.011489992029964924,0.0023800916969776154,-0.008136769756674767,0.004365273751318455,-0.0007255233940668404,-0.006258177105337381
0.010576536878943443,0.002245852956548333,-0.007985297590494156,0.004526610020548105,-0.000736773363314569,-0.006131874397397041
0.010426582768559456,0.002227033255621791,-0.007782819215208292,0.004501924850046635,-0.0006918795988894999,-0.005991532001644373
0.010653101839125156,0.002375340089201927,-0.008509340696036816,0.004512334242463112,-0.0006278952350839972,-0.005918886512517929
0.010653101839125156,0.002375340089201927,-0.008509340696036816,0.004512334242463112,-0.0006278952350839972,-0.005918886512517929
0.010854749009013176,0.002339620143175125,-0.007788490504026413,0.004955843091011047,-0.0005931190098635852,-0.006565568502992392
0.01054162997752428,0.0024302294477820396,-0.00872441753745079,0.004948331508785486,-0.0005602872115559876,-0.00652098935097456
0.010805502533912659,0.0021756929345428944,-0.00828605517745018,0.004592161159962416,-0.0005697401356883347,-0.006258300505578518
0.011113849468529224,0.002203710377216339,-0.008456284180283546,0.004263151437044144,-0.0005435450002551079,-0.0061372448690235615
0.01033500861376524,0.0023699263110756874,-0.009149124845862389,0.003961061127483845,-0.000551846285816282,-0.006480539217591286
0.01033500861376524,0.0023699263110756874,-0.009149124845862389,0.003961061127483845,-0.000551846285816282,-0.006480539217591286
0.010707995854318142,0.0022862402256578207,-0.008010080084204674,0.00424150750041008,-0.0005725639639422297,-0.006289765238761902
0.01058103982359171,0.0024411240592598915,-0.007547625340521336,0.004541443195194006,-0.0006042076274752617,-0.006549199111759663
0.011423617601394653,0.002338003134354949,-0.008605273440480232,0.004844898823648691,-0.0006106528453528881,-0.006561762187629938
0.011066175997257233,0.00247500604018569,-0.009310942143201828,0.004352265503257513,-0.0006028481875546277,-0.007047982420772314
0.009959843941032887,0.0023891902528703213,-0.008194911293685436,0.003980111330747604,-0.0009080363670364022,-0.007556386291980743
0.01091908197849989,0.0022759088315069675,-0.007847442291676998,0.004132227040827274,-0.0009239073842763901,-0.007122779730707407
0.011112791486084461,0.0026442967355251312,-0.008479900658130646,0.004252891521900892,-0.0009375275112688541,-0.007043034769594669
0.010274643078446388,0.0029073578771203756,-0.00843824353069067,0.0044004712253808975,-0.0010386622743681073,-0.006669479887932539
0.010896435007452965,0.0025323163717985153,-0.008510463871061802,0.0049208360724151134,-0.0011551468633115292,-0.006991351954638958
0.011058621108531952,0.002382463775575161,-0.008231505751609802,0.005010934080928564,-0.0011221201857551932,-0.007390688173472881
0.010404218919575214,0.0023818216286599636,-0.008553148247301579,0.004983985330909491,-0.0010446248343214393,-0.007265533320605755
0.010792851448059082,0.0023236756678670645,-0.0077791037037968636,0.004703659564256668,-0.0011531676864251494,-0.006935043726116419
0.010782775469124317,0.0024895798414945602,-0.008228104561567307,0.004459080286324024,-0.0011158763663843274,-0.007527313195168972
0.010821016505360603,0.0025540590286254883,-0.008965625427663326,0.004585381131619215,-0.001082764589227736,-0.007839261554181576
0.01101438608020544,0.0024015360977500677,-0.008649909868836403,0.005070484708994627,-0.0010375691344961524,-0.008115485310554504
0.010781226679682732,0.002413984388113022,-0.008198779076337814,0.0054303319193422794,-0.0009910616790875793,-0.00842676404863596
0.010841664858162403,0.0021469297353178263,-0.008331040851771832,0.005129841156303883,-0.0009745670831762254,-0.007947091944515705
0.011141539551317692,0.0022445109207183123,-0.008934896439313889,0.0048845140263438225,-0.0009638296323828399,-0.008033384568989277
0.010675566270947456,0.002470250241458416,-0.008787058293819427,0.004874990321695805,-0.0009061720920726657,-0.008200143463909626
0.010906951501965523,0.0023590296041220427,-0.008449086919426918,0.00489731365814805,-0.0009559261379763484,-0.008332417346537113
0.010729203931987286,0.0024940164294093847,-0.008123615756630898,0.005171920172870159,-0.0008804615936242044,-0.008602051064372063
0.01070588268339634,0.002596055855974555,-0.008431036956608295,0.005376393441110849,-0.000878617400303483,-0.008771538734436035
0.010897476226091385,0.0021831360645592213,-0.00885329581797123,0.005350847728550434,-0.0007897299947217107,-0.00866595096886158
0.010953775607049465,0.002137270988896489,-0.008792496286332607,0.005185081157833338,-0.0007511732401326299,-0.00906267948448658
0.011073385365307331,0.002283004578202963,-0.008056534454226494,0.005034263711422682,-0.000755441898945719,-0.009189181961119175
0.011073385365307331,0.002283004578202963,-0.008056534454226494,0.005034263711422682,-0.000755441898945719,-0.009189181961119175
0.01103934645652771,0.0025242313276976347,-0.008506232872605324,0.00564172025769949,-0.000787318916991353,-0.009127852506935596
0.01103934645652771,0.0025242313276976347,-0.008506232872605324,0.00564172025769949,-0.000787318916991353,-0.009127852506935596
0.010927555151283741,0.0023454148322343826,-0.008655419573187828,0.005918346811085939,-0.0008657535072416067,-0.008752044290304184
0.011235467158257961,0.0022636859212070704,-0.008584625087678432,0.005460895132273436,-0.000916892837267369,-0.009323972277343273
0.011453862302005291,0.0022937427274882793,-0.007940202951431274,0.005233803763985634,-0.0008498341776430607,-0.009313421323895454
0.010909994132816792,0.002306943526491523,-0.008796820417046547,0.005083838477730751,-0.0008277942542918026,-0.009680215269327164
0.011896049603819847,0.002476369496434927,-0.008485152386128902,0.005441755522042513,-0.0007557896315120161,-0.0097770094871521
0.011277592740952969,0.002686648163944483,-0.008674511685967445,0.005733858328312635,-0.0007658829563297331,-0.009250445291399956
0.011148020625114441,0.0024402011185884476,-0.008765948936343193,0.00546154472976923,-0.0007234059157781303,-0.009371407330036163
0.011385953985154629,0.0025056940503418446,-0.008687400259077549,0.00497940881177783,-0.0006960785249248147,-0.00943851564079523
0.011070511303842068,0.0023633770179003477,-0.00837900210171938,0.00485882256180048,-0.0006646786932833493,-0.00998501293361187
0.011653190478682518,0.002203472424298525,-0.008357214741408825,0.005283544771373272,-0.0006868352647870779,-0.009918075986206532
0.01165502704679966,0.002033563796430826,-0.009040825068950653,0.0056998347863554955,-0.0007077245973050594,-0.010007523000240326
0.011055261828005314,0.001971624093130231,-0.009093035943806171,0.005249942187219858,-0.0008077353122644126,-0.010188739746809006
0.012131848372519016,0.002183276694267988,-0.00795151386409998,0.005073294974863529,-0.0009064593468792737,-0.009984435513615608
0.012953661382198334,0.002278130268678069,-0.008914020843803883,0.005059319082647562,-0.000911309733055532,-0.009839317761361599
0.013142961077392101,0.002242272486910224,-0.009055827744305134,0.00505566131323576,-0.0010135306511074305,-0.01000135950744152
0.012785297818481922,0.0023119573015719652,-0.008828003890812397,0.005300173535943031,-0.0011219069128856063,-0.010417267680168152
0.012856714427471161,0.002173895947635174,-0.008659705519676208,0.005686619319021702,-0.0011776452884078026,-0.010376217775046825
0.01250573992729187,0.002095419680699706,-0.00840948149561882,0.005755270831286907,-0.0012499832082539797,-0.01040786225348711
0.012576424516737461,0.0020929668098688126,-0.008023900911211967,0.005418139044195414,-0.00130808528047055,-0.009848527610301971
0.013218243606388569,0.0020907274447381496,-0.008323744870722294,0.004956993740051985,-0.0012482345337048173,-0.009907032363116741
0.01313452236354351,0.002193042542785406,-0.008629110641777515,0.005542147438973188,-0.0010800467571243644,-0.010589259676635265
0.012927377596497536,0.001986411400139332,-0.007868162356317043,0.006204348988831043,-0.0010347701609134674,-0.010294194333255291
0.013259297236800194,0.002093062736093998,-0.008862242102622986,0.006292042322456837,-0.0010117882629856467,-0.010754480957984924
0.013401517644524574,0.0019068756373599172,-0.009057736955583096,0.005812993273139,-0.000947658671066165,-0.010970202274620533
0.013520387001335621,0.001785422209650278,-0.008606279268860817,0.005697597283869982,-0.000885427463799715,-0.011040767654776573
0.013520387001335621,0.001785422209650278,-0.008606279268860817,0.005697597283869982,-0.000885427463799715,-0.011040767654776573
0.013605724088847637,0.0017677693394944072,-0.008843537420034409,0.005589251406490803,-0.0007978590438142419,-0.011088578961789608
0.013320879079401493,0.0017629211070016026,-0.00934646837413311,0.006074184086173773,-0.0008082895656116307,-0.01174438837915659
0.013006238266825676,0.0017763134092092514,-0.00859353132545948,0.0057278103195130825,-0.0008764678495936096,-0.011823151260614395
0.013396898284554482,0.001967345830053091,-0.00807274878025055,0.005627219099551439,-0.0010848342208191752,-0.011762487702071667
0.013632720336318016,0.0019327629124745727,-0.009363439865410328,0.0052737281657755375,-0.0012170900590717793,-0.011556165292859077
0.013879072852432728,0.002138503361493349,-0.008799701929092407,0.005622771568596363,-0.0012123907217755914,-0.011475758627057076
0.014164196327328682,0.0019088383996859193,-0.008519355207681656,0.00553658464923501,-0.001274905283935368,-0.011868450790643692
0.013271602801978588,0.0020701750181615353,-0.009205928072333336,0.005462363362312317,-0.0012384378351271152,-0.011729275807738304
0.013697007670998573,0.0018797843949869275,-0.008941623382270336,0.005354992114007473,-0.0011888360604643822,-0.011713420040905476
0.013173384591937065,0.0020580384880304337,-0.008656220510601997,0.004826495423913002,-0.0011430560844019055,-0.011677196249365807
0.01352163590490818,0.0018785849679261446,-0.008835629560053349,0.005607017315924168,-0.0010158447548747063,-0.011907265521585941
0.013317646458745003,0.0020121498964726925,-0.009157437831163406,0.00660187192261219,-0.0009972585830837488,-0.01225337665528059
0.013694128021597862,0.0017963137943297625,-0.008501014672219753,0.006618564482778311,-0.0010490526910871267,-0.012714190408587456
0.013318763114511967,0.0017731022089719772,-0.008141199126839638,0.005834575742483139,-0.000990973087027669,-0.012894741259515285
0.013628669083118439,0.0017830546712502837,-0.00965531263500452,0.005838446319103241,-0.001141715794801712,-0.012594289146363735
0.013418586924672127,0.0019169682636857033,-0.009070662781596184,0.005935451947152615,-0.001130725140683353,-0.012974830344319344
0.013721296563744545,0.0018314728513360023,-0.008789610117673874,0.006103540305048227,-0.0011140326969325542,-0.012837988324463367
0.013471536338329315,0.001592227490618825,-0.008748230524361134,0.006046478170901537,-0.001271724351681769,-0.012746092863380909
0.013613973744213581,0.0015944611513987184,-0.008467784151434898,0.005792646203190088,-0.0012352379271760583,-0.01255100779235363
0.013703263364732265,0.0015213023871183395,-0.008661558851599693,0.005516940262168646,-0.0011918041855096817,-0.012677900493144989
0.013901826925575733,0.0018353753257542849,-0.008961963467299938,0.005452894140034914,-0.0012540160678327084,-0.012735855765640736
0.01369800791144371,0.001814945018850267,-0.00863445270806551,0.006315391976386309,-0.001191706396639347,-0.01294812373816967
0.01369800791144371,0.001814945018850267,-0.00863445270806551,0.006315391976386309,-0.001191706396639347,-0.01294812373816967
0.013811437413096428,0.0018362893024459481,-0.008739723823964596,0.00613371143117547,-0.001237131655216217,-0.01353037916123867
0.013811437413096428,0.0018362893024459481,-0.008739723823964596,0.00613371143117547,-0.001237131655216217,-0.01353037916123867
0.013558520004153252,0.0018295226618647575,-0.008958401158452034,0.006045909132808447,-0.0012290198355913162,-0.013345981948077679
0.013558520004153252,0.0018295226618647575,-0.008958401158452034,0.006045909132808447,-0.0012290198355913162,-0.013345981948077679
0.014072696678340435,0.0018375327344983816,-0.008989227935671806,0.005674981977790594,-0.0012984656495973468,-0.013219607062637806
0.013623898848891258,0.001971928169950843,-0.008721291087567806,0.00564307626336813,-0.0012758778175339103,-0.013382459990680218
0.014153841882944107,0.0019496746826916933,-0.008701478131115437,0.006005638744682074,-0.001208017230965197,-0.013505163602530956
0.013962963595986366,0.0017552911303937435,-0.009039534255862236,0.005736995488405228,-0.0011769087286666036,-0.013615640811622143
0.014729398302733898,0.0017621670849621296,-0.009443582035601139,0.006306570488959551,-0.0011498454259708524,-0.013509700074791908
0.014069271273911,0.0017481341492384672,-0.008826193399727345,0.006536352913826704,-0.0012378867249935865,-0.013649298809468746
0.014449050650000572,0.0017514521023258567,-0.009483680129051208,0.00624046428129077,-0.0012631509453058243,-0.01394521351903677
0.014136414974927902,0.0016255744267255068,-0.009682766161859035,0.0062759919092059135,-0.0011991348583251238,-0.014188943430781364
0.014688774012029171,0.0015772725455462933,-0.009338938631117344,0.006558756809681654,-0.0011505173752084374,-0.013769269920885563
0.014209507964551449,0.001626499812118709,-0.00880913995206356,0.0066565172746777534,-0.0010522521333768964,-0.01382986269891262
0.014655026607215405,0.0015935417031869292,-0.009793520905077457,0.0061783804558217525,-0.0009785813745111227,-0.013630513101816177
0.013729475438594818,0.0016509998822584748,-0.008647933602333069,0.006046824157238007,-0.0008919686661101878,-0.013847678899765015
0.014918629080057144,0.0015308056026697159,-0.008543787524104118,0.0058637941256165504,-0.0008792161825112998,-0.014203888364136219
0.014554675668478012,0.0015911012887954712,-0.009396192617714405,0.006415822543203831,-0.0008662643958814442,-0.01427965797483921
0.014953965321183205,0.0016209306195378304,-0.009112782776355743,0.006992239970713854,-0.0008061215630732477,-0.01417890377342701
0.014325111173093319,0.0016999471699818969,-0.00799575261771679,0.006924916058778763,-0.0007956547196954489,-0.014317547902464867
0.014537712559103966,0.0017333271680399776,-0.008830451406538486,0.006313028745353222,-0.0008399806683883071,-0.014300431124866009
0.014378795400261879,0.0018644867232069373,-0.009473040699958801,0.006060613319277763,-0.0008637217688374221,-0.01444024033844471
0.014886409975588322,0.0017120832344517112,-0.00884651206433773,0.006450342480093241,-0.0011755332816392183,-0.013996884226799011
0.01453483197838068,0.0016489365370944142,-0.009233257733285427,0.0067185224033892155,-0.0012094032717868686,-0.014178908430039883
0.014886202290654182,0.0016558419447392225,-0.009526061825454235,0.006569243501871824,-0.001183236949145794,-0.014702561311423779
0.014886202290654182,0.0016558419447392225,-0.009526061825454235,0.006569243501871824,-0.001183236949145794,-0.014702561311423779
0.01462513580918312,0.0016933523584157228,-0.01016684528440237,0.007142225280404091,-0.0012023956514894962,-0.014901645481586456
0.01462513580918312,0.0016933523584157228,-0.01016684528440237,0.007142225280404091,-0.0012023956514894962,-0.014901645481586456
0.014854329638183117,0.001754125114530325,-0.009681225754320621,0.006976564414799213,-0.0011620103614404798,-0.01458803005516529
0.014765243977308273,0.0014824799727648497,-0.009585955180227757,0.0063429479487240314,-0.001117428531870246,-0.014430343173444271
0.014765243977308273,0.0014824799727648497,-0.009585955180227757,0.0063429479487240314,-0.001117428531870246,-0.014430343173444271
0.014813180081546307,0.0012725497363135219,-0.00929779838770628,0.007015748880803585,-0.001097499975003302,-0.01464760210365057
0.01528751477599144,0.0013187587028369308,-0.008977683261036873,0.006876123603433371,-0.0011979838600382209,-0.014759715646505356
0.015010775066912174,0.0012822337448596954,-0.009390655905008316,0.007011693436652422,-0.0011934598442167044,-0.015204097144305706
0.014930741861462593,0.0013558246428146958,-0.009502428583800793,0.006544243078678846,-0.0011679955059662461,-0.014823384582996368
0.015058954246342182,0.0014481140533462167,-0.009007721208035946,0.007034548558294773,-0.001134258694946766,-0.015269624069333076
0.01512285228818655,0.0015034161042422056,-0.009483440779149532,0.00685904873535037,-0.001118246465921402,-0.015326328575611115
0.015548644587397575,0.0016087060794234276,-0.009511308744549751,0.0064361258409917355,-0.0011947337770834565,-0.014820369891822338
0.015257773920893669,0.0015216515166684985,-0.009728660807013512,0.006533282808959484,-0.001211710856296122,-0.014229620806872845
0.01556172501295805,0.0015142622869461775,-0.009904208593070507,0.0065882522612810135,-0.0012850905768573284,-0.01416885294020176
0.01529468409717083,0.0014275829307734966,-0.009818405844271183,0.006756733171641827,-0.0012651963625103235,-0.014583573676645756
0.015919111669063568,0.0013485918752849102,-0.009357237257063389,0.006682399660348892,-0.0012520072050392628,-0.014968469738960266
0.015498509630560875,0.0014478537486866117,-0.008893877267837524,0.0066201286390423775,-0.0013133194297552109,-0.015181572176516056
0.016160689294338226,0.0014787387335672975,-0.009630582295358181,0.006835826672613621,-0.0012875112006440759,-0.014572872780263424
0.015650887042284012,0.0015046846820041537,-0.01012361329048872,0.007368243765085936,-0.0012055541155859828,-0.014963643625378609
0.015813613310456276,0.001583874342031777,-0.010225586593151093,0.007105866447091103,-0.001191386952996254,-0.014819598756730556
0.015829456970095634,0.001462346874177456,-0.010155819356441498,0.007122088223695755,-0.0012307683937251568,-0.015161460265517235
0.015930872410535812,0.0014612373197451234,-0.009154272265732288,0.006631866563111544,-0.0011319369077682495,-0.015054342336952686
0.01633165217936039,0.0013878940371796489,-0.00955600943416357,0.0071467929519712925,-0.0012195000890642405,-0.015647202730178833
0.015919659286737442,0.0013125593541190028,-0.010537557303905487,0.007306292653083801,-0.0011672403197735548,-0.015775656327605247
0.01629667729139328,0.0013463028008118272,-0.009996616281569004,0.006704597268253565,-0.0011244445340707898,-0.01587810553610325
0.015683582052588463,0.0014991344651207328,-0.009837059304118156,0.0067604887299239635,-0.001048934063874185,-0.015910005196928978
0.015683582052588463,0.0014991344651207328,-0.009837059304118156,0.0067604887299239635,-0.001048934063874185,-0.015910005196928978
0.015523487702012062,0.0014475238276645541,-0.00967442523688078,0.007260119076818228,-0.0010450608097016811,-0.015768185257911682
0.016046499833464622,0.0013377147261053324,-0.010972169227898121,0.006906750611960888,-0.0010376257123425603,-0.015889596194028854
0.015904618427157402,0.001256014802493155,-0.011133989319205284,0.006953044328838587,-0.001234588329680264,-0.015903908759355545
0.016275841742753983,0.0010495659662410617,-0.009881158359348774,0.006937622558325529,-0.0012078670552000403,-0.015931855887174606
0.015983041375875473,0.0011244588531553745,-0.009675282053649426,0.0074762520380318165,-0.0011596227996051311,-0.01653420738875866
0.015093401074409485,0.0011273055570200086,-0.010382959619164467,0.007085764780640602,-0.0012636588653549552,-0.01657053455710411
0.015878671780228615,0.0015173351857811213,-0.009882377460598946,0.007111803162842989,-0.0012585829244926572,-0.016386842355132103
0.015904681757092476,0.0015938697615638375,-0.010218041948974133,0.0069326916709542274,-0.0012573280837386847,-0.01609550230205059
0.016829222440719604,0.001825228682719171,-0.010098875500261784,0.007179527077823877,-0.0014186385087668896,-0.016539281234145164
0.016441425308585167,0.0016721683787181973,-0.010436911135911942,0.007360396441072226,-0.0013377272989600897,-0.016506219282746315
0.016275722533464432,0.0015098674921318889,-0.010152550414204597,0.006908767390996218,-0.0012642627116292715,-0.0165642611682415
0.01596570573747158,0.0012327308068051934,-0.009689465165138245,0.0072866217233240604,-0.0012275106273591518,-0.016735674813389778
0.016302110627293587,0.001284471363760531,-0.009988590143620968,0.007730841636657715,-0.0012101908214390278,-0.01681271381676197
0.01615970954298973,0.001272949855774641,-0.010217396542429924,0.0076861013658344746,-0.0011811614967882633,-0.017110761255025864
0.015983879566192627,0.0015297343488782644,-0.009978629648685455,0.006846421863883734,-0.0012711849994957447,-0.01681879535317421
0.016453426331281662,0.001574349240399897,-0.00941001158207655,0.007048552390187979,-0.0012169505935162306,-0.016816066578030586
0.016336724162101746,0.0017316793091595173,-0.010630864650011063,0.007486575748771429,-0.0012023040326312184,-0.01768474467098713
0.016926920041441917,0.0016057910397648811,-0.009897265583276749,0.007646059151738882,-0.0011923529673367739,-0.01792646385729313
0.01665242202579975,0.0015077756252139807,-0.009374205023050308,0.007999696768820286,-0.0012608044780790806,-0.01799473538994789
0.016665423288941383,0.0014472652692347765,-0.010620334185659885,0.007248100824654102,-0.0012664373498409986,-0.017284628003835678
0.016903918236494064,0.0014707451919093728,-0.009859735146164894,0.007136259227991104,-0.0014457333600148559,-0.017450185492634773
0.016903918236494064,0.0014707451919093728,-0.009859735146164894,0.007136259227991104,-0.0014457333600148559,-0.017450185492634773
0.016798272728919983,0.0014588994672521949,-0.00972101278603077,0.008121256716549397,-0.0014409272698685527,-0.017077146098017693
0.016480837017297745,0.0013567827409133315,-0.01007781084626913,0.007284269668161869,-0.0014081562403589487,-0.017218127846717834
0.016985317692160606,0.0012970557436347008,-0.009929674677550793,0.007908551022410393,-0.0014095919905230403,-0.017658058553934097
0.01731277070939541,0.0011939341202378273,-0.010083082132041454,0.008057544939219952,-0.0013852461706846952,-0.01850758120417595
0.016659585759043694,0.0010278468253090978,-0.009487689472734928,0.008372665382921696,-0.0013019486796110868,-0.018090669065713882
0.017436766996979713,0.0008639546576887369,-0.009090978652238846,0.008417459204792976,-0.0013201618567109108,-0.017884913831949234
0.017405489459633827,0.0007446761592291296,-0.009738127700984478,0.00858359131962061,-0.0012669540010392666,-0.01810934767127037
0.01749698631465435,0.000654358824249357,-0.00960533693432808,0.007933263666927814,-0.0013529894640669227,-0.018807023763656616
0.017504388466477394,0.0005835892516188323,-0.009439951740205288,0.007893925532698631,-0.0013434592401608825,-0.018662206828594208
0.017252523452043533,0.0006106794462539256,-0.010783476755023003,0.008240041323006153,-0.001556350034661591,-0.01856136880815029
0.017910992726683617,0.0005597446579486132,-0.009786807931959629,0.00877411849796772,-0.0015700276708230376,-0.018497325479984283
0.017900025472044945,0.0005844553816132247,-0.009313478134572506,0.008600171655416489,-0.001587655395269394,-0.018409086391329765
0.017817093059420586,0.0005470338510349393,-0.009878583252429962,0.00831656251102686,-0.001651782775297761,-0.01852516643702984
0.017970772460103035,0.000405686761951074,-0.009956995025277138,0.009068727493286133,-0.0015308231813833117,-0.018942158669233322
0.017709769308567047,0.00044205746962688863,-0.009493404068052769,0.008521498180925846,-0.0014524684520438313,-0.019373387098312378
0.01799943298101425,0.0004559564986266196,-0.010729369707405567,0.008195544593036175,-0.0014164326712489128,-0.01918843202292919
0.018134666606783867,0.00044550708844326437,-0.009944932535290718,0.00797252170741558,-0.001360451802611351,-0.01918545737862587
0.01805349625647068,0.00045523984590545297,-0.00951347965747118,0.008776604197919369,-0.0014134739758446813,-0.019545793533325195
0.018426593393087387,0.0004460561031010002,-0.010405212640762329,0.008055414073169231,-0.0014182940358296037,-0.01967361383140087
0.018282435834407806,0.0004202709533274174,-0.01015381421893835,0.007547189015895128,-0.0013687384780496359,-0.019650880247354507
0.01802428811788559,0.0003987716627307236,-0.009810404852032661,0.00854436680674553,-0.0013347091153264046,-0.019603578373789787
0.01823323965072632,0.000449561164714396,-0.009793432429432869,0.008245839737355709,-0.001333527616225183,-0.020023416727781296
0.018636683002114296,0.0004892737488262355,-0.009603193029761314,0.007874169386923313,-0.0014307473320513964,-0.01990751549601555
0.018636683002114296,0.0004892737488262355,-0.009603193029761314,0.007874169386923313,-0.0014307473320513964,-0.01990751549601555
0.018482642248272896,0.0004496079927776009,-0.01222088560461998,0.008308777585625648,-0.00140339694917202,-0.02021820656955242
0.018178801983594894,0.00048322585644200444,-0.011645732447504997,0.008645985275506973,-0.001690370263531804,-0.020238295197486877
0.01877802051603794,0.00044964809785597026,-0.011477019637823105,0.008507341146469116,-0.001603727345354855,-0.020476676523685455
0.018976200371980667,0.00047716667177155614,-0.01130267046391964,0.00853403378278017,-0.0016207832377403975,-0.021056199446320534
0.018711751326918602,0.00044965773122385144,-0.010893185622990131,0.009138315916061401,-0.0016622045077383518,-0.020776672288775444
0.01919618248939514,0.0004970492445863783,-0.011938734911382198,0.008964198641479015,-0.001579257776029408,-0.02075106091797352
0.019113702699542046,0.0005299401818774641,-0.011943845078349113,0.008924485184252262,-0.0016277030808851123,-0.02050604671239853
0.01886029914021492,0.0004915641038678586,-0.011548188515007496,0.008804154582321644,-0.0015580743784084916,-0.02038608491420746
0.01925504393875599,0.0005246692453511059,-0.011435010470449924,0.00816421490162611,-0.001516921678557992,-0.020973820239305496
0.01905287802219391,0.0005516661913134158,-0.01117740385234356,0.007654821500182152,-0.001443023094907403,-0.021338792517781258
0.018999746069312096,0.0005148714408278465,-0.011811153963208199,0.0086628757417202,-0.0013934251619502902,-0.02123914286494255
0.019489720463752747,0.0006410967907868326,-0.011636460199952126,0.008675732649862766,-0.001451956806704402,-0.02128668501973152
0.020171180367469788,0.0005799779901280999,-0.012091195210814476,0.008233445696532726,-0.0014981040731072426,-0.021915266290307045
0.019467387348413467,0.0006041429587639868,-0.011888873763382435,0.00824726652354002,-0.001649094745516777,-0.022290518507361412
0.019634144380688667,0.0005533489165827632,-0.011093615554273129,0.009001974016427994,-0.001590291503816843,-0.02227064222097397
0.019736748188734055,0.0005565336323343217,-0.011767867021262646,0.008537082001566887,-0.0015890798531472683,-0.02233586274087429
0.019015293568372726,0.0005354790482670069,-0.0106493029743433,0.008765545673668385,-0.0017036832869052887,-0.022554371505975723
0.01963256299495697,0.0004938424099236727,-0.012419200502336025,0.008930335752665997,-0.0019848719239234924,-0.02260659635066986
0.020007222890853882,0.0005154968821443617,-0.01250299159437418,0.00879161711782217,-0.0019668068271130323,-0.022380508482456207
0.020137319341301918,0.00048778264317661524,-0.011078396812081337,0.008714476600289345,-0.0018402283312752843,-0.02249879017472267
0.019714631140232086,0.0004608134040609002,-0.011686849407851696,0.008989466354250908,-0.0017874836921691895,-0.02298685535788536
0.01991487666964531,0.00042563446913845837,-0.011383553966879845,0.009445871226489544,-0.0016992647433653474,-0.022788437083363533
0.019972430542111397,0.0004573196347337216,-0.011700316332280636,0.00898884329944849,-0.001796496333554387,-0.022953789681196213
0.0205276720225811,0.00042946680332534015,-0.01191770751029253,0.009608691558241844,-0.0019626941066235304,-0.022988485172390938
0.02023172378540039,0.00046148334513418376,-0.012026526965200901,0.009182102978229523,-0.0022498806938529015,-0.02246886119246483
0.021571209654211998,0.00043234406621195376,-0.011905680410563946,0.009004976600408554,-0.001951008103787899,-0.022869015112519264
0.019608603790402412,0.0005626642378047109,-0.012753154151141644,0.010241622105240822,-0.0016229967586696148,-0.023447806015610695
0.020566171035170555,0.0005568047636188567,-0.011874429881572723,0.009413385763764381,-0.0013837548904120922,-0.02359546720981598
0.02026117965579033,0.0005912104388698936,-0.01184756774455309,0.00867498479783535,-0.0012521031312644482,-0.023714428767561913
0.020693732425570488,0.0005362576339393854,-0.01240347046405077,0.009802361950278282,-0.0012758610537275672,-0.023876817896962166
0.020693732425570488,0.0005362576339393854,-0.01240347046405077,0.009802361950278282,-0.0012758610537275672,-0.023876817896962166
0.020840227603912354,0.0005592824309132993,-0.011678682640194893,0.00986907072365284,-0.0014855175977572799,-0.024053677916526794
0.020594649016857147,0.0005218447186052799,-0.012401898391544819,0.00967096071690321,-0.0016077762702479959,-0.024085715413093567
0.020889097824692726,0.000548004056327045,-0.01195203885436058,0.009692762047052383,-0.0021888462360948324,-0.02328835055232048
0.021059654653072357,0.0005832426249980927,-0.012586879543960094,0.009321387857198715,-0.0023334778379648924,-0.0242014117538929
0.020996173843741417,0.0006199354538694024,-0.012801215052604675,0.009083753451704979,-0.0023412026930600405,-0.024489078670740128
0.02116035670042038,0.0005870632594451308,-0.01232947688549757,0.009295172989368439,-0.0020661300513893366,-0.02526320144534111
0.021025897935032845,0.0006142242345958948,-0.012467282824218273,0.00905117392539978,-0.0019632000476121902,-0.0251920223236084
0.02139607071876526,0.000562732107937336,-0.011891236528754234,0.00888123456388712,-0.001758680446073413,-0.025065544992685318
0.02111419104039669,0.0005814801552332938,-0.012742147780954838,0.009315263479948044,-0.0016319564310833812,-0.024009501561522484
0.020937936380505562,0.0005456950748339295,-0.012042352929711342,0.009268084540963173,-0.0016627461882308125,-0.023461680859327316
0.02098849229514599,0.0005073451320640743,-0.012357390485703945,0.008889934979379177,-0.0017008911818265915,-0.024045675992965698
0.021159479394555092,0.0004739464202430099,-0.012303712777793407,0.00948813371360302,-0.0017273806734010577,-0.02525285631418228
0.021379288285970688,0.0004446677048690617,-0.012067688629031181,0.00982633139938116,-0.001961557660251856,-0.024952316656708717
0.02145492471754551,0.00041879998752847314,-0.012629730626940727,0.009414787404239178,-0.0018905248725786805,-0.0251965019851923
0.021470509469509125,0.0003957758017349988,-0.011989790946245193,0.009365981444716454,-0.0017071693437173963,-0.025882810354232788
0.021596958860754967,0.00036797960638068616,-0.012584366835653782,0.009449119679629803,-0.0017131563508883119,-0.025436457246541977
0.021345527842640877,0.0003401748545002192,-0.01246550027281046,0.0091633889824152,-0.0015924930339679122,-0.02487393654882908
0.021389301866292953,0.0003162626817356795,-0.012968618422746658,0.009236913174390793,-0.0017214600229635835,-0.024207644164562225
0.021784985437989235,0.00029549087048508227,-0.01248600147664547,0.00966650154441595,-0.001666241674683988,-0.024448100477457047
0.02164481393992901,0.00027727900305762887,-0.011956842616200447,0.00970871839672327,-0.0019605879206210375,-0.025495531037449837
0.021446289494633675,0.0003071891260333359,-0.012836667709052563,0.009298751130700111,-0.0020553171634674072,-0.026151277124881744
0.021844269707798958,0.00028081820346415043,-0.012606748379766941,0.009523436427116394,-0.0021835430525243282,-0.026300109922885895
0.022207772359251976,0.0002669363166205585,-0.012349742464721203,0.009169032797217369,-0.0020996108651161194,-0.026217836886644363
0.022207561880350113,0.0002950235502794385,-0.011992761865258217,0.010032061487436295,-0.0018150098621845245,-0.026239942759275436
0.021713387221097946,0.00028338172705844045,-0.012098472565412521,0.009937280789017677,-0.0019283037399873137,-0.026511957868933678
0.021713387221097946,0.00028338172705844045,-0.012098472565412521,0.009937280789017677,-0.0019283037399873137,-0.026511957868933678
0.0218188613653183,0.0002600099833216518,-0.012085534632205963,0.010046754963696003,-0.0021291524171829224,-0.026583904400467873
0.022103827446699142,0.00028392739477567375,-0.011918433010578156,0.010431884787976742,-0.002176217269152403,-0.026436220854520798
0.022103827446699142,0.00028392739477567375,-0.011918433010578156,0.010431884787976742,-0.002176217269152403,-0.026436220854520798
0.02293374016880989,0.0002744771772995591,-0.012348699383437634,0.010116067714989185,-0.0020921549294143915,-0.026430772617459297
0.022826582193374634,0.00026441513909958303,-0.011831565760076046,0.009883152320981026,-0.001833880553022027,-0.02668699249625206
0.022544464096426964,0.0002554378588683903,-0.011974346823990345,0.009862309321761131,-0.0016887497622519732,-0.02652704529464245
0.021849429234862328,0.00025420484598726034,-0.012377781793475151,0.009809214621782303,-0.001625813078135252,-0.026144282892346382
0.021876690909266472,0.0002407797728665173,-0.011795610189437866,0.00997172761708498,-0.0018142659682780504,-0.026222271844744682
0.022225283086299896,0.00027361558750271797,-0.012459516525268555,0.00996787566691637,-0.002077320357784629,-0.027329297736287117
0.02266804501414299,0.0002609950315672904,-0.012696919962763786,0.009885364212095737,-0.00208159233443439,-0.02804044634103775
0.02253761887550354,0.00027617637533694506,-0.012533165514469147,0.01045866310596466,-0.0018488459754735231,-0.028141295537352562
0.022251030430197716,0.0002774706808850169,-0.01258131768554449,0.010064211674034595,-0.0018144430359825492,-0.02698615752160549
0.022566651925444603,0.0002659382880665362,-0.012217696756124496,0.01026922557502985,-0.0017774252919480205,-0.02633175253868103
0.02308703027665615,0.0002551694051362574,-0.012704991735517979,0.010387316346168518,-0.0019958270713686943,-0.02745947055518627
0.022509397938847542,0.00020595949899870902,-0.012058473192155361,0.009718264453113079,-0.002116946969181299,-0.028195319697260857
0.022919978946447372,0.00018129857198800892,-0.012612378224730492,0.009716680273413658,-0.0021776764187961817,-0.02813941240310669
0.02220352180302143,0.00016465550288558006,-0.012288184836506844,0.010079707019031048,-0.0022767256014049053,-0.02844066359102726
0.02211698703467846,0.0001508499262854457,-0.012296332977712154,0.010461186058819294,-0.002109396969899535,-0.029188772663474083
0.022534767165780067,0.00013918154581915587,-0.012244815938174725,0.010161043144762516,-0.0019592116586863995,-0.02833685465157032
0.02166011743247509,0.0001291901571676135,-0.012648887000977993,0.010565456002950668,-0.0018772423500195146,-0.027475807815790176
0.023372311145067215,0.00012053737737005576,-0.012699523009359837,0.009814675897359848,-0.001702799927443266,-0.028008034452795982
0.023199766874313354,0.00011297070159344003,-0.012067009694874287,0.010250509716570377,-0.0017702322220429778,-0.029174422845244408
0.022396240383386612,0.00010629833559505641,-0.012632575817406178,0.009975478053092957,-0.002176149981096387,-0.029338261112570763
0.02252219244837761,0.00010037024185294285,-0.01263326033949852,0.009470640681684017,-0.0022902300115674734,-0.02965879626572132
0.023063480854034424,9.506867354502901e-05,-0.01261315681040287,0.010030824691057205,-0.0024671191349625587,-0.029384320601820946
0.022882800549268723,8.59847932588309e-05,-0.012109369039535522,0.010166122578084469,-0.0021931047085672617,-0.02861741930246353
0.02285308577120304,8.206447819247842e-05,-0.013090486638247967,0.010172088630497456,-0.002129450673237443,-0.02975848875939846
0.02306975983083248,7.848606765037403e-05,-0.01297429483383894,0.010216226801276207,-0.002135949907824397,-0.03046349436044693
0.023176558315753937,9.987685916712508e-05,-0.012201500125229359,0.010305524803698063,-0.0023647116031497717,-0.030293378978967667
0.023176558315753937,9.987685916712508e-05,-0.012201500125229359,0.010305524803698063,-0.0023647116031497717,-0.030293378978967667
0.02328484132885933,0.00010811169340740889,-0.012920866720378399,0.010996964760124683,-0.0021555074490606785,-0.029907915741205215
0.023048074916005135,0.00010410744289401919,-0.014199132099747658,0.010475512593984604,-0.002081679878756404,-0.029850296676158905
0.023090306669473648,0.0001002443241304718,-0.012796659022569656,0.01077356282621622,-0.0018972742836922407,-0.029792973771691322
0.023372165858745575,9.665571997174993e-05,-0.013289311900734901,0.011151396669447422,-0.0019364416366443038,-0.030165502801537514
0.023526428267359734,9.33149058255367e-05,-0.013121521100401878,0.010629880242049694,-0.0021564033813774586,-0.029948735609650612
0.02320541813969612,9.019770368468016e-05,-0.013290331698954105,0.010798095725476742,-0.002198047935962677,-0.029992545023560524
0.023323524743318558,8.728209650143981e-05,-0.013348676264286041,0.01080950628966093,-0.002258316380903125,-0.02972768060863018
0.023176979273557663,8.454881026409566e-05,-0.013075456023216248,0.01064128428697586,-0.0021518655121326447,-0.03046352043747902
0.023223865777254105,8.198161231121048e-05,-0.013038389384746552,0.011197569780051708,-0.0020210451912134886,-0.030431335791945457
0.02344127930700779,7.956565241329372e-05,-0.012587672099471092,0.01155448704957962,-0.001968286233022809,-0.03027920611202717
0.0237751342356205,7.728811033302918e-05,-0.013354438357055187,0.011113474145531654,-0.001976605039089918,-0.03046933189034462
0.02376486361026764,7.513718446716666e-05,-0.013236411847174168,0.010596247389912605,-0.0019575157202780247,-0.030881816521286964
0.023748209699988365,7.310292858164757e-05,-0.013544094748795033,0.01040385477244854,-0.0022737220861017704,-0.03139296919107437
0.023783648386597633,7.117580389603972e-05,-0.013020661659538746,0.01101129874587059,-0.0028678399976342916,-0.0315108448266983
0.02395874448120594,6.934806879144162e-05,-0.013845180161297321,0.011016293428838253,-0.002715544542297721,-0.031366899609565735
0.02417132258415222,6.761119584552944e-05,-0.01347003597766161,0.010872796177864075,-0.002695823088288307,-0.03171664476394653
0.024024946615099907,6.595948070753366e-05,-0.013892724178731441,0.011599836871027946,-0.0024093289393931627,-0.031530607491731644
0.023820871487259865,6.438696436816826e-05,-0.013530449941754341,0.011135278269648552,-0.0023326673544943333,-0.031913887709379196
0.024303115904331207,6.288724398473278e-05,-0.01346826646476984,0.011091567575931549,-0.0023362375795841217,-0.03217053785920143
0.024290263652801514,6.145586667116731e-05,-0.013499845750629902,0.011604299768805504,-0.0023764693178236485,-0.032492149621248245
0.02477649599313736,6.0088241298217326e-05,-0.01351163163781166,0.011237585917115211,-0.0024293067399412394,-0.032366666942834854
0.024805935099720955,5.878014417248778e-05,-0.013706913217902184,0.011393815279006958,-0.002538213273510337,-0.032120481133461
0.023924561217427254,5.752766810473986e-05,-0.01349552534520626,0.011400895193219185,-0.0022353169042617083,-0.033490102738142014
0.024527043104171753,5.517649697139859e-05,-0.013459676876664162,0.012031659483909607,-0.0021252641454339027,-0.03228997066617012
0.024796495214104652,5.407153003034182e-05,-0.013872161507606506,0.011257808655500412,-0.0020517376251518726,-0.03156781569123268
0.024058246985077858,5.301001510815695e-05,-0.01336309127509594,0.01158247608691454,-0.002357303397729993,-0.03275757655501366
0.024903517216444016,5.1989209168823436e-05,-0.01393818762153387,0.011563933454453945,-0.002421933226287365,-0.032388512045145035
0.024903517216444016,5.1989209168823436e-05,-0.01393818762153387,0.011563933454453945,-0.002421933226287365,-0.032388512045145035
0.025605766102671623,5.1007104048039764e-05,-0.013876764103770256,0.010989207774400711,-0.0026062075048685074,-0.03394735977053642
0.02533167600631714,5.006141873309389e-05,-0.01486365869641304,0.011185112409293652,-0.0024684304371476173,-0.03479737415909767
0.0252989511936903,-1.6572148524574004e-05,-0.01364668644964695,0.011053590103983879,-0.0024001605343073606,-0.03365388140082359
0.024524664506316185,-3.70212146663107e-05,-0.014057078398764133,0.011185341514647007,-0.0025313596706837416,-0.03233480826020241
0.024432998150587082,-4.9209946155315265e-05,-0.014133346267044544,0.011195973493158817,-0.0026968554593622684,-0.03342123329639435
0.025281311944127083,-5.435065759229474e-05,-0.015025214292109013,0.0112924138084054,-0.0025605889968574047,-0.03406966105103493
0.02576756291091442,-5.335886817192659e-05,-0.013637575320899487,0.011552045121788979,-0.002624068409204483,-0.03433333709836006
0.0255830567330122,-5.232591138337739e-05,-0.014654194004833698,0.011543010361492634,-0.0023339532781392336,-0.03430556133389473
0.02582339011132717,-5.1331124268472195e-05,-0.013773161917924881,0.01122424378991127,-0.0021698521450161934,-0.03406244516372681
0.025791211053729057,-5.0373510021017864e-05,-0.01477620005607605,0.011352824978530407,-0.0019846083596348763,-0.03404935449361801
0.026095619425177574,-4.945090404362418e-05,-0.014699744991958141,0.01122205425053835,-0.002020075684413314,-0.03454253077507019
0.025786295533180237,-4.8561552830506116e-05,-0.015010375529527664,0.0119599848985672,-0.00261949491687119,-0.034425560384988785
0.025871144607663155,-4.770359009853564e-05,-0.013875625096261501,0.011514276266098022,-0.002951347967609763,-0.03428124263882637
0.026180461049079895,-4.687538239522837e-05,-0.014881852082908154,0.011142641305923462,-0.002698735101148486,-0.03452196344733238
0.026212912052869797,-4.607548180501908e-05,-0.01470580417662859,0.011646648868918419,-0.0026508020237088203,-0.03484630584716797
0.026214757934212685,-4.530242586042732e-05,-0.015179515816271305,0.01166735589504242,-0.0024018376134335995,-0.035294290632009506
0.02607235312461853,-5.9203906857874244e-05,-0.014341186732053757,0.012053252197802067,-0.0022895329166203737,-0.03499175235629082
0.026140062138438225,-5.84394256293308e-05,-0.015032818540930748,0.01226931530982256,-0.002310051117092371,-0.03521723300218582
0.026286384090781212,-5.7508495956426486e-05,-0.014913561753928661,0.011957414448261261,-0.002393475966528058,-0.03665013238787651
0.02669748291373253,-5.6604407291160896e-05,-0.015295108780264854,0.011979559436440468,-0.002405252307653427,-0.036135803908109665
0.026314780116081238,-5.5728163715684786e-05,-0.014956549741327763,0.011859589256346226,-0.0024892534129321575,-0.03486086428165436
0.026691824197769165,-5.405464980867691e-05,-0.01538236066699028,0.011720629408955574,-0.002430187538266182,-0.03629416599869728
0.02662704698741436,-5.325502570485696e-05,-0.015224705450236797,0.012367593124508858,-0.0024414986837655306,-0.03695821762084961
0.02669411525130272,-5.2478826546575874e-05,-0.015055748634040356,0.012564828619360924,-0.002426068764179945,-0.03809501975774765
0.026364220306277275,-5.172476085135713e-05,-0.014694535173475742,0.012561196461319923,-0.002699278062209487,-0.03659939020872116
0.02662087231874466,-0.00016629626043140888,-0.015443594194948673,0.012721690349280834,-0.002808636287227273,-0.03480636700987816
0.02662087231874466,-0.00016629626043140888,-0.015443594194948673,0.012721690349280834,-0.002808636287227273,-0.03480636700987816
0.026378346607089043,-0.000174564280314371,-0.015234975144267082,0.012401402927935123,-0.0028008376248180866,-0.03593253716826439
0.02663709595799446,-0.00016823585610836744,-0.015414969995617867,0.012719501741230488,-0.002634599572047591,-0.037248700857162476
0.026998132467269897,-0.00016217553638853133,-0.014847689308226109,0.012569026090204716,-0.0026128096505999565,-0.037441130727529526
0.02778189443051815,-0.00015653393347747624,-0.015494707971811295,0.012886042706668377,-0.002586774295195937,-0.03724554181098938
0.027473028749227524,-0.00017796183237805963,-0.015069378539919853,0.012914296239614487,-0.00253116711974144,-0.0368974432349205
0.026513487100601196,-0.0001755745179252699,-0.016034118831157684,0.012190709821879864,-0.0025689105968922377,-0.03694344684481621
0.026932276785373688,-0.00017009026487357914,-0.014928128570318222,0.012810886837542057,-0.0024785236455500126,-0.03722480684518814
0.028279857710003853,-0.0001648966717766598,-0.015269061550498009,0.013042660430073738,-0.002367864828556776,-0.03774834796786308
0.027584325522184372,-0.00016001057520043105,-0.015060318633913994,0.012858910486102104,-0.0024383082054555416,-0.03720935806632042
0.02737921103835106,-0.00015540560707449913,-0.015730364248156548,0.012278754264116287,-0.0025602555833756924,-0.03741021081805229
0.028019418939948082,-0.00015105842612683773,-0.015374403446912766,0.01235160231590271,-0.002556239953264594,-0.03772449865937233
0.028521770611405373,-0.00016856295405887067,-0.015574168413877487,0.012144463136792183,-0.0026674026157706976,-0.037942927330732346
0.02803891710937023,-0.0001668587065069005,-0.015673594549298286,0.012403475120663643,-0.0025897498708218336,-0.03756474331021309
0.027045879513025284,-0.0001625895529286936,-0.015756860375404358,0.012096735648810863,-0.0024717513006180525,-0.03704429045319557
0.027063876390457153,-0.00017848574498202652,-0.015921976417303085,0.012281824834644794,-0.0024298299103975296,-0.038578279316425323
0.028138162568211555,-0.0001766616915119812,-0.015179195441305637,0.01269241888076067,-0.002588308183476329,-0.038488082587718964
0.02825472317636013,-0.0001724639441817999,-0.015922147780656815,0.01234995387494564,-0.002529778052121401,-0.03813040256500244
0.028231406584382057,-0.00016843008052092046,-0.01558662299066782,0.012977201491594315,-0.0025687634479254484,-0.038497328758239746
0.0278712697327137,-0.00016090217104647309,-0.015174495056271553,0.01277077104896307,-0.002495878143236041,-0.038313817232847214
0.0278712697327137,-0.00016090217104647309,-0.015174495056271553,0.01277077104896307,-0.002495878143236041,-0.038313817232847214
0.028227675706148148,-0.0001540185621706769,-0.015934571623802185,0.01264521386474371,-0.002878759754821658,-0.03809598833322525
0.027958491817116737,-0.00015079289732966572,-0.015933025628328323,0.012979946099221706,-0.0030501969158649445,-0.03804870694875717
0.0285068079829216,-0.00018196347809862345,-0.016056178137660027,0.012851458042860031,-0.003189674112945795,-0.03825197368860245
0.0285068079829216,-0.00018196347809862345,-0.016056178137660027,0.012851458042860031,-0.003189674112945795,-0.03825197368860245
0.028515905141830444,-0.00017629349895287305,-0.015868181362748146,0.013027889654040337,-0.002922909799963236,-0.039872244000434875
0.02883247099816799,-0.00016966565453913063,-0.01629805378615856,0.01244178507477045,-0.002693387446925044,-0.039388272911310196
0.02848825417459011,-0.00019574648467823863,-0.015378442592918873,0.012822821736335754,-0.0024066271726042032,-0.037684373557567596
0.028327418491244316,-0.0001893164444481954,-0.015870198607444763,0.013060066848993301,-0.002460678108036518,-0.03803912177681923
0.028585713356733322,-0.0001829093525884673,-0.015530980192124844,0.013522827066481113,-0.0027804889250546694,-0.038962237536907196
0.028710460290312767,-0.00017691733955871314,-0.016125591471791267,0.013514244928956032,-0.0027600026223808527,-0.038950394839048386
0.02880905382335186,-0.00017130466585513204,-0.01580781117081642,0.013545900583267212,-0.00272728456184268,-0.04119925945997238
0.029104702174663544,-0.00019332727242726833,-0.016083110123872757,0.013480473309755325,-0.00273459916934371,-0.03917057812213898
0.028857070952653885,-0.00018792676564771682,-0.01630004495382309,0.013540088199079037,-0.00243367999792099,-0.0383789949119091
0.028873654082417488,-0.0001824882929213345,-0.016142956912517548,0.013815068639814854,-0.002362426370382309,-0.03972991555929184
0.02924616076052189,-0.00020166649483144283,-0.016298795118927956,0.013330844230949879,-0.0027004852890968323,-0.039899859577417374
0.029288258403539658,-0.00019712353241629899,-0.015782231464982033,0.013563751243054867,-0.00304416473954916,-0.04006850719451904
0.02928321622312069,-0.00019261392299085855,-0.016200469806790352,0.013535702601075172,-0.0030892721842974424,-0.04038194939494133
0.02953825332224369,-0.000303941429592669,-0.015785949304699898,0.014216786250472069,-0.0028460309840738773,-0.0408238060772419
0.02943652868270874,-0.00028627581195905805,-0.01665746606886387,0.013781369663774967,-0.002772160107269883,-0.04043136164546013
0.02968536503612995,-0.00032078512595035136,-0.016236595809459686,0.014024786651134491,-0.0027756590861827135,-0.040447771549224854
0.029336776584386826,-0.00030474390950985253,-0.016240637749433517,0.01355724036693573,-0.0028254897333681583,-0.04130639135837555
0.03029167838394642,-0.0002884886343963444,-0.016652202233672142,0.013772462494671345,-0.0027661242056638002,-0.04078255221247673
0.03056100569665432,-0.0003188560076523572,-0.016425877809524536,0.013237307779490948,-0.0029139576945453882,-0.041126053780317307
0.03044038638472557,-0.00030407021404244006,-0.016891606152057648,0.013664957135915756,-0.002933126874268055,-0.039232831448316574
0.029810816049575806,-0.000290076743112877,-0.016323143616318703,0.013395153917372227,-0.0028914206195622683,-0.040875308215618134
0.029007568955421448,-0.00031636658241041005,-0.016773022711277008,0.014105120673775673,-0.00283379596658051,-0.041777368634939194
0.03017120622098446,-0.00030377693474292755,-0.016669977456331253,0.01425898913294077,-0.003064035205170512,-0.04257132112979889
0.03017120622098446,-0.00030377693474292755,-0.016669977456331253,0.01425898913294077,-0.003064035205170512,-0.04257132112979889
0.03117022104561329,-0.0004126867279410362,-0.01698797009885311,0.01399912964552641,-0.0027951833326369524,-0.04144229367375374
0.030703332275152206,-0.0004463946679607034,-0.01803199201822281,0.013775341212749481,-0.0026063965633511543,-0.04180881753563881
0.030703332275152206,-0.0004463946679607034,-0.01803199201822281,0.013775341212749481,-0.0026063965633511543,-0.04180881753563881
0.030101364478468895,-0.0004176482034381479,-0.0170697383582592,0.013189912773668766,-0.0027989752124994993,-0.04346694424748421
0.029732560738921165,-0.00044684193562716246,-0.01691770739853382,0.013374468311667442,-0.0034105051308870316,-0.04197009652853012
0.029619231820106506,-0.0005685091018676758,-0.01743016205728054,0.013270744122564793,-0.003602492157369852,-0.04035437852144241
0.0303037092089653,-0.0005691263359040022,-0.016930386424064636,0.013998886570334435,-0.003467305563390255,-0.04210603982210159
0.030406078323721886,-0.0006057529244571924,-0.01728474721312523,0.01362024899572134,-0.002866555005311966,-0.04285459220409393
0.030157584697008133,-0.000632947834674269,-0.017069634050130844,0.014010786078870296,-0.002713629510253668,-0.0411740206182003
0.03008056804537773,-0.0006321434630081058,-0.01708863116800785,0.013784030452370644,-0.002657848410308361,-0.04256049171090126
0.02995499223470688,-0.0006068578222766519,-0.018209287896752357,0.014290857128798962,-0.0032324548810720444,-0.0431365966796875
0.029915837571024895,-0.0007226121961139143,-0.01667466200888157,0.01423134095966816,-0.0032051459420472383,-0.04269465059041977
0.030243000015616417,-0.0007481281645596027,-0.01688986085355282,0.014305313117802143,-0.0029442848172038794,-0.04270798712968826
0.030329596251249313,-0.0007635242072865367,-0.017172114923596382,0.013978837989270687,-0.0029508285224437714,-0.04292107746005058
0.030098164454102516,-0.0007783070323057473,-0.018183622509241104,0.01448856107890606,-0.0029849798884242773,-0.043352141976356506
0.030213380232453346,-0.0008359869243577123,-0.01757092960178852,0.01406686007976532,-0.002990272594615817,-0.0431065708398819
0.030366679653525352,-0.0008921040571294725,-0.01710023544728756,0.014454813674092293,-0.002835507970303297,-0.04360075667500496
0.030561862513422966,-0.0008939200197346509,-0.017833059653639793,0.01395689882338047,-0.0028875197749584913,-0.04327814653515816
0.028831904754042625,-0.000894736556801945,-0.017150023952126503,0.014320841990411282,-0.0029130028560757637,-0.04375026375055313
0.03103170357644558,-0.0009570639813318849,-0.017171721905469894,0.01387462206184864,-0.0029719453305006027,-0.043950069695711136
0.03080381453037262,-0.0010002275230363011,-0.01760498620569706,0.014049447141587734,-0.002882035681977868,-0.043221332132816315
0.0302547849714756,-0.000985058955848217,-0.01737823523581028,0.013497654348611832,-0.0030662547796964645,-0.044377680867910385
0.03058585524559021,-0.0009734103223308921,-0.018048640340566635,0.014245911501348019,-0.0031129075214266777,-0.04424422234296799
0.03019583411514759,-0.0009892807574942708,-0.01757991686463356,0.014008477330207825,-0.0028224806301295757,-0.044291429221630096
0.03085384890437126,-0.0010243820725008845,-0.01718815043568611,0.014649669639766216,-0.0028287058230489492,-0.043150369077920914
0.03084726631641388,-0.0011024556588381529,-0.01777726411819458,0.014191224239766598,-0.0029017271008342505,-0.0445193313062191
0.029345417395234108,-0.0013901062775403261,-0.01727196015417576,0.013732776045799255,-0.0031757750548422337,-0.042783644050359726
0.03019067645072937,-0.0013399210292845964,-0.017355935648083687,0.014377664774656296,-0.0031418122816830873,-0.0435711033642292
0.030933894217014313,-0.0012682760134339333,-0.01710943505167961,0.014176434837281704,-0.0031958825420588255,-0.04461800307035446
0.030775511637330055,-0.0012253849999979138,-0.017622772604227066,0.014576921239495277,-0.0029255589470267296,-0.046610184013843536
0.031073421239852905,-0.0011785565875470638,-0.017194578424096107,0.013845249079167843,-0.0030335206538438797,-0.04505646228790283
0.03173186630010605,-0.0011517251841723919,-0.01765061356127262,0.01410709973424673,-0.0030591092072427273,-0.04397028684616089
0.03173186630010605,-0.0011517251841723919,-0.01765061356127262,0.01410709973424673,-0.0030591092072427273,-0.04397028684616089
0.03194515034556389,-0.0012709570582956076,-0.01789393462240696,0.014199190773069859,-0.0030087598133832216,-0.045735981315374374
0.030679527670145035,-0.00137334072496742,-0.017234638333320618,0.014895016327500343,-0.003266547806560993,-0.04632561281323433
0.03074023500084877,-0.0017518484964966774,-0.01772087812423706,0.014844408258795738,-0.0032221076544374228,-0.04588408023118973
0.03167453780770302,-0.0017785403179004788,-0.017041930928826332,0.015082687139511108,-0.0033175302669405937,-0.046032920479774475
0.03159177303314209,-0.0019516507163643837,-0.017356008291244507,0.015045496635138988,-0.0031983056105673313,-0.04618300497531891
0.0313982218503952,-0.001857170951552689,-0.017772838473320007,0.01567394845187664,-0.003022474469617009,-0.046354878693819046
0.031071946024894714,-0.001859972719103098,-0.017110807821154594,0.015604604966938496,-0.002947149332612753,-0.04645460844039917
0.03124355711042881,-0.0018560629105195403,-0.01727524772286415,0.015549080446362495,-0.00289005134254694,-0.046579908579587936
0.03127346932888031,-0.0019738522823899984,-0.016919977962970734,0.01500574592500925,-0.0032362162601202726,-0.046671319752931595
0.030888227745890617,-0.0020092616323381662,-0.01744139939546585,0.015244245529174805,-0.003472634358331561,-0.04545380920171738
0.032398562878370285,-0.002311545889824629,-0.018262717872858047,0.015576695092022419,-0.0034344971645623446,-0.04774651303887367
0.03236916661262512,-0.0023312962148338556,-0.017597954720258713,0.015507924370467663,-0.002930946182459593,-0.047069672495126724
0.03214913606643677,-0.0024873868096619844,-0.017635751515626907,0.015210408717393875,-0.002702366327866912,-0.047858819365501404
0.03214093670248985,-0.002369755180552602,-0.017501100897789,0.015039309859275818,-0.002668396569788456,-0.047702156007289886
0.03204042464494705,-0.0022089602425694466,-0.01749555952847004,0.015493732877075672,-0.002767990343272686,-0.04549967125058174
0.03229844570159912,-0.0020230214577168226,-0.017617305740714073,0.01525138784199953,-0.0031755194067955017,-0.04622875899076462
0.03270279988646507,-0.00200928607955575,-0.01732180081307888,0.015329403802752495,-0.003153782105073333,-0.04718799516558647
0.03228490427136421,-0.0021483751479536295,-0.01838693581521511,0.01519552432000637,-0.0034179971553385258,-0.04901306331157684
0.03262634947896004,-0.002434744732454419,-0.018126588314771652,0.01613081805408001,-0.0032312904950231314,-0.04757973551750183
0.0330900214612484,-0.0023976799566298723,-0.01732643134891987,0.01568540558218956,-0.003297419287264347,-0.04618874937295914
0.033297348767519,-0.002535756677389145,-0.01812172122299671,0.016218097880482674,-0.003287854138761759,-0.047060731798410416
0.03321283683180809,-0.002232493134215474,-0.0182514525949955,0.015680890530347824,-0.0034767035394906998,-0.048255518078804016
0.033174775540828705,-0.002114750910550356,-0.018755421042442322,0.01544856559485197,-0.0034303970169276,-0.04741472005844116
0.033174775540828705,-0.002114750910550356,-0.018755421042442322,0.01544856559485197,-0.0034303970169276,-0.04741472005844116
0.03386589139699936,-0.00227646273560822,-0.01790139265358448,0.01529049314558506,-0.0032708249054849148,-0.04739149659872055
0.034181106835603714,-0.002611236646771431,-0.01862003095448017,0.015306713990867138,-0.003437981242313981,-0.04784032702445984
0.03359285369515419,-0.002739289542660117,-0.01829768531024456,0.015426154248416424,-0.0031419643200933933,-0.04764709994196892
0.0337509959936142,-0.002571980468928814,-0.018005527555942535,0.015351484529674053,-0.003296768991276622,-0.046964313834905624
0.03462584316730499,-0.0023043728433549404,-0.018619151785969734,0.014623892493546009,-0.0033568604849278927,-0.047893207520246506
0.03574554622173309,-0.002175867324694991,-0.018798379227519035,0.014933467842638493,-0.003140130313113332,-0.047717489302158356
0.03323870524764061,-0.0022625047713518143,-0.018207909539341927,0.015050685033202171,-0.003361253999173641,-0.04627899453043938
0.03403405472636223,-0.0025523698423057795,-0.019175002351403236,0.015594053082168102,-0.003246109699830413,-0.0483495332300663
0.03536839783191681,-0.002487032674252987,-0.018578574061393738,0.015444953925907612,-0.0034443677868694067,-0.048687029629945755
0.03472236916422844,-0.0028292867355048656,-0.018132159486413002,0.016178246587514877,-0.0031460467725992203,-0.04879114776849747
0.0350506529211998,-0.002936194185167551,-0.018684159964323044,0.015223300084471703,-0.00311446120031178,-0.047962404787540436
0.03645063936710358,-0.002504384843632579,-0.01840117573738098,0.015488558448851109,-0.0029463914688676596,-0.04826469346880913
0.035360146313905716,-0.0023492167238146067,-0.018484387546777725,0.014952319674193859,-0.003331451676785946,-0.049468982964754105
0.03401373326778412,-0.0024222282227128744,-0.018655704334378242,0.01480345893651247,-0.0033960931468755007,-0.04939887672662735
0.03524898737668991,-0.003121808869764209,-0.017994482070207596,0.014711448922753334,-0.0037917715962976217,-0.04796077311038971
0.035722874104976654,-0.002992879366502166,-0.0186722781509161,0.015334892086684704,-0.0036593605764210224,-0.04889736697077751
0.03558000177145004,-0.003097991459071636,-0.018726792186498642,0.01551022194325924,-0.0033855335786938667,-0.04931138455867767
0.03564753755927086,-0.002629077760502696,-0.01843835972249508,0.015617670491337776,-0.0026999544352293015,-0.05061325058341026
0.0354338064789772,-0.00247074943035841,-0.01914757490158081,0.015690064057707787,-0.0028680928517132998,-0.049214333295822144
0.035905126482248306,-0.002625516150146723,-0.018727857619524002,0.015396395698189735,-0.0028809974901378155,-0.04989056661725044
0.03588588908314705,-0.0032630632631480694,-0.018594978377223015,0.01589830592274666,-0.0033734398894011974,-0.05019703507423401
0.03546617180109024,-0.003237539902329445,-0.018976274877786636,0.015638381242752075,-0.003551910165697336,-0.049840137362480164
0.0357825793325901,-0.0030371490865945816,-0.018428949639201164,0.01594199799001217,-0.0035548887681216,-0.05031698942184448
0.03642693907022476,-0.002747815102338791,-0.018740002065896988,0.015317505225539207,-0.0034095586743205786,-0.050415076315402985
0.036020733416080475,-0.0029989161994308233,-0.019150933250784874,0.015548338182270527,-0.0031894806306809187,-0.05044824257493019
0.03627289459109306,-0.0034859697334468365,-0.0186166912317276,0.015539347194135189,-0.0033684326335787773,-0.05088433995842934
0.03627289459109306,-0.0034859697334468365,-0.0186166912317276,0.015539347194135189,-0.0033684326335787773,-0.05088433995842934
0.035902995616197586,-0.003360269358381629,-0.01883792318403721,0.016498124226927757,-0.003648842219263315,-0.05024121701717377
0.03672606870532036,-0.003266968298703432,-0.018773529678583145,0.015000086277723312,-0.0031296045053750277,-0.05172393471002579
0.03790390118956566,-0.0029521079268306494,-0.018877839669585228,0.015483049675822258,-0.0029167532920837402,-0.05127493292093277
0.036642126739025116,-0.003205707995221019,-0.019188323989510536,0.015884555876255035,-0.003173526842147112,-0.05033739656209946
0.03608359396457672,-0.003400110173970461,-0.018973225727677345,0.015780054032802582,-0.003287695813924074,-0.0518147312104702
0.03710116073489189,-0.003572581335902214,-0.019293030723929405,0.015969615429639816,-0.003458252875134349,-0.05217210203409195
0.037153493613004684,-0.0037625101394951344,-0.01916459947824478,0.01643090881407261,-0.00367242400534451,-0.0501108318567276
0.03756360337138176,-0.003794722957536578,-0.01875860057771206,0.016460642218589783,-0.003537779441103339,-0.05080776289105415
0.03747215121984482,-0.003817762481048703,-0.01919453963637352,0.01687110960483551,-0.0033883298747241497,-0.05154191702604294
0.036931730806827545,-0.0034111260902136564,-0.0195898599922657,0.016378456726670265,-0.003109168028458953,-0.05295497551560402
0.03653132542967796,-0.0036435818765312433,-0.019006779417395592,0.01641661860048771,-0.0031567588448524475,-0.05065913870930672
0.03742388263344765,-0.003899473464116454,-0.01905425637960434,0.016800040379166603,-0.003232919378206134,-0.050815023481845856
0.037276651710271835,-0.003935039043426514,-0.019237380474805832,0.01650695502758026,-0.0035727829672396183,-0.05230729281902313
0.037401240319013596,-0.003423453541472554,-0.01900566928088665,0.01664026640355587,-0.003744719084352255,-0.05233876407146454
0.03772337734699249,-0.0036076814867556095,-0.019457656890153885,0.016277877613902092,-0.003369199112057686,-0.05215255916118622
0.03711181506514549,-0.003773669246584177,-0.01961147040128708,0.01688588783144951,-0.003077497472986579,-0.05190645903348923
0.0374174602329731,-0.004359029233455658,-0.018739618360996246,0.017195075750350952,-0.003299923613667488,-0.05230281874537468
0.03742324560880661,-0.0037351450882852077,-0.019072620198130608,0.01702754944562912,-0.0036786736454814672,-0.052252888679504395
0.037414319813251495,-0.0034965460654348135,-0.019912034273147583,0.016782106831669807,-0.0035126253496855497,-0.05259545519948006
0.037365853786468506,-0.003634402062743902,-0.019241485744714737,0.016420524567365646,-0.003310511587187648,-0.05272979661822319
0.037869468331336975,-0.0033127842471003532,-0.019266149029135704,0.016944844275712967,-0.003207525471225381,-0.052539028227329254
0.036391448229551315,-0.00342305819503963,-0.019989175722002983,0.01671217754483223,-0.0030917455442249775,-0.052951518446207047
0.038150936365127563,-0.003599525662139058,-0.019689321517944336,0.016645852476358414,-0.0034659458324313164,-0.05129331722855568
0.03793446347117424,-0.00425352156162262,-0.01938980259001255,0.016701947897672653,-0.0038371009286493063,-0.05318214371800423
0.037903908640146255,-0.004488305188715458,-0.020099584013223648,0.016810288652777672,-0.0034996713511645794,-0.05320049077272415
0.037842798978090286,-0.004269273951649666,-0.02005322463810444,0.017523903399705887,-0.0038366818334907293,-0.054941024631261826
0.037842798978090286,-0.004269273951649666,-0.02005322463810444,0.017523903399705887,-0.0038366818334907293,-0.054941024631261826
0.037874769419431686,-0.004020247142761946,-0.019378192722797394,0.016750510782003403,-0.003600131254643202,-0.053272757679224014
0.038605812937021255,-0.004070761147886515,-0.020612886175513268,0.017065448686480522,-0.0035849774722009897,-0.05314367264509201
0.0381348542869091,-0.004128626547753811,-0.02046613022685051,0.01684299111366272,-0.003259676042944193,-0.05558640882372856
0.038569267839193344,-0.004168385174125433,-0.020759541541337967,0.017289968207478523,-0.003310304367914796,-0.05348701775074005
0.03895333781838417,-0.004041699692606926,-0.020975226536393166,0.016992725431919098,-0.003517044708132744,-0.05302582308650017
0.038469914346933365,-0.0043966565281152725,-0.0205672699958086,0.017193108797073364,-0.003600881900638342,-0.05419572442770004
0.03858977183699608,-0.0042371563613414764,-0.019924351945519447,0.017376834526658058,-0.003554349532350898,-0.05382540822029114
0.03883602097630501,-0.00400547357276082,-0.020303335040807724,0.017567219212651253,-0.003647156525403261,-0.053820542991161346
0.04013711214065552,-0.004046434070914984,-0.020701725035905838,0.017990941181778908,-0.003822090569883585,-0.053545866161584854
0.03877628967165947,-0.0039022054988890886,-0.020949354395270348,0.01810317300260067,-0.003797518787905574,-0.054726194590330124
0.03809061646461487,-0.003886441234499216,-0.0206304918974638,0.018124254420399666,-0.003677421947941184,-0.05456726998090744
0.039721619337797165,-0.00485629215836525,-0.020060399547219276,0.018033485859632492,-0.0036176021676510572,-0.0543699637055397
0.039671916514635086,-0.004936417564749718,-0.0215152557939291,0.017429467290639877,-0.0037174143362790346,-0.05370676890015602
0.04040297493338585,-0.004502726718783379,-0.02113373391330242,0.017612481489777565,-0.003488359274342656,-0.0538921058177948
0.039856068789958954,-0.004407317843288183,-0.021071696653962135,0.01710628531873226,-0.0034864256158471107,-0.053974151611328125
0.038806501775979996,-0.004241415299475193,-0.021531332284212112,0.017645010724663734,-0.0037160038482397795,-0.05369844660162926
0.03916214406490326,-0.004305355250835419,-0.020566973835229874,0.018091758713126183,-0.00415241252630949,-0.05508202686905861
0.0404258668422699,-0.004603521432727575,-0.02034352347254753,0.017597051337361336,-0.0043228380382061005,-0.05623064935207367
0.03880557417869568,-0.004726751707494259,-0.02112671732902527,0.017171887680888176,-0.0040399725548923016,-0.05352788791060448
0.040331218391656876,-0.003306345781311393,-0.022005954757332802,0.016832472756505013,-0.0034109896514564753,-0.05380414426326752
0.04002954810857773,-0.0026106315199285746,-0.021445460617542267,0.01740420237183571,-0.0034862095490098,-0.05558976158499718
0.03914923593401909,-0.002027769573032856,-0.021305164322257042,0.01806207001209259,-0.0038523124530911446,-0.05682918801903725
