davideferrari95/blind_handover_controller/data/Test 214 - [2024-02-08 -- 12-10-59]/joint_states_data.csv
shoulder_pan_joint,shoulder_lift_joint,elbow_joint,wrist_1_joint,wrist_2_joint,wrist_3_joint
0.004681083839386702,0.010849240235984325,-0.013227971270680428,0.0031963163055479527,-0.0,0.005445579532533884
0.004681083839386702,0.010849240235984325,-0.013227971270680428,0.0031963163055479527,-0.0,0.005445579532533884
0.004681083839386702,0.010849240235984325,-0.013227971270680428,0.0031963163055479527,-0.0,0.005445579532533884
0.0054159630089998245,0.010491658933460712,-0.012248484417796135,0.0036631575785577297,-0.0,0.0057113212533295155
0.0053536309860646725,0.010215666145086288,-0.012680819258093834,0.0034465270582586527,-0.0,0.005863832775503397
0.005338667426258326,0.010986310429871082,-0.012837784364819527,0.0035113845951855183,-0.0,0.005688576493412256
0.004955130163580179,0.010525837540626526,-0.012880837544798851,0.0035927295684814453,-0.0,0.005851794499903917
0.004155213478952646,0.010816219262778759,-0.012479989789426327,0.00286728679202497,-0.0,0.0053709507919847965
0.005584771279245615,0.010237172245979309,-0.013290291652083397,0.0026265832129865885,-0.0,0.005440288223326206
0.00529872253537178,0.010846761055290699,-0.012584627605974674,0.0024478649720549583,-0.0,0.005493991542607546
0.004889842122793198,0.010378273203969002,-0.012781929224729538,0.0024510419461876154,-0.0,0.005918251350522041
0.0050860182382166386,0.01003142911940813,-0.01227408368140459,0.002848114352673292,-0.0,0.005721199791878462
0.00465655280277133,0.010781455785036087,-0.012789478525519371,0.0027529059443622828,-0.0,0.005267573054879904
0.004615696147084236,0.01043212041258812,-0.012576570734381676,0.0027654534205794334,-0.0,0.004869476892054081
0.004941671621054411,0.010019846260547638,-0.012318603694438934,0.0024333761539310217,-0.0,0.004886068869382143
0.00501839118078351,0.010839211754500866,-0.012583872303366661,0.0023771985433995724,-0.0,0.005444047506898642
0.005233956500887871,0.01034101564437151,-0.012061374261975288,0.0026668733917176723,-0.0,0.005840926896780729
0.005369990132749081,0.010160147212445736,-0.01300000213086605,0.0026184432208538055,-0.0,0.005954456981271505
0.004995971452444792,0.010840279050171375,-0.012619015760719776,0.002547014970332384,-0.0,0.0052718184888362885
0.004889064468443394,0.010076995007693768,-0.013803765177726746,0.002654701704159379,-0.0,0.005404288414865732
0.004938083700835705,0.010273085907101631,-0.01307433471083641,0.002502079587429762,-0.0,0.005248190835118294
0.005287291947752237,0.010328734293580055,-0.012752555310726166,0.002415676834061742,-0.0,0.005936847999691963
0.005506340879946947,0.009731986559927464,-0.012676424346864223,0.002566838636994362,-0.0,0.006137222517281771
0.005137789528816938,0.010715309530496597,-0.012295674532651901,0.0027642673812806606,-0.0,0.0060992734506726265
0.005260092671960592,0.010249942541122437,-0.012734735384583473,0.0025212368927896023,-0.0,0.005329893436282873
0.005308524239808321,0.009682485833764076,-0.012540583498775959,0.002581413369625807,-0.0,0.005027455743402243
0.005189397372305393,0.010244201868772507,-0.013376694172620773,0.00249109766446054,-0.0,0.005350983235985041
0.0053162467665970325,0.01013004407286644,-0.012733915820717812,0.0028623719699680805,-0.0,0.006048923823982477
0.0053162467665970325,0.01013004407286644,-0.012733915820717812,0.0028623719699680805,-0.0,0.006048923823982477
0.005296521354466677,0.0096574192866683,-0.012957865372300148,0.0028520345222204924,-0.0,0.006001080386340618
0.005610140040516853,0.010459409095346928,-0.01268476340919733,0.0030653649009764194,-0.0,0.005497537087649107
0.005324258003383875,0.010193713940680027,-0.012557354755699635,0.0030276186298578978,-0.0,0.005063211545348167
0.005220567807555199,0.010839266702532768,-0.012809875421226025,0.002533762250095606,-0.0,0.005138753447681665
0.005611006170511246,0.01001920085400343,-0.013035843148827553,0.0021925424225628376,-0.0,0.005492634605616331
0.006062743254005909,0.009780162945389748,-0.012289576232433319,0.0020610720384866,-0.0,0.005466322880238295
0.00548195093870163,0.010166346095502377,-0.012456546537578106,0.002102222526445985,-0.0,0.005096834618598223
0.005378974601626396,0.009653092361986637,-0.012919281609356403,0.0021065077744424343,-0.0,0.005204110872000456
0.005154574755579233,0.009168845601379871,-0.012767679989337921,0.002318959916010499,-0.0,0.005536447744816542
0.0054457103833556175,0.00990850105881691,-0.012958711944520473,0.002165266079828143,-0.0,0.005574716255068779
0.00567264948040247,0.010590076446533203,-0.012651942670345306,0.0022884991485625505,-0.0,0.005502213258296251
0.005272421520203352,0.009480062872171402,-0.012967029586434364,0.002186455065384507,-0.0,0.005220969207584858
0.005281784106045961,0.009946051053702831,-0.011863522231578827,0.002098980126902461,-0.0,0.005231119692325592
0.005278555676341057,0.010292993858456612,-0.012380012311041355,0.0021156654693186283,-0.0,0.004920313134789467
0.005583044141530991,0.009355923160910606,-0.01167847029864788,0.002063796389847994,-0.0,0.004805531352758408
0.0054939608089625835,0.010104002431035042,-0.011799014173448086,0.0022444413043558598,-0.0,0.004969100467860699
0.005700754467397928,0.010058256797492504,-0.012237717397511005,0.002041143598034978,-0.0,0.004848557990044355
0.005341790150851011,0.00979138258844614,-0.01247009914368391,0.002079942962154746,-0.0,0.0046819825656712055
0.005330584477633238,0.010155637748539448,-0.012766246683895588,0.0019239787943661213,-0.0,0.004576254170387983
0.005467103328555822,0.009737984277307987,-0.012111774645745754,0.0020250955130904913,-0.0,0.004655023105442524
0.005465197842568159,0.010497622191905975,-0.012118427082896233,0.0022946770768612623,-0.0,0.004771162290126085
0.005554485600441694,0.010425140149891376,-0.01222959253937006,0.0023049262817949057,-0.0,0.004924626089632511
0.0054714856669306755,0.010620754212141037,-0.01283437293022871,0.002323044463992119,-0.0,0.00505417725071311
0.005665717646479607,0.010481547564268112,-0.012605653144419193,0.002192063257098198,-0.0,0.004935040138661861
0.005246893037110567,0.011886843480169773,-0.012218627147376537,0.0019133436726406217,-0.0,0.00481705367565155
0.005246893037110567,0.011886843480169773,-0.012218627147376537,0.0019133436726406217,-0.0,0.00481705367565155
0.0057107615284621716,0.009729430079460144,-0.012249328196048737,0.0018591847037896514,-0.0,0.004424675367772579
0.0057193078100681305,0.011230571195483208,-0.012347282841801643,0.0018312891479581594,-0.0,0.004508540965616703
0.005492214113473892,0.010355676524341106,-0.012328548356890678,0.0017105904407799244,-0.0,0.00401368597522378
0.005555219016969204,0.01186907198280096,-0.012586328200995922,0.0017246323404833674,-0.0,0.004538503475487232
0.005473867524415255,0.010625450871884823,-0.012354716658592224,0.0016293737571686506,-0.0,0.00478054815903306
0.006082605570554733,0.010367193259298801,-0.011636297218501568,0.0015112485270947218,-0.0,0.005070480518043041
0.005680318921804428,0.010572575032711029,-0.012433448806405067,0.0014317206805571914,-0.0,0.004543954040855169
0.005700819659978151,0.010335128754377365,-0.011684835888445377,0.0013562913518399,-0.0,0.0044617727398872375
0.005293251946568489,0.010398976504802704,-0.012229430489242077,0.0014125033048912883,-0.0,0.004278196021914482
0.0056129940785467625,0.01075705699622631,-0.012306404300034046,0.001437867060303688,-0.0,0.0041557480581104755
0.005777378100901842,0.010350705124437809,-0.0119462376460433,0.0014363043010234833,-0.0,0.004179296549409628
0.005602392368018627,0.010602778755128384,-0.012152914889156818,0.0016114622121676803,-0.0,0.0040107122622430325
0.004512868821620941,0.010968194343149662,-0.012016303837299347,0.00153025658801198,-0.0,0.004345220979303122
0.00436163367703557,0.010218258015811443,-0.011893690563738346,0.0016693954821676016,-0.0,0.004493380896747112
0.005002401303499937,0.010779207572340965,-0.011841310188174248,0.0016205228166654706,-0.0,0.004333656281232834
0.0050739143043756485,0.010142420418560505,-0.012234683148562908,0.0014493028866127133,-0.0,0.004446960519999266
0.005462433211505413,0.01007531862705946,-0.012158136814832687,0.001321344985626638,-0.0,0.004504008684307337
0.0051048677414655685,0.010611744597554207,-0.011438586749136448,0.0012353492202237248,-0.0,0.004219789989292622
0.004835892003029585,0.010601405054330826,-0.012184244580566883,0.0011781941866502166,-0.0,0.004311373457312584
0.004736667964607477,0.00989700760692358,-0.011893343180418015,0.0010868918616324663,-0.0,0.004564248025417328
0.004924910608679056,0.010299554094672203,-0.012039930559694767,0.0010626936564221978,-0.0,0.004623565822839737
0.004854629747569561,0.010168689303100109,-0.012182637117803097,0.0011068599997088313,-0.0,0.004580899607390165
0.004865751136094332,0.010347983799874783,-0.012395955622196198,0.0011378400959074497,-0.0,0.004328740760684013
0.004934664815664291,0.010467978194355965,-0.01189146563410759,0.001186232315376401,-0.0,0.00434160977602005
0.005179873667657375,0.010819456540048122,-0.011272692121565342,0.001229830551892519,-0.0,0.004096316173672676
0.004900837782770395,0.011521773412823677,-0.011675074696540833,0.0012655280297622085,-0.0,0.003553899470716715
0.004891749005764723,0.01029908750206232,-0.01182516012340784,0.0012204477097839117,-0.0,0.004106876440346241
0.004919546190649271,0.009833636693656445,-0.011663391254842281,0.0011592238442972302,-0.0,0.004432064015418291
0.004919546190649271,0.009833636693656445,-0.011663391254842281,0.0011592238442972302,-0.0,0.004432064015418291
0.005146628711372614,0.01077872421592474,-0.011816497892141342,0.001045163138769567,-0.0,0.004438183736056089
0.005561899393796921,0.010506032966077328,-0.011205765418708324,0.00101940066087991,-0.0,0.0045216698199510574
0.004800994414836168,0.01028110645711422,-0.011342218145728111,0.0008614237885922194,-0.0,0.0038454406894743443
0.004894554615020752,0.009720276109874249,-0.011794510297477245,0.0007712674560025334,-0.0,0.0038034901954233646
0.005423510447144508,0.00978078506886959,-0.011749810539186,0.0007809472735971212,-0.0,0.003934815060347319
0.005277701653540134,0.010364451445639133,-0.011314739473164082,0.0007739742868579924,-0.0,0.003938785754144192
0.005651059094816446,0.00955124944448471,-0.011525575071573257,0.0007275729440152645,-0.0,0.0038687759079039097
0.005396056454628706,0.009334275498986244,-0.01097948756068945,0.0007034465088509023,-0.0,0.003838588483631611
0.005382504779845476,0.010488367639482021,-0.010562708601355553,0.0007267508772201836,-0.0,0.004208339378237724
0.005035521928220987,0.00986462738364935,-0.011928246356546879,0.0007399514433927834,-0.0,0.004651329945772886
0.005723750218749046,0.009441627189517021,-0.011974304914474487,0.000720059615559876,-0.0,0.004281383939087391
0.005571579560637474,0.010195625945925713,-0.011618807911872864,0.0006931390962563455,-0.0,0.003918441012501717
0.00582275353372097,0.009563256055116653,-0.011447159573435783,0.0006865130853839219,-0.0,0.0037403095047920942
0.005727734416723251,0.009413753636181355,-0.0110807279124856,0.0006422999431379139,-7.404088137263898e-06,0.003713813843205571
0.005567139945924282,0.010457145981490612,-0.011927654035389423,0.0006619630148634315,-4.834340643355972e-07,0.003765468019992113
0.005298594478517771,0.009679707698523998,-0.011364857666194439,0.0006014595273882151,-3.156479166932513e-08,0.0038379787001758814
0.005788327660411596,0.009289029985666275,-0.012228492647409439,0.0005418887594714761,-2.060955184290947e-09,0.0038406893145292997
0.0056617362424731255,0.01086602732539177,-0.01195714995265007,0.0005631558015011251,-1.345656502893533e-10,0.0037360964342951775
0.00602835463359952,0.010002633556723595,-0.01136308815330267,0.0005257345619611442,-8.786175779984529e-12,0.003671366488561034
0.005505798384547234,0.009002153761684895,-0.011503638699650764,0.0004857905150856823,-5.73674517178463e-13,0.004001323599368334
0.0053126197308301926,0.009699578396975994,-0.011236959137022495,0.0004510281141847372,-3.745684386030797e-14,0.004185916390269995
0.00568024255335331,0.009326334111392498,-0.011143594980239868,0.00042088012560270727,-2.4456642748704694e-15,0.0035345766227692366
0.005894106347113848,0.00898925494402647,-0.012116799131035805,0.0004432262503542006,-1.5968441145672421e-16,0.00344871892593801
0.005607006140053272,0.00973783154040575,-0.01155095174908638,0.0004237865505274385,-1.042625097048384e-17,0.0037248192820698023
0.005607006140053272,0.00973783154040575,-0.01155095174908638,0.0004237865505274385,-1.042625097048384e-17,0.0037248192820698023
0.0057206484489142895,0.00918247178196907,-0.011834214441478252,0.0003795343800447881,-4.444874731716728e-20,0.0039068544283509254
0.005842828657478094,0.009381182491779327,-0.011336740106344223,0.0003605271631386131,-2.902185797362172e-21,0.0037224050611257553
0.006102927960455418,0.009582667611539364,-0.011587870307266712,0.0003211231960449368,-1.8949198774232612e-22,0.0033436010126024485
0.0059720175340771675,0.009087743237614632,-0.011456796899437904,0.00028101555653847754,-1.2372473138241908e-23,0.003126581897959113
0.0061217742040753365,0.010175230912864208,-0.011484145186841488,0.00026325276121497154,-8.078340946753218e-25,0.003179643303155899
0.00586782768368721,0.009588471613824368,-0.01155636366456747,0.0002486158919055015,-5.2745797758043e-26,0.003505032742395997
0.00586782768368721,0.009588471613824368,-0.01155636366456747,0.0002486158919055015,-5.2745797758043e-26,0.003505032742395997
0.006083638407289982,0.009042576886713505,-0.012190726585686207,0.0002238656597910449,-2.2486361177150876e-28,0.003956367261707783
0.005852942820638418,0.009527632966637611,-0.010856082662940025,0.00021325380657799542,-1.4681986884030287e-29,0.004169360734522343
0.006303103175014257,0.009328680112957954,-0.01126221101731062,0.00020360293274279684,-9.586289026718527e-31,0.0036179376766085625
0.005666105542331934,0.009337853640317917,-0.011615668423473835,0.0001947877899510786,-6.259161235042364e-32,0.0030942193698138
0.00587791483849287,0.009422464296221733,-0.011633518151938915,0.00018670439021661878,-4.0867846388382137e-33,0.0028011940885335207
0.006423378828912973,0.009221736341714859,-0.012078862637281418,0.00017926498549059033,-2.6683783752625833e-34,0.002788170473650098
0.006077582482248545,0.009204945527017117,-0.011067020706832409,0.00017239640874322504,-1.7422604156994734e-35,0.0029511726461350918
0.005602112039923668,0.009498007595539093,-0.011427140794694424,0.0001660343405092135,-1.1375716718951401e-36,0.0028558545745909214
0.005412205122411251,0.009061752818524837,-0.011069766245782375,0.00016012579726520926,-7.427529821331434e-38,0.002643931657075882
0.0056682126596570015,0.00893266499042511,-0.010783256962895393,0.00015462293231394142,-4.8496459552000064e-39,0.0025758324190974236
0.005716381594538689,0.009170060977339745,-0.011333228088915348,0.00014948613534215838,-3.1664721008808594e-40,0.0026215072721242905
0.005486768204718828,0.008997365832328796,-0.01177279744297266,0.00014467920118477196,-2.067475754264835e-41,0.002619377104565501
0.005536253098398447,0.00895607564598322,-0.011562664993107319,0.00014017257490195334,-1.3494504211447988e-42,0.0030171575490385294
0.006046600639820099,0.009420664981007576,-0.011133813299238682,0.00013593757466878742,-8.828180325246348e-44,0.003322393400594592
0.0055828760378062725,0.009976592846214771,-0.010434955358505249,0.00013195120845921338,-5.605193857299268e-45,0.003221056656911969
0.005894504953175783,0.008917213417589664,-0.01110380981117487,0.00012819211406167597,-0.0,0.0030637672170996666
0.005486045964062214,0.009176111780107021,-0.010814285837113857,0.00012464102474041283,-0.0,0.0029844408854842186
0.005941780284047127,0.009171403013169765,-0.010894833132624626,0.00012128183152526617,-0.0,0.0028712311759591103
0.005546443164348602,0.009780392050743103,-0.01123926043510437,0.00011809849092969671,-0.0,0.0024900406133383512
0.00594307528808713,0.009339005686342716,-0.010652306489646435,0.00011507824092404917,-0.0,0.002367977052927017
0.006042836233973503,0.009336689487099648,-0.011047896929085255,0.00011220866872463375,0.00024922090233303607,0.0024945021141320467
0.005836901254951954,0.009189403615891933,-0.010887185111641884,0.0001094787148758769,0.0004102601087652147,0.0027547813951969147
0.00553175900131464,0.009290752001106739,-0.010431812144815922,8.693236304679886e-05,0.00042149590444751084,0.0031902522314339876
0.0055705285631120205,0.009729954414069653,-0.011035752482712269,8.361254731426015e-05,0.00044182001147419214,0.0033534609246999025
0.006097761914134026,0.009468719363212585,-0.010655398480594158,8.163149323081598e-05,0.00042704580118879676,0.003201607381924987
0.006097761914134026,0.009468719363212585,-0.010655398480594158,8.163149323081598e-05,0.00042704580118879676,0.003201607381924987
0.006163137499243021,0.009802757762372494,-0.010539716109633446,7.981600356288254e-05,0.0004503608215600252,0.0029652791563421488
0.006024911999702454,0.010683437809348106,-0.010661457665264606,7.808434020262212e-05,0.0005682309856638312,0.002494894666597247
0.006415707059204578,0.009948682971298695,-0.009870222769677639,6.225454126251861e-05,0.0006207149708643556,0.002355283359065652
0.005778937600553036,0.010350625030696392,-0.011007656343281269,5.500627958099358e-05,0.0005909019964747131,0.0025466473307460546
0.005952237173914909,0.009372719563543797,-0.010565916076302528,5.388927093008533e-05,0.0006094069685786963,0.0025368949864059687
0.006118986755609512,0.0095854876562953,-0.010599697008728981,5.2833442168775946e-05,0.0006041258457116783,0.002581248292699456
0.006074852310121059,0.009862788952887058,-0.010502275079488754,2.549133569118567e-06,0.0005906114238314331,0.002366880187764764
0.005856803152710199,0.009609493426978588,-0.010158014483749866,-4.385509600979276e-05,0.0006129610119387507,0.0022618526127189398
0.006148903165012598,0.009644754230976105,-0.010545209050178528,-4.576253559207544e-05,0.0006149711553007364,0.002270171418786049
0.006560048088431358,0.009653744287788868,-0.01043945923447609,-4.482057556742802e-05,0.000596508732996881,0.0021899740677326918
0.006178910378366709,0.009414741769433022,-0.01085228007286787,-6.415284588001668e-05,0.0006175060989335179,0.002410169690847397
0.006373531650751829,0.009699197486042976,-0.011256358586251736,-6.396506796590984e-05,0.0006426031468436122,0.002386063104495406
0.006209961138665676,0.009765246883034706,-0.010273024439811707,-8.203406468965113e-05,0.0007629897445440292,0.002614507684484124
0.0063704028725624084,0.009547397494316101,-0.010090173222124577,-9.147494711214676e-05,0.0008990706992335618,0.0027075125835835934
0.006527895573526621,0.009872385300695896,-0.010709227062761784,-9.89902182482183e-05,0.0009069839725270867,0.0027209208346903324
0.006562510505318642,0.010009321384131908,-0.010022614151239395,-0.0002877024526242167,0.0010496550239622593,0.0026724734343588352
0.00640424620360136,0.009685228578746319,-0.010248370468616486,-0.00043312725028954446,0.001180801191367209,0.0026146352756768465
0.006081481464207172,0.00968997459858656,-0.010130424052476883,-0.000480882910778746,0.0012297357898205519,0.0024758949875831604
0.006590330507606268,0.009628502652049065,-0.010188490152359009,-0.0005110079073347151,0.001129676355049014,0.002360007492825389
0.007048892322927713,0.009090383537113667,-0.010116232559084892,-0.0005454053753055632,0.001202974235638976,0.0024522258900105953
0.006883206777274609,0.009924051351845264,-0.00993197038769722,-0.000984550453722477,0.0011960833799093962,0.0023280116729438305
0.006634699180722237,0.00992412306368351,-0.009582426398992538,-0.001095990533940494,0.001170039176940918,0.002406479325145483
0.006334392353892326,0.009535943157970905,-0.010116362012922764,-0.0016531457658857107,0.0010321122827008367,0.002259644214063883
0.006334392353892326,0.009535943157970905,-0.010116362012922764,-0.0016531457658857107,0.0010321122827008367,0.002259644214063883
0.006841182243078947,0.009896986186504364,-0.010225145146250725,-0.0018370680045336485,0.0010054585291072726,0.0019721921999007463
0.006831502541899681,0.009747771546244621,-0.009959014132618904,-0.002240570727735758,0.0009151101112365723,0.001805409207008779
0.006878032349050045,0.009502667002379894,-0.011005029082298279,-0.002151737455278635,0.0009078518487513065,0.001753654214553535
0.006876534782350063,0.010244541801512241,-0.011165181174874306,-0.0021301433444023132,0.0008837275090627372,0.001634329091757536
0.0067868921905756,0.010560344904661179,-0.010210709646344185,-0.002362050348892808,0.0008761316421441734,0.0016562738455832005
0.006556601729243994,0.009249348193407059,-0.010129110887646675,-0.0030035441741347313,0.0008804015233181417,0.001827866886742413
0.006545578129589558,0.009748398326337337,-0.010561933740973473,-0.0035294052213430405,0.0008979212725535035,0.001760696293786168
0.0071975053288042545,0.009652896784245968,-0.010304044932126999,-0.003574173664674163,0.0010250892955809832,0.0017218771390616894
0.006994309835135937,0.009549547918140888,-0.00980301108211279,-0.0034030594397336245,0.0010271777864545584,0.001717679901048541
0.007299018558114767,0.00999931525439024,-0.009843699634075165,-0.0036112123634666204,0.0010080226929858327,0.001638165907934308
0.007448088377714157,0.00951318722218275,-0.010451766662299633,-0.0038940422236919403,0.0009679280337877572,0.001632408588193357
0.0067827655002474785,0.009397784247994423,-0.010668485425412655,-0.003978081047534943,0.0009470183867961168,0.0015051424270495772
0.007130883168429136,0.009649219922721386,-0.01034215185791254,-0.0038304440677165985,0.0008876778301782906,0.0014095731312409043
0.007190913427621126,0.009775304235517979,-0.010684444569051266,-0.00403517484664917,0.0008209530496969819,0.001334815751761198
0.006686987355351448,0.00951557420194149,-0.010264046490192413,-0.003938525449484587,0.000818604021333158,0.001293269102461636
0.006856544408947229,0.009726197458803654,-0.010305213741958141,-0.0037982428912073374,0.0008136038668453693,0.0012844372540712357
0.0075867571868002415,0.010009907186031342,-0.010154093615710735,-0.0039027042221277952,0.0007945331744849682,0.0014809106942266226
0.00777302635833621,0.009251488372683525,-0.010290299542248249,-0.004420281853526831,0.000820816436316818,0.0014831452863290906
0.006919238716363907,0.0097444923594594,-0.011274325661361217,-0.004504775628447533,0.0008324895170517266,0.001873641274869442
0.007139732129871845,0.00977233238518238,-0.010380737483501434,-0.004339972045272589,0.0008135827374644578,0.0017778309993445873
0.007802883628755808,0.009164129383862019,-0.00970548763871193,-0.004077577497810125,0.0007744693430140615,0.0017761080525815487
0.006981711369007826,0.009983040392398834,-0.010379262268543243,-0.0042785597033798695,0.0008282085764221847,0.0015670026186853647
0.00686840433627367,0.009619352407753468,-0.010257143527269363,-0.004444426391273737,0.0008656363352201879,0.0012966851936653256
0.006710052024573088,0.00906866043806076,-0.009361842647194862,-0.00492103910073638,0.0008555721724405885,0.001219087978824973
0.007212135475128889,0.00955122523009777,-0.010599710047245026,-0.004847503732889891,0.0007789577357470989,0.0010584163246676326
0.007388717960566282,0.009393921121954918,-0.010424590669572353,-0.00484055420383811,0.0007868109387345612,0.0007896632305346429
0.007288385182619095,0.00917463842779398,-0.010070275515317917,-0.0043287998996675014,0.0008092256030067801,0.0008528759353794158
0.007210142444819212,0.009441817179322243,-0.010702690109610558,-0.004012935794889927,0.0008315852610394359,0.0008911031764000654
0.007507888600230217,0.00960860401391983,-0.010196875780820847,-0.0043280720710754395,0.0008412757306359708,0.0012113831471651793
0.007507888600230217,0.00960860401391983,-0.010196875780820847,-0.0043280720710754395,0.0008412757306359708,0.0012113831471651793
0.007378989364951849,0.009082978591322899,-0.010464543476700783,-0.005012967623770237,0.0008409619331359863,0.0012386037269607186
0.007297078613191843,0.009795894846320152,-0.01028478890657425,-0.005083069205284119,0.0007718367851339281,0.0012069243239238858
0.007102229632437229,0.010490791872143745,-0.009941785596311092,-0.004946842789649963,0.0008654615958221257,0.0011839531362056732
0.0074945176020264626,0.009143257513642311,-0.01050284132361412,-0.004897459875792265,0.0008756302995607257,0.0010764857288450003
0.007458713836967945,0.009805245324969292,-0.010397275909781456,-0.004891571588814259,0.00104289420414716,0.000922399340197444
0.007505321409553289,0.009107077494263649,-0.01134507730603218,-0.0054139746353030205,0.001066547236405313,0.0008308253018185496
0.0076086330227553844,0.009102791547775269,-0.009936378337442875,-0.005699652247130871,0.001052318955771625,0.0007356058340519667
0.007805386558175087,0.009144067764282227,-0.009933671914041042,-0.005598119460046291,0.001036660629324615,0.0006586866220459342
0.007930935360491276,0.008898199535906315,-0.010908106341958046,-0.005443561356514692,0.0013178670778870583,0.0006752967019565403
0.0075074657797813416,0.009740717709064484,-0.010266280733048916,-0.005762587767094374,0.0012365379370748997,0.0005728567484766245
0.0075074657797813416,0.009740717709064484,-0.010266280733048916,-0.005762587767094374,0.0012365379370748997,0.0005728567484766245
0.007575025781989098,0.009258595295250416,-0.010642933659255505,-0.005747965071350336,0.0013075756141915917,0.0005306280800141394
0.00805879570543766,0.009182820096611977,-0.010508003644645214,-0.005449471063911915,0.0012781277764588594,0.0004941835650242865
0.007643662393093109,0.009533172473311424,-0.009930606000125408,-0.00529254088178277,0.0012162739876657724,0.0003787108580581844
0.008232350461184978,0.009615249931812286,-0.010148340836167336,-0.0054343268275260925,0.001169797033071518,0.0003392493526916951
0.007840159349143505,0.009327114559710026,-0.010823546908795834,-0.005682971328496933,0.0010440739570185542,0.00031478560413233936
0.007916441187262535,0.009266635403037071,-0.010429237969219685,-0.00591253163293004,0.001015606103464961,0.0002941490092780441
0.008074425160884857,0.009119562804698944,-0.010696697048842907,-0.006112908013164997,0.0010648855241015553,0.0002760884817689657
0.008269043639302254,0.0091779800131917,-0.009926626458764076,-0.005609218496829271,0.0010966226691380143,0.0002854627382475883
0.008269215002655983,0.00965864583849907,-0.010351341217756271,-0.005505895242094994,0.001147646107710898,0.00029334050486795604
0.007588834036141634,0.009257734753191471,-0.010237326845526695,-0.005800783168524504,0.00119677372276783,0.0002796746848616749
0.0076233516447246075,0.009376008063554764,-0.009785552509129047,-0.0059233373031020164,0.001254964736290276,0.00026599442935548723
0.00834830291569233,0.009906611405313015,-0.01084861345589161,-0.006101756822317839,0.0014217946445569396,0.00025351016665808856
0.007976686581969261,0.009856360964477062,-0.010578745976090431,-0.005908899009227753,0.0013794514816254377,0.00024213994038291276
0.008004297502338886,0.00899597443640232,-0.009403528645634651,-0.005978496745228767,0.001343187177553773,0.00023174645320978016
0.008331762626767159,0.00983880739659071,-0.010456932708621025,-0.0060097817331552505,0.0012736385688185692,0.00022220797836780548
0.008144830353558064,0.009745159186422825,-0.01025896891951561,-0.006092892959713936,0.0012973343254998326,0.00021342387481126934
0.00762579869478941,0.009444572031497955,-0.010202378034591675,-0.006517400965094566,0.0012526164064183831,0.0002053082425845787
0.007895505987107754,0.009783369489014149,-0.010444717481732368,-0.006033359095454216,0.0013438774039968848,0.00019778717251028866
0.007895505987107754,0.009783369489014149,-0.010444717481732368,-0.006033359095454216,0.0013438774039968848,0.00019778717251028866
0.008411133661866188,0.010218248702585697,-0.009724686853587627,-0.005971331615000963,0.001313718967139721,0.00019079764024354517
0.00836744625121355,0.009098350070416927,-0.010524369776248932,-0.006290870252996683,0.0014796112664043903,0.0001842859055614099
0.008060045540332794,0.009664655663073063,-0.00923367403447628,-0.006713808048516512,0.0015310165472328663,0.00017251004464924335
0.008491800166666508,0.00922387931495905,-0.008954618126153946,-0.006653094198554754,0.0014464778359979391,0.00014653844118583947
0.00842495821416378,0.009344913996756077,-0.010144855827093124,-0.006891274359077215,0.0013576764613389969,0.00013559652143158019
0.008107969537377357,0.009484631009399891,-0.009862176142632961,-0.006788955070078373,0.0012996665900573134,0.00013121534720994532
0.008269942365586758,0.0097128851339221,-0.009161300957202911,-0.007035270798951387,0.0012401395943015814,0.00012747044092975557
0.008472256362438202,0.009694695472717285,-0.009840761311352253,-0.006461745593696833,0.0012815209338441491,0.00012395723024383187
0.008356339298188686,0.009597567841410637,-0.009460140019655228,-0.006283693481236696,0.0013320285361260176,0.00010275565728079528
0.008103054016828537,0.009355246089398861,-0.00952969677746296,-0.0065943473018705845,0.0014696242287755013,9.439530549570918e-05
0.008395539596676826,0.010069344192743301,-0.010389741510152817,-0.006757433991879225,0.0014283829368650913,9.162252536043525e-05
0.008612006902694702,0.0096882414072752,-0.00951717421412468,-0.006900758948177099,0.0013239835388958454,8.932475611800328e-05
0.008553230203688145,0.009449419565498829,-0.008985456079244614,-0.006800035014748573,0.0012853402877226472,7.645197183592245e-05
0.008622169494628906,0.009497884660959244,-0.009833707474172115,-0.007171726319938898,0.0012256840709596872,6.454854155890644e-05
0.008418826386332512,0.00981529988348484,-0.009718425571918488,-0.007313564419746399,0.0011730476981028914,6.246748671401292e-05
0.008126928471028805,0.009753989987075329,-0.00939872208982706,-0.007197252009063959,0.0011593179078772664,-4.733283640234731e-05
0.008475938811898232,0.009843023493885994,-0.009793203324079514,-0.006994276773184538,0.0011787947732955217,-5.2977520681452006e-05
0.00872723013162613,0.009902795776724815,-0.009668011218309402,-0.006982625927776098,0.0011382612865418196,-7.613475463585928e-05
0.00832260400056839,0.009508003480732441,-0.009537446312606335,-0.007820836268365383,0.001272033085115254,-9.431330545339733e-05
0.008235485292971134,0.009850889444351196,-0.010049847885966301,-0.007860233075916767,0.0012697350466623902,-9.778180537978187e-05
0.008463992737233639,0.010004018433392048,-0.009628253988921642,-0.0075212824158370495,0.0012308100704103708,-0.00011633148096734658
0.00887149665504694,0.010168703272938728,-0.009114319458603859,-0.007486495655030012,0.0012337790103629231,-0.0001162105254479684
0.008604767732322216,0.010012250393629074,-0.009647657163441181,-0.0077002462930977345,0.0012745172716677189,-0.0005078964168205857
0.00845799408853054,0.009771897457540035,-0.009712529368698597,-0.007186733651906252,0.001254848437383771,-0.0005930059705860913
0.008448397740721703,0.010099946521222591,-0.009243492968380451,-0.007299926597625017,0.0012167365057393909,-0.0005922740092501044
0.008946369402110577,0.009534577839076519,-0.009365886449813843,-0.007678337395191193,0.001172593329101801,-0.0005785548710264266
0.008946369402110577,0.009534577839076519,-0.009365886449813843,-0.007678337395191193,0.001172593329101801,-0.0005785548710264266
0.008396809920668602,0.009682017378509045,-0.009472864679992199,-0.008231936022639275,0.0011242036707699299,-0.0006029445794411004
0.008946595713496208,0.009592249058187008,-0.009260567836463451,-0.008082381449639797,0.0011152807855978608,-0.0007631706539541483
0.008857560344040394,0.01005582045763731,-0.009971290826797485,-0.007867657579481602,0.001226762542501092,-0.0007976246415637434
0.009477716870605946,0.010017107240855694,-0.009357372298836708,-0.008101250045001507,0.0013053526636213064,-0.0008223652839660645
0.008705663494765759,0.010026917792856693,-0.009792518801987171,-0.008924887515604496,0.0014363388763740659,-0.0010367613285779953
0.008584222756326199,0.01000761054456234,-0.009431910701096058,-0.00833338312804699,0.001426050323061645,-0.0010822422336786985
0.008988277986645699,0.010052796453237534,-0.009241662919521332,-0.008674023672938347,0.0013400077586993575,-0.0010955693433061242
0.008871435187757015,0.010418842546641827,-0.009217617101967335,-0.008968325331807137,0.0013760848669335246,-0.001403777045197785
0.008683601394295692,0.010043555870652199,-0.009295345284044743,-0.00952304620295763,0.001336663612164557,-0.0014362357323989272
0.008574496023356915,0.010132811963558197,-0.009189353324472904,-0.008320734836161137,0.0014023850671947002,-0.0013973618624731898
0.009443284943699837,0.010289222933351994,-0.009887460619211197,-0.007699611131101847,0.0013645695289596915,-0.001363441813737154
0.009162470698356628,0.010018418543040752,-0.00959992129355669,-0.00817162822932005,0.0013053070288151503,-0.00141962303314358
0.008532145991921425,0.01042036060243845,-0.009046735242009163,-0.008331188932061195,0.0013488295953720808,-0.0016021542251110077
0.009034823626279831,0.01035026740282774,-0.009154361672699451,-0.008491428568959236,0.0013195459032431245,-0.0016719726845622063
0.008971667848527431,0.010334300808608532,-0.009154417552053928,-0.00868576392531395,0.0012697018682956696,-0.001899684313684702
0.008790469728410244,0.00989881344139576,-0.008978642523288727,-0.008395942859351635,0.001162129221484065,-0.0019081589998677373
0.008919169194996357,0.010216910392045975,-0.009275561198592186,-0.00823851116001606,0.001263725571334362,-0.0018230266869068146
0.009334283880889416,0.010441158898174763,-0.009572143666446209,-0.008348287083208561,0.0012663068482652307,-0.0018092544050887227
0.008881398476660252,0.0099862115457654,-0.009067664854228497,-0.008383526466786861,0.0016567970160394907,-0.0019227714510634542
0.009481236338615417,0.010529138147830963,-0.00904704350978136,-0.008156546391546726,0.001583726960234344,-0.0019963919185101986
0.009468799456954002,0.009994471445679665,-0.00933721661567688,-0.008411124348640442,0.0016880829352885485,-0.0022906686645001173
0.009663397446274757,0.010145306587219238,-0.00906215701252222,-0.009030523709952831,0.0015543637564405799,-0.0021915144752711058
0.008584537543356419,0.010518613271415234,-0.009320125915110111,-0.008813762106001377,0.001425418071448803,-0.0022966975811868906
0.008584537543356419,0.010518613271415234,-0.009320125915110111,-0.008813762106001377,0.001425418071448803,-0.0022966975811868906
0.009345457889139652,0.009917289949953556,-0.009375471621751785,-0.008748751133680344,0.001211168011650443,-0.0021972456015646458
0.009124547243118286,0.010571548715233803,-0.009482055902481079,-0.008927538990974426,0.0011086304439231753,-0.0021984982304275036
0.00987450871616602,0.010217031463980675,-0.008764345198869705,-0.009107780642807484,0.0011763825314119458,-0.0023409936111420393
0.008947191759943962,0.01048589963465929,-0.008831340819597244,-0.008993004448711872,0.0015508249634876847,-0.002554626204073429
0.007965157739818096,0.010094820521771908,-0.008787909522652626,-0.008987108245491982,0.0018146324437111616,-0.002830580109730363
0.009476371109485626,0.010229848325252533,-0.008630270138382912,-0.009113006293773651,0.0018860187847167253,-0.0026558106765151024
0.010218417271971703,0.010368678718805313,-0.00892858300358057,-0.010379803366959095,0.0019160251831635833,-0.0025217956863343716
0.009126651100814342,0.010163277387619019,-0.008815912529826164,-0.010099746286869049,0.0017614535754546523,-0.002669883193448186
0.008759694173932076,0.01022398378700018,-0.008770661428570747,-0.00918213278055191,0.0016009439714252949,-0.0025892287958413363
0.00964441243559122,0.01117330975830555,-0.009416064247488976,-0.010128629393875599,0.001333644730038941,-0.0024948962964117527
0.009354093112051487,0.009980740956962109,-0.008644533343613148,-0.00942724384367466,0.0013306726468726993,-0.0024073764216154814
0.009354093112051487,0.009980740956962109,-0.008644533343613148,-0.00942724384367466,0.0013306726468726993,-0.0024073764216154814
0.009067421779036522,0.010851564817130566,-0.009675687178969383,-0.009527629241347313,0.0016391586977988482,-0.0030455326195806265
0.009442740119993687,0.010358467698097229,-0.009112800471484661,-0.010048755444586277,0.0015665829414501786,-0.00381340435706079
0.009465632028877735,0.010517344810068607,-0.008770216256380081,-0.009758650325238705,0.0017604795284569263,-0.004002036526799202
0.009425252676010132,0.010657737962901592,-0.008720560930669308,-0.009734831750392914,0.0017393792513757944,-0.0038613828364759684
0.009182571433484554,0.00993746891617775,-0.009393887594342232,-0.009868835099041462,0.0017754045547917485,-0.0036894986405968666
0.008848934434354305,0.010690387338399887,-0.008734109811484814,-0.00978290755301714,0.0018074683612212539,-0.0036626250948756933
0.009094669483602047,0.010405943728983402,-0.008807984180748463,-0.010554318316280842,0.0017284243367612362,-0.0036834003403782845
0.009407157078385353,0.010147802531719208,-0.009484928101301193,-0.01086527481675148,0.001748954993672669,-0.003926817327737808
0.008835460990667343,0.01058737002313137,-0.008879706263542175,-0.010544675402343273,0.0016522249206900597,-0.004173715598881245
0.009337440133094788,0.01043327059596777,-0.008958280086517334,-0.01081595104187727,0.0017899213125929236,-0.004099135287106037
0.009696433320641518,0.010743387043476105,-0.009165149182081223,-0.010447440668940544,0.00167183973826468,-0.0035553439520299435
0.009320016019046307,0.010935446247458458,-0.009583499282598495,-0.010463705286383629,0.001896215253509581,-0.003912920597940683
0.00987041462212801,0.01092186663299799,-0.00879293866455555,-0.010755536146461964,0.0017811398720368743,-0.004488773178309202
0.009652158245444298,0.01012321375310421,-0.009226042777299881,-0.01069200411438942,0.001766671659424901,-0.004769912920892239
0.009652158245444298,0.01012321375310421,-0.009226042777299881,-0.01069200411438942,0.001766671659424901,-0.004769912920892239
0.009082398377358913,0.010873820632696152,-0.009101876057684422,-0.011104535311460495,0.0017825618851929903,-0.004429195076227188
0.009005201980471611,0.010008946061134338,-0.009166838601231575,-0.010239455848932266,0.0017300094477832317,-0.0038625067099928856
0.009703557938337326,0.010094767436385155,-0.008870990946888924,-0.010686873458325863,0.0016161745879799128,-0.003643990959972143
0.009363892488181591,0.010618382133543491,-0.009270084090530872,-0.011258700862526894,0.0016274390509352088,-0.0038270466029644012
0.00960965920239687,0.011237382888793945,-0.008898482657968998,-0.01064100582152605,0.0017577805556356907,-0.00467523280531168
0.009404199197888374,0.010453149676322937,-0.009460754692554474,-0.010951977223157883,0.0018663279479369521,-0.005040202289819717
0.010386651381850243,0.009898743592202663,-0.009881746955215931,-0.010805982165038586,0.0017100690165534616,-0.004529960453510284
0.009969416074454784,0.010484570637345314,-0.00902189314365387,-0.011038735508918762,0.0016656130319461226,-0.004251527134329081
0.009208268485963345,0.010317335836589336,-0.009718953631818295,-0.010726124979555607,0.001693502999842167,-0.0039901211857795715
0.009281883016228676,0.010240972973406315,-0.009519871324300766,-0.010278251953423023,0.001689594006165862,-0.0038378569297492504
0.00967100728303194,0.010792326182126999,-0.009084484539926052,-0.010881535708904266,0.0016264705918729305,-0.0038459489587694407
0.009807589463889599,0.009951263666152954,-0.009534575045108795,-0.011125201359391212,0.0016132205491885543,-0.004458500538021326
0.009278520941734314,0.010007861070334911,-0.009335057809948921,-0.010553131811320782,0.0016283366130664945,-0.004732373170554638
0.009433020837605,0.01035750936716795,-0.009023568592965603,-0.010713404975831509,0.0015990419778972864,-0.0049036056734621525
0.00968828983604908,0.010167699307203293,-0.009219983592629433,-0.010385777801275253,0.001788400229997933,-0.004721027333289385
0.009573488496243954,0.010435810312628746,-0.00977806095033884,-0.010601392015814781,0.001672196900472045,-0.004780199378728867
0.00984168890863657,0.01079617440700531,-0.009092438966035843,-0.010805708356201649,0.0017313396092504263,-0.0046633887104690075
0.009554404765367508,0.0109335882589221,-0.009564120322465897,-0.01045866310596466,0.0018052926752716303,-0.004406626336276531
0.009477535262703896,0.010530415922403336,-0.009869841858744621,-0.01091004814952612,0.001968418713659048,-0.00464713154360652
0.00985262542963028,0.010606254450976849,-0.009126200340688229,-0.011097818613052368,0.0018985540373250842,-0.0051004053093492985
0.010497917421162128,0.010514706373214722,-0.010134251788258553,-0.010060783475637436,0.0018183004576712847,-0.005393149796873331
0.009381875395774841,0.010604537092149258,-0.009155062027275562,-0.010296820662915707,0.00181485281791538,-0.005065451841801405
0.009841597639024258,0.010293813422322273,-0.008988961577415466,-0.010485702194273472,0.001745676388964057,-0.0047508361749351025
0.0103980153799057,0.009997698478400707,-0.009159517474472523,-0.01044907420873642,0.0016255786176770926,-0.004605109803378582
0.009413733147084713,0.010563884861767292,-0.010020768269896507,-0.011142364703118801,0.0015380101976916194,-0.0048415265046060085
0.009413733147084713,0.010563884861767292,-0.010020768269896507,-0.011142364703118801,0.0015380101976916194,-0.0048415265046060085
0.010443492792546749,0.009897332638502121,-0.008630875498056412,-0.010944928042590618,0.001867392915301025,-0.005488197319209576
0.009348039515316486,0.010719253681600094,-0.009406791999936104,-0.010966814123094082,0.0021961189340800047,-0.005326021928340197
0.009348039515316486,0.010719253681600094,-0.009406791999936104,-0.010966814123094082,0.0021961189340800047,-0.005326021928340197
0.009749281220138073,0.010235575027763844,-0.009979341179132462,-0.01065639965236187,0.0022478364408016205,-0.005373332649469376
0.010563691146671772,0.010435890406370163,-0.008879070170223713,-0.01137030404061079,0.0022351467050611973,-0.005327946040779352
0.009762206114828587,0.010583488270640373,-0.00999707542359829,-0.011637702584266663,0.0021176005247980356,-0.005390778183937073
0.009654982015490532,0.011295817792415619,-0.008833605796098709,-0.0115591986104846,0.0020381894428282976,-0.005463403183966875
0.00966605544090271,0.010213064961135387,-0.00959017500281334,-0.011867898516356945,0.0018466176697984338,-0.00545458635315299
0.009908219799399376,0.01029190793633461,-0.008618548512458801,-0.011625660583376884,0.002003665780648589,-0.005330897867679596
0.009908219799399376,0.01029190793633461,-0.008618548512458801,-0.011625660583376884,0.002003665780648589,-0.005330897867679596
0.009626010432839394,0.010990632697939873,-0.009820125997066498,-0.011393886990845203,0.002326127840206027,-0.005354686640202999
0.009873819537460804,0.01006748341023922,-0.009678813628852367,-0.01177147962152958,0.0021702819503843784,-0.005697210319340229
0.009932954795658588,0.010363246314227581,-0.008970869705080986,-0.011588593944907188,0.0021491532679647207,-0.006043979432433844
0.010559930466115475,0.010475444607436657,-0.00870559923350811,-0.012348867952823639,0.0019553645979613066,-0.005667754914611578
0.010247931815683842,0.009952413849532604,-0.00954277440905571,-0.01278169360011816,0.0019730725325644016,-0.005492532625794411
0.009658528491854668,0.010665496811270714,-0.009340844117105007,-0.012240903452038765,0.0018312553875148296,-0.005810965783894062
0.010015973821282387,0.010190996341407299,-0.009184948168694973,-0.01207439973950386,0.001830044318921864,-0.005862712860107422
0.009902323596179485,0.0103045254945755,-0.009366948157548904,-0.012250770814716816,0.001891314866952598,-0.006287576165050268
0.009786718524992466,0.010801289230585098,-0.008861360140144825,-0.013241058215498924,0.002139878924936056,-0.006226412020623684
0.010097662918269634,0.010082077234983444,-0.009380195289850235,-0.01275542937219143,0.002066130982711911,-0.005629693157970905
0.011322262696921825,0.010189302265644073,-0.010216515511274338,-0.01312252040952444,0.0021015657112002373,-0.005538150668144226
0.011404511518776417,0.010529116727411747,-0.009289325214922428,-0.01280382089316845,0.002109586028382182,-0.005921951029449701
0.011184758506715298,0.01012374833226204,-0.008927863091230392,-0.012967608869075775,0.0019430627580732107,-0.006366172805428505
0.011231026612222195,0.010565557517111301,-0.009588392451405525,-0.013174118474125862,0.0018223513616248965,-0.005861825309693813
0.01076300349086523,0.010295704938471317,-0.00968477688729763,-0.013185389339923859,0.0018547492800280452,-0.005758889950811863
0.01076300349086523,0.010295704938471317,-0.00968477688729763,-0.013185389339923859,0.0018547492800280452,-0.005758889950811863
0.011126216500997543,0.010108178481459618,-0.009276693686842918,-0.013743608258664608,0.0018536212155595422,-0.005834749899804592
0.011400073766708374,0.01032915711402893,-0.009885425679385662,-0.013650497421622276,0.002095413627102971,-0.006229694467037916
0.011178461834788322,0.010520546697080135,-0.00964011438190937,-0.013322903774678707,0.0021563335321843624,-0.005768226459622383
0.01130575593560934,0.009791112504899502,-0.008841278031468391,-0.012902414426207542,0.002194181317463517,-0.006162301637232304
0.01182285975664854,0.010092519223690033,-0.009039223194122314,-0.013759883120656013,0.0023059933446347713,-0.0066007282584905624
0.011444693431258202,0.010301664471626282,-0.009333624504506588,-0.013453655876219273,0.0025230469182133675,-0.00678300904110074
0.011386263184249401,0.010249231941998005,-0.008651282638311386,-0.013746368698775768,0.0025758324190974236,-0.006848006974905729
0.011815408244729042,0.009938755072653294,-0.008763320744037628,-0.01396078523248434,0.0026954973582178354,-0.006158885546028614
0.01142674870789051,0.00977886002510786,-0.00892431940883398,-0.014129715040326118,0.0024489881470799446,-0.006840185262262821
0.011639497242867947,0.010261067189276218,-0.00909698661416769,-0.014545886777341366,0.002125204773619771,-0.00727200647816062
0.01146403606981039,0.010222046636044979,-0.009278802201151848,-0.014111037366092205,0.0020254168193787336,-0.007180136162787676
0.011370121501386166,0.00969402864575386,-0.00846298411488533,-0.01502306666225195,0.00209290673956275,-0.00720402505248785
0.011899841949343681,0.00991724245250225,-0.008261730894446373,-0.013834859244525433,0.0024117156863212585,-0.007166294381022453
0.01218861062079668,0.010137859731912613,-0.008855532854795456,-0.014295876957476139,0.0025164405815303326,-0.0071570053696632385
0.011622799560427666,0.009820218198001385,-0.009379417635500431,-0.013845368288457394,0.0026523363776504993,-0.007289290893822908
0.011489979922771454,0.010451653972268105,-0.008549473248422146,-0.013960338197648525,0.0023455743212252855,-0.007329775486141443
0.011521351523697376,0.00966037530452013,-0.009093564003705978,-0.01323341578245163,0.002168408827856183,-0.007955378852784634
0.011959831230342388,0.010528979822993279,-0.0086992047727108,-0.013532118871808052,0.002211536280810833,-0.007921355776488781
0.012091468088328838,0.010289656929671764,-0.008374018594622612,-0.013521994464099407,0.0021626846864819527,-0.007712175138294697
0.011597923934459686,0.00986245833337307,-0.0087632080540061,-0.014292309060692787,0.0022010907996445894,-0.007461061701178551
0.011540546081960201,0.010268203914165497,-0.009071879088878632,-0.014230435714125633,0.002233281498774886,-0.007920649833977222
0.011710942722856998,0.010452198795974255,-0.00918533094227314,-0.014086777344346046,0.0026346929371356964,-0.007896902970969677
0.01067513320595026,0.009633813984692097,-0.008689804933965206,-0.013831072486937046,0.0025711641646921635,-0.008112985640764236
0.01194522064179182,0.010103393346071243,-0.0091091338545084,-0.013911535032093525,0.002350475639104843,-0.008013348095119
0.012379663065075874,0.010209237225353718,-0.008804832585155964,-0.014424418099224567,0.002239585155621171,-0.008236274123191833
0.012466087006032467,0.009694324806332588,-0.008341735228896141,-0.01487844530493021,0.0020572992507368326,-0.008434828370809555
0.011987323872745037,0.010985723696649075,-0.009178189560770988,-0.015260349027812481,0.0023744232021272182,-0.008626196533441544
0.012044200673699379,0.01025858148932457,-0.00885457918047905,-0.01562563143670559,0.002354510361328721,-0.008767965249717236
0.012021461501717567,0.009926438331604004,-0.008550881408154964,-0.015160645358264446,0.002305304165929556,-0.008823429234325886
0.012323074974119663,0.010454293340444565,-0.008455006405711174,-0.015017618425190449,0.002165586920455098,-0.008868682198226452
0.011956443078815937,0.00998136680573225,-0.009042544290423393,-0.014659307897090912,0.0021702987141907215,-0.008207331411540508
0.011956443078815937,0.00998136680573225,-0.009042544290423393,-0.014659307897090912,0.0021702987141907215,-0.008207331411540508
0.012419464997947216,0.009641495533287525,-0.009098745882511139,-0.014989874325692654,0.00246796035207808,-0.008200929500162601
0.011918787844479084,0.010171608068048954,-0.00856166984885931,-0.01451363880187273,0.0023703034967184067,-0.008349280804395676
0.011859427206218243,0.010258511640131474,-0.008626577444374561,-0.015310065820813179,0.002302364446222782,-0.008461183868348598
0.012319369241595268,0.009924261830747128,-0.008495111018419266,-0.015052229166030884,0.002387553220614791,-0.007921834476292133
0.01178867556154728,0.010150789283216,-0.008654219098389149,-0.015782708302140236,0.0022825459018349648,-0.00771723547950387
0.012183894403278828,0.00978921540081501,-0.008896172977983952,-0.015234699472784996,0.0023908745497465134,-0.008511915802955627
0.012346501462161541,0.010399535298347473,-0.008484947495162487,-0.01503107137978077,0.002355253091081977,-0.008583581075072289
0.012503370642662048,0.010276013985276222,-0.008255482651293278,-0.015698019415140152,0.002509811194613576,-0.008789971470832825
0.011956760659813881,0.010089066810905933,-0.009058792144060135,-0.015635330229997635,0.0023660236038267612,-0.008869078010320663
0.01213365513831377,0.010574836283922195,-0.008457076735794544,-0.015820162370800972,0.0023206607438623905,-0.008616019040346146
0.012074346654117107,0.009877752512693405,-0.0081496462225914,-0.015579531900584698,0.002379289362579584,-0.008887742646038532
0.012430459260940552,0.009986426681280136,-0.00844537653028965,-0.016712326556444168,0.002565795788541436,-0.008703606203198433
0.012604125775396824,0.01056006271392107,-0.008793417364358902,-0.015288577415049076,0.002509885001927614,-0.008663162589073181
0.012509185820817947,0.010674981400370598,-0.008635994046926498,-0.01521381177008152,0.002754504093900323,-0.008600851520895958
0.013007319532334805,0.011366446502506733,-0.007993512786924839,-0.016118934378027916,0.0029348311945796013,-0.00865942519158125
0.012131111696362495,0.010558711364865303,-0.008758786134421825,-0.016101785004138947,0.00293342606164515,-0.0088341124355793
0.012476010248064995,0.01060541346669197,-0.008984328247606754,-0.016246289014816284,0.0027639546897262335,-0.008577508851885796
0.01257229596376419,0.011254473589360714,-0.008514698594808578,-0.01603471115231514,0.0029450999572873116,-0.008495495654642582
0.013643760234117508,0.01074962131679058,-0.008694639429450035,-0.016342472285032272,0.0029857358895242214,-0.008998670615255833
0.012766101397573948,0.01051564421504736,-0.008723516948521137,-0.016141429543495178,0.0030010731425136328,-0.009247629903256893
0.012876197695732117,0.011137071996927261,-0.008266306482255459,-0.016103293746709824,0.0029172308277338743,-0.009335540235042572
0.0128921614959836,0.010556508786976337,-0.008312935009598732,-0.016552908346056938,0.002899159910157323,-0.008924330584704876
0.012842122465372086,0.010724920779466629,-0.008892947807908058,-0.016505146399140358,0.002665054053068161,-0.00877057109028101
0.012764304876327515,0.01017595175653696,-0.008355154655873775,-0.01691417209804058,0.002518532332032919,-0.00893405545502901
0.012867680750787258,0.010078334249556065,-0.008268754929304123,-0.016637224704027176,0.0025530108250677586,-0.009091600775718689
0.013273162767291069,0.010757113806903362,-0.008935955353081226,-0.01669912040233612,0.00272720237262547,-0.009080908261239529
0.013273162767291069,0.010757113806903362,-0.008935955353081226,-0.01669912040233612,0.00272720237262547,-0.009080908261239529
0.01281802263110876,0.010667197406291962,-0.008527353405952454,-0.01667492277920246,0.0028523849323391914,-0.009228513576090336
0.012973939068615437,0.010675230994820595,-0.008298158645629883,-0.016435328871011734,0.0027390364557504654,-0.008992339484393597
0.012842563912272453,0.011324777267873287,-0.008308380842208862,-0.017207425087690353,0.002761648502200842,-0.009017989970743656
0.01320579182356596,0.010406704619526863,-0.00829351507127285,-0.017026616260409355,0.002724583726376295,-0.009364564903080463
0.01290665753185749,0.010501578450202942,-0.00801385473459959,-0.017521271482110023,0.002548742340877652,-0.009373893961310387
0.013091540895402431,0.010474661365151405,-0.008216644637286663,-0.01741393469274044,0.002597413957118988,-0.00931613240391016
0.013559039682149887,0.010888274759054184,-0.008429475128650665,-0.018148072063922882,0.003126099007204175,-0.009352032095193863
0.013463728129863739,0.010647591203451157,-0.008010811172425747,-0.017823142930865288,0.0034407651983201504,-0.009531764313578606
0.012928776443004608,0.010221896693110466,-0.00839199498295784,-0.017990028485655785,0.0033002812415361404,-0.009179733693599701
0.013315766118466854,0.010867844335734844,-0.008986284025013447,-0.018024558201432228,0.0031538009643554688,-0.009386892430484295
0.012640700675547123,0.010685889981687069,-0.008905877359211445,-0.018053779378533363,0.0028267980087548494,-0.009110751561820507
0.013123556040227413,0.010694952681660652,-0.007964457385241985,-0.018498847261071205,0.0024136367719620466,-0.008525568060576916
0.01283208467066288,0.01116059347987175,-0.008714170195162296,-0.018100012093782425,0.0022127812262624502,-0.008329696953296661
0.013365398161113262,0.010090417228639126,-0.008516750298440456,-0.01784580945968628,0.002390854759141803,-0.00868933368474245
0.01295441947877407,0.010593140497803688,-0.008486242964863777,-0.01832962967455387,0.002766237361356616,-0.008625752292573452
0.013146317563951015,0.01121513545513153,-0.008616403676569462,-0.018200870603322983,0.0029880835209041834,-0.008895468898117542
0.012937614694237709,0.01020937878638506,-0.009003644809126854,-0.018449634313583374,0.0028105415403842926,-0.008234349079430103
0.012727910652756691,0.010409289039671421,-0.008537795394659042,-0.018267519772052765,0.0027626738883554935,-0.009354740381240845
0.013178003020584583,0.010436948388814926,-0.00821975339204073,-0.01809561625123024,0.002732813125476241,-0.009219137020409107
0.013124444521963596,0.0103437639772892,-0.008914712816476822,-0.01857353374361992,0.0029298625886440277,-0.009244176559150219
0.01309291087090969,0.011565080843865871,-0.008648429065942764,-0.018665466457605362,0.002962655620649457,-0.009391299448907375
0.01273223478347063,0.010553160682320595,-0.008650568313896656,-0.0181573573499918,0.0027172204572707415,-0.008890779688954353
0.013297549448907375,0.010549142025411129,-0.009103290736675262,-0.01849883794784546,0.00257286848500371,-0.009041525423526764
0.013144545257091522,0.011307213455438614,-0.008851125836372375,-0.018199052661657333,0.0027478537522256374,-0.009317483752965927
0.013523807749152184,0.010735061950981617,-0.0084291473031044,-0.01793695241212845,0.0026505240239202976,-0.009428857825696468
0.013523807749152184,0.010735061950981617,-0.0084291473031044,-0.01793695241212845,0.0026505240239202976,-0.009428857825696468
0.013305097818374634,0.010124697349965572,-0.008544499054551125,-0.018520565703511238,0.0026821615174412727,-0.009219254367053509
0.01226092129945755,0.010814034380018711,-0.009309344924986362,-0.01875290274620056,0.0028391217347234488,-0.009854625910520554
0.013876485638320446,0.01033721212297678,-0.008813662454485893,-0.020600246265530586,0.003075535874813795,-0.009800384752452374
0.01433127373456955,0.01063284557312727,-0.008209675550460815,-0.019702186807990074,0.00303562730550766,-0.009665480814874172
0.013795875012874603,0.01080126129090786,-0.009220084175467491,-0.01874632202088833,0.003424318041652441,-0.009989023208618164
0.013899138197302818,0.01113656722009182,-0.008433462120592594,-0.019126659259200096,0.0029199954587966204,-0.010356336832046509
0.01395437028259039,0.011067524552345276,-0.00937015563249588,-0.018847346305847168,0.002683078870177269,-0.01005349401384592
0.01434670202434063,0.010878854431211948,-0.008907387033104897,-0.019282955676317215,0.0028835665434598923,-0.009904948063194752
0.014097779989242554,0.011347544379532337,-0.008506680838763714,-0.020000794902443886,0.0030496884137392044,-0.009767868556082249
0.014387845993041992,0.010808059945702553,-0.008889875374734402,-0.02002035267651081,0.0034523552749305964,-0.010058421641588211
0.013848206959664822,0.010755064897239208,-0.00925458874553442,-0.019453978165984154,0.0033435530494898558,-0.010095176286995411
0.014380247332155704,0.010941054672002792,-0.00918619055300951,-0.019774023443460464,0.0031303975265473127,-0.010120004415512085
0.014275595545768738,0.010705993510782719,-0.008057387545704842,-0.01993861235678196,0.003161825705319643,-0.009817912243306637
0.014671982266008854,0.011288518086075783,-0.008826987817883492,-0.020411979407072067,0.0031727617606520653,-0.009596406482160091
0.014861502684652805,0.011046871542930603,-0.00914439745247364,-0.020902978256344795,0.0031257118098437786,-0.010454597882926464
0.01465550996363163,0.010763576254248619,-0.008460048586130142,-0.020514877513051033,0.002950080903246999,-0.010988051071763039
0.014012410305440426,0.01125016063451767,-0.008636058308184147,-0.019724976271390915,0.0028383955359458923,-0.010360224172472954
0.014935600571334362,0.010533710941672325,-0.008993519470095634,-0.019623488187789917,0.0028366846963763237,-0.010599975474178791
0.014584050513803959,0.010691522620618343,-0.008586736395955086,-0.020039528608322144,0.00284950970672071,-0.010568101890385151
0.014502152800559998,0.01128482911735773,-0.008461229503154755,-0.020440436899662018,0.0028506906237453222,-0.010157457552850246
0.014478855766355991,0.010520484298467636,-0.008977558463811874,-0.020728280767798424,0.0032491653691977262,-0.009885868057608604
0.015375949442386627,0.010831160470843315,-0.009092077612876892,-0.02117859572172165,0.003038100665435195,-0.010586044751107693
0.014644994400441647,0.010673747397959232,-0.008606962859630585,-0.020893044769763947,0.0031707994639873505,-0.010444034822285175
0.014893597923219204,0.010549589060246944,-0.008451512083411217,-0.020192589610815048,0.0030897976830601692,-0.010534051805734634
0.015250650234520435,0.011093439534306526,-0.008444436825811863,-0.020815318450331688,0.0033710079733282328,-0.01024625077843666
0.015250650234520435,0.011093439534306526,-0.008444436825811863,-0.020815318450331688,0.0033710079733282328,-0.01024625077843666
0.014730727300047874,0.010562075302004814,-0.00828045979142189,-0.021374858915805817,0.0031694977078586817,-0.010441329330205917
0.015198090113699436,0.010821065865457058,-0.008428857661783695,-0.021105974912643433,0.003089086851105094,-0.010527998208999634
0.01557968184351921,0.0108293192461133,-0.008688012138009071,-0.02088651806116104,0.00328460312448442,-0.010630661621689796
0.015675265341997147,0.01059324573725462,-0.008234336972236633,-0.021435562521219254,0.0032002879306674004,-0.010697952471673489
0.015587462112307549,0.011083447374403477,-0.008044499903917313,-0.021550631150603294,0.003059898968786001,-0.010063514113426208
0.015383576042950153,0.010811349377036095,-0.008294153027236462,-0.02103358507156372,0.003326314501464367,-0.010479645803570747
0.01655563898384571,0.011480361223220825,-0.008010712452232838,-0.021423419937491417,0.004145343322306871,-0.010776248760521412
0.0156537014991045,0.011029575020074844,-0.008206836879253387,-0.021300015971064568,0.004458696115761995,-0.01057855412364006
0.015765711665153503,0.010924583300948143,-0.008358759805560112,-0.021141767501831055,0.00403499836102128,-0.010485991835594177
0.016126418486237526,0.011200117878615856,-0.008118727244436741,-0.021183358505368233,0.0035781613551080227,-0.010476586408913136
0.01606183871626854,0.010727227665483952,-0.007981588132679462,-0.02165915258228779,0.003130342112854123,-0.010731436312198639
0.016355091705918312,0.01116927620023489,-0.008684013038873672,-0.02274751104414463,0.003179216757416725,-0.0108008598908782
0.015853004530072212,0.010954414494335651,-0.008682097308337688,-0.02118665911257267,0.003325915662571788,-0.010780646465718746
0.016257375478744507,0.010906405746936798,-0.008175398223102093,-0.021341785788536072,0.0035772600676864386,-0.01114741526544094
0.015930552035570145,0.011628975160419941,-0.007944419980049133,-0.021958520635962486,0.0037825012113898993,-0.01111680455505848
0.016438014805316925,0.010915317572653294,-0.008673658594489098,-0.02171064168214798,0.003676034975796938,-0.011148232966661453
0.016241781413555145,0.010987158864736557,-0.00839218869805336,-0.021872345358133316,0.0035256105475127697,-0.011344265192747116
0.01654268056154251,0.011191693134605885,-0.007768871728330851,-0.02195284701883793,0.003239880781620741,-0.011445234529674053
0.016337892040610313,0.011812988668680191,-0.008071214891970158,-0.02246423251926899,0.003419811138883233,-0.011619975790381432
0.0162464939057827,0.011498795822262764,-0.008156395517289639,-0.02221573516726494,0.0036419290117919445,-0.011672225780785084
0.016522876918315887,0.011183628812432289,-0.008089538663625717,-0.022429518401622772,0.0033391916658729315,-0.011932983994483948
0.016468875110149384,0.011260583996772766,-0.007699225097894669,-0.021371755748987198,0.0034422739408910275,-0.011966143734753132
0.0168905146420002,0.011278454214334488,-0.008227257058024406,-0.021966300904750824,0.003561791032552719,-0.011420640163123608
0.016147984191775322,0.010901500470936298,-0.008197342976927757,-0.02302715741097927,0.0035706732887774706,-0.01210577692836523
0.017179952934384346,0.011201250366866589,-0.008013498038053513,-0.023457711562514305,0.0033416463993489742,-0.012540319003164768
0.017086507752537727,0.011228349059820175,-0.007653316017240286,-0.022389011457562447,0.003553639631718397,-0.012539233081042767
0.016541775315999985,0.011101231910288334,-0.008716831915080547,-0.02246468886733055,0.003410069737583399,-0.012666892260313034
0.01717441715300083,0.011485934257507324,-0.00794894713908434,-0.02333837002515793,0.0034206798300147057,-0.012394765391945839
0.017132118344306946,0.011659369803965092,-0.007838938385248184,-0.02357417717576027,0.003662047442048788,-0.012853485532104969
0.017357653006911278,0.011871169321238995,-0.00783422403037548,-0.023095857352018356,0.003942910581827164,-0.011593655683100224
0.017357653006911278,0.011871169321238995,-0.00783422403037548,-0.023095857352018356,0.003942910581827164,-0.011593655683100224
0.01702391728758812,0.011284920386970043,-0.008063767105340958,-0.022386588156223297,0.003541472600772977,-0.013072657398879528
0.017056457698345184,0.010715246200561523,-0.008204793557524681,-0.02213553711771965,0.0039034951478242874,-0.013375482521951199
0.016537800431251526,0.010945489630103111,-0.008484063670039177,-0.023703834041953087,0.004441204015165567,-0.013331436552107334
0.017044873908162117,0.011688301339745522,-0.00840113777667284,-0.02390625886619091,0.004107617307454348,-0.01325945183634758
0.017343908548355103,0.011205902323126793,-0.007640971802175045,-0.02358446642756462,0.0037287739105522633,-0.013589862734079361
0.01751389540731907,0.010906855575740337,-0.007255278993397951,-0.023524804040789604,0.003521716920658946,-0.013719627633690834
0.01714610867202282,0.01162483636289835,-0.007987502962350845,-0.023307591676712036,0.003667217679321766,-0.01352684572339058
0.016622189432382584,0.010918132960796356,-0.00774854701012373,-0.023600470274686813,0.0037050051614642143,-0.013751479797065258
0.017660116776823997,0.011009843088686466,-0.008129514753818512,-0.02392823062837124,0.004245308227837086,-0.014043242670595646
0.01754877343773842,0.011528012342751026,-0.007963083684444427,-0.024042468518018723,0.0041084871627390385,-0.013881666585803032
0.01728118024766445,0.011346361599862576,-0.008407218381762505,-0.02438674308359623,0.004000010434538126,-0.013743185438215733
0.017165478318929672,0.011658416129648685,-0.007854861207306385,-0.024432342499494553,0.003941838163882494,-0.013534823432564735
0.016713974997401237,0.011204734444618225,-0.0071096294559538364,-0.024301325902342796,0.003829666180536151,-0.013673990033566952
0.017903432250022888,0.01194076705724001,-0.007871258072555065,-0.02500702440738678,0.0037671115715056658,-0.013842150568962097
0.017756279557943344,0.011500710621476173,-0.008018746972084045,-0.024350440129637718,0.0037962328642606735,-0.01423584669828415
0.017702922224998474,0.011084434576332569,-0.007744965609163046,-0.024765660986304283,0.004055724944919348,-0.014048385433852673
0.017664378508925438,0.011831163428723812,-0.007155533879995346,-0.02488679625093937,0.004759752657264471,-0.01441576611250639
0.017731960862874985,0.012066430412232876,-0.007204059511423111,-0.024477696046233177,0.004429333843290806,-0.0142188910394907
0.01805931329727173,0.011623146943747997,-0.008330373093485832,-0.02463163249194622,0.003924485296010971,-0.014400920830667019
0.01814468577504158,0.011682644486427307,-0.0075943730771541595,-0.025166384875774384,0.003676791675388813,-0.014104071073234081
0.017942320555448532,0.011515891179442406,-0.006757213734090328,-0.025084873661398888,0.0038411712739616632,-0.014198909513652325
0.01841040328145027,0.011929722502827644,-0.007187565788626671,-0.025037556886672974,0.003959641791880131,-0.01407842617481947
0.01814403384923935,0.011951136402785778,-0.007697721943259239,-0.02514057420194149,0.004222631920129061,-0.014422048814594746
0.018352769315242767,0.011759480461478233,-0.007626676466315985,-0.025447076186537743,0.00428887689486146,-0.014157215133309364
0.018723541870713234,0.011632257141172886,-0.0068420544266700745,-0.025165513157844543,0.0044922721572220325,-0.014351312071084976
0.018723541870713234,0.011632257141172886,-0.0068420544266700745,-0.025165513157844543,0.0044922721572220325,-0.014351312071084976
0.01847156137228012,0.011315596289932728,-0.007265079766511917,-0.02495279349386692,0.004506682511419058,-0.01437385380268097
0.018425384536385536,0.011884143576025963,-0.00751129724085331,-0.025160251185297966,0.004102256149053574,-0.014333290979266167
0.018641481176018715,0.011743897572159767,-0.007110838778316975,-0.025327516719698906,0.0037718480452895164,-0.013916037045419216
0.01912071369588375,0.011746667325496674,-0.006973999086767435,-0.025840897113084793,0.0035777592565864325,-0.014098812825977802
0.019419850781559944,0.011374473571777344,-0.007770411670207977,-0.026135515421628952,0.004652228206396103,-0.014768008142709732
0.01896847039461136,0.011765635572373867,-0.006951832678169012,-0.026327714323997498,0.0048031616024672985,-0.01490679383277893
0.01671319641172886,0.01191639993339777,-0.007145277224481106,-0.027027444913983345,0.004791454412043095,-0.015052351169288158
0.019637014716863632,0.011326608248054981,-0.007548607885837555,-0.026454854756593704,0.004640616942197084,-0.014733686111867428
0.01943224109709263,0.011862204410135746,-0.007601870223879814,-0.026273401454091072,0.004462245851755142,-0.014686967246234417
0.019534621387720108,0.012011135928332806,-0.007187240291386843,-0.027266228571534157,0.004144475795328617,-0.014781330712139606
0.019440868869423866,0.01242134440690279,-0.007149116136133671,-0.027518201619386673,0.004036662168800831,-0.014864643104374409
0.01896553672850132,0.011901882477104664,-0.007528292015194893,-0.027318092063069344,0.0038940764497965574,-0.014392269775271416
0.019616957753896713,0.011472407728433609,-0.007648777682334185,-0.026588236913084984,0.004127113614231348,-0.014826380647718906
0.019976017996668816,0.012525100260972977,-0.0073038144037127495,-0.026825737208127975,0.004724396858364344,-0.015196148306131363
0.01985878497362137,0.011780328117311,-0.007245179265737534,-0.027932394295930862,0.004952282179147005,-0.015950867906212807
0.019574206322431564,0.012099171988666058,-0.007392521016299725,-0.027898099273443222,0.0045991805382072926,-0.015571249648928642
0.019982242956757545,0.011848373338580132,-0.007992328144609928,-0.02768062800168991,0.004062627907842398,-0.015056823380291462
0.01919964700937271,0.01199382171034813,-0.007435889448970556,-0.028767645359039307,0.004119025077670813,-0.015086561441421509
0.019182249903678894,0.0119871124625206,-0.0075381132774055,-0.02770969271659851,0.004265270661562681,-0.01571713015437126
0.0198588315397501,0.011808029375970364,-0.007541700731962919,-0.027581362053751945,0.004669485613703728,-0.015824899077415466
0.02020924910902977,0.012118613347411156,-0.007526043802499771,-0.026916196569800377,0.0048292637802660465,-0.016081595793366432
0.01953791454434395,0.011599913239479065,-0.007360539864748716,-0.027575485408306122,0.004910498391836882,-0.016105804592370987
0.01987941935658455,0.012162982486188412,-0.007371734827756882,-0.02848176285624504,0.004463374614715576,-0.015515504404902458
0.02001076377928257,0.012326897121965885,-0.007511997129768133,-0.029082557186484337,0.003985783085227013,-0.01577315852046013
0.01969054900109768,0.012146823108196259,-0.008092263713479042,-0.02874862775206566,0.0038250538054853678,-0.015338527038693428
0.02024766243994236,0.01212328765541315,-0.007619030307978392,-0.028357727453112602,0.004240166861563921,-0.015537205152213573
0.02016381546854973,0.012157765217125416,-0.007464641239494085,-0.028373129665851593,0.004701104946434498,-0.016037655994296074
0.02016381546854973,0.012157765217125416,-0.007464641239494085,-0.028373129665851593,0.004701104946434498,-0.016037655994296074
0.019471151754260063,0.012352597899734974,-0.008224748075008392,-0.028530947864055634,0.005152958445250988,-0.016452955082058907
0.020331675186753273,0.012260394170880318,-0.007559042889624834,-0.02851620316505432,0.004596942104399204,-0.01644960418343544
0.020331675186753273,0.012260394170880318,-0.007559042889624834,-0.02851620316505432,0.004596942104399204,-0.01644960418343544
0.020238617435097694,0.012211359106004238,-0.007406876888126135,-0.02863350883126259,0.004161854274570942,-0.01658477634191513
0.02005615271627903,0.012070651166141033,-0.008164781145751476,-0.028803110122680664,0.0042368220165371895,-0.016354737803339958
0.020561091601848602,0.012430023401975632,-0.008117747493088245,-0.029006939381361008,0.0052647278644144535,-0.01700890064239502
0.02006596326828003,0.012623755261301994,-0.007936796173453331,-0.02887873910367489,0.005023694131523371,-0.01659344509243965
0.020376887172460556,0.01234258059412241,-0.0083741694688797,-0.02909254841506481,0.005088966805487871,-0.016378633677959442
0.020352613180875778,0.012386102229356766,-0.0076515888795256615,-0.029044045135378838,0.00450858986005187,-0.016323504969477654
0.02024065889418125,0.01241446752101183,-0.007300177589058876,-0.029202304780483246,0.004391233436763287,-0.01670379377901554
0.020465409383177757,0.01282354537397623,-0.007889844477176666,-0.029035894200205803,0.004235289059579372,-0.016546614468097687
0.02110293135046959,0.012409721501171589,-0.008160941302776337,-0.029329365119338036,0.004437124822288752,-0.01694452576339245
0.02047371119260788,0.01229948177933693,-0.007621176540851593,-0.02904442325234413,0.005189813207834959,-0.016872022300958633
0.020298806950449944,0.012681597843766212,-0.007343946490436792,-0.02961580827832222,0.005846636835485697,-0.017027119174599648
0.02090570330619812,0.012516550719738007,-0.007613753899931908,-0.03078669123351574,0.004796257708221674,-0.016963111236691475
0.02061377838253975,0.01277044229209423,-0.008158229291439056,-0.030431261286139488,0.003980682697147131,-0.017300577834248543
0.021410420536994934,0.01242891140282154,-0.008148238994181156,-0.029667707160115242,0.004189468454569578,-0.0176920797675848
0.020877597853541374,0.012384493835270405,-0.007206141483038664,-0.029109612107276917,0.0045427740551531315,-0.017655152827501297
0.02170555666089058,0.012492209672927856,-0.008081496693193913,-0.029480095952749252,0.0048561315052211285,-0.017269745469093323
0.02183326706290245,0.012517612427473068,-0.008205411024391651,-0.0305843073874712,0.005159457214176655,-0.01733463443815708
0.02126067318022251,0.012805555015802383,-0.008069832809269428,-0.029737312346696854,0.005000279285013676,-0.01763201877474785
0.02062680386006832,0.01290049683302641,-0.007510956376791,-0.030898088589310646,0.005127479322254658,-0.01810508407652378
0.021645857021212578,0.012497466057538986,-0.007653931621462107,-0.031851254403591156,0.004918210674077272,-0.017955357208848
0.021687014028429985,0.012366726994514465,-0.00808354839682579,-0.03048972599208355,0.004936755634844303,-0.017905285581946373
0.021695347502827644,0.012507849372923374,-0.007755405735224485,-0.029966523870825768,0.005053312983363867,-0.01834355667233467
0.02110208384692669,0.012963404878973961,-0.007667341269552708,-0.03150228038430214,0.005073515698313713,-0.01779387705028057
0.021733302623033524,0.012288120575249195,-0.008319507353007793,-0.032660312950611115,0.005173343233764172,-0.017744993790984154
0.02192532643675804,0.012450868263840675,-0.008002637885510921,-0.03274259716272354,0.004979428835213184,-0.01790749281644821
0.0215634573251009,0.012064497917890549,-0.007782021537423134,-0.032491933554410934,0.00461916159838438,-0.01784159243106842
0.0215634573251009,0.012064497917890549,-0.007782021537423134,-0.032491933554410934,0.00461916159838438,-0.01784159243106842
0.021491829305887222,0.012222422286868095,-0.007682316470891237,-0.032248251140117645,0.004444210324436426,-0.01839318685233593
0.021464627236127853,0.012159431353211403,-0.007482906337827444,-0.03213311731815338,0.00481879198923707,-0.01826575957238674
0.02156488411128521,0.01241866685450077,-0.007316112518310547,-0.03224392980337143,0.004931492265313864,-0.018748316913843155
0.021588584408164024,0.012413333170115948,-0.007376981899142265,-0.03240843117237091,0.005238386802375317,-0.018437815830111504
0.02204747684299946,0.012663626112043858,-0.007870691828429699,-0.03268241882324219,0.005116842687129974,-0.018136825412511826
0.02162201888859272,0.012761331163346767,-0.00744440546259284,-0.03253186121582985,0.005032689310610294,-0.0184550229460001
0.0216384120285511,0.012680207379162312,-0.00733833247795701,-0.03275614604353905,0.004987216088920832,-0.01860853284597397
0.021861519664525986,0.012514198198914528,-0.00748735386878252,-0.03297184407711029,0.004861304070800543,-0.01893112249672413
0.02230411395430565,0.012520043179392815,-0.0075704497285187244,-0.033447179943323135,0.0051055531948804855,-0.019031479954719543
0.02210720255970955,0.012654578313231468,-0.007134968880563974,-0.033458758145570755,0.005601586773991585,-0.01860952377319336
0.02164493501186371,0.011970087885856628,-0.007001067046076059,-0.03355054184794426,0.005295936483889818,-0.018750637769699097
0.021384911611676216,0.012799922376871109,-0.007099527399986982,-0.033707745373249054,0.005149664357304573,-0.019728336483240128
0.022035857662558556,0.012248188257217407,-0.00798132922500372,-0.03352297097444534,0.00489993067458272,-0.019716326147317886
0.02215488627552986,0.012312433682382107,-0.00741766719147563,-0.033997148275375366,0.004890161566436291,-0.019294792786240578
0.021921908482909203,0.012081724591553211,-0.0069190263748168945,-0.03361769765615463,0.005560355726629496,-0.01951535791158676
0.021672938019037247,0.012401958927512169,-0.007002383936196566,-0.03374117985367775,0.005492487922310829,-0.01921982131898403
0.022210130468010902,0.01257215067744255,-0.007704957854002714,-0.03408006951212883,0.005369434133172035,-0.01842891424894333
0.02237747609615326,0.012095346115529537,-0.006945287808775902,-0.03393985331058502,0.005162594374269247,-0.018648216500878334
0.022510236129164696,0.012911752797663212,-0.007182518485933542,-0.03563419729471207,0.004934822209179401,-0.018923170864582062
0.02254202403128147,0.012729617767035961,-0.007730888668447733,-0.03485693410038948,0.005212234333157539,-0.01963224820792675
0.022343497723340988,0.013249235227704048,-0.0077566662803292274,-0.033995822072029114,0.005199940875172615,-0.019515782594680786
0.021987108513712883,0.012254301458597183,-0.007530066184699535,-0.03325654938817024,0.0052544185891747475,-0.019022487103939056
0.022965749725699425,0.012228524312376976,-0.006987942382693291,-0.03346964716911316,0.005359174218028784,-0.019049029797315598
0.022215895354747772,0.012619742192327976,-0.007395440246909857,-0.03471126779913902,0.0052026864141225815,-0.01988368295133114
0.022351685911417007,0.011936320923268795,-0.00822367426007986,-0.0348053015768528,0.005369111429899931,-0.019924402236938477
0.022586841136217117,0.012768199667334557,-0.007102310191839933,-0.03523183986544609,0.005467918701469898,-0.019380468875169754
0.0226716548204422,0.012334855273365974,-0.007189715281128883,-0.03512747585773468,0.005587397608906031,-0.01954793557524681
0.022791709750890732,0.0129765709862113,-0.007745458744466305,-0.03355276957154274,0.005601133219897747,-0.019339174032211304
0.022791709750890732,0.0129765709862113,-0.007745458744466305,-0.03355276957154274,0.005601133219897747,-0.019339174032211304
0.02262309566140175,0.013222778216004372,-0.006975280120968819,-0.034284379333257675,0.005472627468407154,-0.01986890658736229
0.022866742685437202,0.013003198429942131,-0.006986127234995365,-0.03474839776754379,0.005437124520540237,-0.02010168880224228
0.0229349285364151,0.012667946517467499,-0.007265827618539333,-0.03429519385099411,0.005221788305789232,-0.02016070857644081
0.022775158286094666,0.013037883676588535,-0.00761598302051425,-0.03445470333099365,0.004977317061275244,-0.019963325932621956
0.02263638749718666,0.012792733497917652,-0.007178558502346277,-0.03463315963745117,0.0051720356568694115,-0.020199280232191086
0.02275841310620308,0.013398921117186546,-0.006930525880306959,-0.034505173563957214,0.005172714125365019,-0.020278986543416977
0.02350022830069065,0.012692010030150414,-0.006907175295054913,-0.034104377031326294,0.005668066442012787,-0.020398927852511406
0.02315491996705532,0.01327497512102127,-0.00767939630895853,-0.034348342567682266,0.005352188367396593,-0.020968789234757423
0.022912336513400078,0.012740012258291245,-0.007490714080631733,-0.03445611521601677,0.004998595453798771,-0.020883267745375633
0.022786596789956093,0.013294992037117481,-0.0067269220016896725,-0.03496183827519417,0.0051428149454295635,-0.02101839892566204
0.022919422015547752,0.013181363232433796,-0.006813586223870516,-0.034691222012043,0.005051367916166782,-0.020821750164031982
0.023189285770058632,0.013471762649714947,-0.007386121433228254,-0.03507399186491966,0.005325092002749443,-0.020527731627225876
0.022940583527088165,0.013346093706786633,-0.00713217630982399,-0.0357782207429409,0.005484574008733034,-0.0208804402500391
0.023244891315698624,0.013038772158324718,-0.006814181804656982,-0.035896580666303635,0.005291598848998547,-0.020829705521464348
0.02373463846743107,0.013210917823016644,-0.00735247740522027,-0.035824086517095566,0.0057668788358569145,-0.020704802125692368
0.02386733517050743,0.012700398452579975,-0.007872255519032478,-0.036303140223026276,0.0059054214507341385,-0.020837198942899704
0.023740725591778755,0.013403390534222126,-0.0068979025818407536,-0.03573901951313019,0.0059510208666324615,-0.02095664292573929
0.023249465972185135,0.012853041291236877,-0.006634347606450319,-0.03602444380521774,0.005532093346118927,-0.020858922973275185
0.023068709298968315,0.013265706598758698,-0.0068854778073728085,-0.03767399862408638,0.0049511766992509365,-0.020829591900110245
0.02356143482029438,0.012953105382621288,-0.006959204562008381,-0.03733866661787033,0.005188940558582544,-0.020941181108355522
0.023897411301732063,0.013430695980787277,-0.007213288452476263,-0.03508467227220535,0.005458686035126448,-0.020873703062534332
0.02355327270925045,0.013202742673456669,-0.0071698022074997425,-0.035401567816734314,0.005551859270781279,-0.02098742127418518
0.02442919835448265,0.013762421905994415,-0.007331804372370243,-0.03661574050784111,0.005973698105663061,-0.021243732422590256
0.024721022695302963,0.01345820166170597,-0.006951714400202036,-0.03742695227265358,0.005562548991292715,-0.021190648898482323
0.02466523088514805,0.013245292007923126,-0.008014126680791378,-0.03706342726945877,0.005240228492766619,-0.020899539813399315
0.02371993660926819,0.013134676963090897,-0.00722641171887517,-0.037332288920879364,0.005077187437564135,-0.02123294025659561
0.02371993660926819,0.013134676963090897,-0.00722641171887517,-0.037332288920879364,0.005077187437564135,-0.02123294025659561
0.023771468549966812,0.012950410135090351,-0.006830637343227863,-0.036741115152835846,0.005681263282895088,-0.021009620279073715
0.02406001091003418,0.012800686061382294,-0.00814768485724926,-0.037966288626194,0.0058974772691726685,-0.0209518950432539
0.024995438754558563,0.013585072010755539,-0.0077124787494540215,-0.037916433066129684,0.0058519490994513035,-0.02169988863170147
0.024995865300297737,0.013242702931165695,-0.0075181471183896065,-0.03764414042234421,0.0056882682256400585,-0.020754870027303696
0.02306976355612278,0.013715604320168495,-0.006793618202209473,-0.03793400526046753,0.005642337258905172,-0.02245451882481575
0.025002671405673027,0.013465091586112976,-0.00738788116723299,-0.037898167967796326,0.00609008502215147,-0.022164680063724518
0.02481878362596035,0.013671875931322575,-0.00807993859052658,-0.038136474788188934,0.005859444849193096,-0.02152738906443119
0.024863701313734055,0.013356680981814861,-0.007135817315429449,-0.03813288360834122,0.0057473210617899895,-0.02070210501551628
0.024681327864527702,0.013598485849797726,-0.006908823736011982,-0.038264963775873184,0.006077760364860296,-0.021119745448231697
0.025018347427248955,0.013329263776540756,-0.0076005905866622925,-0.03805515542626381,0.005553282331675291,-0.02230052277445793
0.025420645251870155,0.013527603819966316,-0.008119706995785236,-0.03818034380674362,0.005411519668996334,-0.02232673391699791
0.025478629395365715,0.01384084764868021,-0.007180242333561182,-0.03858668729662895,0.005518051795661449,-0.02222311869263649
0.02473493106663227,0.013970354571938515,-0.006932700052857399,-0.03873880207538605,0.005933497101068497,-0.022334793582558632
0.02523908019065857,0.013762262649834156,-0.0075860884971916676,-0.03875136747956276,0.006134369410574436,-0.022820426151156425
0.025584865361452103,0.013409855775535107,-0.008049894124269485,-0.03882930800318718,0.006174825131893158,-0.022362463176250458
0.02554141730070114,0.013746160082519054,-0.00713145500048995,-0.039140764623880386,0.006381417624652386,-0.022053832188248634
0.025514541193842888,0.01319896150380373,-0.00699773570522666,-0.03900885209441185,0.005887180101126432,-0.021718289703130722
0.02585674822330475,0.013797950930893421,-0.0074470858089625835,-0.039072129875421524,0.0057724942453205585,-0.021898020058870316
0.025806620717048645,0.013397636823356152,-0.007343549747020006,-0.038540445268154144,0.005707013886421919,-0.022302037104964256
0.025667984038591385,0.01380842737853527,-0.007338869851082563,-0.03924685716629028,0.006187130697071552,-0.022810425609350204
0.026916971430182457,0.013697836548089981,-0.008059543557465076,-0.04005562886595726,0.006209110841155052,-0.022702902555465698
0.027208320796489716,0.014326363801956177,-0.007785164285451174,-0.037927042692899704,0.006026832386851311,-0.02281845733523369
0.027208320796489716,0.014326363801956177,-0.007785164285451174,-0.037927042692899704,0.006026832386851311,-0.02281845733523369
0.026085909456014633,0.013981360010802746,-0.007574017625302076,-0.037733711302280426,0.006040985230356455,-0.022670146077871323
0.025618094950914383,0.014835675247013569,-0.006952433381229639,-0.03894871100783348,0.005926037672907114,-0.02247108332812786
0.02592294104397297,0.013544885441660881,-0.006962940096855164,-0.03873950615525246,0.006326714996248484,-0.022405870258808136
0.026050781831145287,0.01355867087841034,-0.007876696065068245,-0.0392564982175827,0.006043869536370039,-0.022375959903001785
0.026710394769906998,0.014100396074354649,-0.006816323380917311,-0.03751803934574127,0.006067721173167229,-0.022518523037433624
0.0278354212641716,0.013763442635536194,-0.006957750301808119,-0.03917750343680382,0.006036072503775358,-0.022603070363402367
0.027487386018037796,0.014088539406657219,-0.007523985113948584,-0.03983360528945923,0.006076788064092398,-0.022300131618976593
0.02772696502506733,0.014164450578391552,-0.007294338662177324,-0.04057889059185982,0.006439816206693649,-0.022427454590797424
0.025929944589734077,0.014542896300554276,-0.0070761460810899734,-0.04038604721426964,0.006558416411280632,-0.022366609424352646
0.02653481997549534,0.014245833270251751,-0.006826493423432112,-0.04064592346549034,0.006267103832215071,-0.022594742476940155
0.02799355611205101,0.014423497952520847,-0.007360620889812708,-0.04137394204735756,0.006230575032532215,-0.023051299154758453
0.027511820197105408,0.013668518513441086,-0.007249495945870876,-0.041263286024332047,0.006493457593023777,-0.02275584079325199
0.026735873892903328,0.014184792526066303,-0.0070404172874987125,-0.04083408787846565,0.006539252586662769,-0.022557605057954788
0.026280632242560387,0.014072543010115623,-0.007424242328852415,-0.0410020649433136,0.006240020971745253,-0.023505792021751404
0.027241159230470657,0.014052767306566238,-0.007834241725504398,-0.04124411195516586,0.006342656910419464,-0.022793496027588844
0.026706552132964134,0.01474777702242136,-0.007703716401010752,-0.04122785106301308,0.0064147342927753925,-0.023025279864668846
0.0271944347769022,0.014401204884052277,-0.007053406443446875,-0.041046228259801865,0.006298923399299383,-0.023248303681612015
0.02677648700773716,0.013648966327309608,-0.0075067197903990746,-0.041437629610300064,0.006395931821316481,-0.023014621809124947
0.02688828483223915,0.013841381296515465,-0.007923442870378494,-0.04184236004948616,0.006092135328799486,-0.02311197854578495
0.026820270344614983,0.014532601460814476,-0.007672165520489216,-0.04372960329055786,0.006168864667415619,-0.0233503095805645
0.02713604085147381,0.013894310221076012,-0.007548357360064983,-0.04203271493315697,0.006188478786498308,-0.023790882900357246
0.027248099446296692,0.013954679481685162,-0.006712331436574459,-0.04342402517795563,0.006613908801227808,-0.023670999333262444
0.02736026607453823,0.014053096063435078,-0.007155274040997028,-0.04431687667965889,0.006690328475087881,-0.023754365742206573
0.02794729173183441,0.014349203556776047,-0.007516790181398392,-0.04277421161532402,0.006368504837155342,-0.023837171494960785
0.02794729173183441,0.014349203556776047,-0.007516790181398392,-0.04277421161532402,0.006368504837155342,-0.023837171494960785
0.027824528515338898,0.014606368727982044,-0.007215276826173067,-0.04320100322365761,0.006393067538738251,-0.023600049316883087
0.02760292962193489,0.014316469430923462,-0.006860772147774696,-0.043613310903310776,0.006762500386685133,-0.023408442735671997
0.027575204148888588,0.014200957491993904,-0.007203797809779644,-0.044449493288993835,0.0067670769058167934,-0.023422973230481148
0.027982445433735847,0.014296059496700764,-0.007775301579385996,-0.04479647055268288,0.0063103726133704185,-0.02342546544969082
0.02748073637485504,0.01432810164988041,-0.007294009439647198,-0.04234933480620384,0.006112992297858,-0.02321188524365425
0.026301275938749313,0.01426656637340784,-0.006873211823403835,-0.0434257946908474,0.00581345334649086,-0.02337498776614666
0.028288988396525383,0.013790792785584927,-0.007265770807862282,-0.04406178370118141,0.005959296599030495,-0.024240925908088684
0.027857162058353424,0.013870954513549805,-0.007214108482003212,-0.043840426951646805,0.006890619173645973,-0.024751655757427216
0.027359655126929283,0.01460493914783001,-0.006983784027397633,-0.04381617531180382,0.006406454369425774,-0.023908227682113647
0.027208268642425537,0.01418885588645935,-0.007436715066432953,-0.043824803084135056,0.006212971173226833,-0.023673610761761665
0.027484746649861336,0.01470882073044777,-0.007919265888631344,-0.04415271431207657,0.006468885112553835,-0.023463215678930283
0.027601897716522217,0.014274884946644306,-0.007441333029419184,-0.04375522956252098,0.006489324849098921,-0.024008912965655327
0.027394933626055717,0.014547289349138737,-0.007273147813975811,-0.04334751144051552,0.00642862543463707,-0.02436649054288864
0.027422022074460983,0.014118232764303684,-0.007537100464105606,-0.043341245502233505,0.006613461300730705,-0.024273140355944633
0.027020055800676346,0.014524150639772415,-0.007869725115597248,-0.04325096309185028,0.006322639994323254,-0.024723025038838387
0.02736014500260353,0.014018455520272255,-0.007986337877810001,-0.04331823065876961,0.006480636075139046,-0.024685565382242203
0.027096252888441086,0.014784756116569042,-0.007882979698479176,-0.042858418077230453,0.006877974607050419,-0.024229908362030983
0.027164625003933907,0.014613433741033077,-0.007989322766661644,-0.042613282799720764,0.0071925935335457325,-0.023360809311270714
0.02669108286499977,0.014569065533578396,-0.007799053099006414,-0.04283839464187622,0.007070432882755995,-0.02323199436068535
0.027460690587759018,0.014454035088419914,-0.00756938336417079,-0.043079327791929245,0.006538999732583761,-0.023705439642071724
0.028273744508624077,0.014591962099075317,-0.007514087483286858,-0.042293623089790344,0.006433078087866306,-0.024114036932587624
0.027568269520998,0.014682448469102383,-0.008280571550130844,-0.04261812940239906,0.006422935053706169,-0.02429903857409954
0.02667306736111641,0.014488616958260536,-0.007770860102027655,-0.04411262646317482,0.006539519876241684,-0.024282850325107574
0.027001481503248215,0.014414665289223194,-0.0074703325517475605,-0.04339487850666046,0.006302577443420887,-0.02438133955001831
0.02745225839316845,0.0141880102455616,-0.007782191503793001,-0.042972154915332794,0.006106202024966478,-0.024507902562618256
0.027890855446457863,0.014115548692643642,-0.00829379353672266,-0.044546566903591156,0.006597372703254223,-0.025032412260770798
0.027258584275841713,0.014087054878473282,-0.007498595863580704,-0.044849611818790436,0.006947739515453577,-0.02496938407421112
0.027767006307840347,0.014630917459726334,-0.007033388130366802,-0.04624341428279877,0.006891025695949793,-0.024725129827857018
0.027767006307840347,0.014630917459726334,-0.007033388130366802,-0.04624341428279877,0.006891025695949793,-0.024725129827857018
0.028290173038840294,0.014507823623716831,-0.007305719889700413,-0.043867744505405426,0.006650940049439669,-0.024937715381383896
0.027692237868905067,0.01455746777355671,-0.008745010942220688,-0.0448874831199646,0.006322882138192654,-0.025039736181497574
0.02666679210960865,0.014375714585185051,-0.008455290459096432,-0.045756805688142776,0.0064657581970095634,-0.024794545024633408
0.026727944612503052,0.014390225522220135,-0.007270189002156258,-0.04560773819684982,0.00624433858320117,-0.02487202361226082
0.0279192216694355,0.014510830864310265,-0.008054791018366814,-0.045317042618989944,0.006835003849118948,-0.025122888386249542
0.027552075684070587,0.014104929752647877,-0.0076522123999893665,-0.0458214245736599,0.007224049884825945,-0.025367312133312225
0.027526704594492912,0.014330253005027771,-0.007419006433337927,-0.04554040729999542,0.006587713025510311,-0.025486072525382042
0.02792678214609623,0.014498916454613209,-0.007621677592396736,-0.046053867787122726,0.00634661503136158,-0.025462238118052483
0.027905341237783432,0.0145919444039464,-0.008429245091974735,-0.046299442648887634,0.0066675893031060696,-0.025586510077118874
0.027462977916002274,0.014445269480347633,-0.007324607577174902,-0.04644374921917915,0.006708442699164152,-0.02553592622280121
0.02763952687382698,0.01455142442137003,-0.006419493351131678,-0.046850185841321945,0.007195159327238798,-0.02579260803759098
0.028125068172812462,0.014323838986456394,-0.00701215909793973,-0.04709310829639435,0.006357905454933643,-0.02580264024436474
0.02813064493238926,0.014069736935198307,-0.007646042387932539,-0.04656505212187767,0.006031477358192205,-0.026166245341300964
0.027988357469439507,0.014183242805302143,-0.007443255744874477,-0.0479312539100647,0.006758186500519514,-0.02706657536327839
0.02822096273303032,0.013933203183114529,-0.0073546660132706165,-0.048179030418395996,0.007574327290058136,-0.026665540412068367
0.028285829350352287,0.01432369276881218,-0.006959264632314444,-0.046759095042943954,0.007701846770942211,-0.025638025254011154
0.02843555435538292,0.013955392874777317,-0.007304299157112837,-0.046639442443847656,0.007079588249325752,-0.024427423253655434
0.028710268437862396,0.014192880131304264,-0.007234098855406046,-0.04706481844186783,0.006484483368694782,-0.025097554549574852
0.02949238382279873,0.01362728513777256,-0.00673063425347209,-0.04936765134334564,0.006535678636282682,-0.026520030573010445
0.02906172350049019,0.01438399963080883,-0.0071657439693808556,-0.04783475399017334,0.0068032462149858475,-0.026283126324415207
0.027960671111941338,0.013779636472463608,-0.008186389692127705,-0.04591493308544159,0.007160321809351444,-0.02568455971777439
0.02853156067430973,0.014296450652182102,-0.007612322922796011,-0.04733554273843765,0.006979019846767187,-0.026572881266474724
0.02959660068154335,0.013740059919655323,-0.006599945016205311,-0.04705971106886864,0.006502271164208651,-0.02714179828763008
0.028749721124768257,0.014386043883860111,-0.0064025078900158405,-0.04721621423959732,0.0065485769882798195,-0.025703029707074165
0.029074786230921745,0.013917268253862858,-0.007421429734677076,-0.04677247628569603,0.006848975084722042,-0.024941032752394676
0.029074786230921745,0.013917268253862858,-0.007421429734677076,-0.04677247628569603,0.006848975084722042,-0.024941032752394676
0.02998882159590721,0.01394870039075613,-0.007173266261816025,-0.04740237072110176,0.00712988106533885,-0.02710825577378273
0.02998882159590721,0.01394870039075613,-0.007173266261816025,-0.04740237072110176,0.00712988106533885,-0.02710825577378273
0.028450200334191322,0.014487309381365776,-0.007203325163573027,-0.04720815271139145,0.006439844146370888,-0.025727814063429832
0.028450200334191322,0.014487309381365776,-0.007203325163573027,-0.04720815271139145,0.006439844146370888,-0.025727814063429832
0.02941170334815979,0.014398972503840923,-0.007237597368657589,-0.047718346118927,0.006707200780510902,-0.026189493015408516
0.02959846891462803,0.01442583929747343,-0.006857582833617926,-0.04807504266500473,0.007022857666015625,-0.026585716754198074
0.029775582253932953,0.013905484229326248,-0.007219689432531595,-0.04871194809675217,0.007101634982973337,-0.026537885889410973
0.02977078966796398,0.014119497500360012,-0.008112655021250248,-0.04867733269929886,0.006743843201547861,-0.026609590277075768
0.029706785455346107,0.013859611935913563,-0.0064334268681705,-0.04870142787694931,0.006891236640512943,-0.02663451060652733
0.029925020411610603,0.014682243578135967,-0.006305243819952011,-0.04935074970126152,0.006789554841816425,-0.026852749288082123
0.03018222190439701,0.014345766045153141,-0.0070053646340966225,-0.049602970480918884,0.006818169262260199,-0.027109084650874138
0.030047742649912834,0.014850257895886898,-0.007761613931506872,-0.05067428573966026,0.0066217295825481415,-0.0267268605530262
0.03029114380478859,0.014462877064943314,-0.007050648331642151,-0.05181971564888954,0.007102168630808592,-0.026527738198637962
0.030410142615437508,0.014830314554274082,-0.006787988822907209,-0.04897079989314079,0.0068244319409132,-0.026612281799316406
0.030271723866462708,0.014110753312706947,-0.007042745128273964,-0.04922465234994888,0.006906462833285332,-0.02679065428674221
0.030807150527834892,0.014854745008051395,-0.007623296696692705,-0.04975145310163498,0.006736256182193756,-0.026613660156726837
0.03104371763765812,0.014453292824327946,-0.007144652772694826,-0.0517556294798851,0.006905324291437864,-0.026439595967531204
0.031088287010788918,0.015133149921894073,-0.0073619442991912365,-0.05040781572461128,0.00692960899323225,-0.026649044826626778
0.030914191156625748,0.014225179329514503,-0.007693303748965263,-0.04898403584957123,0.0071022710762917995,-0.026384050026535988
0.03109431266784668,0.014585653319954872,-0.007745732087641954,-0.05067353695631027,0.007359905634075403,-0.026573922485113144
0.031323108822107315,0.014675114303827286,-0.007550470996648073,-0.05122338607907295,0.007063388824462891,-0.02700299397110939
0.030963633209466934,0.015096678398549557,-0.0075532617047429085,-0.05104336887598038,0.006925840396434069,-0.026776833459734917
0.0308370403945446,0.014173568226397038,-0.007070933468639851,-0.05107349157333374,0.007252086419612169,-0.02669142186641693
0.03132866695523262,0.014745933935046196,-0.008064895868301392,-0.05139049515128136,0.007368256337940693,-0.027028145268559456
0.031042462214827538,0.01431162841618061,-0.007965944707393646,-0.05120730772614479,0.007212923374027014,-0.027084484696388245
0.030960092321038246,0.014792902395129204,-0.007163987495005131,-0.05100317299365997,0.007245855871587992,-0.02697579190135002
0.030960092321038246,0.014792902395129204,-0.007163987495005131,-0.05100317299365997,0.007245855871587992,-0.02697579190135002
0.031424909830093384,0.01458414550870657,-0.007876316085457802,-0.050787538290023804,0.007350397761911154,-0.026724206283688545
0.03106076642870903,0.014900590293109417,-0.007965762168169022,-0.0496542863547802,0.0074275885708630085,-0.02664429508149624
0.03199905529618263,0.01482513640075922,-0.007530038710683584,-0.049334555864334106,0.007301681209355593,-0.026726383715867996
0.03159410506486893,0.014858904294669628,-0.007369283586740494,-0.051612842828035355,0.00733815087005496,-0.02658548206090927
0.03171062842011452,0.015227030031383038,-0.008213024586439133,-0.049206603318452835,0.007135989610105753,-0.02770834229886532
0.031707581132650375,0.01514366827905178,-0.007605278864502907,-0.04936804622411728,0.007049867417663336,-0.027444258332252502
0.031438373029232025,0.015042220242321491,-0.007497852202504873,-0.05000264570116997,0.007163910195231438,-0.027386752888560295
0.031419672071933746,0.014737335965037346,-0.0077514685690402985,-0.05076955258846283,0.007310227490961552,-0.027429237961769104
0.031591497361660004,0.01492366660386324,-0.00787330698221922,-0.04815269634127617,0.007095772307366133,-0.026752278208732605
0.03281877562403679,0.015223859809339046,-0.007360570598393679,-0.04949409142136574,0.006917844992130995,-0.02697831392288208
0.03250560536980629,0.014821269549429417,-0.007387757301330566,-0.05034459009766579,0.007205127272754908,-0.027846630662679672
0.031398069113492966,0.014904237352311611,-0.007700031157582998,-0.05065774545073509,0.007588172797113657,-0.028191786259412766
0.03044666163623333,0.01486266404390335,-0.007952623069286346,-0.05045495182275772,0.007731488440185785,-0.02808241732418537
0.031875886023044586,0.015636639669537544,-0.007378257345408201,-0.051030319184064865,0.007085054647177458,-0.028895754367113113
0.03204851225018501,0.015061607584357262,-0.006804327946156263,-0.05153374746441841,0.007009966764599085,-0.029618212953209877
0.031842950731515884,0.015438367612659931,-0.0073365941643714905,-0.05152484029531479,0.007446971256285906,-0.02849646285176277
0.03181872144341469,0.015202605165541172,-0.00798242911696434,-0.05128413811326027,0.008151265792548656,-0.027131538838148117
0.033079080283641815,0.01576307974755764,-0.00757025508210063,-0.050984106957912445,0.007591411471366882,-0.02731681615114212
0.031260449439287186,0.015079939737915993,-0.007347052451223135,-0.0513741709291935,0.007389432284981012,-0.028606725856661797
0.031280357390642166,0.015421854332089424,-0.007525953929871321,-0.05163941904902458,0.007428356911987066,-0.029052812606096268
0.032579656690359116,0.014756993390619755,-0.007566562853753567,-0.05163830146193504,0.007421794347465038,-0.029051192104816437
0.03267616406083107,0.015622466802597046,-0.007280205842107534,-0.051682982593774796,0.007304755970835686,-0.02886790595948696
0.032278355211019516,0.015882445499300957,-0.008028649725019932,-0.051958952099084854,0.00740164564922452,-0.028678620234131813
