davideferrari95/blind_handover_controller/data/Test 73 - [2024-02-07 -- 15-51-08]/joint_states_data.csv
shoulder_pan_joint,shoulder_lift_joint,elbow_joint,wrist_1_joint,wrist_2_joint,wrist_3_joint
0.0034838838037103415,0.007249392103403807,-0.0077970982529222965,0.0008845950360409915,9.166419273922328e-28,0.003793122246861458
0.0034838838037103415,0.007249392103403807,-0.0077970982529222965,0.0008845950360409915,9.166419273922328e-28,0.003793122246861458
0.003627507481724024,0.008052932098507881,-0.007275570649653673,0.0008341954671777785,5.985016885912236e-29,0.004044621717184782
0.0036688391119241714,0.007018903736025095,-0.007092408835887909,0.0007651699124835432,3.907788593432923e-30,0.004029518458992243
0.0037120261695235968,0.006952178198844194,-0.007096409797668457,0.0007811665418557823,2.5515068789965425e-31,0.004715864080935717
0.0036974861286580563,0.007226703222841024,-0.007363456301391125,0.0007960357470437884,1.6659515893508308e-32,0.0044872090220451355
0.0037139630876481533,0.006635240279138088,-0.007244117092341185,0.0008008479489944875,1.0877472791177539e-33,0.004533774219453335
0.0033378188963979483,0.006929841823875904,-0.00721287727355957,0.000734413624741137,7.102212315776597e-35,0.004170415457338095
0.003589807776734233,0.0074848574586212635,-0.007302621845155954,0.00077609479194507,4.637237324554242e-36,0.003978827968239784
0.003589807776734233,0.0074848574586212635,-0.007302621845155954,0.00077609479194507,4.637237324554242e-36,0.003978827968239784
0.0038353458512574434,0.007702984381467104,-0.0074068037793040276,0.0007953398744575679,3.0277844708278608e-37,0.003823478939011693
0.003931538201868534,0.0070333718322217464,-0.007207800634205341,0.0008089087787084281,1.9769270704866334e-38,0.003835715353488922
0.003819758305326104,0.007370125036686659,-0.006660932209342718,0.0007988987490534782,1.290792067428162e-39,0.0038619141560047865
0.0037561801727861166,0.006793224718421698,-0.007140790577977896,0.0007463747751899064,8.42796948383518e-41,0.0038915418554097414
0.003709774697199464,0.00723577244207263,-0.007534617092460394,0.0007640865514986217,5.5028990694035566e-42,0.003843882819637656
0.004250290337949991,0.007306667976081371,-0.007429357618093491,0.0007742929738014936,3.587324068671532e-43,0.003415909828618169
0.004123600199818611,0.00709621561691165,-0.0067078424617648125,0.0007459904300048947,2.382207389352189e-44,0.0035687554627656937
0.003538139397278428,0.006943812593817711,-0.0074469055980443954,0.0007116104825399816,1.401298464324817e-45,0.003826857777312398
0.0036053252406418324,0.006930287927389145,-0.008678987622261047,0.0007093179738149047,0.0,0.003954920452088118
0.004293108358979225,0.006928261369466782,-0.007803485728800297,0.0006687810528092086,0.0,0.0039511327631771564
0.004079615231603384,0.006874432787299156,-0.007437402848154306,0.0006468757637776434,0.0,0.003935008775442839
0.0040980856865644455,0.006968880072236061,-0.007515257690101862,0.000729690829757601,0.0,0.0044113388285040855
0.0039617810398340225,0.006715971045196056,-0.008091711439192295,0.0007037760224193335,0.0,0.00455072708427906
0.0037655930500477552,0.0069186086766421795,-0.007524180691689253,0.000720598385669291,0.0,0.0040297419764101505
0.0035209818743169308,0.006658519152551889,-0.00784999318420887,0.0007377142901532352,0.0,0.0038455205503851175
0.0035258347634226084,0.006853422150015831,-0.008434548042714596,0.0006537268054671586,0.0,0.004270772449672222
0.003925934433937073,0.007547896821051836,-0.007824364118278027,0.000670033972710371,0.0,0.004539782647043467
0.0039769369177520275,0.006857458967715502,-0.007531429175287485,0.0006078451406210661,0.0,0.004685314372181892
0.004358640406280756,0.006121342536062002,-0.00832313485443592,0.0005909277242608368,0.0,0.004704718012362719
0.004213542211800814,0.006243098061531782,-0.007996590808033943,0.0005764145171269774,0.0,0.004269108176231384
0.0039954823441803455,0.007954058237373829,-0.006688913330435753,0.0005304398946464062,0.0,0.003956593107432127
0.003928434569388628,0.008222222328186035,-0.00759789627045393,0.0005543295992538333,0.0,0.004303312394768
0.0042723012156784534,0.007256658747792244,-0.0087641766294837,0.0005186258931644261,0.0,0.0041706315241754055
0.004627312067896128,0.006997051648795605,-0.007691395003348589,0.0004745211044792086,0.0,0.004355190321803093
0.004380970261991024,0.0072595225647091866,-0.007103274576365948,0.0004694328235927969,0.0,0.004257497377693653
0.004090210422873497,0.007737360894680023,-0.007232195232063532,0.00046612846199423075,0.0,0.004282476846128702
0.003880082629621029,0.007318365853279829,-0.0076867747120559216,0.00046612738515250385,0.0,0.004136320203542709
0.003880082629621029,0.007318365853279829,-0.0076867747120559216,0.00046612738515250385,0.0,0.004136320203542709
0.004063876811414957,0.007071199826896191,-0.00752766290679574,0.000463703676359728,0.0,0.004332377575337887
0.0040136403404176235,0.007461462169885635,-0.00739570427685976,0.0004873978905379772,0.0,0.004494576249271631
0.004449773579835892,0.008000057190656662,-0.00806420762091875,0.000625892891548574,0.0,0.004359352868050337
0.004802847746759653,0.007344386540353298,-0.008390279486775398,0.0006860416615381837,0.0,0.004483077209442854
0.004590062890201807,0.007172785233706236,-0.00793751422315836,0.000712983834091574,0.0,0.004182043485343456
0.004355600103735924,0.007685530930757523,-0.007140536326915026,0.0007329194922931492,0.0,0.003942664247006178
0.004274530801922083,0.007759123109281063,-0.007313203066587448,0.0006860376452095807,0.0,0.0039051882922649384
0.004278405569493771,0.007320068776607513,-0.008184459991753101,0.0008137208642438054,0.0,0.004092357121407986
0.0044694081880152225,0.0072384304367005825,-0.007566242944449186,0.0008190823718905449,0.0,0.00451784860342741
0.004530106671154499,0.007565109059214592,-0.0071866996586322784,0.0007989068981260061,0.0,0.004581959452480078
0.004888967145234346,0.008137603290379047,-0.007407896686345339,0.000757089292164892,0.0,0.00435305992141366
0.004359399899840355,0.007657146546989679,-0.008005374111235142,0.0007688725017942488,0.0,0.00447628041729331
0.0040129865519702435,0.008062760345637798,-0.0076917801052331924,0.0007603165577165782,0.0,0.004187682643532753
0.003909581806510687,0.007998174987733364,-0.007203796878457069,0.0007696985267102718,0.0,0.004040232859551907
0.004543650429695845,0.007240705192089081,-0.0077967471443116665,0.000771400926169008,0.0,0.004013857804238796
0.004611806012690067,0.007329207845032215,-0.00754186324775219,0.0007399179157800972,0.0,0.004347284324467182
0.0047208406031131744,0.007992634549736977,-0.007404753472656012,0.0007826545624993742,0.0,0.004122857004404068
0.004371458198875189,0.007695791777223349,-0.00893065519630909,0.000702528515830636,0.0,0.003918431233614683
0.004056297242641449,0.00735228369012475,-0.0081655727699399,0.0007143119582906365,0.0,0.004276451654732227
0.004155471920967102,0.006956166122108698,-0.007487868424504995,0.0006433338858187199,0.0,0.004123020451515913
0.0045051174238324165,0.007514947094023228,-0.007392452098429203,0.0006645077955909073,0.0,0.003971771337091923
0.004270407371222973,0.007597887888550758,-0.008511449210345745,0.0006481254240497947,0.0,0.003991836216300726
0.004499486181885004,0.006989730056375265,-0.007866018451750278,0.0006295369821600616,0.0,0.0041016144677996635
0.004647997207939625,0.007181993685662746,-0.007453928701579571,0.0005968307959847152,0.0,0.00406289380043745
0.004535265266895294,0.007774828001856804,-0.008082897402346134,0.0005961739807389677,0.0,0.004380773287266493
0.004531480371952057,0.007083360105752945,-0.008586551994085312,0.0006266463315114379,0.0,0.004277999512851238
0.004531480371952057,0.007083360105752945,-0.008586551994085312,0.0006266463315114379,0.0,0.004277999512851238
0.004067601636052132,0.006882410030812025,-0.0077444869093596935,0.0006532301777042449,0.0,0.004295726306736469
0.003922318108379841,0.007374982815235853,-0.0077895550057291985,0.0006403547595255077,0.0,0.0038743787445127964
0.00398873770609498,0.007642763666808605,-0.007920858450233936,0.0009396774112246931,0.0,0.003559339791536331
0.004865867085754871,0.007288667373359203,-0.008057577535510063,0.0009502156171947718,0.0,0.0032276783604174852
0.004638345446437597,0.0071457247249782085,-0.00821811892092228,0.0009443588205613196,0.0,0.0038550295867025852
0.00441419892013073,0.007223247084766626,-0.007930980995297432,0.000885805522557348,0.0,0.00421984912827611
0.004443831276148558,0.007535689976066351,-0.008411654271185398,0.0008981210412457585,0.0,0.004046590067446232
0.004227174445986748,0.0071807606145739555,-0.007934212684631348,0.0008974567172117531,0.0,0.004163749050348997
0.004371923394501209,0.007086070254445076,-0.007978842593729496,0.0007855696021579206,0.0,0.004128073807805777
0.004255606327205896,0.007486576680094004,-0.008063663728535175,0.0007925495156086981,0.0,0.0038993009366095066
0.004419359378516674,0.007849731482565403,-0.008522930555045605,0.0007841001497581601,0.0,0.004211874213069677
0.004351674113422632,0.007045336067676544,-0.008526775054633617,0.0007327666389755905,0.0,0.004086075816303492
0.004136118106544018,0.007151751779019833,-0.008001578040421009,0.0007401632610708475,0.0,0.004187476355582476
0.0038674792740494013,0.006702813785523176,-0.008446604013442993,0.000703738012816757,0.0,0.0042284950613975525
0.003750293515622616,0.007395320571959019,-0.008418139070272446,0.0007408023811876774,0.0,0.0045048329047858715
0.003750293515622616,0.007395320571959019,-0.008418139070272446,0.0007408023811876774,0.0,0.0045048329047858715
0.004746055696159601,0.0065223355777561665,-0.008374727331101894,0.0010434365831315517,0.0,0.004327167756855488
0.00494026904925704,0.006950765382498503,-0.007912850938737392,0.001028320286422968,0.0,0.004172732122242451
0.004463152028620243,0.007146601099520922,-0.008003562688827515,0.001156385405920446,0.0,0.004453050903975964
0.004288617521524429,0.007303265854716301,-0.008404458872973919,0.0011183765018358827,0.0,0.004518157336860895
0.00400165468454361,0.006864393129944801,-0.008849541656672955,0.001060726004652679,0.0,0.004397874232381582
0.00400165468454361,0.006864393129944801,-0.008849541656672955,0.001060726004652679,0.0,0.004397874232381582
0.0038312324322760105,0.006494452245533466,-0.008325973525643349,0.0010019757319241762,0.0,0.004431455861777067
0.004719001706689596,0.006736236158758402,-0.00846777856349945,0.0008045953582040966,0.0,0.003879613010212779
0.004931436851620674,0.0066214571706950665,-0.008402359671890736,0.0008014534832909703,0.0,0.004203611519187689
0.004513784311711788,0.006608957890421152,-0.008316166698932648,0.0008132860530167818,0.0,0.0041162995621562
0.004513784311711788,0.006608957890421152,-0.008316166698932648,0.0008132860530167818,0.0,0.0041162995621562
0.004284797236323357,0.00756268622353673,-0.008722917176783085,0.0008233244298025966,0.0,0.004271591082215309
0.004455625545233488,0.006911397445946932,-0.008131504990160465,0.0010318068088963628,0.0,0.004288091789931059
0.0041655078530311584,0.006414762698113918,-0.007668135222047567,0.0010777327697724104,0.0,0.004593955352902412
0.004493064247071743,0.006809124257415533,-0.007552805356681347,0.0010553784668445587,0.0,0.004512312822043896
0.004701749421656132,0.007119911722838879,-0.008102606050670147,0.0010751308873295784,0.0,0.0042145587503910065
0.005064512137323618,0.007056960370391607,-0.009159172885119915,0.0011090029729530215,0.0,0.0043570175766944885
0.00485750287771225,0.00741210114210844,-0.00794424768537283,0.0010365535272285342,0.0,0.004574996419250965
0.004778042435646057,0.006674344185739756,-0.007422138936817646,0.0010474971495568752,0.0,0.004749526735395193
0.004465087782591581,0.006564106792211533,-0.008164981380105019,0.0009987286757677794,0.0,0.004633750766515732
0.004522324074059725,0.00717187998816371,-0.008125760592520237,0.0010141844395548105,0.0,0.004977905657142401
0.005129245109856129,0.007103096228092909,-0.0075636859983205795,0.0010769967921078205,0.0,0.004828484263271093
0.0051462966948747635,0.006833204068243504,-0.008129066787660122,0.0011687740916386247,0.0,0.004934403114020824
0.005336141679435968,0.006638710852712393,-0.008585778065025806,0.0012504151090979576,0.0,0.004849163815379143
0.005513855256140232,0.007343806326389313,-0.008356807753443718,0.001286039245314896,0.0,0.004696644842624664
0.005079078953713179,0.007543071638792753,-0.007577131502330303,0.001175163546577096,0.0,0.0043345848098397255
0.0048879520036280155,0.007508087437599897,-0.007586347404867411,0.0012581752380356193,0.0,0.004482569172978401
0.005052580498158932,0.006669370923191309,-0.008117347955703735,0.001168043352663517,0.0,0.004444887861609459
0.005466732196509838,0.007101474795490503,-0.007754780352115631,0.0012328691082075238,-7.141338187466317e-07,0.0047113546170294285
0.005339823663234711,0.007279769983142614,-0.008114825002849102,0.001229913905262947,-4.662783581466101e-08,0.004747956525534391
0.004897960927337408,0.0072106667794287205,-0.007656530477106571,0.0014186932239681482,-3.0444646803573505e-09,0.004843865986913443
0.004721734207123518,0.007281285710632801,-0.007503767963498831,0.001649864367209375,-1.9878178270094082e-10,0.004786096978932619
0.00524151511490345,0.007109866943210363,-0.008300897665321827,0.0015887647168710828,-1.2979030176996087e-11,0.004704748746007681
0.005415444727987051,0.007012250367552042,-0.00886420626193285,0.0016061905771493912,-8.474379509758323e-13,0.004759563598781824
0.005905487574636936,0.006811122875660658,-0.0084839491173625,0.0015958459116518497,-5.5331644620943907e-14,0.004793314263224602
0.005436382722109556,0.007278338074684143,-0.008146156556904316,0.001432532095350325,-3.612761114980779e-15,0.004643213469535112
0.005308507476001978,0.007682448718696833,-0.008142989128828049,0.0015052324160933495,-2.3588750556333073e-16,0.004811047110706568
0.005121661350131035,0.006815377622842789,-0.008384612388908863,0.0014207480708137155,-1.540176717040868e-17,0.004811221268028021
0.005823066923767328,0.006985287182033062,-0.00820649042725563,0.0015148990787565708,-1.0056253909669484e-18,0.004909462761133909
0.005823066923767328,0.006985287182033062,-0.00820649042725563,0.0015148990787565708,-1.0056253909669484e-18,0.004909462761133909
0.0054464759305119514,0.007220353931188583,-0.00803125649690628,0.0014529144391417503,-6.566014945838737e-20,0.004747562110424042
0.005748728755861521,0.007142975926399231,-0.008730972185730934,0.0013504751259461045,-4.287138578265611e-21,0.004371749237179756
0.0056255594827234745,0.006945362314581871,-0.008505922742187977,0.0011853142641484737,-2.799195045828197e-22,0.004758257884532213
0.005636881571263075,0.00723422272130847,-0.00789247639477253,0.0010960553772747517,-1.8276742815274737e-23,0.0050114793702960014
0.005450447555631399,0.007313952781260014,-0.008205244317650795,0.0010804138146340847,-1.1933409527259676e-24,0.005235658492892981
0.005771897733211517,0.007286327891051769,-0.008695815689861774,0.0010545736877247691,-7.791662977339113e-26,0.005213777534663677
0.005803017411381006,0.006466349121183157,-0.008652427233755589,0.0010262341238558292,-5.087398644509304e-27,0.004632811062037945
0.005616974085569382,0.0070948353968560696,-0.007978254929184914,0.0010184465209022164,-3.321707949276782e-28,0.004537197761237621
0.005458141677081585,0.006798715330660343,-0.008418806828558445,0.0010794708505272865,-2.168837708159799e-29,0.004518259782344103
0.005537563003599644,0.006498029455542564,-0.008137705735862255,0.0011472470359876752,-1.4160961332209104e-30,0.004601032007485628
0.005693740211427212,0.006739710457623005,-0.008049553260207176,0.0011860638624057174,-9.246095906964849e-32,0.004691194277256727
0.006093109492212534,0.006870347540825605,-0.008433107286691666,0.0011609015055000782,-6.037039969447778e-33,0.005076172295957804
0.005546856205910444,0.0069231633096933365,-0.008665213361382484,0.0011211795499548316,-3.941755819253606e-34,0.004879353567957878
0.005927780643105507,0.0065408675000071526,-0.00807938165962696,0.0010765489423647523,-2.573685188052896e-35,0.004451041109859943
0.005655947141349316,0.006892311852425337,-0.007619909942150116,0.0011791572906076908,-1.6804324548970314e-36,0.004615922458469868
0.006069106049835682,0.006664214190095663,-0.008420305326581001,0.0011618529679253697,-1.09720223616618e-37,0.004981099162250757
0.00580782163888216,0.006894102785736322,-0.008186996914446354,0.0014622012386098504,-4.677548286900883e-40,0.004934187047183514
0.005612181965261698,0.007426665164530277,-0.008121935650706291,0.0014607729390263557,-3.054130002995939e-41,0.004968632012605667
0.005839194171130657,0.0067298985086381435,-0.009142879396677017,0.0015514895785599947,-1.9940477147342147e-42,0.004806564189493656
0.00629410007968545,0.0063737137243151665,-0.00803403090685606,0.0014895584899932146,-1.3032075718220799e-43,0.004912526812404394
0.005674792919307947,0.006414152681827545,-0.007548512890934944,0.0013385455822572112,-8.407790785948902e-45,0.0050260769203305244
0.005902511067688465,0.006566882599145174,-0.008044981397688389,0.0012717858189716935,-0.0,0.0055927615612745285
0.005467425100505352,0.007222543936222792,-0.009080447256565094,0.0012959504965692759,-0.0,0.00549190491437912
0.005785615183413029,0.006437939126044512,-0.008382107131183147,0.001187077141366899,-0.0,0.005372948944568634
0.005860246252268553,0.006440304685384035,-0.007846484892070293,0.0012168027460575104,-0.0,0.004824234638363123
0.0061429585330188274,0.0069612557999789715,-0.008130568079650402,0.0012665815884247422,-0.0,0.0045318896882236
0.0061429585330188274,0.0069612557999789715,-0.008130568079650402,0.0012665815884247422,-0.0,0.0045318896882236
0.00553090451285243,0.007076376583427191,-0.007849537767469883,0.0015312189934775233,-0.0,0.004978274926543236
0.00539033766835928,0.0074835969135165215,-0.008024957962334156,0.001657651155255735,-0.0,0.005361380521208048
0.005598816554993391,0.006536194123327732,-0.008249511010944843,0.0017229575896635652,-0.0,0.005755378399044275
0.006132876966148615,0.0065563214011490345,-0.008665475063025951,0.0017059941310435534,-0.0,0.005603862460702658
0.006227343343198299,0.007257422432303429,-0.007827439345419407,0.0016139944782480597,-0.0,0.004748604726046324
0.005596995819360018,0.007039527874439955,-0.0074566020630300045,0.001484249485656619,-0.0,0.004513755906373262
0.005824459716677666,0.006780507043004036,-0.008808747865259647,0.0014106587041169405,-0.0,0.004899571184068918
0.0054974062368273735,0.006418336648494005,-0.008597883395850658,0.0013400427997112274,-0.0,0.005122657865285873
0.006358002312481403,0.006637995131313801,-0.008110986091196537,0.0013647607993334532,-0.0,0.0059571159072220325
0.006220855284482241,0.007159778382629156,-0.0075088501907885075,0.001331711420789361,-0.0,0.0054556699469685555
0.005899679381400347,0.006940680555999279,-0.008965848945081234,0.0014652308309450746,-0.0,0.004909591283649206
0.006051065865904093,0.006674592383205891,-0.00802627857774496,0.0018032972002401948,-0.0,0.00464213639497757
0.0058918059803545475,0.00722994701936841,-0.00789561029523611,0.0018729213625192642,-0.0,0.004679038189351559
0.00633965665474534,0.00697104400023818,-0.008288532495498657,0.0018876102985814214,-0.0,0.005165509879589081
0.006380890961736441,0.00709770992398262,-0.008376123383641243,0.0017197516281157732,-0.0,0.00562615692615509
0.006109845358878374,0.0065866694785654545,-0.008172952570021152,0.0016017345478758216,-0.0,0.0057482970878481865
0.006148604676127434,0.006829841528087854,-0.007650292944163084,0.0016095316968858242,-0.0,0.005414728075265884
0.006306358613073826,0.0072980341501533985,-0.008661848492920399,0.0017856716876849532,-0.0,0.004978906828910112
0.006274813320487738,0.006847916170954704,-0.008825109340250492,0.0017514117062091827,-0.0,0.00580815551802516
0.0062794447876513,0.00614380557090044,-0.008406121283769608,0.0016683947760611773,-0.0,0.006185030099004507
0.006178698968142271,0.00636947900056839,-0.008271532133221626,0.0018707815324887633,-0.0,0.005651540122926235
0.006318822968751192,0.0073430524207651615,-0.007589691784232855,0.0019043713109567761,-0.0,0.0053872838616371155
0.006966190878301859,0.007005109451711178,-0.008019044995307922,0.0017493169289082289,-0.0,0.005628438200801611
0.006502602249383926,0.006642477121204138,-0.008894868195056915,0.001604770077392459,-0.0,0.006096821743994951
0.0060377828776836395,0.006412711925804615,-0.008665132336318493,0.0016105877002701163,-0.0,0.005830606445670128
0.00623744074255228,0.007072777021676302,-0.007903137244284153,0.0015343197155743837,-0.0,0.00585884740576148
0.006661660503596067,0.007256317883729935,-0.008269050158560276,0.001590880099684,-0.0,0.005730155855417252
0.006661660503596067,0.007256317883729935,-0.008269050158560276,0.001590880099684,-0.0,0.005730155855417252
0.006737600080668926,0.006566544529050589,-0.008261787705123425,0.0018476194236427546,-0.0,0.00562631618231535
0.006665732711553574,0.006851369049400091,-0.008570770733058453,0.001790239242836833,-0.0,0.005245216190814972
0.006576427258551121,0.007000862155109644,-0.008395295590162277,0.001718000159598887,-0.0,0.005863426253199577
0.00636989576742053,0.00665156077593565,-0.008429393172264099,0.0017853851895779371,-0.0,0.005754385143518448
0.0072289942763745785,0.006936307065188885,-0.008175884373486042,0.001829377026297152,-0.0,0.005871269851922989
0.006691998802125454,0.00677873007953167,-0.008120275102555752,0.0019384665647521615,-0.0,0.0059865317307412624
0.006822405848652124,0.006967941764742136,-0.008483344689011574,0.002200153423473239,-0.0,0.006082402542233467
0.006622327491641045,0.00704787764698267,-0.009659088216722012,0.0019785675685852766,-0.0,0.0062248376198112965
0.007718922570347786,0.007338340859860182,-0.008868945762515068,0.0017967720050364733,-0.0,0.005782052408903837
0.006854010280221701,0.006956638302654028,-0.007659249007701874,0.001723114401102066,-0.0,0.005865997634828091
0.0062567549757659435,0.006467441562563181,-0.00827131886035204,0.0018964207265526056,-0.0,0.005952249746769667
0.006388395093381405,0.006866354029625654,-0.008787065744400024,0.002058902056887746,-0.0,0.006010373588651419
0.006796356290578842,0.006952095776796341,-0.008478752337396145,0.0018828213214874268,-0.0,0.006397276651114225
0.00741142313927412,0.006964926607906818,-0.008839619345963001,0.0017527078744024038,-0.0,0.0059130010195076466
0.007025286555290222,0.006959585938602686,-0.00926252081990242,0.0017257530707865953,-0.0,0.005825154948979616
0.006739150732755661,0.0067483349703252316,-0.0081535205245018,0.0019038042519241571,-0.0,0.005819339770823717
0.006702692713588476,0.006812217179685831,-0.008098078891634941,0.0018439867999404669,-0.0,0.005726487375795841
0.006810302846133709,0.006785245146602392,-0.00955683272331953,0.0023475491907447577,-0.0,0.005920798052102327
0.007039814721792936,0.006662517320364714,-0.00950363278388977,0.002319685649126768,-0.0,0.006091442424803972
0.006929663009941578,0.0065988763235509396,-0.008350198157131672,0.00227526412345469,-0.0,0.006099444814026356
0.007200014311820269,0.00675528310239315,-0.008666953071951866,0.002321578562259674,-0.0,0.006098276469856501
0.00724788336083293,0.006362335290759802,-0.008803879842162132,0.0024977426510304213,-0.0,0.006070163566619158
0.0073525262996554375,0.006491415668278933,-0.009046142920851707,0.0022328775376081467,-0.0,0.005997644271701574
0.007439814507961273,0.00658434210345149,-0.009258756414055824,0.0021042893640697002,-0.0,0.006379102356731892
0.006793879438191652,0.006615285761654377,-0.008469642139971256,0.0021122132893651724,-0.0,0.0061836158856749535
0.007217561826109886,0.006565635092556477,-0.008354905061423779,0.0020712269470095634,-0.0,0.006048860028386116
0.008142567239701748,0.006612356286495924,-0.009312864392995834,0.00228753499686718,-0.0,0.00649589579552412
0.006919392384588718,0.00692342221736908,-0.009128485806286335,0.0022142797242850065,-0.0,0.0060316515155136585
0.00756667647510767,0.0066177742555737495,-0.009111110121011734,0.002189795020967722,-0.0,0.0062131332233548164
0.00756667647510767,0.0066177742555737495,-0.009111110121011734,0.002189795020967722,-0.0,0.0062131332233548164
0.007456521969288588,0.006607183255255222,-0.009093374945223331,0.0021387666929513216,-0.0,0.0062257214449346066
0.007456521969288588,0.006607183255255222,-0.009093374945223331,0.0021387666929513216,-0.0,0.0062257214449346066
0.007021869532763958,0.006635697558522224,-0.008671682327985764,0.002247073221951723,-0.0,0.006581840105354786
0.006817063316702843,0.006961987819522619,-0.010026994161307812,0.002244702773168683,-0.0,0.006778800394386053
0.007534950505942106,0.007418935652822256,-0.0091304462403059,0.002504115691408515,-0.0,0.006689306348562241
0.007569462992250919,0.007013874594122171,-0.00889667496085167,0.0025205768179148436,-0.0,0.0065592313185334206
0.006766214035451412,0.0063934032805264,-0.008597324602305889,0.0023916212376207113,-0.0,0.0064111677929759026
0.0069280886091291904,0.006505636963993311,-0.009207249619066715,0.0024445015005767345,-0.0,0.006732161622494459
0.00715330196544528,0.00702700624242425,-0.009058158844709396,0.002490025945007801,-0.0,0.006444643251597881
0.007609089370816946,0.006825959775596857,-0.008797820657491684,0.002417271723970771,-0.0,0.006306156516075134
0.00710152555257082,0.00626367749646306,-0.009403391741216183,0.0024093452375382185,-0.0,0.006265315692871809
0.007236750330775976,0.006383662112057209,-0.008826113305985928,0.002535709645599127,-0.0,0.006690592970699072
0.007864700630307198,0.006932668387889862,-0.00943519826978445,0.002648154506459832,-0.0,0.006654378958046436
0.007750943303108215,0.006952784024178982,-0.009402379393577576,0.0029123222921043634,-0.0,0.006439553573727608
0.007324637845158577,0.006266869138926268,-0.009548122994601727,0.0029869491700083017,-0.0,0.006463014055043459
0.007318658288568258,0.006282747257500887,-0.008850407786667347,0.002800311893224716,-0.0,0.0069228787906467915
0.007635089568793774,0.006512098014354706,-0.009729948826134205,0.002733435947448015,-0.0,0.00701843062415719
0.007847378961741924,0.007237352896481752,-0.009021029807627201,0.0027443228755146265,-0.0,0.007586702238768339
0.007711861282587051,0.006634103134274483,-0.008920938707888126,0.002766198944300413,-0.0,0.006591396871954203
0.0074440548196434975,0.00634000962600112,-0.009161210618913174,0.0025921498890966177,-0.0,0.0064860121347010136
0.008644858375191689,0.006643370725214481,-0.009848869405686855,0.0026456478517502546,-0.0,0.006900367327034473
0.00810139998793602,0.006824211683124304,-0.009389050304889679,0.002732371911406517,-0.0,0.007213815581053495
0.007412029430270195,0.006285023409873247,-0.009431232698261738,0.0027592687401920557,-0.0,0.0070604123175144196
0.008029484190046787,0.0061315735802054405,-0.009244185872375965,0.003033946268260479,-0.0,0.00704913679510355
0.008129725232720375,0.005923804827034473,-0.009073968045413494,0.003169975709170103,-0.0,0.0074283345602452755
0.007628606166690588,0.006556202657520771,-0.009438162669539452,0.0030266246758401394,-0.0,0.007776050362735987
0.00756138376891613,0.007050922140479088,-0.008935138583183289,0.002677816664800048,-0.0,0.0075286696664988995
0.008785164915025234,0.006342270411550999,-0.008803101256489754,0.0027399170212447643,-0.0,0.0074531217105686665
0.008063644170761108,0.00641301553696394,-0.009451973251998425,0.0027213413268327713,-3.6286453450884437e-06,0.007033105939626694
0.007554008159786463,0.006286581978201866,-0.009274594485759735,0.0026801505591720343,-2.3692463457791746e-07,0.007279849145561457
0.007793808355927467,0.006805987097322941,-0.008831927552819252,0.0025363180320709944,-1.5469487024688533e-08,0.007399739697575569
0.00851462222635746,0.006885673850774765,-0.009388801641762257,0.002832922386005521,-1.0100469349794139e-09,0.007746374700218439
0.00834828894585371,0.006756735499948263,-0.00893027987331152,0.002990022534504533,-6.59488436083322e-11,0.0071013919077813625
0.00834828894585371,0.006756735499948263,-0.00893027987331152,0.002990022534504533,-6.59488436083322e-11,0.0071013919077813625
0.008261189796030521,0.006488637067377567,-0.008734683506190777,0.0033018954563885927,-2.8115026582883895e-13,0.006984742358326912
0.008261189796030521,0.006488637067377567,-0.008734683506190777,0.0033018954563885927,-2.8115026582883895e-13,0.006984742358326912
0.008194511756300926,0.006821007002145052,-0.00923188216984272,0.003062615869566798,-1.8357101320802538e-14,0.007609173655509949
0.00774196395650506,0.0069502415135502815,-0.00896153599023819,0.0032739208545535803,-1.1985875133859749e-15,0.007689953316003084
0.008157928474247456,0.006946496665477753,-0.00867483951151371,0.003376333974301815,-7.825919379417242e-17,0.0073600346222519875
0.008956913836300373,0.006508304737508297,-0.009195269085466862,0.003158390522003174,-5.109765958980969e-18,0.007005183957517147
0.008053001947700977,0.007039504591375589,-0.00910193845629692,0.00349953630939126,-3.3363120255680512e-19,0.0071843285113573074
0.008023628033697605,0.006775487679988146,-0.00928743090480566,0.0033150450326502323,-2.178373357692436e-20,0.007341290358453989
0.00849070306867361,0.006749306805431843,-0.009245454333722591,0.0035011956933885813,-1.4223222200781384e-21,0.007932561449706554
0.008815770037472248,0.007230550982058048,-0.009426345117390156,0.0032166496384888887,-9.28674699312294e-23,0.00812970008701086
0.007987589575350285,0.007110445760190487,-0.008599179796874523,0.003377932822331786,-6.0635821089944755e-24,0.00796563271433115
0.00821160338819027,0.006378218065947294,-0.00875198096036911,0.00357712316326797,-3.9590860538356706e-25,0.008027148433029652
0.008374112658202648,0.005983716808259487,-0.009356093592941761,0.0036519228015094995,-2.5850004276888497e-26,0.007797956466674805
0.008719038218259811,0.006378147751092911,-0.009840651415288448,0.003569134045392275,-1.6878204846078365e-27,0.008055759593844414
0.008139236830174923,0.006261063739657402,-0.00922191608697176,0.003493651980534196,-1.1020261419749907e-28,0.007973662577569485
0.008629624731838703,0.006759548559784889,-0.009461349807679653,0.0032314008567482233,-7.195442791100847e-30,0.008018149994313717
0.00910126231610775,0.006419260520488024,-0.008504471741616726,0.0033097490668296814,-4.698110026874945e-31,0.007611721288412809
0.008027642965316772,0.00597008690237999,-0.00840933620929718,0.0033746559638530016,-3.0675300910979135e-32,0.007924657315015793
0.008337859064340591,0.00593589898198843,-0.009397206827998161,0.003586326725780964,-2.002877988263055e-33,0.008183900266885757
0.00851391814649105,0.0061226193793118,-0.008807618170976639,0.0033937767148017883,-8.538582469098225e-36,0.008001461625099182
0.00821461621671915,0.0059640295803546906,-0.009229227900505066,0.0033636055886745453,-0.00013237485836725682,0.008184622973203659
0.00868565309792757,0.0056810821406543255,-0.009046584367752075,0.0035834377631545067,-0.00016210025933105499,0.008412717841565609
0.008644134737551212,0.005812419578433037,-0.008733674883842468,0.0037215068005025387,-0.00015863914450164884,0.0078956363722682
0.008450666442513466,0.006786200683563948,-0.009430847130715847,0.003512775059789419,-0.00015337883087340742,0.007444447837769985
0.00923042744398117,0.006293303798884153,-0.009490534663200378,0.0030695446766912937,-0.0001483321248088032,0.007911594584584236
0.009004724211990833,0.005911228246986866,-0.008779790252447128,0.0031057035084813833,-0.00014359895430970937,0.008175205439329147
0.009012958966195583,0.005989788565784693,-0.008513250388205051,0.00371770141646266,-0.00013915772433392704,0.007751211524009705
0.009012958966195583,0.005989788565784693,-0.008513250388205051,0.00371770141646266,-0.00013915772433392704,0.007751211524009705
0.009001349098980427,0.006572184152901173,-0.008665415458381176,0.0034960864577442408,-0.0001538005453767255,0.008489749394357204
0.009001349098980427,0.006572184152901173,-0.008665415458381176,0.0034960864577442408,-0.0001538005453767255,0.008489749394357204
0.00889577530324459,0.006347923539578915,-0.008601633831858635,0.0031010806560516357,-0.00015258541679941118,0.008323916234076023
0.00851221103221178,0.006429221481084824,-0.009051769971847534,0.0030954373069107533,-0.00014859109069220722,0.008245826698839664
0.009426528587937355,0.005904811900109053,-0.00896858423948288,0.003270745277404785,-0.0001446244423277676,0.007750308141112328
0.008987869136035442,0.006360212806612253,-0.008422034792602062,0.0035675056278705597,-0.0001408526732120663,0.0076674362644553185
0.008894940838217735,0.00670264009386301,-0.008604000322520733,0.0036798648070544004,-0.0001372721017105505,0.007957282476127148
0.008840796537697315,0.006250855978578329,-0.008714494295418262,0.003778795711696148,-0.00013386890350375324,0.007957962341606617
0.009120551869273186,0.006152407731860876,-0.00790309812873602,0.003834338393062353,-0.00013063034566584975,0.008289304561913013
0.008958126418292522,0.005967420060187578,-0.008043235167860985,0.0038033274468034506,-0.00014600662689190358,0.008357967250049114
0.009123864583671093,0.00594908744096756,-0.008305784314870834,0.004010541830211878,-0.00014518607349600643,0.008196412585675716
0.00922793336212635,0.006694745272397995,-0.008129666559398174,0.003985533490777016,-0.00014207787171471864,0.009213135577738285
0.008989538997411728,0.006677370052784681,-0.008077734149992466,0.003911322448402643,-0.00013895498705096543,0.008730337023735046
0.009241401217877865,0.005946446675807238,-0.007985096424818039,0.0038827168755233288,-0.0001359567540930584,0.008333462290465832
0.00939344521611929,0.006408955901861191,-0.008669675327837467,0.003739240113645792,-0.00013308459892868996,0.008222578093409538
0.008931856602430344,0.006773754023015499,-0.008036384359002113,0.0037329844199121,-0.0001303316093981266,0.008719559758901596
0.009257445111870766,0.0063891601748764515,-0.008101013489067554,0.004240687005221844,-0.0001276898692594841,0.008660677820444107
0.009703411720693111,0.006133066024631262,-0.009524662047624588,0.004428189713507891,-0.00012515325215645134,0.00853688083589077
0.009491700679063797,0.005519740749150515,-0.008588718250393867,0.004272696562111378,-0.00012271520972717553,0.00931296031922102
0.009319372475147247,0.0063787419348955154,-0.009206282906234264,0.0045019290409982204,-0.00013386447972152382,0.008043116889894009
0.009448506869375706,0.006238381378352642,-0.009070133790373802,0.004118857439607382,-0.00013242957356851548,0.008295172825455666
0.008953130804002285,0.006147488486021757,-0.008374116383492947,0.003698362037539482,-0.000130103639094159,0.008692803792655468
0.010008515790104866,0.005906265694648027,-0.009315939620137215,0.0036539160646498203,-0.00012779873213730752,0.008798627182841301
0.0096456129103899,0.005857216194272041,-0.009812393225729465,0.0038422110956162214,-0.00012557007721625268,0.008578287437558174
0.009250172413885593,0.006261538714170456,-0.008646264672279358,0.003984930459409952,-0.00012341787805780768,0.008803128264844418
0.00964865367859602,0.006167734507471323,-0.008565318770706654,0.004351787734776735,-0.0001213378127431497,0.008918335661292076
0.009776253253221512,0.006138872355222702,-0.00959999579936266,0.004236584063619375,-0.00011932697088923305,0.009076649323105812
0.009709639474749565,0.005643174052238464,-0.00947932805866003,0.003987315110862255,-0.00011738138709915802,0.009478984400629997
0.009709639474749565,0.005643174052238464,-0.00947932805866003,0.003987315110862255,-0.00011738138709915802,0.009478984400629997
0.009837809018790722,0.005962698720395565,-0.009311597794294357,0.0037736569065600634,-0.00011549852933967486,0.009274405427277088
0.00961372721940279,0.006272252649068832,-0.010859825648367405,0.004008100833743811,-0.00011675190762616694,0.009082713164389133
0.009928658604621887,0.006277658045291901,-0.010662971064448357,0.0042051952332258224,-0.0001168286835309118,0.009090475738048553
0.009790997952222824,0.006327801384031773,-0.009870359674096107,0.004519745707511902,-0.00011407012061681598,0.00973957683891058
0.00960340816527605,0.005719490349292755,-0.010921744629740715,0.004518255591392517,-0.00011126280151074752,0.009211164899170399
0.00959800649434328,0.005738670472055674,-0.010745834559202194,0.004231475759297609,-0.00010857904271688312,0.009487519972026348
0.01041287463158369,0.006092305760830641,-0.01041563879698515,0.0043290723115205765,-0.00012443670129869133,0.00925049465149641
0.010397298261523247,0.006231687031686306,-0.01092569436877966,0.004099692218005657,-0.00012411418720148504,0.009435540065169334
0.009609491564333439,0.005979130044579506,-0.010683449916541576,0.0042788307182490826,-0.00012148772657383233,0.009528339840471745
0.010407289490103722,0.006113504525274038,-0.01123510580509901,0.004596582148224115,-0.00011882517719641328,0.00957734789699316
0.00971085112541914,0.005673609673976898,-0.010690074414014816,0.0045279767364263535,-0.00013063962978776544,0.009479787200689316
0.009338794276118279,0.005868537817150354,-0.009996364824473858,0.004461039323359728,-0.00013245947775430977,0.009382151998579502
0.011004050262272358,0.00608638534322381,-0.01115230843424797,0.004568039905279875,-0.00013002388004679233,0.009849322028458118
0.010261998511850834,0.006065872497856617,-0.010877466760575771,0.004516769666224718,-0.00012741358659695834,0.01040542684495449
0.009190181270241737,0.005366620607674122,-0.01068614050745964,0.004586879629641771,-0.0001248889893759042,0.009868239052593708
0.009863318875432014,0.005335322115570307,-0.010623927228152752,0.004453383386135101,-0.00012857037654612213,0.00930070225149393
0.0098427040502429,0.006131540983915329,-0.010825978592038155,0.004652233328670263,-0.00013414921704679728,0.009662125259637833
0.010296187363564968,0.005647800862789154,-0.011046405881643295,0.004761929158121347,-0.00013220672553870827,0.01015479862689972
0.00977462437003851,0.005751525983214378,-0.01051324512809515,0.004913279786705971,-0.0001298563292948529,0.009998803026974201
0.009807799011468887,0.005429734010249376,-0.010874779894948006,0.005114908795803785,-0.00012755799980368465,0.01023139338940382
0.010020778514444828,0.005844540894031525,-0.010666899383068085,0.0055044167675077915,-0.00012533753761090338,0.010257185436785221
0.009637029841542244,0.006002270150929689,-0.010584726929664612,0.00546740647405386,-0.00012321244867052883,0.009896127507090569
0.010222775861620903,0.0058374167419970036,-0.010852796025574207,0.005306579638272524,-0.0001978715299628675,0.010333821177482605
0.010763876140117645,0.005948095116764307,-0.010436988435685635,0.004999485798180103,-0.0001945487892953679,0.010015677660703659
0.010107692331075668,0.00545404851436615,-0.010834582149982452,0.004909753333777189,-0.0001868131512310356,0.009276416152715683
0.010107692331075668,0.00545404851436615,-0.010834582149982452,0.004909753333777189,-0.0001868131512310356,0.009276416152715683
0.011739740148186684,0.005736212711781263,-0.01111123152077198,0.0053173853084445,-0.0001725104229990393,0.009450354613363743
0.011739740148186684,0.005736212711781263,-0.01111123152077198,0.0053173853084445,-0.0001725104229990393,0.009450354613363743
0.012536362744867802,0.005924181081354618,-0.010714271105825901,0.005229881498962641,-0.00016614023479633033,0.010196512565016747
0.011856626719236374,0.005621984601020813,-0.01059064082801342,0.005128401331603527,-0.00018801561964210123,0.010143234394490719
0.011780199594795704,0.005227315705269575,-0.010678538121283054,0.004921001847833395,-0.00018537922005634755,0.010303327813744545
0.012206632643938065,0.005318775773048401,-0.011255101300776005,0.004824595991522074,-0.00017946778098121285,0.01015849132090807
0.012065649963915348,0.005200555548071861,-0.010511768981814384,0.004983963444828987,-0.00017371017020195723,0.010476822964847088
0.011758080683648586,0.005794853437691927,-0.010154173709452152,0.005054770037531853,-0.0001926360564539209,0.010582558810710907
0.012368311174213886,0.005489327944815159,-0.010553303174674511,0.00568034965544939,-0.00019016917212866247,0.010607943870127201
0.011907029896974564,0.005653730593621731,-0.0102766714990139,0.005394959356635809,-0.000184809003258124,0.010995952412486076
0.01245614793151617,0.005324447527527809,-0.010728326626121998,0.005017025861889124,-0.0001795556745491922,0.01034907903522253
0.012653005309402943,0.005361951421946287,-0.010974050499498844,0.005137108266353607,-0.0001745803456287831,0.009945830330252647
0.01256445050239563,0.005729759577661753,-0.0100012281909585,0.005337117705494165,-0.0001698727282928303,0.010095231235027313
0.012912003323435783,0.00539990933611989,-0.010250827297568321,0.006060517858713865,-0.00016541247896384448,0.010257871821522713
0.012752353213727474,0.005668287165462971,-0.010420367121696472,0.0063451677560806274,-0.00017824559472501278,0.009859343990683556
0.012832830660045147,0.00542102474719286,-0.00972352921962738,0.005656598601490259,-0.0001792211114661768,0.010164253413677216
0.012829441577196121,0.005321839824318886,-0.010422156192362309,0.005412364844232798,-0.00017107321764342487,0.010021385736763477
0.012596002779901028,0.00549736013635993,-0.009836103767156601,0.005771687254309654,-0.00016710411000531167,0.01004704274237156
0.01284074503928423,0.005473907105624676,-0.010628091171383858,0.0057640476152300835,-0.00016331368533428758,0.010181731544435024
0.0129694864153862,0.00563063845038414,-0.009984792210161686,0.005411192774772644,-0.0001596914225956425,0.010440283454954624
0.012712975963950157,0.005327589809894562,-0.010534413158893585,0.005453899502754211,-0.00015622618957422674,0.010459277778863907
0.012869445607066154,0.005870633292943239,-0.010339980013668537,0.0052306558936834335,-0.00015290828014258295,0.010428600013256073
0.012501482851803303,0.005550043191760778,-0.010279890149831772,0.00580551428720355,-0.00016550373402424157,0.010910850018262863
0.013097989372909069,0.005897284019738436,-0.009886001236736774,0.005720512475818396,-0.00016195059288293123,0.011190008372068405
0.012781058438122272,0.005300398450344801,-0.010209618136286736,0.00540847098454833,-0.0001564756385050714,0.010997035540640354
0.012915068306028843,0.005373720545321703,-0.010799327865242958,0.005146483425050974,-0.00015122652985155582,0.01119026355445385
0.012790842913091183,0.005713796243071556,-0.010269871912896633,0.005198812577873468,-0.00014630996156483889,0.01109953410923481
0.013015243224799633,0.0061261700466275215,-0.010640236549079418,0.00548522500321269,-0.000141702446853742,0.010765153914690018
0.013015243224799633,0.0061261700466275215,-0.010640236549079418,0.00548522500321269,-0.000141702446853742,0.010765153914690018
0.012944193556904793,0.005632570944726467,-0.009880960918962955,0.006135781295597553,-0.00013737595872953534,0.010849075391888618
0.013013933785259724,0.005811159964650869,-0.010197454132139683,0.005822555162012577,-0.00015817349776625633,0.01052011363208294
0.013186322525143623,0.005724047776311636,-0.011071660555899143,0.005853399634361267,-0.00015524735499639064,0.01078101433813572
0.012662667781114578,0.0055825188755989075,-0.009916752576828003,0.005371610634028912,-0.00015101145254448056,0.011067810468375683
0.013276304118335247,0.005573896691203117,-0.010390719398856163,0.0052212742157280445,-0.00014690952957607806,0.010905959643423557
0.012934640049934387,0.006163065787404776,-0.010136508382856846,0.005656986031681299,-0.00014301900228019804,0.011008665896952152
0.013165292330086231,0.005629018880426884,-0.010302496142685413,0.006063447333872318,-0.0001393286802340299,0.010945398360490799
0.012753203511238098,0.0057588680647313595,-0.010228803381323814,0.006268415134400129,-0.00015548097144346684,0.010990693233907223
0.013133750297129154,0.005456813611090183,-0.01006439421325922,0.006124694366008043,-0.00015437886759173125,0.011604334227740765
0.012972922995686531,0.006017881445586681,-0.01019683014601469,0.005972248502075672,-0.00015085878840181977,0.011458401568233967
0.012956283055245876,0.006017257459461689,-0.010620348155498505,0.006112473551183939,-0.00015768733283039182,0.011487167328596115
0.013306042179465294,0.005721548572182655,-0.010260176844894886,0.006197350565344095,-0.00016384420450776815,0.01210199948400259
0.013432868756353855,0.005372798070311546,-0.009788064286112785,0.005673206876963377,-0.00016082118963822722,0.011901574209332466
0.01366213895380497,0.005579663440585136,-0.010671621188521385,0.005677996203303337,-0.00015734814223833382,0.012390115298330784
0.013506583869457245,0.0060810307040810585,-0.0105783985927701,0.005522273015230894,-0.00015398531104438007,0.012007368728518486
0.013662661425769329,0.006029034033417702,-0.010064831003546715,0.005924688186496496,-0.00019281922141090035,0.011814995668828487
0.013641202822327614,0.005899033974856138,-0.010286158882081509,0.006538872607052326,-0.0002092591457767412,0.011829757131636143
0.013538528233766556,0.005859463009983301,-0.011175231076776981,0.006213118322193623,-0.00021823222050443292,0.01178118959069252
0.0135848643258214,0.006222846917808056,-0.011288669891655445,0.006205929908901453,-0.00021084923355374485,0.01172724924981594
0.013845240697264671,0.006195721682161093,-0.010857882909476757,0.006429820787161589,-0.00020299560856074095,0.012476052157580853
0.014204612001776695,0.0063740769401192665,-0.011344676837325096,0.007006839383393526,-0.00021976667630951852,0.012536400929093361
0.013804253190755844,0.005747746676206589,-0.010467493906617165,0.007495146710425615,-0.00021971714159008116,0.012119065038859844
0.01426064595580101,0.005830555688589811,-0.01168754231184721,0.006948554888367653,-0.0002127927145920694,0.011756597086787224
0.014153673313558102,0.006543547846376896,-0.011906513944268227,0.007014945149421692,-0.00023138674441725016,0.011880400590598583
0.014399620704352856,0.006991812493652105,-0.010811331681907177,0.006687079556286335,-0.0002275831502629444,0.012154090218245983
0.013765821233391762,0.0059586805291473866,-0.01200971007347107,0.006748585030436516,-0.00022083167277742177,0.012495728209614754
0.013765821233391762,0.0059586805291473866,-0.01200971007347107,0.006748585030436516,-0.00022083167277742177,0.012495728209614754
0.01365668699145317,0.005842967890202999,-0.011302310973405838,0.006191015709191561,-0.0003425183822400868,0.012238980270922184
0.01377576868981123,0.005838493350893259,-0.011098364368081093,0.006231297273188829,-0.00033552019158378243,0.012136228382587433
0.014074170030653477,0.006170544773340225,-0.01120475772768259,0.006320370361208916,-0.00031335835228674114,0.01169655006378889
0.014306274242699146,0.006574165541678667,-0.011204947717487812,0.005840462166815996,-0.00029302045004442334,0.011798810213804245
0.01440258976072073,0.006213741842657328,-0.01153564453125,0.005696605890989304,-0.0003018739225808531,0.011961247771978378
0.014476353302598,0.006008514668792486,-0.01131246704608202,0.005757746286690235,-0.0003092528786510229,0.013298917561769485
0.01454130094498396,0.005813532043248415,-0.010747935622930527,0.006295184139162302,-0.00029402298969216645,0.01181630790233612
0.014268076047301292,0.005870084743946791,-0.011830596253275871,0.006731484085321426,-0.0003222248633392155,0.011869676411151886
0.01470833271741867,0.006499347276985645,-0.012078157626092434,0.006717946380376816,-0.0003092354745604098,0.012793243862688541
0.014677521772682667,0.005853761453181505,-0.011682229116559029,0.006580702029168606,-0.00029493970214389265,0.012568126432597637
0.014885890297591686,0.0057281204499304295,-0.011333371512591839,0.007056640926748514,-0.0003114873543381691,0.012942205183207989
0.015013197436928749,0.005526184570044279,-0.011219006963074207,0.007650826126337051,-0.0003075344138778746,0.012310799211263657
0.01509550679475069,0.005866124294698238,-0.011923211626708508,0.007017920725047588,-0.0002955211093649268,0.012892361730337143
0.014863776974380016,0.006388034671545029,-0.011303027160465717,0.006794928107410669,-0.0003162873035762459,0.01270497590303421
0.015087300911545753,0.006065740250051022,-0.01139174122363329,0.006468966603279114,-0.0003061314346268773,0.012551307678222656
0.014924176968634129,0.00621624942868948,-0.011682515032589436,0.007013604044914246,-0.0003407846961636096,0.012556768022477627
0.014794300310313702,0.005871068686246872,-0.011482113972306252,0.007085791788995266,-0.00035579429822973907,0.012911137193441391
0.014794300310313702,0.005871068686246872,-0.011482113972306252,0.007085791788995266,-0.00035579429822973907,0.012911137193441391
0.015559623949229717,0.00632478715851903,-0.011453420855104923,0.006402839440852404,-0.0003204331733286381,0.013129914179444313
0.015719454735517502,0.0062162079848349094,-0.012013827450573444,0.006672061514109373,-0.0003049223741982132,0.012957965955138206
0.01524935383349657,0.006379074417054653,-0.011518009006977081,0.007111852522939444,-0.00032152244239114225,0.012967360205948353
0.015705691650509834,0.005790911614894867,-0.012339100241661072,0.007260716985911131,-0.0003170097479596734,0.012842884287238121
0.015649549663066864,0.006502173840999603,-0.012389343231916428,0.00742742046713829,-0.0003042427124455571,0.013495199382305145
0.015770958736538887,0.0066108088940382,-0.011704139411449432,0.007298348005861044,-0.00029284850461408496,0.013698585331439972
0.015615026466548443,0.005816642660647631,-0.011512587778270245,0.007211440242826939,-0.00035719142761081457,0.013464398682117462
0.015639731660485268,0.005809064023196697,-0.011418642476201057,0.007474231068044901,-0.00033623355557210743,0.013256305828690529
0.015639731660485268,0.005809064023196697,-0.011418642476201057,0.007474231068044901,-0.00033623355557210743,0.013256305828690529
0.01587517559528351,0.005835902411490679,-0.012310588732361794,0.0069428482092916965,-0.00035925101838074625,0.013135777786374092
0.015482422895729542,0.006266686599701643,-0.011958193965256214,0.007138846907764673,-0.0003503073821775615,0.013446453958749771
0.01594347134232521,0.006072605028748512,-0.01236742828041315,0.007410277146846056,-0.0003773825301323086,0.013117519207298756
0.01540346909314394,0.005761479493230581,-0.012495937757194042,0.007537512574344873,-0.00036223549977876246,0.013282320462167263
0.015906332060694695,0.00553596206009388,-0.011958743445575237,0.007539570797234774,-0.00038855220191180706,0.013232627883553505
0.01591738872230053,0.0050422013737261295,-0.012290985323488712,0.00774972140789032,-0.00037150128628127277,0.013543041422963142
0.016099946573376656,0.004947830457240343,-0.011912357993423939,0.0077323997393250465,-0.00046247945283539593,0.013458127155900002
0.015811948105692863,0.005371434148401022,-0.01283357385545969,0.006870150566101074,-0.0004961603553965688,0.01357155293226242
0.016010552644729614,0.005327392369508743,-0.012105665169656277,0.006833992432802916,-0.0004927528207190335,0.013613141141831875
0.0161591824144125,0.005499355960637331,-0.012532467022538185,0.006930492352694273,-0.0005193041870370507,0.013968048617243767
0.015706399455666542,0.005227275192737579,-0.013006131164729595,0.007286597043275833,-0.0005219281301833689,0.013946665450930595
0.016154451295733452,0.005094998050481081,-0.012002522125840187,0.007234959397464991,-0.0005159828579053283,0.014242243953049183
0.016025792807340622,0.005941283423453569,-0.012587254866957664,0.007284222170710564,-0.0005811794544570148,0.014223993755877018
0.016456620767712593,0.005632293876260519,-0.012381073087453842,0.007500560022890568,-0.0005963554722256958,0.014301932416856289
0.016241710633039474,0.0056819492019712925,-0.01312608178704977,0.007589035667479038,-0.0006304300623014569,0.013900086283683777
0.01650763675570488,0.0052634296007454395,-0.012085122987627983,0.007738868705928326,-0.0005705730873160064,0.014140086248517036
0.016322189942002296,0.005441757850348949,-0.012518387287855148,0.007476462051272392,-0.0005490554613061249,0.014318560250103474
0.016805579885840416,0.006084839813411236,-0.012534425593912601,0.0073851486667990685,-0.0005586151964962482,0.014192081056535244
0.01641046442091465,0.005358539056032896,-0.012777832336723804,0.006979739293456078,-0.0005336684989742935,0.014854107983410358
0.016655398532748222,0.005437029059976339,-0.012433395721018314,0.007013166788965464,-0.0004978256765753031,0.013760337606072426
0.016645370051264763,0.005147039890289307,-0.013140282593667507,0.007047728635370731,-0.0004661949642468244,0.013711946085095406
0.016804318875074387,0.004969540052115917,-0.012868213467299938,0.007267897482961416,-0.00043905992060899734,0.014344007708132267
0.01687764935195446,0.005828206893056631,-0.01294208038598299,0.007842402905225754,-0.0004010905686300248,0.014349991455674171
0.016381893306970596,0.005698429420590401,-0.013253539800643921,0.008232987485826015,-0.00036830815952271223,0.014427397400140762
0.016638798639178276,0.005556626711040735,-0.01304885558784008,0.008550896309316158,-0.00037342309951782227,0.014448409900069237
0.016736431047320366,0.005080501548945904,-0.0129582853987813,0.008513945154845715,-0.00037747068563476205,0.014711967669427395
0.017238903790712357,0.005400474648922682,-0.012694003991782665,0.008080387488007545,-0.00035464431857690215,0.014652415178716183
0.01658233068883419,0.005354136694222689,-0.012809192761778831,0.00789981335401535,-0.0003328993043396622,0.014312970452010632
0.01658233068883419,0.005354136694222689,-0.012809192761778831,0.00789981335401535,-0.0003328993043396622,0.014312970452010632
0.016749128699302673,0.005907449405640364,-0.01238982379436493,0.008218558505177498,-0.0003135674342047423,0.014534072019159794
0.017109418287873268,0.005441364832222462,-0.012921879068017006,0.00830191932618618,-0.00034233153564855456,0.014699555933475494
0.01717224344611168,0.005750296171754599,-0.012651014141738415,0.008266467601060867,-0.0003275276976637542,0.01444593258202076
0.017530102282762527,0.005430317018181086,-0.013460489921271801,0.008206992410123348,-0.0003500577004160732,0.014223271049559116
0.0170083399862051,0.005752516910433769,-0.01274503767490387,0.008447588421404362,-0.00033887085737660527,0.014468057081103325
0.01709759421646595,0.005893309600651264,-0.01284391712397337,0.008873228915035725,-0.0003474249388091266,0.01481421384960413
0.01658882573246956,0.006042222026735544,-0.012744921259582043,0.008592932485044003,-0.00037453623372130096,0.014507357031106949
0.01483458187431097,0.005532529205083847,-0.012993521057069302,0.008650949224829674,-0.0003940691240131855,0.01474269200116396
0.017821326851844788,0.00543540995568037,-0.011663705110549927,0.008705828338861465,-0.00039737767656333745,0.015090336091816425
0.017601240426301956,0.005465014837682247,-0.013393023051321507,0.008494746871292591,-0.0003755250945687294,0.014626800082623959
0.01742764562368393,0.006025621667504311,-0.013571497984230518,0.008885972201824188,-0.00040164723759517074,0.015221111476421356
0.01740807667374611,0.005817350000143051,-0.012574858032166958,0.008799915201961994,-0.00038429751293733716,0.015247675590217113
0.01696481555700302,0.005752510856837034,-0.013111471198499203,0.008803138509392738,-0.0005770974094048142,0.015338900499045849
0.018038013949990273,0.005632269661873579,-0.012641636654734612,0.008883604779839516,-0.0006160471821203828,0.015226857736706734
0.017547614872455597,0.005596235394477844,-0.01346297562122345,0.008602580986917019,-0.0005648285732604563,0.015861326828598976
0.017785241827368736,0.005778886377811432,-0.013412858359515667,0.008321085013449192,-0.0005448988522402942,0.01502360962331295
0.017659097909927368,0.005782442633062601,-0.013301619328558445,0.008397789672017097,-0.0005020902608521283,0.014491038396954536
0.01788596622645855,0.0054111480712890625,-0.013604057021439075,0.008446303196251392,-0.0005267920205369592,0.014909632503986359
0.01767485775053501,0.005992338061332703,-0.013502656482160091,0.00820284802466631,-0.0004946141270920634,0.01505155861377716
0.017246801406145096,0.005981957074254751,-0.01315590925514698,0.008604904636740685,-0.00046304872375912964,0.015442118979990482
0.017915887758135796,0.006180433556437492,-0.01340790931135416,0.00882786326110363,-0.00043507100781425834,0.015361765399575233
0.01834096759557724,0.00559066841378808,-0.013101870194077492,0.009517498314380646,-0.00041026948019862175,0.015426944009959698
0.01842767558991909,0.005676997825503349,-0.013967986218631268,0.009071378037333488,-0.00038050906732678413,0.015536775812506676
0.018322523683309555,0.005515504162758589,-0.013211194425821304,0.009728798642754555,-0.00035077016218565404,0.01585710421204567
0.017961319535970688,0.005892135668545961,-0.013457110151648521,0.00962518434971571,-0.00032538268715143204,0.015887022018432617
0.018186358734965324,0.005646655336022377,-0.013141483068466187,0.00928795337677002,-0.0003034276596736163,0.015551711432635784
0.018224727362394333,0.005604704841971397,-0.013817324303090572,0.009366540238261223,-0.0003371373750269413,0.015480447560548782
0.01773233897984028,0.005200809799134731,-0.013240395113825798,0.009137722663581371,-0.00032056582858785987,0.01537114754319191
0.01773233897984028,0.005200809799134731,-0.013240395113825798,0.009137722663581371,-0.00032056582858785987,0.01537114754319191
0.0184959564357996,0.005638031288981438,-0.01358806062489748,0.008631931617856026,-0.0003028076607733965,0.016742123290896416
0.01840817555785179,0.0054098572582006454,-0.013310947455465794,0.009113114327192307,-0.00032198126427829266,0.01568722538650036
0.018516771495342255,0.005488614086061716,-0.013339473865926266,0.009091615676879883,-0.00031683561974205077,0.015369928441941738
0.01876717060804367,0.005350313615053892,-0.013690026476979256,0.009034625254571438,-0.00032344317878596485,0.0155783174559474
0.01906689815223217,0.005468538962304592,-0.013680512085556984,0.0090011116117239,-0.0003283229598309845,0.01583828590810299
0.019589604809880257,0.005275234114378691,-0.013745848089456558,0.010227193124592304,-0.00031522882636636496,0.015760861337184906
0.01959232985973358,0.005829104222357273,-0.013125141151249409,0.010043674148619175,-0.0003264897968620062,0.01613067463040352
0.019494468346238136,0.006017607171088457,-0.01359653566032648,0.009375417605042458,-0.0003269379085395485,0.016316475346684456
0.019482426345348358,0.0060073984786868095,-0.013314956799149513,0.009333408437669277,-0.00030626001534983516,0.016102081164717674
0.01957111805677414,0.00538007402792573,-0.013976622372865677,0.009066665545105934,-0.00032905576517805457,0.016337404027581215
0.019600901752710342,0.00531366653740406,-0.013305437751114368,0.00869961827993393,-0.0003225822583772242,0.01631251722574234
0.019478866830468178,0.0054885707795619965,-0.01371979434043169,0.009480303153395653,-0.0003052071842830628,0.016398174688220024
0.020123191177845,0.006073202937841415,-0.013510199263691902,0.009712458588182926,-0.0003244372201152146,0.016595233231782913
0.019541068002581596,0.005258500576019287,-0.013605262152850628,0.00988728553056717,-0.00030443709692917764,0.016818905249238014
0.01991918496787548,0.0048950593918561935,-0.014099526219069958,0.009746049530804157,-0.00029044534312561154,0.01682758703827858
0.020013341680169106,0.005740657448768616,-0.013688101433217525,0.009284758009016514,-0.0003145996597595513,0.01718234084546566
0.020319852977991104,0.005443822126835585,-0.014574185013771057,0.01015634834766388,-0.000303735607303679,0.01689513772726059
0.020448805764317513,0.005458620376884937,-0.014230643399059772,0.01063564233481884,-0.0003489913942757994,0.017048854380846024
0.02050083503127098,0.005550237372517586,-0.014751562848687172,0.010051064193248749,-0.000341890990966931,0.01665755733847618
0.02044817991554737,0.005395589396357536,-0.014041912741959095,0.01012294739484787,-0.0003189195995219052,0.01694651134312153
0.02025878056883812,0.00560939172282815,-0.014479020610451698,0.010054323822259903,-0.00029787851963192225,0.01717899739742279
0.021053386852145195,0.0052033886313438416,-0.013983169570565224,0.010477910749614239,-0.0003205196699127555,0.01755235530436039
0.020594818517565727,0.005807260517030954,-0.014581255614757538,0.010265961289405823,-0.00031468822271563113,0.017802488058805466
0.020586950704455376,0.0056090205907821655,-0.013938883319497108,0.009715680032968521,-0.0002981480793096125,0.017123833298683167
0.02107296884059906,0.005409132689237595,-0.014491376467049122,0.009837445802986622,-0.0002825939445756376,0.01714838296175003
0.021116293966770172,0.004954279866069555,-0.014213950373232365,0.010076147504150867,-0.0002685400249902159,0.01645958237349987
0.021116293966770172,0.004954279866069555,-0.014213950373232365,0.010076147504150867,-0.0002685400249902159,0.01645958237349987
0.02097056619822979,0.005160587374120951,-0.014824575744569302,0.010212316177785397,-0.0002766369143500924,0.016438404098153114
0.020863592624664307,0.005411016289144754,-0.014001154340803623,0.009868379682302475,-0.00028352398658171296,0.016935288906097412
0.019631586968898773,0.005213244818150997,-0.01447218470275402,0.01014124508947134,-0.0002725218946579844,0.017137330025434494
0.021183693781495094,0.005447694566100836,-0.01431596651673317,0.009911519475281239,-0.00026129934121854603,0.01741870306432247
0.02158118225634098,0.005047208163887262,-0.01492504682391882,0.009984460659325123,-0.0002508959732949734,0.01790369302034378
0.021363917738199234,0.00477937376126647,-0.014430510811507702,0.01047461200505495,-0.0002667746157385409,0.017370397225022316
0.02117704227566719,0.005067546386271715,-0.015286758542060852,0.010088037699460983,-0.0002649952657520771,0.017226915806531906
0.021587302908301353,0.004940591752529144,-0.014874741435050964,0.010822631418704987,-0.00025609409203752875,0.017300548031926155
0.021294016391038895,0.0052980766631662846,-0.015512935817241669,0.011174767278134823,-0.00024732991005294025,0.017691845074295998
0.02061138115823269,0.004937660414725542,-0.014970355667173862,0.010406866669654846,-0.00024240711354650557,0.01756569929420948
0.02141711674630642,0.0047220406122505665,-0.015424556098878384,0.010698731988668442,-0.00023165674065239727,0.016998397186398506
0.021909968927502632,0.004677172750234604,-0.014701257459819317,0.010448706336319447,-0.0002204194461228326,0.017060555517673492
0.02168796956539154,0.00507141649723053,-0.015272595919668674,0.01005720067769289,-0.00024116114946082234,0.01705126278102398
0.020974015817046165,0.005072257947176695,-0.015340179204940796,0.010436891578137875,-0.00024018787371460348,0.01803131215274334
0.02196645177900791,0.005213359370827675,-0.014096810482442379,0.010512979701161385,-0.0002493624924682081,0.01729840599000454
0.022538742050528526,0.005277477670460939,-0.015990477055311203,0.01066125463694334,-0.0002567436022218317,0.017412535846233368
0.02139989845454693,0.004981732461601496,-0.015253975987434387,0.010606730356812477,-0.00027195169241167605,0.018316125497221947
0.02197679504752159,0.00497340876609087,-0.01510576531291008,0.010229798033833504,-0.0003662194940261543,0.018201185390353203
0.021768584847450256,0.004742648918181658,-0.016075249761343002,0.010357292369008064,-0.00042867808951996267,0.018037037923932076
0.02173484116792679,0.00477416580542922,-0.016016077250242233,0.010099535807967186,-0.00045548498746939003,0.017640449106693268
0.0215317290276289,0.005006887950003147,-0.015452860854566097,0.008966055698692799,-0.0004724019090645015,0.01774253509938717
0.022170426324009895,0.004944394342601299,-0.015126589685678482,0.00980107020586729,-0.0004705349274445325,0.0179004967212677
0.022391701117157936,0.004744315054267645,-0.016077442094683647,0.010071908123791218,-0.0004860704066231847,0.018011612817645073
0.02224065363407135,0.0046058595180511475,-0.015062903054058552,0.010447792708873749,-0.00046893564285710454,0.01808612421154976
0.021968001499772072,0.004607330542057753,-0.015631673857569695,0.010476252064108849,-0.0006085680215619504,0.01836969144642353
0.022263187915086746,0.004768923856317997,-0.015298751182854176,0.010206368751823902,-0.0006629584240727127,0.018610045313835144
0.022263187915086746,0.004768923856317997,-0.015298751182854176,0.010206368751823902,-0.0006629584240727127,0.018610045313835144
0.022820107638835907,0.005222442094236612,-0.015511125326156616,0.010322672314941883,-0.0006904172478243709,0.01915096677839756
0.022428441792726517,0.004865969065576792,-0.015628309920430183,0.01096409372985363,-0.0007113933097571135,0.0191162321716547
0.02220177836716175,0.004581111017614603,-0.015430617146193981,0.01074707880616188,-0.000793763785623014,0.018452929332852364
0.021916911005973816,0.004408636596053839,-0.01528420764952898,0.011079646646976471,-0.0009059432195499539,0.01867315173149109
0.02252657525241375,0.004523097071796656,-0.015295345336198807,0.01094657089561224,-0.000911444250959903,0.018591856583952904
0.022262101992964745,0.004957167431712151,-0.015582256950438023,0.010733600705862045,-0.0009104268392547965,0.018747929483652115
0.022030530497431755,0.005040914285928011,-0.015161575749516487,0.01094084419310093,-0.0009503166656941175,0.01915336400270462
0.022157590836286545,0.004870234522968531,-0.015706978738307953,0.010805261321365833,-0.0009620846249163151,0.019107108935713768
0.022106582298874855,0.004569597076624632,-0.015120293945074081,0.01115199364721775,-0.0009534640703350306,0.018683789297938347
0.022700726985931396,0.004538056906312704,-0.015543279238045216,0.011347360908985138,-0.0009461055742576718,0.018528683111071587
0.022925401106476784,0.004631942603737116,-0.015154663473367691,0.011157874017953873,-0.0008871728787198663,0.018691038712859154
0.022421641275286674,0.004489151760935783,-0.015693994238972664,0.0114373117685318,-0.0008355359896086156,0.019236359745264053
0.022492047399282455,0.004927295260131359,-0.015032182447612286,0.010898014530539513,-0.0007234399672597647,0.01898196153342724
0.02362068183720112,0.005148313008248806,-0.015540576539933681,0.010570580139756203,-0.0006836991524323821,0.019066283479332924
0.022944670170545578,0.004555468447506428,-0.015347127802670002,0.011389393359422684,-0.0006534582353197038,0.019310252740979195
0.02302764728665352,0.004486721940338612,-0.015595306642353535,0.011082665994763374,-0.0005859087686985731,0.019332170486450195
0.022773098200559616,0.004618382081389427,-0.015002829022705555,0.010905683971941471,-0.0005609439685940742,0.019172603264451027
0.022838419303297997,0.004726173356175423,-0.015384240075945854,0.010547432117164135,-0.0005513047217391431,0.0192972794175148
0.023517239838838577,0.004650843795388937,-0.015475044026970863,0.011548846960067749,-0.0005422678077593446,0.019126178696751595
0.024285785853862762,0.004548653494566679,-0.015609115362167358,0.01120198704302311,-0.0005062484997324646,0.019660823047161102
0.02326347306370735,0.0046707396395504475,-0.01495532225817442,0.0112063679844141,-0.00045489813783206046,0.01981399580836296
0.02335648238658905,0.0050047351978719234,-0.015204304829239845,0.011647132225334644,-0.00040036829886958003,0.019477851688861847
0.022710949182510376,0.005027796141803265,-0.014876846224069595,0.011534820310771465,-0.0003667784621939063,0.01989896222949028
0.023125438019633293,0.005290709901601076,-0.01585349440574646,0.011646994389593601,-0.0003719233500305563,0.020126597955822945
0.023540163412690163,0.004984140861779451,-0.01537325233221054,0.011224677786231041,-0.000376055744709447,0.019875723868608475
0.023785440251231194,0.004982222802937031,-0.015966201201081276,0.0109854219481349,-0.00035340088652446866,0.020041795447468758
0.023218534886837006,0.004860397428274155,-0.014912526123225689,0.011601879261434078,-0.0003318035742267966,0.02020365186035633
0.023893358185887337,0.0048843747936189175,-0.015787789598107338,0.011533706448972225,-0.0003610835410654545,0.019904471933841705
0.02424180693924427,0.0050636339001357555,-0.015924425795674324,0.011854109354317188,-0.0003444959002081305,0.019967354834079742
0.02424180693924427,0.0050636339001357555,-0.015924425795674324,0.011854109354317188,-0.0003444959002081305,0.019967354834079742
0.024320680648088455,0.004936056677252054,-0.015775617212057114,0.01141650415956974,-0.0003268249274697155,0.020138759166002274
0.024509765207767487,0.0048568034544587135,-0.015677589923143387,0.011152851395308971,-0.0003520531754475087,0.020522672683000565
0.02369290590286255,0.0050943344831466675,-0.015784094110131264,0.011875343509018421,-0.0003382080467417836,0.019209491088986397
0.024059446528553963,0.004871675744652748,-0.01631271466612816,0.011673379689455032,-0.0003650796425063163,0.01967157982289791
0.024138184264302254,0.004911964293569326,-0.015905994921922684,0.01203794777393341,-0.00034395692637190223,0.02069305256009102
0.024828573688864708,0.004766781814396381,-0.015790976583957672,0.011694608256220818,-0.00037519127363339067,0.021011553704738617
0.024992216378450394,0.004832523409277201,-0.01533395703881979,0.012283043935894966,-0.00035788293462246656,0.02105928212404251
0.024622280150651932,0.005217140074819326,-0.01629902981221676,0.012513217516243458,-0.00033609289675951004,0.019889920949935913
0.02478703483939171,0.004880829248577356,-0.016274666413664818,0.012046856805682182,-0.0003620321804191917,0.01951509714126587
0.024574492126703262,0.004897261504083872,-0.01701078936457634,0.01217353343963623,-0.0003482526808511466,0.020182203501462936
0.02442007325589657,0.0049055046401917934,-0.016608761623501778,0.01187998428940773,-0.0003712463367264718,0.021173600107431412
0.024562444537878036,0.004804197233170271,-0.016001014038920403,0.012064976617693901,-0.00035838395706377923,0.021229419857263565
0.024743271991610527,0.005239596590399742,-0.016791513189673424,0.011928298510611057,-0.00034173650783486664,0.02053394354879856
0.025687826797366142,0.0051340763457119465,-0.016701998189091682,0.01216032262891531,-0.00036343024112284184,0.021712524816393852
0.025567201897501945,0.004769905004650354,-0.01637204736471176,0.012026128359138966,-0.000352767005097121,0.022211287170648575
0.02509901486337185,0.004704429768025875,-0.016537923365831375,0.012538854032754898,-0.00032819240004755557,0.021265707910060883
0.025227218866348267,0.005114935338497162,-0.016794493421912193,0.012445801869034767,-0.0003059405426029116,0.02094610594213009
0.02499218098819256,0.00553637370467186,-0.016518037766218185,0.012206016108393669,-0.00032862843363545835,0.02046363241970539
0.025531943887472153,0.005267039407044649,-0.01766953244805336,0.012114482000470161,-0.0003221812949050218,0.021171290427446365
0.025595689192414284,0.005208590999245644,-0.016270238906145096,0.011873709969222546,-0.00030484810122288764,0.02177785150706768
0.02621355466544628,0.005288099404424429,-0.01650080271065235,0.012382233515381813,-0.000288605282548815,0.022023895755410194
0.0264410600066185,0.00513410335406661,-0.016253076493740082,0.01170083787292242,-0.0003076491120737046,0.021840447559952736
0.02557545155286789,0.005360920447856188,-0.01628143899142742,0.012071724981069565,-0.00030340353259816766,0.021627547219395638
0.02602984569966793,0.005213296506553888,-0.016558358445763588,0.012330615893006325,-0.00029011943843215704,0.021418528631329536
0.02655879035592079,0.0054005892015993595,-0.016454221680760384,0.011881276033818722,-0.0003143085050396621,0.021657971665263176
0.026187263429164886,0.005452433601021767,-0.01704658381640911,0.012212897650897503,-0.0003034689580090344,0.021984605118632317
0.02628648839890957,0.005110515747219324,-0.016592776402831078,0.012255650013685226,-0.00032502657268196344,0.021861132234334946
0.026448357850313187,0.005322381854057312,-0.01686510071158409,0.01222145650535822,-0.000368364155292511,0.02142791636288166
0.026448357850313187,0.005322381854057312,-0.01686510071158409,0.01222145650535822,-0.000368364155292511,0.02142791636288166
0.02646113559603691,0.0049391151405870914,-0.01642906479537487,0.012597166933119297,-0.00042628555092960596,0.02162899449467659
0.02646113559603691,0.0049391151405870914,-0.01642906479537487,0.012597166933119297,-0.00042628555092960596,0.02162899449467659
0.026714429259300232,0.005474118981510401,-0.017067531123757362,0.01270885020494461,-0.0006820087437517941,0.021625811234116554
0.027308743447065353,0.0051161982119083405,-0.0165391955524683,0.012215664610266685,-0.0009207988623529673,0.0220431387424469
0.027236009016633034,0.0046371459029614925,-0.017144862562417984,0.012762152589857578,-0.0009311449248343706,0.022043827921152115
0.027038924396038055,0.004938012454658747,-0.01642104610800743,0.012664157897233963,-0.0008979065460152924,0.021974148228764534
0.027101296931505203,0.0049767931923270226,-0.016756033524870872,0.013287350535392761,-0.0008556565153412521,0.022214315831661224
0.027819793671369553,0.0052972640842199326,-0.016901742666959763,0.012827334925532341,-0.0009956496069207788,0.022192716598510742
0.028619129210710526,0.005482006352394819,-0.01683059334754944,0.0129479905590415,-0.0009889446664601564,0.02200954779982567
0.02854287438094616,0.005060493480414152,-0.017010442912578583,0.012913521379232407,-0.0009936037240549922,0.02168521285057068
0.02736618183553219,0.005136772990226746,-0.01631077751517296,0.012380855157971382,-0.0010540205985307693,0.022230403497815132
0.027329223230481148,0.004989335313439369,-0.017243383452296257,0.012870767153799534,-0.0010381019674241543,0.022452404722571373
0.02854445017874241,0.005109677091240883,-0.01714792661368847,0.012315316125750542,-0.0010357947321608663,0.02214915119111538
0.027993686497211456,0.005202218424528837,-0.017328182235360146,0.013351157307624817,-0.00090445252135396,0.022112341597676277
0.028349565342068672,0.004790051374584436,-0.016754336655139923,0.01255571935325861,-0.0008287759264931083,0.02247866615653038
0.029541658237576485,0.004678478464484215,-0.017460646107792854,0.01346294954419136,-0.0007132048485800624,0.02293887734413147
0.0290959682315588,0.004642845597118139,-0.017396796494722366,0.01402509119361639,-0.000721791002433747,0.023277511820197105
0.027909811586141586,0.004644474945962429,-0.01729961670935154,0.013437991961836815,-0.0007280682330019772,0.023053251206874847
0.02797677554190159,0.005150178913027048,-0.017305107787251472,0.013197955675423145,-0.0006750175962224603,0.022524012252688408
0.0294890645891428,0.005391386337578297,-0.016636088490486145,0.01337736751884222,-0.0006749611347913742,0.02207443118095398
0.02915283292531967,0.005012589041143656,-0.017488986253738403,0.013664157129824162,-0.0006351543124765158,0.022004107013344765
0.029260458424687386,0.004963953513652086,-0.017393967136740685,0.01347657572478056,-0.0005855428171344101,0.02302672155201435
0.02933512255549431,0.004829340614378452,-0.01745847798883915,0.013576172292232513,-0.0005410364829003811,0.023360304534435272
0.02952299453318119,0.0050108167342841625,-0.01783774048089981,0.013666889630258083,-0.0005551386275328696,0.0231479424983263
0.029202159494161606,0.0055974870920181274,-0.017042143270373344,0.013571743853390217,-0.0005231346585787833,0.02328307554125786
0.029202159494161606,0.0055974870920181274,-0.017042143270373344,0.013571743853390217,-0.0005231346585787833,0.02328307554125786
0.029391605406999588,0.005300111602991819,-0.017407778650522232,0.01402056310325861,-0.000546875933650881,0.02317929081618786
0.029528634622693062,0.004974918905645609,-0.017522625625133514,0.013706830330193043,-0.0005655620479956269,0.023404555395245552
0.02946523204445839,0.005248736590147018,-0.017795313149690628,0.014194875955581665,-0.0005403662216849625,0.023270834237337112
0.02932879701256752,0.005153303500264883,-0.017791157588362694,0.013707497157156467,-0.0006380935665220022,0.0224875770509243
0.02934671938419342,0.0056824227795004845,-0.01721978932619095,0.014196020551025867,-0.0005783202359452844,0.022608529776334763
0.029372768476605415,0.0053899711929261684,-0.017916487529873848,0.013603425584733486,-0.0006088291993364692,0.023033184930682182
0.029220419004559517,0.004880932159721851,-0.018116194754838943,0.014084087684750557,-0.000552744313608855,0.024030234664678574
0.029782583937048912,0.004744650796055794,-0.017502399161458015,0.013470779173076153,-0.000573744298890233,0.0240568108856678
0.02961391769349575,0.005116215907037258,-0.017948955297470093,0.013987796381115913,-0.0005348106496967375,0.023835472762584686
0.029512343928217888,0.005133307073265314,-0.01817319355905056,0.013605712912976742,-0.0004935212200507522,0.023756008595228195
0.029400385916233063,0.005295877810567617,-0.018207179382443428,0.014481373131275177,-0.0005141308647580445,0.023731257766485214
0.030414074659347534,0.005457135848701,-0.018633954226970673,0.013835814781486988,-0.0004870358679909259,0.023823024705052376
0.031084228307008743,0.005534850526601076,-0.017716513946652412,0.014278104528784752,-0.0004566349962260574,0.02395133301615715
0.030650397762656212,0.005212801042944193,-0.018366219475865364,0.013802091591060162,-0.0004274439997971058,0.024065742269158363
0.029583090916275978,0.005229451693594456,-0.018257752060890198,0.013934687711298466,-0.0004220131377223879,0.024162594228982925
0.030569329857826233,0.00511489063501358,-0.018402274698019028,0.014359261840581894,-0.0003992541751358658,0.02422274649143219
0.03010404296219349,0.005070309154689312,-0.019067246466875076,0.014334222301840782,-0.00037226604763418436,0.024590227752923965
0.030321618542075157,0.005147432442754507,-0.01860188879072666,0.01485772617161274,-0.00040227253339253366,0.024724900722503662
0.030726995319128036,0.0049078213050961494,-0.019058141857385635,0.01434460747987032,-0.0003814320079982281,0.025317924097180367
0.03055976890027523,0.005193829070776701,-0.019303228706121445,0.014378043822944164,-0.00040771591011434793,0.02435828186571598
0.02996417135000229,0.005045505240559578,-0.018831776455044746,0.014170698821544647,-0.00048968440387398,0.023802747949957848
0.030097361654043198,0.004869396798312664,-0.0186639241874218,0.014588057063519955,-0.00047303634346462786,0.024594543501734734
0.03052392415702343,0.00521821528673172,-0.018504289910197258,0.014256288297474384,-0.0004300676519051194,0.02480085752904415
0.030774975195527077,0.004860770422965288,-0.01882364973425865,0.014820948243141174,-0.0004655617813114077,0.0247500017285347
0.031161176040768623,0.00485460227355361,-0.019370004534721375,0.01448313519358635,-0.0004329743387643248,0.02494574524462223
0.031169449910521507,0.004754907451570034,-0.01935925893485546,0.014984922483563423,-0.00043351194472052157,0.02450508624315262
0.031169449910521507,0.004754907451570034,-0.01935925893485546,0.014984922483563423,-0.00043351194472052157,0.02450508624315262
0.03102988936007023,0.004874545615166426,-0.018941711634397507,0.014734065160155296,-0.00043334747897461057,0.024355322122573853
0.030522426590323448,0.005153695121407509,-0.01895289309322834,0.015342539176344872,-0.00045756250619888306,0.024335673078894615
0.03091016598045826,0.004856293089687824,-0.019800378009676933,0.01485123299062252,-0.00043679148075170815,0.024373752996325493
0.03091754950582981,0.004844693932682276,-0.01931590773165226,0.015010952949523926,-0.0004456503957044333,0.024627232924103737
0.031000250950455666,0.004834501538425684,-0.01929970271885395,0.014620342291891575,-0.00043565905070863664,0.024764420464634895
0.031063226982951164,0.005056610330939293,-0.019291790202260017,0.014911800622940063,-0.00046796692186035216,0.024804668501019478
0.031057056039571762,0.004933213349431753,-0.0192569512873888,0.014476622454822063,-0.0004931719158776104,0.024898052215576172
0.03153795003890991,0.005253975745290518,-0.018803885206580162,0.01486582774668932,-0.0004733993555419147,0.025062093511223793
0.03020656481385231,0.005195919889956713,-0.01880202442407608,0.014724628999829292,-0.0004958129720762372,0.02537401206791401
0.03202090412378311,0.004496810957789421,-0.019414404407143593,0.015172341838479042,-0.00047087567509151995,0.025202007964253426
0.03177786245942116,0.0044108228757977486,-0.020451555028557777,0.014791978523135185,-0.0005742807406932116,0.024806121364235878
0.031683582812547684,0.0045336470939219,-0.020452357828617096,0.014828442595899105,-0.0005492965574376285,0.025112638249993324
0.03155951946973801,0.005250230431556702,-0.019572149962186813,0.014760189689695835,-0.000583359447773546,0.02567260153591633
0.03220408037304878,0.00498924870043993,-0.019724546000361443,0.01545240730047226,-0.0005319782067090273,0.025648443028330803
0.03170135244727135,0.004563597030937672,-0.019046178087592125,0.01587090454995632,-0.0005180463776923716,0.024597346782684326
0.032553862780332565,0.004241142421960831,-0.0199819877743721,0.015195001848042011,-0.0005295082810334861,0.025713305920362473
0.03237215057015419,0.004461720585823059,-0.02041855826973915,0.014739720150828362,-0.0005078031681478024,0.02638196013867855
0.032540857791900635,0.004661467391997576,-0.02014724165201187,0.015247935429215431,-0.0004753527173306793,0.02597813308238983
0.0330275222659111,0.005200977902859449,-0.020222991704940796,0.015222347341477871,-0.0004786115023307502,0.02671807073056698
0.033008500933647156,0.0050634052604436874,-0.020514044910669327,0.015508723445236683,-0.0004357577417977154,0.027787694707512856
0.03282846882939339,0.004868085030466318,-0.020022660493850708,0.01515057310461998,-0.0004659501719288528,0.02667510323226452
0.032537586987018585,0.00501642981544137,-0.01994345895946026,0.01590980403125286,-0.0004728446656372398,0.024537572637200356
0.032993003726005554,0.0048827254213392735,-0.020777611061930656,0.015962308272719383,-0.0004703439481090754,0.025584839284420013
0.033834490925073624,0.004577029496431351,-0.020849455147981644,0.016312269493937492,-0.0004980734083801508,0.026454651728272438
0.03434743359684944,0.005061976611614227,-0.020398763939738274,0.01604071632027626,-0.00046952886623330414,0.027080846950411797
0.032673344016075134,0.005424474831670523,-0.02036839909851551,0.016142183914780617,-0.0005590040818788111,0.026739459484815598
0.03224469721317291,0.004984575789421797,-0.020534232258796692,0.016376517713069916,-0.0005890369066037238,0.026071514934301376
0.03396579995751381,0.004828601609915495,-0.01993911899626255,0.01626400277018547,-0.0005529137561097741,0.02659616433084011
0.03396579995751381,0.004828601609915495,-0.01993911899626255,0.01626400277018547,-0.0005529137561097741,0.02659616433084011
0.033482421189546585,0.004748993087559938,-0.020261043682694435,0.01679222472012043,-0.0005643163458444178,0.026534732431173325
0.03368135169148445,0.004438663832843304,-0.020836440846323967,0.016405025497078896,-0.000535371305886656,0.02665928564965725
0.03448935225605965,0.004613904748111963,-0.021452615037560463,0.016527749598026276,-0.0005555218667723238,0.026413120329380035
0.0341583713889122,0.004789553117007017,-0.020317764952778816,0.016254857182502747,-0.0005909784813411534,0.026435285806655884
0.033468618988990784,0.005596359726041555,-0.020217427983880043,0.01643097959458828,-0.0006810972699895501,0.026633361354470253
0.03310578316450119,0.005024925339967012,-0.020397337153553963,0.01619856245815754,-0.00070966687053442,0.026470433920621872
0.03433212265372276,0.004463711753487587,-0.02048056200146675,0.01580129563808441,-0.0007295689429156482,0.026505442336201668
0.03323252499103546,0.004458534065634012,-0.020238231867551804,0.016093173995614052,-0.0008537943358533084,0.02695373445749283
0.034584008157253265,0.004603392444550991,-0.020893115550279617,0.015550533309578896,-0.0010078400373458862,0.026848282665014267
0.034603606909513474,0.004992747213691473,-0.02077934518456459,0.01641378365457058,-0.001000036601908505,0.02719425968825817
0.034066688269376755,0.005097975954413414,-0.019946467131376266,0.01615314930677414,-0.0009702128591015935,0.027147727087140083
0.03505196049809456,0.004936068318784237,-0.022140519693493843,0.015999088063836098,-0.0008459688979201019,0.027096977457404137
0.034779127687215805,0.004742990713566542,-0.021648788824677467,0.01617514342069626,-0.0007240440463647246,0.027695948258042336
0.03520228713750839,0.0046709561720490456,-0.020792774856090546,0.016684480011463165,-0.0007147935102693737,0.02756461128592491
0.035264622420072556,0.005202081054449081,-0.021396175026893616,0.016744619235396385,-0.000655431707855314,0.02784297801554203
0.034856848418712616,0.005264530889689922,-0.021435851231217384,0.016816848888993263,-0.0006329091265797615,0.02737755887210369
0.03498734161257744,0.0052107288502156734,-0.021251652389764786,0.016183361411094666,-0.0006134501309134066,0.027405129745602608
0.03541116788983345,0.004789310973137617,-0.021739449352025986,0.016397133469581604,-0.0005614928668364882,0.028564447537064552
0.03634379804134369,0.004557217005640268,-0.022110367193818092,0.016658375039696693,-0.0005156701081432402,0.0285307839512825
0.03533930703997612,0.004588834010064602,-0.022039560601115227,0.01708320900797844,-0.00047663450823165476,0.02781670168042183
0.03533930703997612,0.004588834010064602,-0.022039560601115227,0.01708320900797844,-0.00047663450823165476,0.02781670168042183
0.03515038266777992,0.004963697399944067,-0.020907718688249588,0.01678006537258625,-0.0004725261533167213,0.026911335065960884
0.03542592376470566,0.00511752488091588,-0.021879205480217934,0.017008241266012192,-0.00044387055095285177,0.028171930462121964
0.03542592376470566,0.00511752488091588,-0.021879205480217934,0.017008241266012192,-0.00044387055095285177,0.028171930462121964
0.03498070687055588,0.0048191240057349205,-0.0220416858792305,0.01653585210442543,-0.00041811412665992975,0.027590908110141754
0.03596111014485359,0.004627276677638292,-0.021803105250000954,0.016920743510127068,-0.000339153892127797,0.027740830555558205
0.03624995797872543,0.0045779915526509285,-0.02102070301771164,0.017023950815200806,-0.00030868349131196737,0.029037337750196457
0.03464355692267418,0.004545134492218494,-0.021635985001921654,0.01674470864236355,-0.0003164558729622513,0.028376007452607155
0.035015806555747986,0.0052156001329422,-0.02214009128510952,0.017173340544104576,-0.00032327044755220413,0.027968397364020348
0.035984769463539124,0.005231773480772972,-0.021854490041732788,0.016574203968048096,-0.0003442714805714786,0.02724914252758026
0.0357811339199543,0.005046354606747627,-0.02139120362699032,0.016717961058020592,-0.000361299462383613,0.027136892080307007
0.03546315059065819,0.004383486229926348,-0.021976064890623093,0.017101705074310303,-0.00036555418046191335,0.028272954747080803
0.0359402634203434,0.004468502011150122,-0.022099245339632034,0.01695655845105648,-0.0005471821059472859,0.029010577127337456
0.03585398197174072,0.004408789332956076,-0.02160555124282837,0.017051102593541145,-0.0006099363090470433,0.02827235497534275
0.035867154598236084,0.00433069933205843,-0.02161584421992302,0.016261041164398193,-0.0006230475264601409,0.028104763478040695
0.0363895446062088,0.004957106895744801,-0.021956637501716614,0.0166834257543087,-0.0005863646510988474,0.027977703139185905
0.035789769142866135,0.005014318041503429,-0.022115834057331085,0.016896091401576996,-0.0005748054827563465,0.027876371517777443
0.03591567277908325,0.0046821641735732555,-0.021836353465914726,0.017371613532304764,-0.0005636271089315414,0.028124039992690086
0.03676914796233177,0.004379054065793753,-0.021765874698758125,0.017660588026046753,-0.0004904795787297189,0.028755074366927147
0.03627391904592514,0.004510706290602684,-0.021936742588877678,0.01764625683426857,-0.0005127205513417721,0.02868255227804184
0.03635577857494354,0.004839526955038309,-0.021630797535181046,0.017577631399035454,-0.0005095930537208915,0.028827128931879997
0.03635667636990547,0.004944355692714453,-0.02115577831864357,0.01756884530186653,-0.0005027423030696809,0.02885892055928707
0.03545840457081795,0.005064161028712988,-0.021743642166256905,0.018236961215734482,-0.0004995848285034299,0.02880334109067917
0.03700726106762886,0.004967154935002327,-0.021591654047369957,0.0175742506980896,-0.0004943985259160399,0.029162846505641937
0.037136487662792206,0.004374403040856123,-0.021489031612873077,0.01775980181992054,-0.0005172800156287849,0.029112743213772774
0.03721548989415169,0.004272576421499252,-0.021313147619366646,0.017565734684467316,-0.0004919551429338753,0.029133418574929237
0.03721548989415169,0.004272576421499252,-0.021313147619366646,0.017565734684467316,-0.0004919551429338753,0.029133418574929237
0.0369294099509716,0.004794036503881216,-0.021812040358781815,0.017277996987104416,-0.0005980355199426413,0.029147369787096977
0.0369294099509716,0.004794036503881216,-0.021812040358781815,0.017277996987104416,-0.0005980355199426413,0.029147369787096977
0.037013307213783264,0.004970534238964319,-0.021614784374833107,0.01720389351248741,-0.0005937225068919361,0.029209589585661888
0.03745957463979721,0.0046178074553608894,-0.02108553610742092,0.017957301810383797,-0.0006198089104145765,0.02912096492946148
0.037063080817461014,0.004806028213351965,-0.0213516466319561,0.01843094639480114,-0.0006065973429940641,0.029245665296912193
0.03688902035355568,0.004338116385042667,-0.02230794169008732,0.017901161685585976,-0.0008061967673711479,0.029460271820425987
0.03663589805364609,0.004461511503905058,-0.02204606495797634,0.018382728099822998,-0.0008763069054111838,0.02885519340634346
0.03687436878681183,0.004624000750482082,-0.021481873467564583,0.018590491265058517,-0.0008980817510746419,0.02968648448586464
0.038230713456869125,0.00461650500074029,-0.022077374160289764,0.018552621826529503,-0.0010937964543700218,0.029434360563755035
0.037127070128917694,0.0047463905066251755,-0.022263087332248688,0.018419263884425163,-0.001124669681303203,0.02986239455640316
0.03621977940201759,0.004751419182866812,-0.02181090973317623,0.017843017354607582,-0.0010686005698516965,0.030362945050001144
0.03712133690714836,0.004809459671378136,-0.020114459097385406,0.017805133014917374,-0.0010084357345476747,0.029661744832992554
0.03674915432929993,0.004516876768320799,-0.02216358482837677,0.0180717371404171,-0.0009358866373077035,0.028863634914159775
0.038227710872888565,0.004415075294673443,-0.022233547642827034,0.01749674789607525,-0.000826260366011411,0.028883546590805054
0.03889264166355133,0.004665861837565899,-0.022902216762304306,0.017985284328460693,-0.0007679543341509998,0.030199140310287476
0.03714706748723984,0.004741585813462734,-0.022441087290644646,0.018892332911491394,-0.0007233945652842522,0.029771525412797928
0.037927765399217606,0.004827963653951883,-0.021988119930028915,0.018859101459383965,-0.0007375569548457861,0.03083648346364498
0.037581589072942734,0.004722122102975845,-0.022084500640630722,0.018265074118971825,-0.0007540633087046444,0.0301379207521677
0.03762301430106163,0.004522825125604868,-0.022555600851774216,0.017545031383633614,-0.0007939451024867594,0.029385419562458992
0.03806780278682709,0.004645634442567825,-0.022394632920622826,0.018135862424969673,-0.0008088526083156466,0.028864378109574318
0.037385161966085434,0.004503932781517506,-0.021775001659989357,0.01817159913480282,-0.0008193468675017357,0.029811996966600418
0.03792083263397217,0.004504795651882887,-0.022519567981362343,0.01854325272142887,-0.0009393763029947877,0.030665891245007515
0.03811302036046982,0.004544116090983152,-0.022580472752451897,0.018670421093702316,-0.0009789862670004368,0.030737953260540962
0.037435777485370636,0.004560827277600765,-0.02263808809220791,0.01829008385539055,-0.0009157561580650508,0.030546603724360466
0.037772178649902344,0.004345955327153206,-0.022438736632466316,0.018297798931598663,-0.0008519769762642682,0.030671395361423492
0.037772178649902344,0.004345955327153206,-0.022438736632466316,0.018297798931598663,-0.0008519769762642682,0.030671395361423492
0.03782478719949722,0.004515515174716711,-0.02227570302784443,0.01819220930337906,-0.0008572514052502811,0.03016391582787037
0.0384693369269371,0.004652135074138641,-0.022256623953580856,0.01855034939944744,-0.0008357246406376362,0.03064860962331295
0.0384693369269371,0.004652135074138641,-0.022256623953580856,0.01855034939944744,-0.0008357246406376362,0.03064860962331295
0.0381251722574234,0.00414388719946146,-0.022454138845205307,0.018365683034062386,-0.0008399998769164085,0.03080405294895172
0.03677918016910553,0.004349700175225735,-0.022552933543920517,0.018100237473845482,-0.0008395173936150968,0.030361821874976158
0.03795657679438591,0.0048307087272405624,-0.02296954020857811,0.018673762679100037,-0.0008769341511651874,0.03052392415702343
0.037900589406490326,0.004463995341211557,-0.022886380553245544,0.018792159855365753,-0.000845818838570267,0.030708029866218567
0.03875859081745148,0.004485342651605606,-0.022260960191488266,0.01868402771651745,-0.0007887134561315179,0.030992496758699417
0.038360051810741425,0.004923080559819937,-0.02208724059164524,0.01841939054429531,-0.0007985554402694106,0.03003225289285183
0.03687414154410362,0.004959724377840757,-0.02267756499350071,0.018321918323636055,-0.0008142342558130622,0.0316300243139267
0.037050869315862656,0.00467116991057992,-0.02289983071386814,0.0189474169164896,-0.0009255018085241318,0.03144817054271698
0.0386183001101017,0.004859553184360266,-0.022858357056975365,0.018749486654996872,-0.0009280050871893764,0.03122907318174839
0.038511596620082855,0.004756512586027384,-0.022469202056527138,0.018308814615011215,-0.0008654381963424385,0.03137178346514702
0.03818714618682861,0.00466745812445879,-0.02250894159078598,0.018886860460042953,-0.0008582232403568923,0.03132553771138191
0.038436658680438995,0.005125712137669325,-0.02276022918522358,0.018594849854707718,-0.0008403349784202874,0.03146307170391083
0.03870995342731476,0.004928076174110174,-0.02282744273543358,0.018334805965423584,-0.0008784280507825315,0.030712367966771126
0.03882177174091339,0.00463703041896224,-0.022101977840065956,0.018703507259488106,-0.0008869924349710345,0.032345738261938095
0.03858600929379463,0.0050722574815154076,-0.022295352071523666,0.018111173063516617,-0.0008198757423087955,0.03210240602493286
0.03858250379562378,0.004899218678474426,-0.02290971204638481,0.01838982291519642,-0.0008830751175992191,0.030441775918006897
0.03886809200048447,0.004590231459587812,-0.023216065019369125,0.01853225566446781,-0.0008784296223893762,0.030864503234624863
0.03950495645403862,0.004584151785820723,-0.02286677248775959,0.018976952880620956,-0.0007708981283940375,0.031863901764154434
0.039335042238235474,0.004393370822072029,-0.0224711112678051,0.020123964175581932,-0.0007292294758372009,0.03184669837355614
0.03930547460913658,0.004594952333718538,-0.022586258128285408,0.019572250545024872,-0.0006964622880332172,0.03279693424701691
0.04014838859438896,0.004789796192198992,-0.023312468081712723,0.019064180552959442,-0.0007133753970265388,0.03240571543574333
0.03936629742383957,0.004656263627111912,-0.024179557338356972,0.018688548356294632,-0.0006507234065793455,0.031602296978235245
0.03936629742383957,0.004656263627111912,-0.024179557338356972,0.018688548356294632,-0.0006507234065793455,0.031602296978235245
0.039517033845186234,0.004825842101126909,-0.022944990545511246,0.018412072211503983,-0.0006768698804080486,0.03084511309862137
0.039705175906419754,0.004910681396722794,-0.022567395120859146,0.019236644729971886,-0.0006816182867623866,0.03171822428703308
0.04013112559914589,0.004767606034874916,-0.022767940536141396,0.01988847926259041,-0.0006796999368816614,0.032910484820604324
0.04014512151479721,0.004273255821317434,-0.023088688030838966,0.01940063200891018,-0.0006651285220868886,0.031777236610651016
0.03993848338723183,0.004336798097938299,-0.023688025772571564,0.018565436825156212,-0.0008965937304310501,0.03256979212164879
0.04027464985847473,0.0049841091968119144,-0.02387985587120056,0.019474107772111893,-0.0009278050274588168,0.03334340825676918
0.04051969572901726,0.005083092954009771,-0.023264944553375244,0.019572526216506958,-0.0009107992518693209,0.032885827124118805
0.04066125303506851,0.004932540003210306,-0.023987533524632454,0.02020479366183281,-0.0008326577953994274,0.03255434334278107
0.04065972566604614,0.004808916710317135,-0.024983908981084824,0.02044985070824623,-0.000877952785231173,0.032639700919389725
0.04019114002585411,0.004693816415965557,-0.025183524936437607,0.02022872492671013,-0.000864050758536905,0.03273466229438782
0.041690416634082794,0.0047275894321501255,-0.024606900289654732,0.019444547593593597,-0.0007742988527752459,0.03264717012643814
0.04140811413526535,0.004717725794762373,-0.023440340533852577,0.019194383174180984,-0.0007837028242647648,0.03263131156563759
0.03927326574921608,0.004706461448222399,-0.023815736174583435,0.019359420984983444,-0.0007976981578394771,0.03294876217842102
0.04038701578974724,0.004761189687997103,-0.024750463664531708,0.019355235621333122,-0.0007867892854847014,0.03319799154996872
0.041659653186798096,0.004573095124214888,-0.02462468110024929,0.019609682261943817,-0.0008063558489084244,0.03341567516326904
0.0424627922475338,0.004602457396686077,-0.024847188964486122,0.01964542269706726,-0.0008166393963620067,0.033612802624702454
0.04057365655899048,0.0046934932470321655,-0.025116873905062675,0.01962135173380375,-0.0007453800062648952,0.033502738922834396
0.04014045000076294,0.004818690475076437,-0.024881912395358086,0.019372612237930298,-0.0007691480568610132,0.03397580236196518
0.04176678508520126,0.004644670058041811,-0.024385731667280197,0.01875305362045765,-0.0007881948840804398,0.03369930014014244
0.0418747253715992,0.005156682338565588,-0.024499595165252686,0.018627934157848358,-0.0008025058778002858,0.03384198620915413
0.04136034473776817,0.005034786183387041,-0.02483728528022766,0.018630431964993477,-0.0008066262817010283,0.03263387829065323
0.041149549186229706,0.004504093900322914,-0.025022998452186584,0.018379241228103638,-0.0007364547927863896,0.03376877307891846
0.04139650985598564,0.004454705864191055,-0.02564079686999321,0.01889644004404545,-0.0007466865936294198,0.035382241010665894
0.0419129841029644,0.0045747309923172,-0.025430520996451378,0.01941758766770363,-0.0007628792664036155,0.03587828204035759
0.0419129841029644,0.0045747309923172,-0.025430520996451378,0.01941758766770363,-0.0007628792664036155,0.03587828204035759
0.041130416095256805,0.005146346054971218,-0.024900196120142937,0.020036963745951653,-0.0008083959110081196,0.03296403959393501
0.041130416095256805,0.005146346054971218,-0.024900196120142937,0.020036963745951653,-0.0008083959110081196,0.03296403959393501
0.042658835649490356,0.0053704530000686646,-0.025226444005966187,0.02071377821266651,-0.0009239479550160468,0.0340062715113163
0.04228302091360092,0.00453284103423357,-0.0251272264868021,0.020323822274804115,-0.0009650916908867657,0.03438767418265343
0.0403488352894783,0.00450222659856081,-0.025306615978479385,0.020302332937717438,-0.0009579577599652112,0.03541092947125435
0.04173939675092697,0.004518241621553898,-0.02550995722413063,0.020240547135472298,-0.0009503018809482455,0.03520949184894562
0.042304299771785736,0.004665643908083439,-0.025809483602643013,0.019835231825709343,-0.0009426323813386261,0.03457900136709213
0.04315480962395668,0.004897132515907288,-0.025485755875706673,0.01943124458193779,-0.0009755351929925382,0.03346209600567818
0.04309696704149246,0.004814173094928265,-0.025839513167738914,0.02027236856520176,-0.0009662728989496827,0.03456098958849907
0.04117557778954506,0.004250687081366777,-0.02582458406686783,0.02007070556282997,-0.0009263798128813505,0.035396382212638855
0.042096611112356186,0.004188711754977703,-0.025775352492928505,0.019684193655848503,-0.0008689666865393519,0.035497527569532394
0.04301266744732857,0.004518892616033554,-0.02544422633945942,0.02041710540652275,-0.0008422048995271325,0.035380810499191284
0.042668040841817856,0.004736719653010368,-0.02524944394826889,0.020696889609098434,-0.0008557091350667179,0.03429340198636055
0.042404189705848694,0.004824955016374588,-0.02563241869211197,0.020221633836627007,-0.0008619994041509926,0.03524898737668991
0.04269818589091301,0.004884670954197645,-0.025853430852293968,0.02041875198483467,-0.0009223518427461386,0.036253366619348526
0.04286487400531769,0.004718948621302843,-0.02597156912088394,0.020312506705522537,-0.0009514609701000154,0.03574058786034584
0.04283447191119194,0.004393689800053835,-0.02601252682507038,0.02013331837952137,-0.0009276338969357312,0.0358048751950264
0.042484913021326065,0.0046308874152600765,-0.026030905544757843,0.020384013652801514,-0.0009229389834217727,0.03597566485404968
0.04316370561718941,0.005048186052590609,-0.02584119886159897,0.021070796996355057,-0.0008482314879074693,0.03621717542409897
0.04327886551618576,0.004913716111332178,-0.02548607811331749,0.02116570621728897,-0.0009179189219139516,0.03577689081430435
