davideferrari95/blind_handover_controller/data/Test 87 - [2024-02-07 -- 16-09-11]/joint_states_data.csv
shoulder_pan_joint,shoulder_lift_joint,elbow_joint,wrist_1_joint,wrist_2_joint,wrist_3_joint
0.009583557024598122,0.005939618218690157,-0.009830620139837265,0.008030273020267487,-2.5192577192998065e-21,0.009363790974020958
0.009583557024598122,0.005939618218690157,-0.009830620139837265,0.008030273020267487,-2.5192577192998065e-21,0.009363790974020958
0.008594518527388573,0.005805893801152706,-0.011379856616258621,0.007600099314004183,-1.6448952728966377e-22,0.008938032202422619
0.009330985136330128,0.006108409725129604,-0.011292625218629837,0.008363155648112297,-1.0739991759203063e-23,0.009450862184166908
0.008877088315784931,0.00565425306558609,-0.01051305327564478,0.008699903264641762,-7.01244688276056e-25,0.009429487399756908
0.008656774647533894,0.005900772288441658,-0.010681024752557278,0.008069250732660294,-4.5786266555469013e-26,0.009172363206744194
0.009232522919774055,0.006141626741737127,-0.011017933487892151,0.008354583755135536,-2.9895162820833315e-27,0.009324289858341217
0.009144221432507038,0.005432701203972101,-0.011771717108786106,0.008442450314760208,-1.9519405912511577e-28,0.009315739385783672
0.008568407967686653,0.005510429851710796,-0.011530254036188126,0.007879944518208504,-1.2744776707773464e-29,0.009307186119258404
0.008706090040504932,0.005738417152315378,-0.010804208926856518,0.007752635516226292,-8.321428893369326e-31,0.009100401774048805
0.008929722011089325,0.006123208906501532,-0.011910753324627876,0.007706950418651104,-5.433298283215377e-32,0.009073645807802677
0.008929722011089325,0.006123208906501532,-0.011910753324627876,0.007706950418651104,-5.433298283215377e-32,0.009073645807802677
0.00882471539080143,0.005515202414244413,-0.011694492772221565,0.007622297387570143,-3.5475552580732906e-33,0.008832630701363087
0.008288213983178139,0.005685477517545223,-0.010975563898682594,0.007925733923912048,-2.3163001388582978e-34,0.008907968178391457
0.008793406188488007,0.005765634123235941,-0.011229990981519222,0.00799268577247858,-1.5123785191816036e-35,0.009117222391068935
0.008674836717545986,0.00559157133102417,-0.010383307002484798,0.008032994344830513,-9.874750733195666e-37,0.009002994745969772
0.008541458286345005,0.005735993385314941,-0.011219074949622154,0.008000584319233894,-6.447506516933516e-38,0.008838057518005371
0.00876234658062458,0.005952735897153616,-0.011426573619246483,0.007613941095769405,-4.209761228346115e-39,0.009121890179812908
0.008669993840157986,0.00541757233440876,-0.010642677545547485,0.0074297296814620495,-2.748674963742415e-40,0.009332677349448204
0.008672745898365974,0.005318258889019489,-0.011417670175433159,0.007177179213613272,-1.7946429432607932e-41,0.00917553436011076
0.00858094822615385,0.005229726433753967,-0.011102196760475636,0.007810298819094896,-1.171485516175547e-42,0.00919991172850132
0.008677843026816845,0.005746294744312763,-0.010535924695432186,0.008265523239970207,-7.707141553786494e-44,0.008516396395862103
0.008320311084389687,0.005768712144345045,-0.01118502952158451,0.007289608009159565,-0.0,0.008865779265761375
0.008464655838906765,0.005336128640919924,-0.011988175101578236,0.007271985523402691,-0.0,0.009226782247424126
0.008952018804848194,0.0054253581911325455,-0.011782081797719002,0.007640429772436619,-0.0,0.009082556702196598
0.008889940567314625,0.005642550531774759,-0.011371107771992683,0.008372297510504723,-0.0,0.009758679196238518
0.008469933643937111,0.0061827413737773895,-0.011508801952004433,0.008493873290717602,-0.0,0.008910438977181911
0.008561721071600914,0.00583838252350688,-0.011030633933842182,0.007807305548340082,-0.0,0.00959150493144989
0.008730843663215637,0.0055795349180698395,-0.012072735466063023,0.007494821213185787,-0.0,0.008184259757399559
0.008416157215833664,0.005469456780701876,-0.011428621597588062,0.008123539388179779,-0.0,0.008304914459586143
0.008698011748492718,0.005621597170829773,-0.011314935982227325,0.0076515101827681065,-0.0,0.008419509045779705
0.008730987086892128,0.005399920046329498,-0.0116426357999444,0.007257244549691677,-0.0,0.009281904436647892
0.008425028994679451,0.005803395062685013,-0.010841562412679195,0.007991173304617405,-0.0,0.009685401804745197
0.009170038625597954,0.00529635651037097,-0.011195147410035133,0.007941876538097858,-0.0,0.009143457747995853
0.008452590554952621,0.0049768900498747826,-0.011018568649888039,0.007571713533252478,-0.0,0.009188137017190456
0.00854882039129734,0.00530374888330698,-0.011236653663218021,0.0074601853266358376,-0.0,0.00957739818841219
0.009000971913337708,0.005111288744956255,-0.012204906903207302,0.007699495647102594,-0.0,0.009161842986941338
0.008262401446700096,0.004067595582455397,-0.011282327584922314,0.008129659108817577,-0.0,0.008956958539783955
0.008262401446700096,0.004067595582455397,-0.011282327584922314,0.008129659108817577,-0.0,0.008956958539783955
0.008423064835369587,0.003087795339524746,-0.011312718503177166,0.007925386540591717,-0.0,0.008608143776655197
0.007980999536812305,0.002869756193831563,-0.010816418565809727,0.007540248334407806,-0.0,0.009262839332222939
0.008715705946087837,0.003451546188443899,-0.010666070505976677,0.0076805236749351025,-0.0,0.008859232068061829
0.008141772821545601,0.003918023314327002,-0.011671464890241623,0.007759290747344494,-0.0,0.008621460758149624
0.00835599284619093,0.003876542206853628,-0.011554470285773277,0.008106346242129803,-0.0,0.008724566549062729
0.008554196916520596,0.0037374908570200205,-0.01154740247875452,0.008314867503941059,-0.0,0.008684678934514523
0.00851352047175169,0.0032845214009284973,-0.012058128602802753,0.008050358854234219,-0.0,0.008798289112746716
0.008251088671386242,0.003291203873232007,-0.010575746186077595,0.008038650266826153,-0.0,0.008614479564130306
0.008098474703729153,0.0035251746885478497,-0.012101022526621819,0.007696295157074928,-0.0,0.008371952921152115
0.008421720005571842,0.003604038618505001,-0.01146461721509695,0.007935181260108948,-0.0,0.00882524810731411
0.00853577721863985,0.0034059109166264534,-0.0111250514164567,0.008222043514251709,-0.0,0.00867580808699131
0.00830678641796112,0.0032940139062702656,-0.01126230601221323,0.0077879829332232475,-0.0,0.008334990590810776
0.008711766451597214,0.003185209585353732,-0.011268969625234604,0.007970752194523811,-0.0,0.008689318783581257
0.008579239249229431,0.003035459201782942,-0.010886354371905327,0.007792225107550621,-0.0,0.008694297634065151
0.008333391509950161,0.0031266205478459597,-0.010670416057109833,0.007794903125613928,-0.0,0.008402210660278797
0.008925115689635277,0.0032290213275700808,-0.011513648554682732,0.007514785509556532,-0.0,0.00863755214959383
0.008724217303097248,0.00357054197229445,-0.01117926649749279,0.007985913194715977,-0.0,0.008575491607189178
0.008646922186017036,0.003484640968963504,-0.010877356864511967,0.00783662311732769,-0.0,0.008488684892654419
0.008709564805030823,0.00343108968809247,-0.010794470086693764,0.007498381193727255,-0.0,0.008649662137031555
0.008880872279405594,0.0031350485514849424,-0.010022127069532871,0.00789803545922041,-0.0,0.008365286514163017
0.008372015319764614,0.0029068756848573685,-0.010606094263494015,0.008488696068525314,-0.0,0.0091741057112813
0.008372015319764614,0.0029068756848573685,-0.010606094263494015,0.008488696068525314,-0.0,0.0091741057112813
0.008524214848876,0.003149681258946657,-0.01087257917970419,0.008255730383098125,-0.0,0.00872085615992546
0.008684533648192883,0.003473874880000949,-0.010004685260355473,0.008204114623367786,-0.0,0.008469799533486366
0.008972633630037308,0.003503352403640747,-0.010812808759510517,0.008414634503424168,-0.0,0.009368211962282658
0.008543207310140133,0.0035012871958315372,-0.010875185951590538,0.008368456736207008,-0.0,0.008553976193070412
0.008702853694558144,0.0036261603236198425,-0.011212625540792942,0.008223379962146282,-0.0,0.008533362299203873
0.00942919310182333,0.0038020657375454903,-0.010544335469603539,0.008034011349081993,-0.0,0.008599749766290188
0.008522325195372105,0.0039010331965982914,-0.010189414024353027,0.008257760666310787,-0.0,0.008577968925237656
0.008310062810778618,0.0034493112470954657,-0.010156362317502499,0.008278771303594112,-0.0,0.008181492798030376
0.009095218032598495,0.0038992830086499453,-0.010758456774055958,0.007586358580738306,-0.0,0.008387178182601929
0.009159483946859837,0.004202929325401783,-0.010014768689870834,0.007513810880482197,-0.0,0.008898360654711723
0.00858983863145113,0.004095848184078932,-0.01096960436552763,0.00848453026264906,-0.0,0.008156775496900082
0.008911173790693283,0.003935826476663351,-0.010410230606794357,0.008423799648880959,-0.0,0.007845296524465084
0.008992104791104794,0.003949114121496677,-0.010200201533734798,0.007791692856699228,-0.0,0.007844975218176842
0.008680004626512527,0.004206181038171053,-0.010418757796287537,0.007766583003103733,-0.0,0.008172140456736088
0.009030049666762352,0.003964732866734266,-0.010492517612874508,0.0072814528830349445,-0.0,0.008148395456373692
0.009132462553679943,0.003703819587826729,-0.010681773535907269,0.007320968434214592,-0.0,0.00811668299138546
0.00930614210665226,0.003725482150912285,-0.010226082056760788,0.008108832873404026,-0.0,0.008719696663320065
0.009416933171451092,0.004177717491984367,-0.009837357327342033,0.008493678644299507,-0.0,0.00806806143373251
0.009201176464557648,0.0041226549074053764,-0.01063669752329588,0.007453285623341799,-0.0,0.008087627589702606
0.008617599494755268,0.004104286897927523,-0.01028065662831068,0.006521562580019236,-0.0,0.008432934060692787
0.00945095345377922,0.00410517118871212,-0.010038870386779308,0.006703717168420553,-0.0,0.00820897240191698
0.009414413943886757,0.004068547394126654,-0.010130863636732101,0.007476541213691235,-0.0,0.007842930033802986
0.008911688812077045,0.004052608273923397,-0.009680603630840778,0.00814194418489933,-0.0,0.007847382687032223
0.009229346178472042,0.0040218522772192955,-0.009675989858806133,0.00789901614189148,-0.0,0.00832211785018444
0.009586847387254238,0.004340954590588808,-0.010652122087776661,0.007149185054004192,-0.0,0.008412834256887436
0.008839946240186691,0.004287322983145714,-0.009970931336283684,0.007174569647759199,-0.0,0.00821099802851677
0.00928677897900343,0.00411182688549161,-0.010528316721320152,0.0072487774305045605,-0.0,0.008355682715773582
0.010050352662801743,0.004465235397219658,-0.010330523364245892,0.007936659269034863,-0.0,0.008296677842736244
0.009392371401190758,0.0041990443132817745,-0.008406013250350952,0.007856772281229496,-0.0,0.008254965767264366
0.009392371401190758,0.0041990443132817745,-0.008406013250350952,0.007856772281229496,-0.0,0.008254965767264366
0.009420261718332767,0.0041635530069470406,-0.010968128219246864,0.008130799047648907,-0.0,0.007960508577525616
0.009572206065058708,0.004016697406768799,-0.011120324954390526,0.007688759360462427,-0.0,0.007817136123776436
0.00926177017390728,0.004417148884385824,-0.009719152003526688,0.00725542102009058,-0.0,0.007709615398198366
0.0094672292470932,0.004216134548187256,-0.010102421045303345,0.0077126724645495415,-0.0,0.007660405244678259
0.00970237236469984,0.004536869935691357,-0.010091021656990051,0.007857617922127247,-0.0,0.007835312746465206
0.009732685051858425,0.004720592871308327,-0.009794051758944988,0.0079133789986372,-0.0,0.007694861851632595
0.010480089113116264,0.004468273837119341,-0.01066842395812273,0.007345018908381462,-0.0,0.007802715990692377
0.009922066703438759,0.0042597344145178795,-0.010558947920799255,0.007142077665776014,-0.0,0.007665466517210007
0.009795221500098705,0.004466008860617876,-0.009805560111999512,0.007187362760305405,-0.0,0.007510965224355459
0.010385110974311829,0.00461810315027833,-0.010284604504704475,0.007308268453925848,-0.0,0.00798241700977087
0.011107810772955418,0.0043800086714327335,-0.010272073559463024,0.007253843359649181,-0.0,0.008201554417610168
0.00950427446514368,0.004364234395325184,-0.01074442733079195,0.007601958699524403,-0.0,0.00845293328166008
0.01032605953514576,0.004485680256038904,-0.010151510126888752,0.007460961118340492,-0.0,0.008505448698997498
0.009739616885781288,0.004431047476828098,-0.010305900126695633,0.007366280537098646,-0.0,0.007986445911228657
0.010343775153160095,0.0045114182867109776,-0.011445708572864532,0.007483095396310091,-0.0,0.00764057319611311
0.010055840946733952,0.004162212833762169,-0.010666724294424057,0.00755765987560153,-0.0,0.008086650632321835
0.009691672399640083,0.004367403220385313,-0.011072074063122272,0.00752621702849865,-0.0,0.007938846945762634
0.010272214189171791,0.004318601451814175,-0.010911001823842525,0.007427800912410021,-0.0,0.007591934408992529
0.010316120460629463,0.004995160736143589,-0.010409279726445675,0.00778697757050395,-0.0,0.0074497247114777565
0.00962070468813181,0.004847146570682526,-0.011102884076535702,0.007607901934534311,-0.0,0.007619822397828102
0.010091453790664673,0.004697704222053289,-0.010923439636826515,0.007312552537769079,-0.0,0.00787114817649126
0.010357380844652653,0.004406302701681852,-0.010888567194342613,0.007170536555349827,-0.0,0.007558615878224373
0.009901691228151321,0.004535395186394453,-0.011236606165766716,0.007307430263608694,-0.0,0.007402316201478243
0.010856054723262787,0.004549638368189335,-0.011061113327741623,0.00731084356084466,-0.0,0.007842699065804482
0.010389203205704689,0.00460855383425951,-0.011476839892566204,0.007185259833931923,-0.0,0.007545062806457281
0.010155860334634781,0.004609446041285992,-0.011081620119512081,0.0070684547536075115,-0.0,0.00739642046391964
0.010155860334634781,0.004609446041285992,-0.011081620119512081,0.0070684547536075115,-0.0,0.00739642046391964
0.010546989738941193,0.0046009779907763,-0.010682052001357079,0.0074067930690944195,-0.0,0.007287559565156698
0.010032860562205315,0.00467795180156827,-0.011651537381112576,0.0073355878703296185,-0.0,0.007156318984925747
0.010032860562205315,0.00467795180156827,-0.011651537381112576,0.0073355878703296185,-0.0,0.007156318984925747
0.010850080288946629,0.00465416070073843,-0.011493956670165062,0.007132377475500107,-0.0,0.006766214035451412
0.010086161084473133,0.004377586301416159,-0.01138013880699873,0.0074030691757798195,-0.0,0.006639278959482908
0.01003099326044321,0.004452431108802557,-0.011369525454938412,0.007925164885818958,-0.0,0.007113796658813953
0.010554259642958641,0.004919045139104128,-0.011574331670999527,0.007819625549018383,-0.0,0.007473277393728495
0.010193784721195698,0.004475484602153301,-0.011283685453236103,0.007693869061768055,-0.0,0.007096306886523962
0.010444738902151585,0.004504849202930927,-0.011220091953873634,0.007760806940495968,-0.0,0.006448087282478809
0.010268992744386196,0.004224363714456558,-0.011011752299964428,0.007662303280085325,-0.0,0.006383958272635937
0.010255133733153343,0.003951824735850096,-0.01085648126900196,0.007644721772521734,-0.0,0.007027183659374714
0.010253410786390305,0.004722199402749538,-0.011081619188189507,0.007845821790397167,-0.0,0.007273154798895121
0.010253410786390305,0.004722199402749538,-0.011081619188189507,0.007845821790397167,-0.0,0.007273154798895121
0.010230716317892075,0.004725941456854343,-0.010867753066122532,0.007043273188173771,-0.0,0.007573395501822233
0.010491419583559036,0.004654628224670887,-0.010829399339854717,0.006836283951997757,-0.0,0.007018929813057184
0.010132377967238426,0.004448815248906612,-0.010591631755232811,0.007065490819513798,-0.0,0.006811448838561773
0.010471117682754993,0.0049500237219035625,-0.01072958204895258,0.007052094675600529,-0.0,0.007639856077730656
0.010175129398703575,0.004558128770440817,-0.010686220601201057,0.007184781599789858,-0.0,0.006750469096004963
0.010407567955553532,0.0045484984293580055,-0.010556057095527649,0.007083570584654808,-0.0,0.006559452041983604
0.011027133092284203,0.004332107491791248,-0.01089862547814846,0.00747517216950655,-0.0,0.006686515174806118
0.010193957947194576,0.0048060291446745396,-0.010328531265258789,0.007125456817448139,-0.0,0.007288001477718353
0.010324269533157349,0.00482208700850606,-0.010656404308974743,0.0071524097584187984,-0.0,0.007614695932716131
0.010611206293106079,0.004724158905446529,-0.010420877486467361,0.0072242789901793,-0.0,0.007451401557773352
0.010347384959459305,0.004505210556089878,-0.010492784902453423,0.007490545976907015,-0.0,0.0069226594641804695
0.010295575484633446,0.004457902628928423,-0.011021414771676064,0.007646090816706419,-0.0,0.006854225881397724
0.010295575484633446,0.004457902628928423,-0.011021414771676064,0.007646090816706419,-0.0,0.006854225881397724
0.010379576124250889,0.004466211888939142,-0.011350073851644993,0.007025180384516716,-0.0,0.007331294007599354
0.010817033238708973,0.004577190615236759,-0.010109792463481426,0.006774822250008583,-0.0,0.007323871832340956
0.011335809715092182,0.004870708100497723,-0.010907810181379318,0.007190622389316559,-0.0,0.006788176950067282
0.010616833344101906,0.00458061508834362,-0.010278720408678055,0.008009967394173145,-0.0,0.006837754976004362
0.010623467154800892,0.004551884718239307,-0.010167667642235756,0.007789066527038813,-0.0,0.006768317427486181
0.010901483707129955,0.004976487252861261,-0.010778936557471752,0.007051786407828331,-0.0,0.007223003078252077
0.010725898668169975,0.004457234870642424,-0.01022612676024437,0.007108679972589016,-0.0,0.0068467664532363415
0.010480049066245556,0.004523413721472025,-0.010930105112493038,0.00787102896720171,-0.0,0.006682559847831726
0.011222190223634243,0.004142931662499905,-0.011226290836930275,0.00795824360102415,-0.0,0.0066723632626235485
0.01032708864659071,0.004071736242622137,-0.0099245710298419,0.00764951016753912,-0.0,0.0069289738312363625
0.010561265982687473,0.003617533016949892,-0.010185626335442066,0.007602363359183073,-0.0,0.006625056732445955
0.010584089905023575,0.003564398270100355,-0.010332795791327953,0.007525158580392599,-0.0,0.006263003684580326
0.010359120555222034,0.0037591017317026854,-0.010159610770642757,0.007424405310302973,-0.0,0.006194651126861572
0.010753235779702663,0.0038642275612801313,-0.011228472925722599,0.007476376835256815,-0.0,0.006783065386116505
0.01054986659437418,0.003824707819148898,-0.01031474582850933,0.007712235674262047,-0.0,0.007645825855433941
0.011506590060889721,0.0034077870659530163,-0.010702556930482388,0.007500992622226477,-0.0,0.007079087197780609
0.011420412920415401,0.003878900548443198,-0.010409125126898289,0.007427259348332882,-0.0,0.006899533327668905
0.01053122989833355,0.004223063588142395,-0.01007635798305273,0.007528888061642647,-0.0,0.007187877781689167
0.010716726072132587,0.00406384002417326,-0.010764946229755878,0.007459272630512714,-0.0,0.006844692397862673
0.010165129788219929,0.003511495189741254,-0.010295999236404896,0.007291113957762718,-0.0,0.006371848750859499
0.010942273773252964,0.003588280873373151,-0.010629300028085709,0.007266098167747259,-0.0,0.006426897365599871
0.010843432508409023,0.003809455083683133,-0.010881409049034119,0.00736458133906126,-0.0,0.00670860568061471
0.010261679999530315,0.003424266120418906,-0.010128161869943142,0.007601440418511629,-0.0,0.006558753550052643
0.010684449225664139,0.003596197348088026,-0.01073376927524805,0.007533866446465254,-0.0,0.006522203329950571
0.01113418210297823,0.003222159342840314,-0.010620537213981152,0.007131575141102076,-0.0,0.006306433584541082
0.010740947909653187,0.003386945929378271,-0.010014248080551624,0.007377263158559799,-0.0,0.00579572981223464
0.010707109235227108,0.0036098479758948088,-0.010654345154762268,0.007534082978963852,-0.0,0.006137399934232235
0.010459586046636105,0.0036286248359829187,-0.010077401995658875,0.007569227367639542,-0.0,0.006486131343990564
0.010648499242961407,0.003572373650968075,-0.011003581807017326,0.007108271587640047,-0.0,0.006587138865143061
0.010922417044639587,0.0035374867729842663,-0.010867062024772167,0.007541022729128599,-0.0,0.006166389677673578
0.010922417044639587,0.0035374867729842663,-0.010867062024772167,0.007541022729128599,-0.0,0.006166389677673578
0.010666896589100361,0.0034507436212152243,-0.010639778338372707,0.007992297410964966,-0.0,0.006130238529294729
0.011268394999206066,0.0035581982228904963,-0.010096457786858082,0.007861780002713203,-0.0,0.006507613230496645
0.010629575699567795,0.003357183886691928,-0.010704944841563702,0.007586176972836256,-0.0,0.005969413556158543
0.010285542346537113,0.0034652736503630877,-0.010022370144724846,0.007555881980806589,-0.0,0.005834828596562147
0.010214468464255333,0.003731765318661928,-0.010468832217156887,0.0077422261238098145,-0.0,0.005303637590259314
0.010506987571716309,0.004101247992366552,-0.010503426194190979,0.007476343307644129,-0.0,0.005612154025584459
0.010604125447571278,0.00420968746766448,-0.010409331880509853,0.0069938232190907,-0.0,0.006185056641697884
0.010884254239499569,0.0041029732674360275,-0.010422516614198685,0.007344180252403021,-0.0,0.006199810653924942
0.010289083234965801,0.0034774423111230135,-0.010240061208605766,0.00782135408371687,-0.0,0.005698770750313997
0.010832116939127445,0.0036134158726781607,-0.009615574032068253,0.007380747701972723,-0.0,0.005715060979127884
0.010942944325506687,0.0033440478146076202,-0.010357950814068317,0.006945183500647545,-0.0,0.005345264449715614
0.011163588613271713,0.003571880515664816,-0.01094737183302641,0.0074725402519106865,-0.0,0.0056659807451069355
0.010665702633559704,0.004267045762389898,-0.010082324966788292,0.008398805744946003,-0.0,0.005763560067862272
0.010820696130394936,0.004164279904216528,-0.010290239937603474,0.007961003109812737,-0.0,0.0058126612566411495
0.01087792869657278,0.004265305586159229,-0.010810540057718754,0.008367782458662987,-0.0,0.005423389840871096
0.01056113000959158,0.0036109054926782846,-0.010979081504046917,0.007936310954391956,-0.0,0.0058526284992694855
0.010306093841791153,0.003610920859500766,-0.009910913184285164,0.0075307199731469154,-0.0,0.00562776904553175
0.010610530152916908,0.004042974207550287,-0.01076956745237112,0.007552633062005043,-0.0,0.005743241403251886
0.010293358936905861,0.004228990990668535,-0.010746303014457226,0.007692085113376379,-0.0,0.005648186895996332
0.011600994504988194,0.00374572048895061,-0.010797835886478424,0.0076474412344396114,-0.0,0.0055603994987905025
0.010357476770877838,0.0038864181842654943,-0.01055506058037281,0.007106496021151543,-0.0,0.005390906240791082
0.010963037610054016,0.004146463703364134,-0.010667380876839161,0.006831062957644463,-0.0,0.005891971290111542
0.011305006220936775,0.004079580772668123,-0.010620053857564926,0.007203907240182161,-0.0,0.0053895749151706696
0.011059188283979893,0.003981797024607658,-0.01113412156701088,0.00751029746606946,-0.0,0.005306785460561514
0.011059188283979893,0.003981797024607658,-0.01113412156701088,0.00751029746606946,-0.0,0.005306785460561514
0.011524955742061138,0.0035685221664607525,-0.010753843002021313,0.00770963728427887,-0.0,0.0056345476768910885
0.011524955742061138,0.0035685221664607525,-0.010753843002021313,0.00770963728427887,-0.0,0.0056345476768910885
0.010370783507823944,0.0036152293905615807,-0.011123260483145714,0.007875668816268444,-0.0,0.005841122008860111
0.010473129339516163,0.0038404546212404966,-0.01076534204185009,0.007236636709421873,-0.0,0.005529319867491722
0.011379551142454147,0.0039025521837174892,-0.01185860950499773,0.006934933364391327,-0.0,0.005476348102092743
0.010357524268329144,0.004313265439122915,-0.010601627640426159,0.007132761180400848,-0.0,0.005106303375214338
0.010928771458566189,0.0037355434615164995,-0.011042902246117592,0.007096420507878065,-0.0,0.004750682972371578
0.010928771458566189,0.0037355434615164995,-0.011042902246117592,0.007096420507878065,-0.0,0.004750682972371578
0.010618858970701694,0.003322146600112319,-0.01098895538598299,0.0069775949232280254,-0.0,0.004945509601384401
0.011100782081484795,0.0034498395398259163,-0.012113163247704506,0.007308805361390114,-0.0,0.005285183899104595
0.010706127621233463,0.0037512979470193386,-0.011436122469604015,0.007577086333185434,-0.0,0.005537719000130892
0.01074511744081974,0.00379856675863266,-0.010769679211080074,0.00732795475050807,-0.0,0.005197030957788229
0.0108629846945405,0.00370000209659338,-0.011273721233010292,0.007195453625172377,-0.0,0.0051243542693555355
0.010536493733525276,0.004297023173421621,-0.011309724301099777,0.007177878636866808,-0.0,0.0050558168441057205
0.01106000691652298,0.003906658850610256,-0.011967955157160759,0.007677171379327774,-0.0,0.005028062500059605
0.010694937780499458,0.0037718815729022026,-0.010764392092823982,0.007350263651460409,-0.0,0.004916577599942684
0.011036466807126999,0.003728835377842188,-0.011584591120481491,0.007608173880726099,-0.0,0.004971511196345091
0.011346513405442238,0.004332122392952442,-0.011855226941406727,0.007849296554923058,-0.0,0.0050065647810697556
0.010664407163858414,0.004179693292826414,-0.0115506025031209,0.008023669011890888,-0.0,0.004943632986396551
0.010853479616343975,0.00443927152082324,-0.011473087593913078,0.007315147202461958,-0.0,0.005123763810843229
0.010603118687868118,0.004408803768455982,-0.011493328027427197,0.007152203470468521,-0.0,0.004961106926202774
0.010858460329473019,0.004478407558053732,-0.01186179555952549,0.008515819907188416,-0.0,0.004781126976013184
0.010847276076674461,0.004441662225872278,-0.011472484096884727,0.008125781081616879,-0.0,0.004634382668882608
0.010515539906919003,0.004214162938296795,-0.010781275108456612,0.00763523718342185,-0.0,0.004758178722113371
0.01110855396836996,0.0039932383224368095,-0.01141794491559267,0.007420881185680628,-0.0,0.004683810751885176
0.01074245572090149,0.0043489886447787285,-0.011985301040112972,0.007711426354944706,-0.0,0.0048619345761835575
0.010622869245707989,0.004665760789066553,-0.01173997949808836,0.007204595021903515,-0.0,0.004825187847018242
0.011083584278821945,0.004615956451743841,-0.011420214548707008,0.007176481187343597,-0.0,0.00475334282964468
0.011083584278821945,0.004615956451743841,-0.011420214548707008,0.007176481187343597,-0.0,0.00475334282964468
0.010997590608894825,0.00433800183236599,-0.011655746027827263,0.007585459388792515,-0.0,0.004645777400583029
0.010997590608894825,0.00433800183236599,-0.011655746027827263,0.007585459388792515,-0.0,0.004645777400583029
0.011236823163926601,0.004096965305507183,-0.010945674031972885,0.007455388084053993,-0.0,0.004752859007567167
0.010612553916871548,0.004095867741852999,-0.010893750935792923,0.007714387960731983,-0.0,0.005074032582342625
0.010998067446053028,0.00407136557623744,-0.011561672203242779,0.0076676830649375916,-0.0,0.0049778795801103115
0.010971574112772942,0.004524240270256996,-0.010949418880045414,0.007766112685203552,-1.0590688361844514e-05,0.004421270452439785
0.01094770897179842,0.0047482699155807495,-0.012116417288780212,0.008047094568610191,-6.914962114024092e-07,0.003540467005223036
0.011064614169299603,0.004659650381654501,-0.011464662849903107,0.007764103356748819,-4.514976126301917e-08,0.003501442726701498
0.010812313295900822,0.004482629243284464,-0.011420100927352905,0.00859956257045269,-2.9479565455403645e-09,0.0036326898261904716
0.011420587077736855,0.004140341188758612,-0.011447527445852757,0.008299360051751137,-1.9248047600228801e-10,0.004080457147210836
0.011184785515069962,0.004402328748255968,-0.011071989312767982,0.008073695935308933,-1.2567599738666502e-11,0.004519834648817778
0.010859697125852108,0.004592659883201122,-0.011334680952131748,0.007401648908853531,-8.205744026976158e-13,0.004325307440012693
0.011241837404668331,0.004541525151580572,-0.011110082268714905,0.00799103919416666,-5.357764267508759e-14,0.0039373342879116535
0.011080997064709663,0.0043213628232479095,-0.01047864556312561,0.008182738907635212,-3.498237390072551e-15,0.0036898350808769464
0.011580225080251694,0.004000582732260227,-0.011357391253113747,0.007824912667274475,-1.4913533740016605e-17,0.003931904677301645
0.011700056493282318,0.004272875376045704,-0.010715208016335964,0.007939156144857407,-9.737472977252267e-19,0.003817420220002532
0.01205520611256361,0.004293330945074558,-0.011514510028064251,0.00812794640660286,-6.357873685500521e-20,0.003804032225161791
0.012042508460581303,0.003518834011629224,-0.011896309442818165,0.00762486457824707,-4.151237004149697e-21,0.003784764790907502
0.012286636978387833,0.0031795455142855644,-0.01185447908937931,0.007478184998035431,-2.710461194418551e-22,0.0038188211619853973
0.012350285425782204,0.0032485625706613064,-0.010844318196177483,0.008481106720864773,-1.7697373389766028e-23,0.0039028495084494352
0.01198081485927105,0.004239012021571398,-0.01180246565490961,0.008096758276224136,-1.1555119168769992e-24,0.004304227884858847
0.012338037602603436,0.00408685440197587,-0.01148748118430376,0.008023792877793312,-7.544667546426504e-26,0.0040847137570381165
0.011960461735725403,0.003829634515568614,-0.010793368332087994,0.008502519689500332,-4.926128204314117e-27,0.003843550104647875
0.012360820546746254,0.0036827053409069777,-0.011997544206678867,0.008964511565864086,-3.2164098962385974e-28,0.0037809982895851135
0.012497538700699806,0.003695010207593441,-0.011358746327459812,0.008391370996832848,-2.1000856202638205e-29,0.003867777530103922
0.012710228562355042,0.0037825857289135456,-0.011276908218860626,0.008261146023869514,-1.3712059787935167e-30,0.003975661471486092
0.013181517831981182,0.003337418893352151,-0.011615070514380932,0.00805781502276659,-8.952995794542118e-32,0.003963793627917767
0.012290522456169128,0.003385164076462388,-0.01111562643200159,0.008248028345406055,-5.845666550398033e-33,0.0038687086198478937
0.012599620036780834,0.0034884887281805277,-0.011847163550555706,0.008571184240281582,-3.81680260647112e-34,0.003831335110589862
0.012599620036780834,0.0034884887281805277,-0.011847163550555706,0.008571184240281582,-3.81680260647112e-34,0.003831335110589862
0.012373430654406548,0.0035843076184391975,-0.012150544673204422,0.008321665227413177,-2.492099394223913e-35,0.0034202218521386385
0.012513787485659122,0.003677661996334791,-0.011633417569100857,0.007864776998758316,-1.627162665505497e-36,0.0033553827088326216
0.012295163236558437,0.0035157245583832264,-0.011660697869956493,0.007879435084760189,-1.0624208872428665e-37,0.003231365466490388
0.012543556280434132,0.00352503196336329,-0.011279270984232426,0.007753177545964718,-6.936849189245606e-39,0.003512064227834344
0.012588024139404297,0.0032912588212639093,-0.01156066358089447,0.008604790084064007,-4.5292628834060305e-40,0.003734092926606536
0.01238223072141409,0.0035344292409718037,-0.011669530533254147,0.008143245242536068,-1.250153400178533e-05,0.004000884015113115
0.01287820003926754,0.003832167247310281,-0.011133590713143349,0.008021718822419643,-0.00013623000995721668,0.004006600007414818
0.012079780921339989,0.003857922973111272,-0.0119786337018013,0.00839468277990818,-0.00014008511789143085,0.0038436450995504856
0.012678630650043488,0.003738408675417304,-0.01137695461511612,0.008780747652053833,-0.00013636896619573236,0.0035699813161045313
0.012172399088740349,0.003434313926845789,-0.011805149726569653,0.00879736803472042,-0.00013239076361060143,0.003549335291609168
0.012651259079575539,0.0034245506394654512,-0.012051919475197792,0.008178106509149075,-0.00014766305685043335,0.0032114603091031313
0.012645402923226357,0.0036112512461841106,-0.011094395071268082,0.0085211843252182,-0.00014960717817302793,0.0030408368911594152
0.012598668225109577,0.0041068121790885925,-0.011774883605539799,0.008480535820126534,-0.0001459576451452449,0.003328873310238123
0.012910710647702217,0.004082130268216133,-0.011845364235341549,0.008373865857720375,-0.000138497183797881,0.0033142808824777603
0.013055647723376751,0.003984454087913036,-0.012061760760843754,0.0085224574431777,-0.00014609048957936466,0.0031879651360213757
0.01264484878629446,0.0034671202301979065,-0.011690899729728699,0.00806134007871151,-0.00015294828335754573,0.0030076680704951286
0.013198891654610634,0.0035419382620602846,-0.011643377132713795,0.00820176675915718,-0.0001499868812970817,0.00300011713989079
0.012415340170264244,0.004273450933396816,-0.011413123458623886,0.009127125144004822,-0.0001465421519242227,0.0032898650970309973
0.012912261299788952,0.0045992350205779076,-0.011965444311499596,0.008714516647160053,-0.00015327100118156523,0.0032602441497147083
0.012524348683655262,0.004274172242730856,-0.012083715759217739,0.008143697865307331,-0.00015935563715174794,0.003052517306059599
0.01262152474373579,0.00398262357339263,-0.011723080649971962,0.008287699893116951,-0.00015651069406885654,0.002819080837070942
0.013186462223529816,0.0035013873130083084,-0.012047979980707169,0.008523044176399708,-0.00015322041872423142,0.002516309730708599
0.013565289787948132,0.004034788813441992,-0.011293548159301281,0.008495812304317951,-0.00015003021690063179,0.0025144650135189295
0.013775011524558067,0.004159137606620789,-0.01180369034409523,0.007992537692189217,-0.00019179836090188473,0.0026371281128376722
0.01282823458313942,0.003965636249631643,-0.01210388820618391,0.008632068522274494,-0.00022462573542725295,0.002912126947194338
0.013188679702579975,0.003927076235413551,-0.011974148452281952,0.008848474361002445,-0.00021658642799593508,0.002848151372745633
0.013132339343428612,0.0038708974607288837,-0.011779689230024815,0.00814443826675415,-0.00022702092246618122,0.0028089857660233974
0.013132339343428612,0.0038708974607288837,-0.011779689230024815,0.00814443826675415,-0.00022702092246618122,0.0028089857660233974
0.013756637461483479,0.003634873079136014,-0.011650189757347107,0.008553748950362206,-0.0002358991769142449,0.0025214035995304585
0.013619774952530861,0.0035224035382270813,-0.011888096109032631,0.008546008728444576,-0.00022720191918779165,0.002374031348153949
0.014201857149600983,0.0036512049846351147,-0.012075296603143215,0.008344686590135098,-0.00021810368343722075,0.002345065353438258
0.012762780301272869,0.003973640501499176,-0.011863116174936295,0.007801844272762537,-0.0002422062389086932,0.0026077849324792624
0.013515305705368519,0.0036374235060065985,-0.01176405232399702,0.008595302700996399,-0.00023528366000391543,0.002530463272705674
0.01418308075517416,0.0034628952853381634,-0.011445248499512672,0.00894374493509531,-0.0002269460674142465,0.0024987119249999523
0.014013842679560184,0.0036711220163851976,-0.012245570309460163,0.008178946562111378,-0.00021906218898948282,0.002221222035586834
0.013631908223032951,0.0038697104901075363,-0.012088551186025143,0.008484705351293087,-0.0002117008698405698,0.0022815875709056854
0.013854934833943844,0.0040510594844818115,-0.012306307442486286,0.008543943054974079,-0.0002302028879057616,0.0022956449538469315
0.014101465232670307,0.0038952685426920652,-0.012517284601926804,0.008521233685314655,-0.00022645322314929217,0.002202175324782729
0.01394635159522295,0.0037508923560380936,-0.011990638449788094,0.00864759087562561,-0.0002197686699219048,0.0023332093842327595
0.01432573888450861,0.003695734543725848,-0.012398844584822655,0.009059039875864983,-0.00021327279682736844,0.002222986426204443
0.013780021108686924,0.0036445267032831907,-0.01181258074939251,0.008638170547783375,-0.00020727873197756708,0.002372328657656908
0.014199649915099144,0.003482334315776825,-0.012328739278018475,0.008368461392819881,-0.00025754753733053803,0.0026132718194276094
0.014016026630997658,0.0038844707887619734,-0.012086921371519566,0.008964543230831623,-0.0002474477223586291,0.0024565381463617086
0.014159574173390865,0.004614704288542271,-0.012002645060420036,0.009119655936956406,-0.0002347981062484905,0.0025163781829178333
0.014440774917602539,0.0038806714583188295,-0.012303851544857025,0.008692371658980846,-0.000253654143307358,0.001950794830918312
0.014098340645432472,0.004149897955358028,-0.012835987843573093,0.00990577694028616,-0.00024353402841370553,0.0017364559462293983
0.014135655015707016,0.004249285906553268,-0.012261143885552883,0.009040440432727337,-0.00023310550022870302,0.0015739243244752288
0.013911650516092777,0.004068097565323114,-0.012353524565696716,0.00848401803523302,-0.00022346230980474502,0.0015598922036588192
0.014604165218770504,0.0039354730397462845,-0.012470690533518791,0.00886968057602644,-0.0002479128597769886,0.0016825178172439337
0.014128463342785835,0.00386596517637372,-0.013009811751544476,0.008668136782944202,-0.00024061661679297686,0.0017552264034748077
0.014591388404369354,0.004287035670131445,-0.01286932174116373,0.008694573305547237,-0.0002319004706805572,0.0016840274911373854
0.014304316602647305,0.004163091070950031,-0.012975896708667278,0.009051087312400341,-0.000223675393499434,0.0017981717828661203
0.014737381599843502,0.004265755880624056,-0.012853008694946766,0.009233815595507622,-0.00023112881171982735,0.0016411787364631891
0.014240366406738758,0.004053894896060228,-0.01222713477909565,0.008743351325392723,-0.00023765153309796005,0.0016038734465837479
0.014240366406738758,0.004053894896060228,-0.01222713477909565,0.008743351325392723,-0.00023765153309796005,0.0016038734465837479
0.014291015453636646,0.00420223968103528,-0.01292719691991806,0.009039226919412613,-0.00022383297618944198,0.002007906325161457
0.014291015453636646,0.00420223968103528,-0.01292719691991806,0.009039226919412613,-0.00022383297618944198,0.002007906325161457
0.014783408492803574,0.004128085914999247,-0.012931632809340954,0.008576984517276287,-0.00021708730491809547,0.0018815388903021812
0.014573473483324051,0.003983692266047001,-0.012624445371329784,0.008300170302391052,-0.00024123466573655605,0.001767889130860567
0.014709937386214733,0.00426677567884326,-0.012938159517943859,0.009082467295229435,-0.00023879719083197415,0.0016530343564227223
0.014577008783817291,0.004341204185038805,-0.012982086278498173,0.009269649162888527,-0.00022740429267287254,0.0015316986246034503
0.015271946787834167,0.0045992364175617695,-0.01260351575911045,0.009200656786561012,-0.0002484684227965772,0.001415507635101676
0.014892413280904293,0.004154609981924295,-0.011733124032616615,0.009233812801539898,-0.00024713948369026184,0.0014375719474628568
0.015112504363059998,0.0040269531309604645,-0.012977583333849907,0.009497666731476784,-0.000236949636018835,0.0014559851260855794
0.014723182655870914,0.0039154221303761005,-0.013408769853413105,0.009194857440888882,-0.00025499105686321855,0.0014889774611219764
0.014910233207046986,0.0038602673448622227,-0.012468908913433552,0.00969815906137228,-0.0002535369130782783,0.0013789940858259797
0.014942681416869164,0.003866801271215081,-0.012628677301108837,0.009486365132033825,-0.00024428075994364917,0.0012319633970037103
0.015387563034892082,0.00441429577767849,-0.012626679614186287,0.008868774399161339,-0.00023519727983511984,0.0010536860208958387
0.015226571820676327,0.004146318417042494,-0.013095331378281116,0.008440366014838219,-0.00022673346393276006,0.0010167807340621948
0.01524811889976263,0.0038054301403462887,-0.013307389803230762,0.0094177620485425,-0.000218856570427306,0.0009872688679024577
0.014922408387064934,0.0036948425695300102,-0.012476947158575058,0.009034362621605396,-0.00021150785323698074,0.0009582213824614882
0.014821277931332588,0.0037776196841150522,-0.012923148460686207,0.008593286387622356,-0.00020463662804104388,0.0008818479254841805
0.015204875729978085,0.004084269981831312,-0.013171672821044922,0.008585413917899132,-0.0001921526127262041,0.0008851363672874868
0.01558339037001133,0.0037991313729435205,-0.012240479700267315,0.008604053407907486,-0.000211310078157112,0.0008891518227756023
0.015351440757513046,0.004262504167854786,-0.013030762784183025,0.009085559286177158,-0.00020685930212493986,0.0009551597177051008
0.015126216225326061,0.004124653059989214,-0.01268139947205782,0.00963506754487753,-0.00020118456450290978,0.0010300877038389444
0.014868991449475288,0.00414190674200654,-0.012723744846880436,0.008775850757956505,-0.00019572192104533315,0.0009048785432241857
0.015447533689439297,0.0040411073714494705,-0.012800309807062149,0.009003209881484509,-0.0001905425451695919,0.0008970560738816857
0.015168685466051102,0.004370796959847212,-0.012750771827995777,0.008866086602210999,-0.00018562977493274957,0.0008744185324758291
0.01637694239616394,0.004202503245323896,-0.013131701387465,0.008755701594054699,-0.0001809638342820108,0.0008024576236493886
0.015827443450689316,0.004354532808065414,-0.012103443965315819,0.009027865715324879,-0.00017652711539994925,0.0007216990925371647
0.015597211197018623,0.0043413070961833,-0.012748981826007366,0.00949502270668745,-0.00017230217054020613,0.0006270637386478484
0.015569686889648438,0.0045667970553040504,-0.01259438693523407,0.009221363812685013,-0.0001749672956066206,0.0006032321252860129
0.015569686889648438,0.0045667970553040504,-0.01259438693523407,0.009221363812685013,-0.0001749672956066206,0.0006032321252860129
0.01566678285598755,0.004192131571471691,-0.013299014419317245,0.00879855826497078,-0.0001707328192424029,0.0005847932770848274
0.01569388434290886,0.00412617065012455,-0.012889278121292591,0.009231948293745518,-0.00016464256623294204,0.000606472312938422
0.015481395646929741,0.0039964099414646626,-0.012731182388961315,0.009722525253891945,-0.0001588404702488333,0.0005627794307656586
0.015425805002450943,0.004633847624063492,-0.012694169767200947,0.009309560060501099,-0.0001483657251810655,0.0005456103244796395
0.015425805002450943,0.004633847624063492,-0.012694169767200947,0.009309560060501099,-0.0001483657251810655,0.0005456103244796395
0.01630639098584652,0.004409226588904858,-0.013108460232615471,0.009166943840682507,-0.0001436301099602133,0.0005101880524307489
0.015973739326000214,0.003656183136627078,-0.012208370491862297,0.00957318115979433,-0.00013918698823545128,0.00048322000657208264
0.016025258228182793,0.003435808001086116,-0.012861795723438263,0.009359186515212059,-0.00013501050125341862,0.00043796407408080995
0.01586311310529709,0.003663035575300455,-0.012294407933950424,0.009532591328024864,-0.00013107752602081746,0.0004576724604703486
0.01610088348388672,0.0041953264735639095,-0.012944686226546764,0.00877397507429123,-0.00012736728240270168,0.0004385678330436349
0.016201861202716827,0.004231407307088375,-0.012518786825239658,0.008956539444625378,-0.00012386133312247694,0.000406700128223747
0.015815671533346176,0.004001791123300791,-0.01198944728821516,0.009569462388753891,-0.000141473748954013,0.00037826760672032833
0.01618843339383602,0.0038475848268717527,-0.012723944149911404,0.009545464999973774,-0.00014067032316233963,0.0003534950956236571
0.016022760421037674,0.003910671453922987,-0.01199856586754322,0.009478170424699783,-0.00013728234625887126,0.0003795713128056377
0.016365772113204002,0.004023154731839895,-0.012847493402659893,0.009837855584919453,-0.00013389057130552828,0.00036415731301531196
0.016424622386693954,0.003499899059534073,-0.012551122345030308,0.009695115499198437,-0.00012756529031321406,0.00032679858850315213
0.016248131170868874,0.003657321445643902,-0.012677375227212906,0.009662755765020847,-0.00012462121958378702,0.0003106786753050983
0.016648925840854645,0.00377357704564929,-0.012664498761296272,0.00938417762517929,-0.00012180985504528508,0.00029607393662445247
0.016772236675024033,0.0037747083697468042,-0.012854103930294514,0.00943713542073965,-0.00011912288027815521,0.00028278122772462666
0.016460569575428963,0.004101107362657785,-0.012133914977312088,0.010139867663383484,-0.00011655168054858223,0.00027063043671660125
0.016884122043848038,0.0041999202221632,-0.01259303092956543,0.01025828905403614,-0.00011408899445086718,0.00025948166148737073
0.016880011186003685,0.003543789964169264,-0.012255951762199402,0.010021856054663658,-0.00012910846271552145,0.00024921505246311426
0.01681780070066452,0.0035140810068696737,-0.012962100096046925,0.009835401549935341,-0.00012762633559759706,0.0002397298376308754
0.01669483818113804,0.0036881391424685717,-0.012543503195047379,0.009926319122314453,-0.00012516476272139698,0.00023094094649422914
0.016407150775194168,0.0038434439338743687,-0.013099173083901405,0.009859085083007812,-0.00012273118773009628,0.0002227732475148514
0.016916589811444283,0.0038900759536772966,-0.01289490144699812,0.009860496036708355,-0.00012038640852551907,0.00021516394917853177
0.016541222110390663,0.0038492202293127775,-0.012492732144892216,0.009823230095207691,-0.0001181289553642273,0.00020805691019631922
0.017351852729916573,0.003788463771343231,-0.013278118334710598,0.009690320119261742,-0.00011595467367442325,0.00020140493870712817
0.01665780320763588,0.0041674962267279625,-0.01244798582047224,0.009899625554680824,-0.00012186477397335693,0.00019516526663210243
0.017205780372023582,0.004212503787130117,-0.012976117432117462,0.00989371445029974,-0.00012727534340228885,0.00018930035002995282
0.016866791993379593,0.003937588073313236,-0.012268307618796825,0.00989240687340498,-0.00012554989370983094,0.0001837776944739744
0.016866791993379593,0.003937588073313236,-0.012268307618796825,0.00989240687340498,-0.00012554989370983094,0.0001837776944739744
0.016695966944098473,0.003779985476285219,-0.013095480389893055,0.009867684915661812,-0.00012342997069936246,0.00017856815247796476
0.0176237802952528,0.003750343108549714,-0.012850956991314888,0.009741278365254402,-0.00012135181168559939,7.889546395745128e-05
0.01735617220401764,0.004290814511477947,-0.013200357556343079,0.010272433049976826,-0.00011934044596273452,6.32566589047201e-05
0.016864147037267685,0.004128221422433853,-0.013055249117314816,0.010408366098999977,-0.00011739470210159197,6.0295704315649346e-05
0.01686974987387657,0.0039006771985441446,-0.012505008839070797,0.009769566357135773,-0.00011553642980288714,5.828797657159157e-05
0.016910960897803307,0.0038757810834795237,-0.012937708757817745,0.010146726854145527,-0.00011669641389744356,5.645599230774678e-05
0.017372244969010353,0.0041008456610143185,-0.012427453882992268,0.010532105341553688,-0.00011401134543120861,5.473878263728693e-05
0.017297452315688133,0.0038621723651885986,-0.01341591589152813,0.009272042661905289,-0.00011121130955871195,5.3123065299587324e-05
0.017357010394334793,0.0036213090643286705,-0.013074034824967384,0.009592254646122456,-0.00010853025014512241,3.8936370401643217e-05
0.017296073958277702,0.0036328446585685015,-0.01368261780589819,0.010478248819708824,-0.00010597418440738693,2.5938697945093736e-05
0.017694640904664993,0.003799342317506671,-0.013264712877571583,0.009837011806666851,-0.00012076129496563226,3.1343222417490324e-06
0.01772901602089405,0.003844662569463253,-0.012941280379891396,0.010106487199664116,-0.0001187324887723662,2.0464884187276766e-07
0.017334839329123497,0.003932483494281769,-0.013287834823131561,0.009550982154905796,-0.00011621790326898918,1.3362107864622885e-08
0.01732596755027771,0.004286795388907194,-0.013547084294259548,0.009388525038957596,-0.00011377184273442253,8.724501121548656e-10
0.017493052408099174,0.00418118154630065,-0.012747098691761494,0.009872750379145145,-0.00012520025484263897,5.696475582905869e-11
0.01787092164158821,0.003568443236872554,-0.013513176701962948,0.009658420458436012,-0.0001270539069082588,3.7193915482236495e-12
0.01798212341964245,0.0034325015731155872,-0.012771784327924252,0.010028811171650887,-0.00012482271995395422,2.428496856735074e-13
0.017812365666031837,0.0035746595822274685,-0.013426282443106174,0.010333046317100525,-0.00012241571675986052,-0.00020234507974237204
0.017812365666031837,0.0035746595822274685,-0.013426282443106174,0.010333046317100525,-0.00012241571675986052,-0.00020234507974237204
0.017329350113868713,0.004070854280143976,-0.01249560434371233,0.010418507270514965,-0.00013355142436921597,-0.0009828481124714017
0.017908168956637383,0.003971731290221214,-0.013021719641983509,0.010290738195180893,-0.0001321256859228015,-0.0008363902452401817
0.017908168956637383,0.003971731290221214,-0.013021719641983509,0.010290738195180893,-0.0001321256859228015,-0.0008363902452401817
0.017647795379161835,0.0036380134988576174,-0.013213072903454304,0.010299528017640114,-0.00012751574104186147,-0.0007442472851835191
0.01826733909547329,0.0037538716569542885,-0.013310475274920464,0.010818392038345337,-0.00012546847574412823,-0.0007477011531591415
0.01826733909547329,0.0037538716569542885,-0.013310475274920464,0.010818392038345337,-0.00012546847574412823,-0.0007477011531591415
0.018079735338687897,0.003812146605923772,-0.013282778672873974,0.010299714282155037,-0.00021005075541324914,-0.0006684745894744992
0.01753205992281437,0.0037793752271682024,-0.01341632567346096,0.01035182736814022,-0.00020632907398976386,-0.0007227844325825572
0.01784510351717472,0.0036907242611050606,-0.013583109714090824,0.010245013982057571,-0.00019765090837609023,-0.0013223489513620734
0.017972949892282486,0.004218338523060083,-0.013255608268082142,0.010070113465189934,-0.00018935780099127442,-0.001858966308645904
0.01898033171892166,0.004176494665443897,-0.013574897311627865,0.010658214800059795,-0.00019949357374571264,-0.0017575910314917564
0.018322814255952835,0.0034879420418292284,-0.01338396966457367,0.010186468251049519,-0.00020837706688325852,-0.0016987096751108766
0.01808662712574005,0.0034815550316125154,-0.014292117208242416,0.010060351341962814,-0.00020167788898106664,-0.0015421188436448574
0.018921060487627983,0.00326429377309978,-0.013584963046014309,0.01022302731871605,-0.000194484309758991,-0.0013463810319080949
0.017789512872695923,0.0032946590799838305,-0.013846579939126968,0.009818153455853462,-0.0001877268950920552,-0.0012151781702414155
0.01834581419825554,0.0034542251378297806,-0.012977983802556992,0.010785702615976334,-0.00018141900363843888,-0.001158993341960013
0.01880120299756527,0.0035356348380446434,-0.013912010937929153,0.01058435719460249,-0.00017552217468619347,-0.001205782755278051
0.01863037422299385,0.0034842207096517086,-0.013210770674049854,0.009660658426582813,-0.00019097236508969218,-0.002117002848535776
0.019227134063839912,0.0031876242719590664,-0.01351074781268835,0.01040403638035059,-0.00018654853920452297,-0.0023150662891566753
0.018403008580207825,0.003473675809800625,-0.014346414245665073,0.010569334961473942,-0.00018121064931619912,-0.0020237169228494167
0.01864325813949108,0.0032648611813783646,-0.013861559331417084,0.01051762979477644,-0.00017614560783840716,-0.0017892043106257915
0.018584322184324265,0.0030044736340641975,-0.014018520712852478,0.010664990171790123,-0.00019419057935010642,-0.0017074423376470804
0.018359070643782616,0.0031066371593624353,-0.01408431213349104,0.010079042986035347,-0.00019054040603805333,-0.0018971982644870877
0.01900947466492653,0.0032785215880721807,-0.01407702174037695,0.010868526063859463,-0.0001857223396655172,-0.0024330937303602695
0.01892166957259178,0.0036002297420054674,-0.013638420030474663,0.010746045969426632,-0.00021969364024698734,-0.00269205030053854
0.018353981897234917,0.003831707639619708,-0.013532629236578941,0.010381844826042652,-0.0002149291249224916,-0.002641508588567376
0.019068127498030663,0.003983353730291128,-0.013625545427203178,0.010752031579613686,-0.00020548695465549827,-0.002622608793899417
0.019161218777298927,0.0034996531903743744,-0.013616670854389668,0.010431417264044285,-0.00022557344345841557,-0.0023975162766873837
0.018787896260619164,0.003568786894902587,-0.014328030869364738,0.010738410986959934,-0.0002253020938951522,-0.0024235686287283897
0.01938600093126297,0.0037319562397897243,-0.013742339797317982,0.01043914258480072,-0.0002435725909890607,-0.0022168534342199564
0.019177328795194626,0.0038989840541034937,-0.013993334025144577,0.010455083101987839,-0.00024265283718705177,-0.0020960813853889704
0.019070066511631012,0.003953852225095034,-0.013399098068475723,0.010638770647346973,-0.0002589320356491953,-0.0019518824992701411
0.019070066511631012,0.003953852225095034,-0.013399098068475723,0.010638770647346973,-0.0002589320356491953,-0.0019518824992701411
0.0196883175522089,0.003903117496520281,-0.013800703920423985,0.010807608254253864,-0.00025751712382771075,-0.001874747802503407
0.019600721076130867,0.003544869367033243,-0.013230495154857635,0.010415177792310715,-0.0003523695340845734,-0.002201560651883483
0.018862174823880196,0.0034894312266260386,-0.013768396340310574,0.010916762053966522,-0.0004164049169048667,-0.003419111482799053
0.019285812973976135,0.004231658764183521,-0.0135920075699687,0.01059628464281559,-0.00045370901352725923,-0.003963955212384462
0.019285503774881363,0.004178797360509634,-0.01423047948628664,0.01020513940602541,-0.0004796405555680394,-0.0040598115883767605
0.01914028264582157,0.003518959740176797,-0.013511821627616882,0.010754963383078575,-0.0004934182506985962,-0.0033644221257418394
0.01962675154209137,0.0035384935326874256,-0.013982953503727913,0.01094546914100647,-0.0004942988744005561,-0.002938249846920371
0.01946312189102173,0.003187017049640417,-0.013531498610973358,0.011281766928732395,-0.0008220435120165348,-0.002690243301913142
0.018924785777926445,0.0034617267083376646,-0.014047159813344479,0.01057057362049818,-0.0008673197007738054,-0.0027630182448774576
0.01955135352909565,0.0036379157099872828,-0.013772470876574516,0.010123118758201599,-0.0011416205670684576,-0.003315740032121539
0.019516417756676674,0.0036338933277875185,-0.014220022596418858,0.01097183395177126,-0.0013053895672783256,-0.0037884984631091356
0.01925722137093544,0.003645967924967408,-0.013742703944444656,0.01129462942481041,-0.0012386160669848323,-0.003959178924560547
0.019316894933581352,0.0036418838426470757,-0.014215613715350628,0.010750369168817997,-0.0012624969240278006,-0.003496121149510145
0.01909829117357731,0.003576813265681267,-0.014340706169605255,0.010658392682671547,-0.0013193478807806969,-0.003151166019961238
0.019545679911971092,0.0034378268755972385,-0.014142236672341824,0.010302257724106312,-0.0015719786752015352,-0.003318401053547859
0.01940525323152542,0.003460385138168931,-0.014391854405403137,0.01107815932482481,-0.0015812221681699157,-0.0036761348601430655
0.019568683579564095,0.00346624874509871,-0.014328068122267723,0.01084655337035656,-0.0014763555955141783,-0.004219745751470327
0.019838640466332436,0.0037296395748853683,-0.014340483583509922,0.01043314766138792,-0.001481698825955391,-0.004168535117059946
0.02001628838479519,0.0040125069208443165,-0.014010296203196049,0.010511048138141632,-0.001388306962326169,-0.003996830899268389
0.019692709669470787,0.003857069183140993,-0.014515669085085392,0.010849308222532272,-0.0014175374526530504,-0.003927223850041628
0.019800787791609764,0.0036040868144482374,-0.014271249994635582,0.011392328888177872,-0.0015033181989565492,-0.0035908587742596865
0.019378667697310448,0.003578521776944399,-0.01456940546631813,0.011244922876358032,-0.0014878009678795934,-0.0034073602873831987
0.019378667697310448,0.003578521776944399,-0.01456940546631813,0.011244922876358032,-0.0014878009678795934,-0.0034073602873831987
0.019224325194954872,0.0035731089301407337,-0.014392189681529999,0.011312956921756268,-0.001804899424314499,-0.0035618531983345747
0.019548987969756126,0.003548527369275689,-0.014348294585943222,0.011489532887935638,-0.0017497471999377012,-0.004616717342287302
0.019992468878626823,0.0037479435559362173,-0.01425421517342329,0.011246350593864918,-0.0019351756200194359,-0.0045410641469061375
0.01976495422422886,0.003904018085449934,-0.014768596738576889,0.011567119508981705,-0.0017750286497175694,-0.004448858089745045
0.019049478694796562,0.003938586451113224,-0.01480195764452219,0.011218859814107418,-0.0015095368726179004,-0.004195077810436487
0.020040573552250862,0.0038669200148433447,-0.014836284331977367,0.01095265056937933,-0.0013558374485000968,-0.003966170828789473
0.019960492849349976,0.003771806601434946,-0.014278650283813477,0.01195394154638052,-0.0012616327730938792,-0.0041205123998224735
0.02006320282816887,0.003702897345647216,-0.01458898838609457,0.011400421150028706,-0.0010693323565647006,-0.0039641899056732655
0.019933804869651794,0.004107357002794743,-0.014742199331521988,0.011434710584580898,-0.0010356612037867308,-0.0039059717673808336
0.020045185461640358,0.003662403207272291,-0.015092195942997932,0.012056681327521801,-0.0009140995098277926,-0.004329079296439886
0.01937105692923069,0.0035449331626296043,-0.015001370571553707,0.011012641713023186,-0.0007160702953115106,-0.00405708746984601
0.01987638883292675,0.0035460495855659246,-0.014895464293658733,0.011510064825415611,-0.0006144406506791711,-0.0038999582175165415
0.020125960931181908,0.004242580849677324,-0.014550709165632725,0.011260210536420345,-0.0006189105333760381,-0.004355086013674736
0.020269976928830147,0.004058733582496643,-0.01500773150473833,0.011670992709696293,-0.0005767478724010289,-0.0045467885211110115
0.01881151832640171,0.003943318501114845,-0.014618935063481331,0.012158375233411789,-0.0005224512424319983,-0.004225384909659624
0.021085960790514946,0.0035170316696166992,-0.015850437805056572,0.011278925463557243,-0.0005345772369764745,-0.004296561703085899
0.0206901915371418,0.003528793342411518,-0.015086726285517216,0.01143280602991581,-0.000509323668666184,-0.004949401132762432
0.020219843834638596,0.004130172077566385,-0.0146216144785285,0.011989099904894829,-0.0004394060233607888,-0.004626636393368244
0.020624736323952675,0.004068869166076183,-0.014915910549461842,0.011749666184186935,-0.0004653242358472198,-0.004619359504431486
0.020361170172691345,0.0035951740574091673,-0.014231131412088871,0.011257334612309933,-0.0004404075152706355,-0.004615992773324251
0.020469363778829575,0.0034669660963118076,-0.015405368991196156,0.011841275729238987,-0.00041523066465742886,-0.004637620411813259
0.020830711349844933,0.0035740016028285027,-0.014931006357073784,0.011709632351994514,-0.0003925960336346179,-0.004894494544714689
0.020902123302221298,0.004220921080559492,-0.015590797178447247,0.011792482808232307,-0.00037228831206448376,-0.00516304187476635
0.02059002034366131,0.0041189598850905895,-0.01500975526869297,0.011946489103138447,-0.00035397952888160944,-0.00541386753320694
0.020848466083407402,0.0039004571735858917,-0.01481457520276308,0.011608652770519257,-0.00033738839556463063,-0.0050545246340334415
0.021249178797006607,0.003362520830705762,-0.013161138631403446,0.01239832304418087,-0.00032228222698904574,-0.0047507137060165405
0.020692339166998863,0.0033675022423267365,-0.015285955742001534,0.011423074640333652,-0.00030847141169942915,-0.0042777773924171925
0.020904788747429848,0.004299961496144533,-0.015728378668427467,0.011276115663349628,-0.0002957955002784729,-0.00446974067017436
0.020904788747429848,0.004299961496144533,-0.015728378668427467,0.011276115663349628,-0.0002957955002784729,-0.00446974067017436
0.021116135641932487,0.004233876708894968,-0.015684913843870163,0.011473240330815315,-0.000284710549749434,-0.004711828660219908
0.02109542489051819,0.003916359972208738,-0.01522565633058548,0.01132942084223032,-0.00022036072914488614,-0.0049707116559147835
0.020782234147191048,0.0037472546100616455,-0.014737889170646667,0.011517074890434742,-0.00020692261750809848,-0.005482825450599194
0.020929565653204918,0.0037365413736552,-0.015031823888421059,0.012055795639753342,-0.00019761707517318428,-0.005120499990880489
0.021233433857560158,0.004352768883109093,-0.01482409331947565,0.011478859931230545,-0.00018928856297861785,-0.004781373776495457
0.021142277866601944,0.0041877212934195995,-0.015438908711075783,0.01136795338243246,-0.00018164535867981613,-0.004813163075596094
0.02063562534749508,0.004103515297174454,-0.01498888898640871,0.011038034223020077,-0.00017459616356063634,-0.005155979190021753
0.021097255870699883,0.0040361653082072735,-0.015636563301086426,0.011767325922846794,-0.0001680741406744346,-0.0055220406502485275
0.021171072497963905,0.0038829438854008913,-0.014898118562996387,0.011734138242900372,-0.00016202150436583906,-0.0052735283970832825
0.020917929708957672,0.00428386963903904,-0.015295946039259434,0.011981063522398472,-0.00015639008779544383,-0.005047656130045652
0.021084511652588844,0.004216531757265329,-0.014741579070687294,0.011947518214583397,-0.00015113675908651203,-0.004930251743644476
0.02158237434923649,0.004014352336525917,-0.01569860801100731,0.011618385091423988,-0.00014622500748373568,-0.004931844770908356
0.021456824615597725,0.0038321283645927906,-0.014885524287819862,0.011809169314801693,-0.00015551452815998346,-0.005230577662587166
0.021145936101675034,0.003937235567718744,-0.015122326090931892,0.011846833862364292,-0.0001598210510564968,-0.004774386994540691
0.021249745041131973,0.003879179712384939,-0.015317538753151894,0.011445182375609875,-0.00015528050425928086,-0.004582613240927458
0.021223003044724464,0.0038090874440968037,-0.01542804017663002,0.010979648679494858,-0.00015094330592546612,-0.004856495186686516
0.021556008607149124,0.004381427075713873,-0.01601070538163185,0.011107761412858963,-0.00014683871995657682,-0.005438495893031359
0.021598735824227333,0.004168408457189798,-0.016096463426947594,0.010673293843865395,-0.00014295135042630136,-0.005520234815776348
0.022274544462561607,0.003921366762369871,-0.015435938723385334,0.010770179331302643,-0.0001392645644955337,-0.005699316971004009
0.022127384319901466,0.0041342549957334995,-0.015580380335450172,0.011021120473742485,-0.0001357627916149795,-0.005848696921020746
0.021312450990080833,0.004209823906421661,-0.014993804506957531,0.010821576230227947,-0.00013243316789157689,-0.0055176811292767525
0.020722635090351105,0.004568499978631735,-0.016080858185887337,0.010768052190542221,-0.0001292629021918401,-0.005449175368994474
0.021496428176760674,0.004285638220608234,-0.015656648203730583,0.010828984901309013,-0.0001262409205082804,-0.005552720278501511
0.022127024829387665,0.004240010865032673,-0.016125857830047607,0.010935737751424313,-0.0001233568909810856,-0.005945819430053234
0.0222283024340868,0.004136388190090656,-0.01577841490507126,0.011998793110251427,-0.00012060179142281413,-0.0064107319340109825
0.021185487508773804,0.004381038248538971,-0.01599222794175148,0.012816726230084896,-0.00011796696344390512,-0.006115577183663845
0.021185487508773804,0.004381038248538971,-0.01599222794175148,0.012816726230084896,-0.00011796696344390512,-0.006115577183663845
0.022128477692604065,0.004222474060952663,-0.015730995684862137,0.012636966072022915,-0.00013340203440748155,-0.00616016611456871
0.02242337353527546,0.004015359096229076,-0.015758737921714783,0.012619804590940475,-0.00013178268272895366,-0.00562757533043623
0.022324219346046448,0.004465923178941011,-0.015729110687971115,0.012323650531470776,-0.0001291575754294172,-0.005422175396233797
0.02199872024357319,0.004213512409478426,-0.01550723984837532,0.012665413320064545,-0.00012656768376473337,-0.005490545183420181
0.022061815485358238,0.003931946586817503,-0.016049856320023537,0.011888129636645317,-0.00012407526082824916,-0.005554140079766512
0.02195337973535061,0.004143112804740667,-0.015515428967773914,0.011859023943543434,-0.0001216786986333318,-0.005149249453097582
0.021830013021826744,0.004226283170282841,-0.0159953311085701,0.0119093032553792,-0.00011937310773646459,-0.005775720812380314
0.02238996885716915,0.004274051170796156,-0.015298829413950443,0.01236521452665329,-0.00011715333675965667,-0.005644132383167744
0.022903837263584137,0.004013316705822945,-0.015773434191942215,0.012174036353826523,-0.00011501446715556085,-0.005945729557424784
0.022691547870635986,0.003797190962359309,-0.016127534210681915,0.011962867341935635,-0.00012697560305241495,-0.005982255097478628
0.022672511637210846,0.0037978633772581816,-0.016049109399318695,0.012271443381905556,-0.00012667677947320044,-0.005947470664978027
0.022494101896882057,0.003892742795869708,-0.016384759917855263,0.01182806771248579,-0.00012461078586056828,-0.006052266340702772
0.022428132593631744,0.004365113563835621,-0.015786148607730865,0.011851806193590164,-0.00012249883729964495,-0.006028555333614349
0.0225993525236845,0.004565659910440445,-0.01591070368885994,0.011751679703593254,-0.00012045010953443125,-0.006065902300179005
0.022875111550092697,0.004323950968682766,-0.01599731110036373,0.01195296086370945,-0.00010977594502037391,-0.006277786567807198
0.02248956821858883,0.004207917954772711,-0.015672890469431877,0.011992111802101135,-0.00010517126793274656,-0.00638632383197546
0.022922402247786522,0.0040121679194271564,-0.01687587797641754,0.012940057553350925,-0.0001026392201310955,-0.005997534841299057
0.02310093306005001,0.004060185048729181,-0.016110077500343323,0.013010326772928238,-0.00010034172737505287,-0.006043166853487492
0.023013819009065628,0.003963944967836142,-0.015898093581199646,0.012857512570917606,-9.815242083277553e-05,-0.006410186644643545
0.02310812659561634,0.004395791329443455,-0.015980051830410957,0.012855065986514091,-0.00011274657299509272,-0.006559137254953384
0.023037400096654892,0.004216582048684359,-0.016359107568860054,0.011949571780860424,-0.00011269473179709166,-0.006553643848747015
0.02302507869899273,0.004351313225924969,-0.017075179144740105,0.011838563717901707,-0.00011053815978812054,-0.0068369051441550255
0.023234782740473747,0.004659377504140139,-0.016758330166339874,0.011281326413154602,-0.00010833043052116409,-0.006511625833809376
0.02303428016602993,0.0044522457756102085,-0.016704468056559563,0.012381190434098244,-0.00010620048124110326,-0.0062456876039505005
0.02309887483716011,0.0042915730737149715,-0.016142738983035088,0.01270594447851181,-0.00012035511463182047,-0.006746881641447544
0.02309887483716011,0.0042915730737149715,-0.016142738983035088,0.01270594447851181,-0.00012035511463182047,-0.006746881641447544
0.02315281145274639,0.0044163903221488,-0.01649150252342224,0.012715556658804417,-0.00011699264723574743,-0.006857707165181637
0.02315281145274639,0.0044163903221488,-0.01649150252342224,0.012715556658804417,-0.00011699264723574743,-0.006857707165181637
0.02341449446976185,0.004232665523886681,-0.016231855377554893,0.011896440759301186,-0.00011486397124826908,-0.006261075846850872
0.023606333881616592,0.004460099618881941,-0.017148874700069427,0.0120919244363904,-0.00011280752369202673,-0.006372928619384766
0.023365328088402748,0.004607006907463074,-0.016911432147026062,0.01161431334912777,-0.00011082316632382572,-0.006745853461325169
0.023409249261021614,0.004225980956107378,-0.01710483990609646,0.012540829367935658,-0.00012242943921592087,-0.006967455614358187
0.02305222488939762,0.004144682548940182,-0.01634933240711689,0.01265077292919159,-0.0001222175342263654,-0.007182941772043705
0.02334844507277012,0.003994619939476252,-0.01684022694826126,0.013003540225327015,-0.00012029735080432147,-0.006910864729434252
0.02384657971560955,0.004409127403050661,-0.01677863486111164,0.01314419787377119,-0.00011832823656732216,-0.007386343088001013
0.024605628103017807,0.004646416753530502,-0.016619205474853516,0.01254621148109436,-0.00011641559831332415,-0.007717476226389408
0.024362260475754738,0.004705729894340038,-0.017400097101926804,0.01261846348643303,-0.0001611843181308359,-0.0072669037617743015
0.02399558760225773,0.004486234858632088,-0.016557134687900543,0.012158743105828762,-0.00019812816753983498,-0.006819379050284624
0.021565642207860947,0.004514249972999096,-0.016506483778357506,0.012707781977951527,-0.00021137918520253152,-0.006851809564977884
0.02435184083878994,0.004506142809987068,-0.016471629962325096,0.013017796911299229,-0.00022048821847420186,-0.007240844890475273
0.0250186026096344,0.004159445874392986,-0.01630394719541073,0.012683308683335781,-0.000239202068769373,-0.006913190241903067
0.024144157767295837,0.0036423029378056526,-0.01667754165828228,0.012144659645855427,-0.0002546662581153214,-0.005988801829516888
0.024391252547502518,0.003568826010450721,-0.01697266288101673,0.012787237763404846,-0.00042976366239599884,-0.0067846691235899925
0.02429596520960331,0.003794359974563122,-0.016379209235310555,0.012738382443785667,-0.0005406668642535806,-0.007005712948739529
0.024448471143841743,0.0043260823003947735,-0.016387389972805977,0.013308106921613216,-0.0005835609626956284,-0.00722211878746748
0.024331606924533844,0.004256368149071932,-0.01663745939731598,0.012681427411735058,-0.0005326165119186044,-0.006817764602601528
0.02388334833085537,0.0035273677203804255,-0.016655275598168373,0.01302757952362299,-0.0005602049641311169,-0.006683912593871355
0.02408977970480919,0.0035157855600118637,-0.017350923269987106,0.013077417388558388,-0.0005189492949284613,-0.0068613444454967976
0.02408977970480919,0.0035157855600118637,-0.017350923269987106,0.013077417388558388,-0.0005189492949284613,-0.0068613444454967976
0.024877553805708885,0.0037866225466132164,-0.016514593735337257,0.012775258161127567,-0.0004797234432771802,-0.007194412872195244
0.02506430074572563,0.004028754774481058,-0.01707351766526699,0.012763557024300098,-0.0005049808532930911,-0.007032915484160185
0.02464594691991806,0.003498426405712962,-0.01670820266008377,0.012776193208992481,-0.0004754803376272321,-0.007024032063782215
0.024728940799832344,0.003449111944064498,-0.01663043536245823,0.013088800944387913,-0.00048246190999634564,-0.0071382359601557255
0.02475697360932827,0.0035805602092295885,-0.01686202920973301,0.012492445297539234,-0.0004485497483983636,-0.007234969176352024
0.02517676167190075,0.0036835409700870514,-0.016411881893873215,0.01255121547728777,-0.00044815591536462307,-0.00657060369849205
0.02521420270204544,0.0036213011480867863,-0.017181143164634705,0.01197862159460783,-0.00044687101035378873,-0.007009218446910381
0.024756984785199165,0.003578786738216877,-0.0168408565223217,0.01257416047155857,-0.0004148645675741136,-0.006988273002207279
0.02511931210756302,0.003650541417300701,-0.017172768712043762,0.012655165046453476,-0.00044085411354899406,-0.0078920628875494
0.025077247992157936,0.0037035380955785513,-0.017143741250038147,0.01246040128171444,-0.0004190902109257877,-0.007803775370121002
0.02491115778684616,0.003558296710252762,-0.016665194183588028,0.012727968394756317,-0.00044198991963639855,-0.0068022869527339935
0.025309694930911064,0.0035903973039239645,-0.01694263145327568,0.012352284975349903,-0.0004227030149195343,-0.006820656359195709
0.025794973596930504,0.004085260443389416,-0.016373420134186745,0.012993794865906239,-0.0003996661107521504,-0.0076340013183653355
0.025734979659318924,0.003980623092502356,-0.01729130931198597,0.012486422434449196,-0.0004266065952833742,-0.007691614795476198
0.025624336674809456,0.003594753798097372,-0.01696597971022129,0.012474295683205128,-0.00043541850754991174,-0.007388145662844181
0.02586640976369381,0.0033743411768227816,-0.01674715057015419,0.012650382705032825,-0.00043566161184571683,-0.008001565001904964
0.025566380470991135,0.0039288862608373165,-0.016364620998501778,0.01324477605521679,-0.00043553614523261786,-0.00857678335160017
0.025719940662384033,0.003914076369255781,-0.016810577362775803,0.01258508488535881,-0.00046170171117410064,-0.008108469657599926
0.025873646140098572,0.0037231938913464546,-0.016620878130197525,0.012670118361711502,-0.000440792937297374,-0.007485720328986645
0.025829700753092766,0.0037348864134401083,-0.017032386735081673,0.01261921226978302,-0.0005729955155402422,-0.007687856443226337
0.026305191218852997,0.004385588224977255,-0.017249053344130516,0.013349683955311775,-0.000569104275200516,-0.00802694819867611
0.026810290291905403,0.004146223422139883,-0.016765903681516647,0.013292914256453514,-0.000555885664653033,-0.008612196892499924
0.026156021282076836,0.003899906761944294,-0.016701627522706985,0.013265294954180717,-0.0005684855277650058,-0.008506146259605885
0.026258785277605057,0.003955928608775139,-0.016309140250086784,0.013189204037189484,-0.0005390777951106429,-0.007947881706058979
0.026838144287467003,0.004078739322721958,-0.017540384083986282,0.013956761918962002,-0.0005637917201966047,-0.007998256012797356
0.02643347904086113,0.004060558043420315,-0.01734808087348938,0.013508528470993042,-0.0005270468536764383,-0.008238482289016247
0.02625437267124653,0.004035934805870056,-0.016911208629608154,0.013221148401498795,-0.0005723641952499747,-0.008370216935873032
0.02625437267124653,0.004035934805870056,-0.016911208629608154,0.013221148401498795,-0.0005723641952499747,-0.008370216935873032
0.02628101222217083,0.0039472016505897045,-0.017323080450296402,0.013449099846184254,-0.0005636499263346195,-0.008489689789712429
0.02697315812110901,0.00439411448314786,-0.01691492833197117,0.013259798288345337,-0.0005507792811840773,-0.00868980959057808
0.02689850702881813,0.004141864366829395,-0.01731126569211483,0.013334657065570354,-0.0005745522794313729,-0.008426551707088947
0.02698342129588127,0.003965592011809349,-0.017301006242632866,0.012823213823139668,-0.0005356542533263564,-0.008441874757409096
0.02714795432984829,0.0039770398288965225,-0.016516780480742455,0.013510262593626976,-0.0005460805259644985,-0.008824693039059639
0.026191692799329758,0.004012463614344597,-0.018091542646288872,0.012935945764183998,-0.000522555026691407,-0.009235775098204613
0.02649869956076145,0.003994813654571772,-0.017812250182032585,0.013626046478748322,-0.0005520602571777999,-0.009491275064647198
0.02747129462659359,0.003989185206592083,-0.01745472475886345,0.01341450959444046,-0.0005132454680278897,-0.00925207044929266
0.027079284191131592,0.004475966561585665,-0.01821843907237053,0.013785860501229763,-0.0005295944283716381,-0.008961088955402374
0.026852985844016075,0.0043977792374789715,-0.017786748707294464,0.013657406903803349,-0.0005012663314118981,-0.009532371535897255
0.028342416509985924,0.003971012309193611,-0.01826462708413601,0.013550864532589912,-0.0004969617584720254,-0.009648874402046204
0.027887096628546715,0.0036705886013805866,-0.017584126442670822,0.013472909107804298,-0.0004919164930470288,-0.009869949892163277
0.027308138087391853,0.0036495900712907314,-0.01760159805417061,0.013029688969254494,-0.0005148721975274384,-0.010263469070196152
0.02735445462167263,0.0038206225726753473,-0.018039479851722717,0.013192976824939251,-0.0004901739303022623,-0.01025797612965107
0.026995209977030754,0.003942645154893398,-0.017566725611686707,0.013553528115153313,-0.0005379009526222944,-0.009901679120957851
0.02759937196969986,0.004625224974006414,-0.018299665302038193,0.013468168675899506,-0.0006026243790984154,-0.009476291947066784
0.027476975694298744,0.004294795449823141,-0.017664486542344093,0.013833346776664257,-0.0005983923329040408,-0.01008907426148653
0.027197139337658882,0.004008281975984573,-0.018390074372291565,0.013862008228898048,-0.000585483736358583,-0.01042826659977436
0.027454277500510216,0.003884066827595234,-0.017794044688344002,0.014697846956551075,-0.0007279276032932103,-0.010475878603756428
0.027030134573578835,0.004305909853428602,-0.018521932885050774,0.014127405360341072,-0.0007474943995475769,-0.010320061817765236
0.027452653273940086,0.004165988881140947,-0.01866462454199791,0.014358573593199253,-0.0006834880914539099,-0.010464314371347427
0.027322523295879364,0.004265839233994484,-0.018042324110865593,0.014155838638544083,-0.0006083638872951269,-0.01087712962180376
0.027245379984378815,0.00419464660808444,-0.018158089369535446,0.014463490806519985,-0.0005906465230509639,-0.010518878698348999
0.027073003351688385,0.004324276465922594,-0.017989996820688248,0.014707730151712894,-0.0005761164356954396,-0.010480222292244434
0.027455821633338928,0.004461074247956276,-0.017670610919594765,0.014865071512758732,-0.0005857398500666022,-0.010018396191298962
0.027455821633338928,0.004461074247956276,-0.017670610919594765,0.014865071512758732,-0.0005857398500666022,-0.010018396191298962
0.027549535036087036,0.004287222400307655,-0.018130242824554443,0.014071733690798283,-0.0005577132687903941,-0.010101627558469772
0.027893709018826485,0.004441760014742613,-0.018115220591425896,0.01455199159681797,-0.0005186498747207224,-0.010414795950055122
0.02785334177315235,0.004214921500533819,-0.017977725714445114,0.014201187528669834,-0.0004740495642181486,-0.010643523186445236
0.026095056906342506,0.004346024245023727,-0.018531182780861855,0.014227088540792465,-0.0004285645263735205,-0.010857610031962395
0.02880849875509739,0.004465844482183456,-0.018068118020892143,0.0140970004722476,-0.00046389130875468254,-0.010848847217857838
0.028622079640626907,0.004091189708560705,-0.01822289079427719,0.014595421962440014,-0.0004936223849654198,-0.011178163811564445
0.02773180417716503,0.004404897801578045,-0.018247265368700027,0.014280871488153934,-0.0005148269119672477,-0.010556824505329132
0.02770765870809555,0.004455482587218285,-0.0178859643638134,0.014631849713623524,-0.0006568029057234526,-0.010360787622630596
0.027540557086467743,0.00431032245978713,-0.01841406524181366,0.014436372555792332,-0.0008283061324618757,-0.010259371250867844
0.027928438037633896,0.004026695154607296,-0.018354233354330063,0.014579874463379383,-0.0008470766479149461,-0.010749200358986855
0.029196202754974365,0.004187766462564468,-0.01806800253689289,0.014268416911363602,-0.0008614479447714984,-0.010477462783455849
0.029126325622200966,0.004611029755324125,-0.0184403695166111,0.014373010024428368,-0.000989251770079136,-0.010862265713512897
0.028418879956007004,0.004268216900527477,-0.018492301926016808,0.013911101967096329,-0.0010020291665568948,-0.011294691823422909
0.027375254780054092,0.0044474792666733265,-0.018200108781456947,0.014661955647170544,-0.0009874131064862013,-0.011251331306993961
0.028425734490156174,0.004609136376529932,-0.01863761618733406,0.01428160723298788,-0.0009752961341291666,-0.011586662381887436
0.02846412919461727,0.004019842948764563,-0.01829935982823372,0.014127453789114952,-0.0008416805067099631,-0.011226847767829895
0.028847314417362213,0.004035569727420807,-0.018882201984524727,0.014610166661441326,-0.0008426427957601845,-0.011349701322615147
0.02963290549814701,0.0043177055194973946,-0.01822906732559204,0.013726675882935524,-0.000909125548787415,-0.01158034335821867
0.02941066212952137,0.0047127059660851955,-0.01840730756521225,0.013819176703691483,-0.001015880610793829,-0.011621479876339436
0.028680607676506042,0.004741361830383539,-0.018636859953403473,0.013561172410845757,-0.0010936021571978927,-0.011339164339005947
0.028779173269867897,0.004374540876597166,-0.01818522997200489,0.014293494634330273,-0.0010872825514525175,-0.011313734576106071
0.029321564361453056,0.004410671070218086,-0.018880845978856087,0.014135484583675861,-0.0010701619321480393,-0.011310674250125885
0.030015256255865097,0.004298145417124033,-0.018698839470744133,0.01456853561103344,-0.001088205841369927,-0.011649406515061855
0.029944581910967827,0.004308067727833986,-0.018229417502880096,0.014552289620041847,-0.0010677765822038054,-0.011685328558087349
0.029933184385299683,0.004356069024652243,-0.018625296652317047,0.014561351388692856,-0.0010405045468360186,-0.011526967398822308
0.029482470825314522,0.004361811093986034,-0.018863914534449577,0.014127622358500957,-0.0010274691740050912,-0.011326336301863194
0.02984420210123062,0.004517374560236931,-0.019397834315896034,0.014396765269339085,-0.001123331836424768,-0.01163658406585455
0.02986428327858448,0.004690679721534252,-0.019960051402449608,0.013974175788462162,-0.001091320300474763,-0.01157409604638815
0.02986428327858448,0.004690679721534252,-0.019960051402449608,0.013974175788462162,-0.001091320300474763,-0.01157409604638815
0.02986651100218296,0.00432939175516367,-0.018998827785253525,0.014663410373032093,-0.0009627426043152809,-0.011135644279420376
0.03068024478852749,0.003956446889787912,-0.019040701910853386,0.014540601521730423,-0.0009394485969096422,-0.011560805141925812
0.0304768905043602,0.004178791306912899,-0.019175343215465546,0.015129719860851765,-0.0008432112517766654,-0.011377546004951
0.03043031506240368,0.0045776646584272385,-0.019151143729686737,0.01475552748888731,-0.0007647674065083265,-0.01151278242468834
0.03019052743911743,0.004618441686034203,-0.019219590350985527,0.014956170693039894,-0.000771266408264637,-0.01123744621872902
0.03044041059911251,0.0043343896977603436,-0.019967656582593918,0.01470037829130888,-0.0007718841079622507,-0.011484193615615368
0.030356653034687042,0.004468112718313932,-0.01985286734998226,0.014791368506848812,-0.0007111225859262049,-0.011520704254508018
0.031126899644732475,0.004435417242348194,-0.01923171803355217,0.01483482401818037,-0.0006404620362445712,-0.01137289684265852
0.030751148238778114,0.004205459263175726,-0.02009415067732334,0.01531036663800478,-0.0006584673537872732,-0.0117723997682333
0.030792873352766037,0.0043460954912006855,-0.020359568297863007,0.015450366772711277,-0.0006078653386794031,-0.011554648168385029
0.031188370659947395,0.004582406021654606,-0.02024630457162857,0.015751250088214874,-0.0005715073784813285,-0.011747603304684162
0.031045574694871902,0.00463534239679575,-0.020855944603681564,0.01603369414806366,-0.0005209343507885933,-0.011728886514902115
0.03163361921906471,0.004393682815134525,-0.02074231021106243,0.015337028540670872,-0.0004677298420574516,-0.011877886019647121
0.03169344738125801,0.0043655200861394405,-0.01940702274441719,0.015333631075918674,-0.0005023252451792359,-0.011967645026743412
0.03201553598046303,0.004881768953055143,-0.0196897704154253,0.014699623920023441,-0.00046424116590060294,-0.011313529685139656
0.03181202709674835,0.004607044626027346,-0.020694535225629807,0.014691242016851902,-0.00046118858153931797,-0.011862839572131634
0.031991224735975266,0.004479170311242342,-0.020276054739952087,0.014893779531121254,-0.00043070531683042645,-0.012190969660878181
0.03211772441864014,0.004476905334740877,-0.020469702780246735,0.015104567632079124,-0.00044558793888427317,-0.011734719388186932
0.032092466950416565,0.0046281092800199986,-0.020501641556620598,0.015541093423962593,-0.0004320750304032117,-0.011933685280382633
0.03324531391263008,0.004740158095955849,-0.020338421687483788,0.014672545716166496,-0.00042680627666413784,-0.012454750947654247
0.033999666571617126,0.0045404452830553055,-0.020627552643418312,0.015051494352519512,-0.00040697853546589613,-0.012350321747362614
0.031061002984642982,0.00487377168610692,-0.021072546020150185,0.01455414853990078,-0.0004438774776645005,-0.012244440615177155
0.03237231820821762,0.004780493676662445,-0.02084282599389553,0.015309493988752365,-0.0004651671042665839,-0.012328928336501122
0.03332670032978058,0.0046725766733288765,-0.020154526457190514,0.015113811939954758,-0.0004953109892085195,-0.012492728419601917
0.03290640562772751,0.004397402983158827,-0.020855983719229698,0.015234418213367462,-0.0004781438910868019,-0.01209563110023737
0.03319692239165306,0.0043960316106677055,-0.02109444886445999,0.01488807424902916,-0.0006845432799309492,-0.012224999256432056
0.03458049148321152,0.004637989681214094,-0.020514389500021935,0.015496796928346157,-0.0007165679126046598,-0.012850770726799965
0.03426949307322502,0.004756272304803133,-0.02098144218325615,0.015239864587783813,-0.0007117828936316073,-0.01287105306982994
0.03426949307322502,0.004756272304803133,-0.02098144218325615,0.015239864587783813,-0.0007117828936316073,-0.01287105306982994
0.033302128314971924,0.004538568668067455,-0.02111722156405449,0.015420375391840935,-0.0007015041774138808,-0.012928270734846592
0.03415926545858383,0.0043577710166573524,-0.0203030277043581,0.01582358404994011,-0.0007098603527992964,-0.012475698255002499
0.03415926545858383,0.0043577710166573524,-0.0203030277043581,0.01582358404994011,-0.0007098603527992964,-0.012475698255002499
0.03410347178578377,0.00443847943097353,-0.02083931863307953,0.015729207545518875,-0.0006680946098640561,-0.01250713411718607
0.03390731289982796,0.004634978715330362,-0.021333184093236923,0.015321672894060612,-0.000685563194565475,-0.012715565972030163
0.03401145711541176,0.0046112374402582645,-0.020627960562705994,0.0155949667096138,-0.0006959938327781856,-0.013104054145514965
0.03389166668057442,0.004469732753932476,-0.020196493715047836,0.01550134364515543,-0.0006483136094175279,-0.013452498242259026
0.03401999548077583,0.0049956669099628925,-0.020713789388537407,0.016196424141526222,-0.0006673074676655233,-0.01375297550112009
0.03399857506155968,0.004863590467721224,-0.02095911093056202,0.01620287261903286,-0.0007023175712674856,-0.013791348785161972
0.03416057676076889,0.004415653180330992,-0.02044711261987686,0.01662611775100231,-0.0007123415125533938,-0.013868482783436775
0.034593820571899414,0.004543326795101166,-0.020954487845301628,0.016670970246195793,-0.0006544427596963942,-0.013253833167254925
0.0344635508954525,0.004450990352779627,-0.02110511064529419,0.01631505973637104,-0.0006691146409139037,-0.013239829801023006
0.03413959965109825,0.0047838990576565266,-0.02047114260494709,0.015861498191952705,-0.0006795484223403037,-0.013162431307137012
0.0342290960252285,0.004714146256446838,-0.020646613091230392,0.015736086294054985,-0.0008018791559152305,-0.013085185550153255
0.03386629372835159,0.004492089152336121,-0.02096172422170639,0.015732860192656517,-0.0008188571082428098,-0.01344213169068098
0.035233620554208755,0.0046020131558179855,-0.02066991664469242,0.016370145604014397,-0.0008149318746291101,-0.014025198295712471
0.03593067079782486,0.004737335257232189,-0.020695466548204422,0.0159761942923069,-0.0007622983539476991,-0.014160430058836937
0.03488122671842575,0.0047647482715547085,-0.020924096927046776,0.015751775354146957,-0.0009547664085403085,-0.014062435366213322
0.03367533162236214,0.005176099017262459,-0.021063020452857018,0.015491100959479809,-0.000886681373231113,-0.013733749277889729
0.035138364881277084,0.004864664748311043,-0.02064143493771553,0.01617898792028427,-0.0008844520198181272,-0.01392834447324276
0.035317905247211456,0.004645821172744036,-0.02110256999731064,0.015949781984090805,-0.0008860122179612517,-0.013888774439692497
0.03453243523836136,0.004238402936607599,-0.02118644304573536,0.015681223943829536,-0.0007952901651151478,-0.014237526804208755
0.03498520329594612,0.004419572651386261,-0.020701097324490547,0.01584191620349884,-0.0007460093474946916,-0.01410120353102684
0.035600434988737106,0.00464747566729784,-0.020880987867712975,0.015401823446154594,-0.0006476308917626739,-0.014395802281796932
0.03408091142773628,0.00503534497693181,-0.02085893042385578,0.015609868802130222,-0.0006636282196268439,-0.01430467702448368
0.03408091142773628,0.00503534497693181,-0.02085893042385578,0.015609868802130222,-0.0006636282196268439,-0.01430467702448368
0.034982211887836456,0.004410235211253166,-0.02085084281861782,0.015690293163061142,-0.0006298787193372846,-0.014075089246034622
0.034982211887836456,0.004410235211253166,-0.02085084281861782,0.015690293163061142,-0.0006298787193372846,-0.014075089246034622
0.035195767879486084,0.004346434958279133,-0.021093398332595825,0.015379645861685276,-0.0006148763350211084,-0.014222669415175915
0.03553827106952667,0.004216389264911413,-0.021521596238017082,0.016096653416752815,-0.000599751656409353,-0.014150120317935944
0.035080909729003906,0.004572647158056498,-0.021308669820427895,0.01612604409456253,-0.0005557886906899512,-0.014477569609880447
0.03451155498623848,0.004190195817500353,-0.021292518824338913,0.016132282093167305,-0.000525351264514029,-0.014272276312112808
0.03477481007575989,0.004366548266261816,-0.021521681919693947,0.0159524567425251,-0.00047351064858958125,-0.014328563585877419
0.03525543585419655,0.004335563629865646,-0.02129504643380642,0.01597624644637108,-0.0005023711128160357,-0.014142991043627262
0.035715628415346146,0.004223014693707228,-0.021563638001680374,0.016478586941957474,-0.0005065707373432815,-0.014416156336665154
0.0354633666574955,0.004409288056194782,-0.021698595955967903,0.016179891303181648,-0.0005012446781620383,-0.014542416669428349
0.03601346164941788,0.004602563101798296,-0.021401802077889442,0.016536889597773552,-0.0005153708043508232,-0.014648321084678173
0.03471021726727486,0.0044452412985265255,-0.021768825128674507,0.016338186338543892,-0.0004952760064043105,-0.014293384738266468
0.036249950528144836,0.004579388070851564,-0.02188914828002453,0.01643753983080387,-0.0005229708622209728,-0.015201986767351627
0.03597617521882057,0.004463568329811096,-0.02180059626698494,0.01642802730202675,-0.0005489965551532805,-0.01429906114935875
0.03610115125775337,0.004452785477042198,-0.022392606362700462,0.016583837568759918,-0.0005084267468191683,-0.014889881946146488
0.036398746073246,0.004560565110296011,-0.02198261395096779,0.016173843294382095,-0.0005373218446038663,-0.015161057934165001
0.03636536747217178,0.004226949065923691,-0.021069591864943504,0.016826869919896126,-0.0005518399993889034,-0.014975780621170998
0.036099623888731,0.004442229866981506,-0.021547261625528336,0.016687870025634766,-0.0005279252072796226,-0.015082298777997494
0.03643431141972542,0.0042430381290614605,-0.022513365373015404,0.0166308730840683,-0.0006016896804794669,-0.015133177861571312
0.03670566901564598,0.004471505526453257,-0.022582372650504112,0.016647038981318474,-0.0006478903815150261,-0.015338527970016003
0.036494042724370956,0.004490302409976721,-0.0215864647179842,0.017105653882026672,-0.0006566490046679974,-0.014970955438911915
0.03657004237174988,0.0045426771976053715,-0.02163039892911911,0.017935989424586296,-0.0006148795364424586,-0.015621503815054893
0.03654857724905014,0.004475802648812532,-0.02229492925107479,0.017672033980488777,-0.0006306071300059557,-0.01586061157286167
0.0362737737596035,0.004335176665335894,-0.02243541181087494,0.017285136505961418,-0.000589392555411905,-0.015573589131236076
0.037207040935754776,0.004088731482625008,-0.022246042266488075,0.0172843299806118,-0.0006576713058166206,-0.015725789591670036
0.038382623344659805,0.004149609245359898,-0.021860508248209953,0.017193209379911423,-0.0006825887830927968,-0.015780432149767876
0.037164151668548584,0.004230562597513199,-0.022149883210659027,0.01744101196527481,-0.0006184673984535038,-0.015561816282570362
0.03630838170647621,0.004821772687137127,-0.022188007831573486,0.017253292724490166,-0.000641535094473511,-0.015052826143801212
0.03768530115485191,0.004479564726352692,-0.02203862927854061,0.017144188284873962,-0.000627826782874763,-0.015370656736195087
0.03768530115485191,0.004479564726352692,-0.02203862927854061,0.017144188284873962,-0.000627826782874763,-0.015370656736195087
0.03894190117716789,0.0038753915578126907,-0.022402657195925713,0.01667066104710102,-0.000646675587631762,-0.015622849576175213
0.03894190117716789,0.0038753915578126907,-0.022402657195925713,0.01667066104710102,-0.000646675587631762,-0.015622849576175213
0.03778373450040817,0.004324060399085283,-0.022309038788080215,0.01723882555961609,-0.0006778213428333402,-0.01554801594465971
0.037198279052972794,0.004275976680219173,-0.022218436002731323,0.016701947897672653,-0.0006149393739178777,-0.016052471473813057
0.03707315772771835,0.0043621910735964775,-0.02205768972635269,0.016884267330169678,-0.0006382723804563284,-0.016014769673347473
0.03844543173909187,0.0042090099304914474,-0.021821707487106323,0.016812076792120934,-0.0006621863576583564,-0.015817495062947273
0.036804601550102234,0.004284719005227089,-0.022420892491936684,0.016550639644265175,-0.0007761328597553074,-0.01585824228823185
0.03879537805914879,0.0039923228323459625,-0.022544896230101585,0.016971489414572716,-0.0008033575140871108,-0.016120079904794693
0.03893133997917175,0.004390942398458719,-0.02233077771961689,0.016614152118563652,-0.0007714452804066241,-0.016093162819743156
0.038144778460264206,0.004206791985780001,-0.022102804854512215,0.01745157316327095,-0.0007331540691666305,-0.016336804255843163
0.03836914151906967,0.003974787425249815,-0.02233758009970188,0.017607398331165314,-0.0007470694254152477,-0.016056017950177193
0.038268111646175385,0.004372676834464073,-0.022403817623853683,0.017704881727695465,-0.0006885186885483563,-0.015463890507817268
0.03855903446674347,0.004242220893502235,-0.022632842883467674,0.017987538129091263,-0.0006709861336275935,-0.015531990677118301
0.03866478428244591,0.004161541350185871,-0.022873902693390846,0.017679760232567787,-0.0006742592668160796,-0.015657104551792145
0.03825734555721283,0.0037107134703546762,-0.02317773923277855,0.01735439896583557,-0.0006962455227039754,-0.0157488901168108
0.03820601478219032,0.0036985601764172316,-0.02296941913664341,0.017398124560713768,-0.0006766608566977084,-0.016007723286747932
0.03961031511425972,0.0035860054194927216,-0.022250115871429443,0.018132558092474937,-0.0008158614509738982,-0.016132211312651634
0.03871350362896919,0.003543735248968005,-0.02288452722132206,0.017856206744909286,-0.0008350160787813365,-0.01594589091837406
0.03784981369972229,0.003936490043997765,-0.023667655885219574,0.01761673204600811,-0.0008437845972366631,-0.01621920056641102
0.03927415981888771,0.004180739633738995,-0.022982332855463028,0.017308855429291725,-0.0008082296699285507,-0.017001595348119736
0.03887864947319031,0.004284724593162537,-0.02306154929101467,0.016764121130108833,-0.0009950509993359447,-0.015953194350004196
0.03983786702156067,0.0039826021529734135,-0.023795122280716896,0.01781369186937809,-0.0009176087332889438,-0.015797242522239685
0.039690349251031876,0.003842234378680587,-0.023460879921913147,0.016868803650140762,-0.0009107262012548745,-0.016367485746741295
0.03831762820482254,0.0038285048212856054,-0.022473910823464394,0.017238831147551537,-0.0008862142567522824,-0.016249388456344604
0.038238123059272766,0.004221562296152115,-0.023616306483745575,0.017239956185221672,-0.0008201693999581039,-0.0165215153247118
0.03949211910367012,0.0043168095871806145,-0.023033462464809418,0.01676207408308983,-0.000760164693929255,-0.016625989228487015
0.03949211910367012,0.0043168095871806145,-0.023033462464809418,0.01676207408308983,-0.000760164693929255,-0.016625989228487015
0.039449941366910934,0.004528086166828871,-0.02277250587940216,0.0173366516828537,-0.0007754607358947396,-0.016631485894322395
0.03955172002315521,0.004169583786278963,-0.023140834644436836,0.017367035150527954,-0.0007831010152585804,-0.01681315153837204
0.03926481679081917,0.0042165471240878105,-0.023405639454722404,0.01845504529774189,-0.0007572887698188424,-0.016878658905625343
0.03964102640748024,0.004595085047185421,-0.02329549752175808,0.01820339262485504,-0.0008037642110139132,-0.016840796917676926
0.03954410180449486,0.004261076916009188,-0.023560257628560066,0.01799771748483181,-0.0008268313249573112,-0.01686132326722145
0.03976654261350632,0.0044916425831615925,-0.024008935317397118,0.018239129334688187,-0.0008380465442314744,-0.01695391535758972
0.0395602248609066,0.004618699196726084,-0.02354953996837139,0.017516067251563072,-0.0007916614995338023,-0.017003875225782394
0.03949330002069473,0.0044181980192661285,-0.022958604618906975,0.017450302839279175,-0.0007933488814160228,-0.01691286638379097
0.04011528566479683,0.004072755109518766,-0.023135941475629807,0.01836535707116127,-0.0008436524076387286,-0.01697656139731407
0.04001033306121826,0.004114268347620964,-0.023661859333515167,0.018490638583898544,-0.0008881164249032736,-0.017268337309360504
0.040185801684856415,0.0040361108258366585,-0.023703886196017265,0.019041642546653748,-0.000892028387170285,-0.017647378146648407
0.039631880819797516,0.004322403110563755,-0.023427069187164307,0.019063234329223633,-0.0008930687909014523,-0.01763409562408924
0.03999381884932518,0.00452542444691062,-0.02328016236424446,0.018791280686855316,-0.000997571274638176,-0.0170717965811491
0.04095519706606865,0.004599863197654486,-0.023301683366298676,0.01908852532505989,-0.0010817666770890355,-0.0171336866915226
0.04010399430990219,0.004639524035155773,-0.023782994598150253,0.018995800986886024,-0.0009754834463819861,-0.016973698511719704
0.04055030643939972,0.004686265718191862,-0.023782989010214806,0.0190387312322855,-0.0009120731265284121,-0.01742115430533886
0.04031215235590935,0.004749130457639694,-0.02373717539012432,0.018742308020591736,-0.0009146075462922454,-0.017642829567193985
0.040964510291814804,0.004720643162727356,-0.023363813757896423,0.01817421428859234,-0.0008142499136738479,-0.01773962192237377
0.04060787707567215,0.004705365281552076,-0.023252855986356735,0.018620731309056282,-0.0008188586216419935,-0.017499832436442375
0.040497761219739914,0.005051844287663698,-0.02358262427151203,0.0187959223985672,-0.0007810681127011776,-0.017127512022852898
0.040261395275592804,0.0048323641531169415,-0.024134933948516846,0.018581099808216095,-0.0007523033418692648,-0.017447467893362045
0.041383713483810425,0.004891907796263695,-0.02360803261399269,0.018722310662269592,-0.0007203749264590442,-0.017314665019512177
0.04176008701324463,0.004849614575505257,-0.023105602711439133,0.01901894621551037,-0.0007415578584186733,-0.017355771735310555
0.039412833750247955,0.004940442740917206,-0.023480236530303955,0.01855192519724369,-0.000760605267714709,-0.017770271748304367
0.03959720581769943,0.004622248001396656,-0.023675769567489624,0.019088245928287506,-0.0007845552754588425,-0.018192144110798836
0.04026097431778908,0.004913667216897011,-0.023884817957878113,0.019016699865460396,-0.001025875797495246,-0.01698913238942623
0.04120126739144325,0.0048086680471897125,-0.02368079125881195,0.01856791041791439,-0.0009096170542761683,-0.017224600538611412
0.04209943488240242,0.004842145834118128,-0.023551063612103462,0.01864880695939064,-0.0009016541880555451,-0.01766413450241089
0.04209943488240242,0.004842145834118128,-0.023551063612103462,0.01864880695939064,-0.0009016541880555451,-0.01766413450241089
0.039732035249471664,0.004370265174657106,-0.023499621078372,0.01879986934363842,-0.0008083713473752141,-0.0176966842263937
0.041539985686540604,0.004522159695625305,-0.023447895422577858,0.018644176423549652,-0.0008230049861595035,-0.017759962007403374
0.041539985686540604,0.004522159695625305,-0.023447895422577858,0.018644176423549652,-0.0008230049861595035,-0.017759962007403374
0.041319940239191055,0.004727083723992109,-0.02385682612657547,0.018314611166715622,-0.0007725514587946236,-0.018140759319067
0.04110410064458847,0.004799169953912497,-0.0236566960811615,0.018599728122353554,-0.0007844286737963557,-0.018051594495773315
0.04121606796979904,0.004333093762397766,-0.023510418832302094,0.018910109996795654,-0.0007771827513352036,-0.01841660961508751
0.04135241359472275,0.004376539960503578,-0.023864619433879852,0.018589826300740242,-0.0007278253906406462,-0.018213611096143723
0.04130951315164566,0.004457421600818634,-0.024282993748784065,0.0186732467263937,-0.0007592823239974678,-0.018137386068701744
0.041283924132585526,0.004583077505230904,-0.024100521579384804,0.0187072716653347,-0.0007799186860211194,-0.018229231238365173
0.041406821459531784,0.00468806829303503,-0.024100374430418015,0.01837528869509697,-0.0007951833540573716,-0.018309522420167923
0.04114709421992302,0.004742823075503111,-0.024104870855808258,0.01856892742216587,-0.000800111040007323,-0.018546683713793755
0.041545357555150986,0.0047452631406486034,-0.02364898845553398,0.01860424503684044,-0.0007311051012948155,-0.018200881779193878
0.04260975122451782,0.00463269604369998,-0.023900087922811508,0.018804587423801422,-0.0007447710959240794,-0.01847224496304989
0.04065385088324547,0.0046461583115160465,-0.023659637197852135,0.019385039806365967,-0.0007728349883109331,-0.019146399572491646
0.04163997620344162,0.00492149218916893,-0.024926718324422836,0.020406434312462807,-0.0007948465063236654,-0.018618008121848106
0.04127553105354309,0.0050879232585430145,-0.025096898898482323,0.02027568221092224,-0.0008264054195024073,-0.018191438168287277
0.043007150292396545,0.005048153456300497,-0.024244016036391258,0.019574984908103943,-0.0008960815030150115,-0.018536020070314407
0.041536908596754074,0.005183564964681864,-0.023527566343545914,0.018514126539230347,-0.000900604180060327,-0.01807916909456253
0.04036914184689522,0.004933798220008612,-0.02423202246427536,0.01899605803191662,-0.0008716993615962565,-0.01859232783317566
0.042126867920160294,0.0046214996837079525,-0.023441940546035767,0.019593626260757446,-0.000829573895316571,-0.018558481708168983
0.04220473766326904,0.005018857307732105,-0.02472390979528427,0.019273526966571808,-0.0009481701999902725,-0.01927802711725235
0.0417412593960762,0.004963393323123455,-0.02501070871949196,0.018972687423229218,-0.0009475576807744801,-0.019138047471642494
0.042011335492134094,0.004934833385050297,-0.024905454367399216,0.01958668977022171,-0.0009414507076144218,-0.018672339618206024
