davideferrari95/blind_handover_controller/data/Test 122 - [2024-02-07 -- 16-32-34]/joint_states_data.csv
shoulder_pan_joint,shoulder_lift_joint,elbow_joint,wrist_1_joint,wrist_2_joint,wrist_3_joint
0.005932014901190996,0.007682980969548225,-0.01174610760062933,0.0049721370451152325,2.1818217089537402e-42,0.005427926313132048
0.005932014901190996,0.007682980969548225,-0.01174610760062933,0.0049721370451152325,2.1818217089537402e-42,0.005427926313132048
0.0058660246431827545,0.008214366622269154,-0.01124116312712431,0.004767236765474081,1.4293244336113134e-43,0.005392488092184067
0.0065871658734977245,0.007996789179742336,-0.012052050791680813,0.004250787664204836,9.80908925027372e-45,0.005068400874733925
0.006716693285852671,0.00822611153125763,-0.011976015754044056,0.004327365197241306,0.0,0.005215301178395748
0.006345760077238083,0.008451053872704506,-0.012058245949447155,0.004138446878641844,0.0,0.005639526527374983
0.00622843811288476,0.007985266856849194,-0.012022317387163639,0.0035843453370034695,0.0,0.005658435169607401
0.005765252746641636,0.007924268953502178,-0.011451817117631435,0.0034805978648364544,0.0,0.005662873387336731
0.006222715601325035,0.00790383294224739,-0.012107925489544868,0.003929074853658676,0.0,0.005131462588906288
0.00639973022043705,0.008364411070942879,-0.011358198709785938,0.004302067216485739,0.0,0.005243923515081406
0.006487296428531408,0.008379384875297546,-0.012180143967270851,0.004313341341912746,0.0,0.005205730441957712
0.0057610715739429,0.008027732372283936,-0.0121905617415905,0.003887753002345562,0.0,0.005176729056984186
0.0057610715739429,0.008027732372283936,-0.0121905617415905,0.003887753002345562,0.0,0.005176729056984186
0.0058114114217460155,0.007731124758720398,-0.011903176084160805,0.003557781223207712,0.0,0.005191740579903126
0.006066498812288046,0.007667664438486099,-0.011733676306903362,0.003673990722745657,0.0,0.00536431884393096
0.005297360010445118,0.007600547280162573,-0.011785228736698627,0.0038704790640622377,0.0,0.005168990232050419
0.005685774609446526,0.008190829306840897,-0.012181657366454601,0.0037648582365363836,0.0,0.004901380743831396
0.005478987004607916,0.008196812123060226,-0.011585387401282787,0.0037249792367219925,0.0,0.004825490526854992
0.00589704979211092,0.00824381411075592,-0.011738112196326256,0.0037462704349309206,0.0,0.004790461156517267
0.005843016318976879,0.007797026541084051,-0.011385031044483185,0.003751948941498995,0.0,0.004757263232022524
0.005806752946227789,0.00862883124500513,-0.012175852432847023,0.00398649275302887,0.0,0.005125822499394417
0.006146194413304329,0.00787222571671009,-0.012005981989204884,0.0038906456902623177,0.0,0.0050272285006940365
0.005595784168690443,0.008106689900159836,-0.012070409022271633,0.0038602882996201515,0.0,0.0048737907782197
0.0059725032187998295,0.008635218255221844,-0.012485234066843987,0.003981253132224083,0.0,0.00507391570135951
0.00582952331751585,0.00817096047103405,-0.011249731294810772,0.004464238882064819,0.0,0.0053753782995045185
0.0057468716986477375,0.00785596389323473,-0.011991092935204506,0.004453126806765795,0.0,0.00515119219198823
0.005542716942727566,0.007523881271481514,-0.012456510215997696,0.004325889516621828,0.0,0.004910266026854515
0.005594256334006786,0.007962611503899097,-0.012326113879680634,0.004026401787996292,0.0,0.004786740057170391
0.005225923378020525,0.00835901778191328,-0.012015127576887608,0.003926011733710766,0.0,0.0049238502979278564
0.0060094986110925674,0.008370717987418175,-0.011900398880243301,0.0035460153594613075,0.0,0.005591279361397028
0.005527063738554716,0.007983118295669556,-0.011999321170151234,0.0038756374269723892,0.0,0.005410259123891592
0.005413226783275604,0.008111966773867607,-0.011451952159404755,0.004663222469389439,0.0,0.005681236740201712
0.005348114762455225,0.0085051404312253,-0.011855187825858593,0.004669529385864735,0.0,0.005437965504825115
0.005229870788753033,0.008431780152022839,-0.012598613277077675,0.0043615237809717655,0.0,0.004982485435903072
0.00581861799582839,0.00794090237468481,-0.011721902526915073,0.003992658574134111,0.0,0.005212538409978151
0.005583763122558594,0.008300852961838245,-0.011735493317246437,0.003683691844344139,0.0,0.005210652016103268
0.005821887403726578,0.008137169294059277,-0.011895141564309597,0.0036326737608760595,0.0,0.005277031101286411
0.005821887403726578,0.008137169294059277,-0.011895141564309597,0.0036326737608760595,0.0,0.005277031101286411
0.005852745845913887,0.007899943739175797,-0.012477114796638489,0.0036759234499186277,0.0,0.005504897329956293
0.005623010918498039,0.008562663570046425,-0.01205056719481945,0.0037246239371597767,0.0,0.005263976752758026
0.005943057592958212,0.008076624944806099,-0.012026193551719189,0.004434784408658743,0.0,0.004901431035250425
0.005690958350896835,0.008097818121314049,-0.011710869148373604,0.0042943330481648445,0.0,0.0051709506660699844
0.0057474058121442795,0.009180421009659767,-0.012289628386497498,0.004036096855998039,0.0,0.00490832794457674
0.005472327116876841,0.008138591423630714,-0.011497339233756065,0.0037213575560599566,0.0,0.0048639061860740185
0.005696921143680811,0.007030745502561331,-0.011837601661682129,0.003526733722537756,0.0,0.005191558040678501
0.006284658797085285,0.009399070404469967,-0.012109645642340183,0.004093443509191275,0.0,0.005076331552118063
0.005604477133601904,0.007765634451061487,-0.012242832221090794,0.004463455639779568,0.0,0.005274979397654533
0.006052626762539148,0.008237204514443874,-0.01137708779424429,0.004551086574792862,0.0,0.0054264613427221775
0.005609346553683281,0.00850093923509121,-0.012232613749802113,0.004527146928012371,0.0,0.0046384455636143684
0.005862124264240265,0.008826225064694881,-0.012483741156756878,0.004463207442313433,0.0,0.004544635768979788
0.006337021943181753,0.008455314673483372,-0.01164329145103693,0.004140882287174463,0.0,0.0046012974344193935
0.00600515678524971,0.008186149410903454,-0.011758539825677872,0.0038956578355282545,0.0,0.005149902775883675
0.005876084789633751,0.008396580815315247,-0.012020486406981945,0.0038072620518505573,0.0,0.005173220299184322
0.005612314213067293,0.008512567728757858,-0.011669064871966839,0.0038727158680558205,0.0,0.005277586635202169
0.005606464110314846,0.00858005415648222,-0.012893760576844215,0.004031402058899403,0.0,0.0051150755025446415
0.005360109265893698,0.008485261350870132,-0.011796199716627598,0.004284494090825319,0.0,0.004852562677115202
0.005743225570768118,0.008513137698173523,-0.011883694678544998,0.004321931861341,0.0,0.004754570312798023
0.0053438362665474415,0.008274359628558159,-0.012068639509379864,0.004079498816281557,0.0,0.004943918436765671
0.00567774148657918,0.008401593193411827,-0.012349756434559822,0.0038745214696973562,0.0,0.004857021849602461
0.005483565852046013,0.008936317637562752,-0.01205007266253233,0.0037561897188425064,0.0,0.004728271160274744
0.005879622884094715,0.008673488162457943,-0.01120731234550476,0.003392093349248171,0.0,0.004454649519175291
0.005845403764396906,0.008541705086827278,-0.011908646672964096,0.003795716678723693,0.0,0.004504082258790731
0.005347931757569313,0.008463474921882153,-0.012139847502112389,0.004210587590932846,0.0,0.004677509423345327
0.0054634991101920605,0.009049644693732262,-0.011542835272848606,0.004531321115791798,0.0,0.004736065398901701
0.0054634991101920605,0.009049644693732262,-0.011542835272848606,0.004531321115791798,0.0,0.004736065398901701
0.00567651679739356,0.008400771766901016,-0.011400755494832993,0.003909233957529068,0.0,0.004965887870639563
0.00567651679739356,0.008400771766901016,-0.011400755494832993,0.003909233957529068,0.0,0.004965887870639563
0.005696028005331755,0.008268467150628567,-0.011615857481956482,0.004104753956198692,0.0,0.005020823795348406
0.005676920060068369,0.008247568272054195,-0.011444929987192154,0.003976903855800629,0.0,0.004832221195101738
0.006101961247622967,0.008458095602691174,-0.011705826967954636,0.004188530147075653,0.0,0.004890920128673315
0.005640839226543903,0.008845435455441475,-0.011372114531695843,0.004017528146505356,0.0,0.004737488925457001
0.0059682573191821575,0.008575578220188618,-0.011578891426324844,0.0039449394680559635,0.0,0.004908020608127117
0.006029048003256321,0.008501172997057438,-0.011898146942257881,0.003659089794382453,0.0,0.004780041053891182
0.006016816012561321,0.008952227421104908,-0.01141893956810236,0.0035334837157279253,0.0,0.004620318301022053
0.005573953501880169,0.008371900767087936,-0.011759948916733265,0.003518227254971862,0.0,0.004428461194038391
0.005786378402262926,0.008286607451736927,-0.011335209012031555,0.0036421949043869972,0.0,0.004355406854301691
0.006589682772755623,0.009053909219801426,-0.011240518651902676,0.004210449289530516,0.0,0.00481033930554986
0.0058951727114617825,0.009003699757158756,-0.011336483992636204,0.004511062987148762,0.0,0.004843937698751688
0.005900329444557428,0.007844028994441032,-0.011040992103517056,0.004687536973506212,0.0,0.004633585922420025
0.005679963156580925,0.0076064602471888065,-0.011224623769521713,0.004530249163508415,0.0,0.004890251439064741
0.00582840945571661,0.007926233112812042,-0.010744678787887096,0.004081707913428545,0.0,0.004818943794816732
0.0066926442086696625,0.007697886787354946,-0.010956558398902416,0.003968007396906614,0.0,0.004471872933208942
0.006244332529604435,0.007561889011412859,-0.011168140918016434,0.003983607515692711,0.0,0.004494150169193745
0.005881706718355417,0.007508900016546249,-0.010937143117189407,0.0039572031237185,0.0,0.004198180977255106
0.006141931749880314,0.007547379937022924,-0.011542591266334057,0.003951065242290497,0.0,0.004454401321709156
0.005707270931452513,0.0073217544704675674,-0.011682046577334404,0.004352551884949207,0.0,0.004980193916708231
0.00644799554720521,0.007270855363458395,-0.011307640001177788,0.004474958870559931,0.0,0.004907835740596056
0.006789588835090399,0.0072519248351454735,-0.011229355819523335,0.004344634246081114,0.0,0.0046959612518548965
0.00634571211412549,0.007867684587836266,-0.011048885993659496,0.0040602427907288074,0.0,0.004566815681755543
0.006280496716499329,0.0070915245451033115,-0.011387268081307411,0.003916568122804165,0.0,0.0042194342240691185
0.0065567209385335445,0.0071930792182683945,-0.01112059224396944,0.0038463228847831488,0.0,0.004249790217727423
0.006643755827099085,0.00712480628862977,-0.010758801363408566,0.004081462975591421,0.0,0.004602848086506128
0.006643755827099085,0.00712480628862977,-0.010758801363408566,0.004081462975591421,0.0,0.004602848086506128
0.006391946692019701,0.0074809519574046135,-0.011351674795150757,0.004245944321155548,0.0,0.004527260549366474
0.006526745855808258,0.0075630201026797295,-0.011019513942301273,0.004064701031893492,0.0,0.00445792218670249
0.007064215838909149,0.006837913300842047,-0.011428744532167912,0.0038820889312773943,0.0,0.004316831007599831
0.006324484944343567,0.007412552367895842,-0.010757283307611942,0.003913211170583963,0.0,0.004415113944560289
0.006370027549564838,0.007575572934001684,-0.01139517966657877,0.003605714300647378,0.0,0.004609112162142992
0.006125966086983681,0.0066209519281983376,-0.01157247181981802,0.0037731274496763945,0.0,0.004491654224693775
0.006417025346308947,0.006827021948993206,-0.011127580888569355,0.004175739362835884,0.0,0.004512167535722256
0.0066917696967720985,0.007039911579340696,-0.011801181361079216,0.004837544169276953,0.0,0.004555467516183853
0.006544380448758602,0.007203049957752228,-0.011018160730600357,0.004980073310434818,0.0,0.0044717323035001755
0.0062909615226089954,0.006709447130560875,-0.011410443112254143,0.0046930089592933655,0.0,0.004314177203923464
0.006117498967796564,0.007177168037742376,-0.0114660132676363,0.004213187377899885,0.0,0.004349090158939362
0.006851534359157085,0.007687774021178484,-0.011025538668036461,0.0042083775624632835,0.0,0.004412924405187368
0.00629506865516305,0.007965721189975739,-0.011277304962277412,0.004083111882209778,0.0,0.004599014297127724
0.006298262160271406,0.007019414100795984,-0.010836088098585606,0.004524857271462679,0.0,0.0046007693745195866
0.0064217690378427505,0.007446001283824444,-0.010908604599535465,0.0047089760191738605,0.0,0.004547527525573969
0.0065778568387031555,0.006785695906728506,-0.011671237647533417,0.004587926436215639,0.0,0.004226515535265207
0.007467569783329964,0.007300363853573799,-0.010917071253061295,0.004351465031504631,0.0,0.003930575214326382
0.006588732823729515,0.00741257518529892,-0.01216092985123396,0.00434372341260314,0.0,0.0042899115942418575
0.0065262760035693645,0.007152946665883064,-0.011402991600334644,0.004214285407215357,0.0,0.00458757346495986
0.006760179530829191,0.007079905830323696,-0.011088680475950241,0.004523735027760267,0.0,0.004716617055237293
0.0067155007272958755,0.007617302238941193,-0.011009467765688896,0.0047176009975373745,0.0,0.004603941459208727
0.0070925019681453705,0.007413492538034916,-0.010731936432421207,0.004740165546536446,0.0,0.004132844042032957
0.006736730691045523,0.00721157668158412,-0.01164564210921526,0.004704724997282028,0.0,0.004294398240745068
0.006401274353265762,0.007308827713131905,-0.01174831297248602,0.004516963381320238,0.0,0.004113206174224615
0.006770608946681023,0.007968645542860031,-0.011387115344405174,0.004252780694514513,0.0,0.004203570540994406
0.006770608946681023,0.007968645542860031,-0.011387115344405174,0.004252780694514513,0.0,0.004203570540994406
0.0071122776716947556,0.0074425493367016315,-0.01201173011213541,0.004015765152871609,0.0,0.004217405337840319
0.006859172135591507,0.007285584695637226,-0.011334600858390331,0.0043283505365252495,0.0,0.004418269265443087
0.006471026223152876,0.007984880357980728,-0.011737492866814137,0.004016685299575329,0.0,0.004439551383256912
0.006471026223152876,0.007984880357980728,-0.011737492866814137,0.004016685299575329,0.0,0.004439551383256912
0.006881108973175287,0.007781611755490303,-0.01183532178401947,0.003903617849573493,0.0,0.004046270623803139
0.006782553158700466,0.00784386694431305,-0.011285820975899696,0.003912246320396662,0.0,0.003885852172970772
0.006412881426513195,0.007816379889845848,-0.011561637744307518,0.0038703999016433954,0.0,0.003858296200633049
0.006351887714117765,0.007584544830024242,-0.011599579825997353,0.0039040325209498405,0.0,0.0038396252784878016
0.007030361797660589,0.007552650757133961,-0.011220309883356094,0.004392798058688641,0.0,0.0037278125528246164
0.007011727429926395,0.007585845421999693,-0.011998985894024372,0.004316795617341995,0.0,0.004009973723441362
0.006914436351507902,0.007844692096114159,-0.01130394171923399,0.00451592355966568,0.0,0.004127813968807459
0.006842986214905977,0.007398879621177912,-0.011575721204280853,0.004634239710867405,0.0,0.004347964655607939
0.006689302623271942,0.007685279473662376,-0.01112667191773653,0.00471504544839263,0.0,0.004045738838613033
0.007021710276603699,0.007730316370725632,-0.012054537422955036,0.004908964037895203,0.0,0.004343785345554352
0.007045792881399393,0.008320868946611881,-0.011899154633283615,0.0049078864976763725,0.0,0.004150633700191975
0.00662674754858017,0.007948238402605057,-0.010937525890767574,0.004572652280330658,0.0,0.003895374247804284
0.006476826965808868,0.007626674138009548,-0.011436490342020988,0.0040875086560845375,0.0,0.0038395978044718504
0.007086663041263819,0.00830034539103508,-0.011543544009327888,0.004008040763437748,0.0,0.0038213576190173626
0.007462744601070881,0.008001897484064102,-0.010882615111768246,0.004027288872748613,0.0,0.004328087903559208
0.00656865956261754,0.007579277269542217,-0.01136883907020092,0.003898121416568756,0.0,0.004140656907111406
0.00643196189776063,0.007352028973400593,-0.011401820927858353,0.003789822570979595,0.0,0.003897947259247303
0.0070696123875677586,0.007983643561601639,-0.0113254114985466,0.004329070448875427,0.0,0.0037597680930048227
0.007090411148965359,0.007625449914485216,-0.01177517045289278,0.00468050129711628,0.0,0.00374000146985054
0.006936849560588598,0.007401611655950546,-0.011176127009093761,0.004903409630060196,0.0,0.003463966306298971
0.006618005223572254,0.00748941907659173,-0.01157056912779808,0.004522053059190512,0.0,0.0034545843955129385
0.006958319339901209,0.008279775269329548,-0.011176860891282558,0.004884372465312481,0.0,0.0036601005122065544
0.007215546909719706,0.008273706771433353,-0.010985980741679668,0.004898979794234037,0.0,0.0033838830422610044
0.007093694992363453,0.007976408116519451,-0.011484706774353981,0.004740715026855469,0.0,0.003505644854158163
0.007093694992363453,0.007976408116519451,-0.011484706774353981,0.004740715026855469,0.0,0.003505644854158163
0.00660034641623497,0.00782429426908493,-0.010794554837048054,0.004708185326308012,0.0,0.0037275280337780714
0.00703637208789587,0.007652469910681248,-0.011757023632526398,0.004659678786993027,0.0,0.003963983152061701
0.007258771453052759,0.007254395168274641,-0.011241648346185684,0.004592281300574541,0.0,0.003485961351543665
0.007390683051198721,0.00763113796710968,-0.011655592359602451,0.0046530249528586864,0.0,0.0034097605384886265
0.006922901142388582,0.0075130220502614975,-0.011059164069592953,0.0045707630924880505,0.0,0.0034076906740665436
0.007269603665918112,0.007015358656644821,-0.011593574658036232,0.004553468432277441,0.0,0.0034724250435829163
0.007444337010383606,0.006752754095941782,-0.011404115706682205,0.004617549479007721,0.0,0.0036547461058944464
0.007418069522827864,0.0071257068775594234,-0.010382989421486855,0.004552742000669241,0.0,0.0037742441054433584
0.007806407753378153,0.007363560143858194,-0.011716926470398903,0.0048597720451653,0.0,0.0036305778194218874
0.0071695041842758656,0.007231607101857662,-0.011051557026803493,0.004950379021465778,0.0,0.0036002208944410086
0.006944794673472643,0.007238562218844891,-0.010909240692853928,0.004878732841461897,0.0,0.0037157812621444464
0.007108772173523903,0.007452132645994425,-0.011966424062848091,0.004577415529638529,0.0,0.0033862879499793053
0.006977642886340618,0.007395237218588591,-0.011446609161794186,0.004679543431848288,0.0,0.003139605512842536
0.007352587766945362,0.007107929326593876,-0.011439508758485317,0.004888989496976137,0.0,0.0030214160215109587
0.007237729616463184,0.006962100975215435,-0.011324996128678322,0.004907637368887663,0.0,0.0030972494278103113
0.007066769991070032,0.007349248044192791,-0.011003789491951466,0.0047125243581831455,0.0,0.003411154728382826
0.006992836017161608,0.007711783051490784,-0.011475570499897003,0.005004994571208954,0.0,0.0035507315769791603
0.007279840297996998,0.007163184229284525,-0.010687396861612797,0.004878610838204622,0.0,0.0034421898890286684
0.007350979372859001,0.007229220122098923,-0.01125306449830532,0.004824533127248287,0.0,0.003159425687044859
0.007190088741481304,0.007693796418607235,-0.011606848798692226,0.004919292870908976,0.0,0.0034409344661980867
0.007481003180146217,0.007739407010376453,-0.010986819863319397,0.004694539122283459,0.0,0.003720370586961508
0.007666842546314001,0.007499390747398138,-0.011337503790855408,0.004634985700249672,0.0,0.003370325779542327
0.007821112871170044,0.007039474323391914,-0.011856459081172943,0.004484746139496565,0.0,0.002960792975500226
0.007263150531798601,0.00732492795214057,-0.011653142049908638,0.004563562106341124,0.0,0.0029408547561615705
0.007164730690419674,0.00756745133548975,-0.011264236643910408,0.004906488582491875,0.0,0.0031154516618698835
0.007471560034900904,0.007510140538215637,-0.01117165107280016,0.005045963916927576,0.0,0.003146529896184802
0.007471780758351088,0.0077082933858036995,-0.011697443202137947,0.004871806129813194,0.0,0.002926098881289363
0.007345766294747591,0.007000704761594534,-0.011707224883139133,0.004738440737128258,0.0,0.0029131905175745487
0.007345766294747591,0.007000704761594534,-0.011707224883139133,0.004738440737128258,0.0,0.0029131905175745487
0.0070638894103467464,0.008055065758526325,-0.011182919144630432,0.004820495378226042,0.0,0.0028765888419002295
0.0077121625654399395,0.007747104857116938,-0.01124975923448801,0.004740911535918713,0.0,0.0030925425235182047
0.00732792541384697,0.007520104292780161,-0.011706605553627014,0.005590703338384628,0.0,0.0030580118764191866
0.00734120886772871,0.008160312660038471,-0.011199901811778545,0.0052420832216739655,0.0,0.0030103037133812904
0.007596953306347132,0.007159015163779259,-0.011152227409183979,0.0049639055505394936,0.0,0.0028707373421639204
0.007743352558463812,0.007434822618961334,-0.011416015215218067,0.005197447258979082,0.0,0.0028212107717990875
0.007441631518304348,0.007613843772560358,-0.01095500122755766,0.005254678428173065,0.0,0.0030116746202111244
0.007251037284731865,0.008210168220102787,-0.011300208978354931,0.005318842362612486,0.0,0.0028562669176608324
0.007635169662535191,0.007755656260997057,-0.011553658172488213,0.005321811884641647,0.0,0.003023772034794092
0.007649610750377178,0.007105774246156216,-0.011104457080364227,0.00508847925812006,0.0,0.0027772702742367983
0.007414994761347771,0.007311171852052212,-0.012089041993021965,0.004859928973019123,0.0,0.0026044307742267847
0.008081958629190922,0.008137853816151619,-0.011334951967000961,0.004741364624351263,0.0,0.0026383157819509506
0.008409719914197922,0.007109255995601416,-0.011691310442984104,0.005022252909839153,0.0,0.0025496429298073053
0.007984590716660023,0.007305349223315716,-0.011643128469586372,0.005034595262259245,0.0,0.002628591377288103
0.007719107903540134,0.007830300368368626,-0.010953182354569435,0.004991314373910427,0.0,0.0028094134759157896
0.007730371318757534,0.00789058767259121,-0.011791600845754147,0.005163786467164755,0.0,0.002782248891890049
0.008047742769122124,0.007033358793705702,-0.011082963086664677,0.005212194751948118,0.0,0.002759561175480485
0.008071860298514366,0.006992893759161234,-0.011110835708677769,0.004715724382549524,0.0,0.0026262521278113127
0.007481444161385298,0.0073263091035187244,-0.011591923423111439,0.004602843429893255,0.0,0.00255959783680737
0.00821693055331707,0.008093638345599174,-0.011221685446798801,0.004899851977825165,0.0,0.0025145711842924356
0.008500082418322563,0.007526211440563202,-0.011831981129944324,0.0051453327760100365,0.0,0.002456214278936386
0.007943329401314259,0.007402606308460236,-0.011939740739762783,0.005210712552070618,0.0,0.0027383454144001007
0.007910937070846558,0.007453594356775284,-0.012113885954022408,0.0051727332174777985,0.0,0.0026822793297469616
0.00846401322633028,0.007532521151006222,-0.011353950947523117,0.004945429973304272,0.0,0.0025764431338757277
0.009022915735840797,0.0068200635723769665,-0.011153127066791058,0.0048689269460737705,0.0,0.002443616045638919
0.008101052604615688,0.006651580799371004,-0.011909318156540394,0.005246793385595083,0.0,0.002151894150301814
0.008413618430495262,0.006847282871603966,-0.011945230886340141,0.005276890005916357,0.0,0.002032655756920576
0.008745865896344185,0.007429635152220726,-0.012160571292042732,0.004930595867335796,0.0,0.0021275440230965614
0.008745865896344185,0.007429635152220726,-0.012160571292042732,0.004930595867335796,0.0,0.0021275440230965614
0.00773385027423501,0.007020818069577217,-0.011466020718216896,0.004968210123479366,0.0,0.002186944941058755
0.00773385027423501,0.007020818069577217,-0.011466020718216896,0.004968210123479366,0.0,0.002186944941058755
0.008441714569926262,0.007590932305902243,-0.011910679750144482,0.005353197455406189,0.0,0.001959087559953332
0.008417454548180103,0.007593349553644657,-0.012000837363302708,0.005353717599064112,0.0,0.0019176247296854854
0.008795887231826782,0.007021580822765827,-0.012117910198867321,0.005487279035151005,0.0,0.0018948690267279744
0.008592570200562477,0.007364604622125626,-0.011798576451838017,0.00507607264444232,-0.0001276921684620902,0.0018899479182437062
0.008584436029195786,0.00782814435660839,-0.012089240364730358,0.0049300785176455975,-0.0001393100683344528,0.0018240599893033504
0.007991394959390163,0.00770922563970089,-0.011667775921523571,0.005158052779734135,-0.00013611350732389838,0.0020216249395161867
0.008631840348243713,0.007029734086245298,-0.012414977885782719,0.005219271872192621,-0.00013218141975812614,0.002127045998349786
0.009004445746541023,0.006748016923666,-0.012230529449880123,0.00544536579400301,-0.0001284135360037908,0.0026466769631952047
0.00818408839404583,0.006973953917622566,-0.012634174898266792,0.005256522446870804,-0.00012485074694268405,0.0026015008334070444
0.008456883952021599,0.00716943945735693,-0.012043043971061707,0.005215604789555073,-0.00012147998495493084,0.002229211386293173
0.008487644605338573,0.006947223097085953,-0.01135963760316372,0.005196091718971729,-0.00011828669084934518,0.0019093966111540794
0.00840448122471571,0.006577534135431051,-0.012676255777478218,0.004947953391820192,-0.00012658006744459271,0.0017413513269275427
0.008167250081896782,0.006792719941586256,-0.012073446065187454,0.00506322318688035,-0.0001340882299700752,0.001679312321357429
0.008656679652631283,0.00732435705140233,-0.012616226449608803,0.00519469752907753,-0.000131518259877339,0.001887624035589397
0.00846959836781025,0.007005938328802586,-0.012079146690666676,0.00508837541565299,-0.0001284353929804638,0.001955535262823105
0.008246916346251965,0.006447403226047754,-0.011813921853899956,0.005388861987739801,-0.00012545438949018717,0.002046249806880951
0.00909805204719305,0.006625168025493622,-0.012182983569800854,0.005221500992774963,-0.00012260599760338664,0.0019376564305275679
0.008729173801839352,0.007046867627650499,-0.011555719189345837,0.004941820167005062,-0.00011988402548013255,0.0018725129775702953
0.008723817765712738,0.006919266656041145,-0.012172751128673553,0.005290477070957422,-0.00011728014214895666,0.001734026474878192
0.009191139601171017,0.006756248418241739,-0.012292569503188133,0.0055770608596503735,-0.0001241953723365441,0.0016619896050542593
0.009094096720218658,0.006572532933205366,-0.012181801721453667,0.0055928523652255535,-0.00013049595872871578,0.0016341909067705274
0.008889543823897839,0.006814243737608194,-0.012088440358638763,0.005297160241752863,-0.000128415587823838,0.0015488261124119163
0.008287014439702034,0.006657829508185387,-0.011308496817946434,0.005051800515502691,-0.00012588730896823108,0.0017124887090176344
0.008287014439702034,0.006657829508185387,-0.011308496817946434,0.005051800515502691,-0.00012588730896823108,0.0017124887090176344
0.008998364210128784,0.006799415685236454,-0.012752856127917767,0.005533935967832804,-0.0001234234223375097,0.0019514354644343257
0.009130680002272129,0.0063753752037882805,-0.012747323140501976,0.005811961367726326,-0.00013136002235114574,0.002006504451856017
0.00940699502825737,0.006911542732268572,-0.01191804651170969,0.005917445756494999,-0.0001329395454376936,0.001857573981396854
0.009484938345849514,0.006650598719716072,-0.011923546902835369,0.005848034750670195,-0.00013078624033369124,0.0016975589096546173
0.00921905878931284,0.0065054078586399555,-0.012324322946369648,0.005665607750415802,-0.00012846975005231798,0.0015003483276814222
0.008641866035759449,0.006250845268368721,-0.012303757481276989,0.005802964325994253,-0.00012621864152606577,0.0015018709236755967
0.00929061509668827,0.006495635490864515,-0.012837294489145279,0.00585494888946414,-0.00015749914746265858,0.0013507427647709846
0.009007475338876247,0.006853186991065741,-0.011922623962163925,0.005544447805732489,-0.0001568281586514786,0.001299257972277701
0.009271255694329739,0.00605296203866601,-0.011990044265985489,0.0058791134506464005,-0.00015185050142463297,0.0013445731019601226
0.009286337532103062,0.005917732138186693,-0.011802615597844124,0.0063279764726758,-0.00014691287651658058,0.0013226381270214915
0.009733716025948524,0.005684009753167629,-0.011527369730174541,0.006331184878945351,-0.00015622384671587497,0.00131550757214427
0.009707295335829258,0.006230112165212631,-0.012275882065296173,0.00608342420309782,-0.0001645438896957785,0.0012507643550634384
0.009786734357476234,0.006376114673912525,-0.011607612483203411,0.005888066720217466,-0.00016050715930759907,0.0011927341111004353
0.008828745223581791,0.0058495295234024525,-0.012208429165184498,0.005917066242545843,-0.00016868292004801333,0.0010727818589657545
0.009764562360942364,0.0058218506164848804,-0.011644165962934494,0.006197825539857149,-0.00017595021927263588,0.001012349152006209
0.0100089767947793,0.006041263695806265,-0.01212482713162899,0.006184984464198351,-0.00017193082021549344,0.000992095796391368
0.00970446690917015,0.006198240909725428,-0.0119722168892622,0.006236473098397255,-0.0001791579561540857,0.0009790066396817565
0.009229067713022232,0.006098382640630007,-0.011691875755786896,0.006232910789549351,-0.0001855851151049137,0.000936933676712215
0.009894974529743195,0.005990119185298681,-0.012582127004861832,0.005701115820556879,-0.00018162489868700504,0.0009619453339837492
0.009971041232347488,0.005902384873479605,-0.0116663733497262,0.005818565376102924,-0.0001772016257746145,0.0010648806346580386
0.010066138580441475,0.006099828984588385,-0.012082639150321484,0.0057396176271140575,-0.0002880032698158175,0.0012756927171722054
0.009781073778867722,0.00656581437215209,-0.01258313748985529,0.005675585009157658,-0.00028616448980756104,0.001284115482121706
0.00962086208164692,0.006307927891612053,-0.012690667062997818,0.005606827326118946,-0.00027006297023035586,0.0012149643152952194
0.009951097890734673,0.0060730064287781715,-0.012688872404396534,0.006012837402522564,-0.00025483316858299077,0.0010279037524014711
0.009877009317278862,0.00630508316680789,-0.012022366747260094,0.005815089214593172,-0.00027674311422742903,0.0008839497459121048
0.010346625000238419,0.005847153253853321,-0.012955037876963615,0.0060705868527293205,-0.0002738562470767647,0.0007749708602204919
0.009945879690349102,0.006551009602844715,-0.01179500762373209,0.00606287457048893,-0.0002613294345792383,0.0006899220170453191
0.010134397074580193,0.0065850443206727505,-0.01210502628237009,0.005751912482082844,-0.0002493087376933545,0.0007041024509817362
0.010134397074580193,0.0065850443206727505,-0.01210502628237009,0.005751912482082844,-0.0002493087376933545,0.0007041024509817362
0.010293606668710709,0.006348132621496916,-0.012435737997293472,0.005365903489291668,-0.0002659251622390002,0.000593273900449276
0.01059385109692812,0.006606218870729208,-0.012876847758889198,0.005810505710542202,-0.0002554489183239639,0.0005480925319716334
0.009922971948981285,0.006403394043445587,-0.012167077511548996,0.00609075091779232,-0.0002455124049447477,0.0004088189743924886
0.01005761418491602,0.006402045022696257,-0.012833744287490845,0.006278153508901596,-0.00023630340001545846,0.0003629199927672744
0.010893112048506737,0.006283037830144167,-0.01218781154602766,0.00661721546202898,-0.0002559757267590612,0.00036750666913576424
0.010125157423317432,0.005852617789059877,-0.012730310671031475,0.006096803117543459,-0.0002509308105800301,0.0003718426451086998
0.010247297585010529,0.006313964258879423,-0.01208203099668026,0.005959207657724619,-0.00024272392329294235,0.0003925999335478991
0.010416680946946144,0.006557001266628504,-0.012216705828905106,0.006015475373715162,-0.0002348230773350224,0.0003822868166025728
0.009901216253638268,0.0056112585589289665,-0.013010620139539242,0.005940771196037531,-0.00022740695567335933,0.0004058905760757625
0.010899034328758717,0.006017157342284918,-0.012340809218585491,0.006007464602589607,-0.00022044357319828123,0.00039005957660265267
0.010398869402706623,0.0056082517839968204,-0.012438800185918808,0.006334960926324129,-0.00022505810193251818,0.0003703910915646702
0.009885374456644058,0.005960866808891296,-0.012114810757339,0.005682205315679312,-0.00021826804731972516,0.0003526992804836482
0.010437590070068836,0.0061103906482458115,-0.013068817555904388,0.006296301726251841,-0.00020842559752054513,0.00041909312130883336
0.010196288116276264,0.006024731323122978,-0.012310953810811043,0.006410638336092234,-0.0001992140314541757,0.00038933215546421707
0.010407714173197746,0.005668627098202705,-0.01213650032877922,0.006043741013854742,-0.00019076817261520773,0.00035869728890247643
0.010114103555679321,0.005719928070902824,-0.01301075890660286,0.0062523772940039635,-0.0002100628917105496,0.0003322208358440548
0.010351809673011303,0.006134182680398226,-0.013206854462623596,0.0065297409892082214,-0.00021040324645582587,0.00030936929397284985
0.010068461298942566,0.006064312066882849,-0.01314232125878334,0.00727452989667654,-0.00020304784993641078,0.0002894573553930968
0.01058152411133051,0.006028432864695787,-0.012403836473822594,0.0068245576694607735,-0.00019572324526961893,0.00027195457369089127
0.011524628847837448,0.00643085828050971,-0.012978297658264637,0.00665598688647151,-0.000188878970220685,0.00025645055575296283
0.011892049573361874,0.0061305006965994835,-0.012236717157065868,0.006908959709107876,-0.00021085530170239508,0.00024261836369987577
0.01188646350055933,0.006334417033940554,-0.013052749447524548,0.006880501750856638,-0.00020581568242050707,0.00023020249500405043
0.011564860120415688,0.006540775764733553,-0.012555649504065514,0.0067008365876972675,-0.00019942098879255354,0.00021899561397731304
0.011438383720815182,0.005918058566749096,-0.012529727071523666,0.006152537651360035,-0.00021375807409640402,0.0002088299806928262
0.01127198152244091,0.005656917579472065,-0.013065392151474953,0.0061533511616289616,-0.0002138798008672893,0.00019956656615249813
0.011738982982933521,0.005665223114192486,-0.012898333370685577,0.006560550071299076,-0.0002081199490930885,0.00019109064305666834
0.012268135324120522,0.006220757495611906,-0.013166633434593678,0.007050294894725084,-0.0002022994594881311,0.00018330490274820477
0.011748136952519417,0.0059942384250462055,-0.012519911862909794,0.006976922042667866,-0.0002505092415958643,0.0001500836224295199
0.011748136952519417,0.0059942384250462055,-0.012519911862909794,0.006976922042667866,-0.0002505092415958643,0.0001500836224295199
0.011637701652944088,0.006008347496390343,-0.012604987248778343,0.006720886565744877,-0.00023265197523869574,0.00013071169087197632
0.011907973326742649,0.005591123830527067,-0.01281690876930952,0.00687751779332757,-0.00022124408860690892,0.0001260977005586028
0.011972262524068356,0.006507982034236193,-0.012178394012153149,0.006813385523855686,-0.0002501611306797713,0.00012182750651845708
0.012041794136166573,0.006859459448605776,-0.012445216067135334,0.00710349390283227,-0.00024153148115146905,0.00011783919762820005
0.012625650502741337,0.005922316107898951,-0.013458897359669209,0.007649754174053669,-0.0002313494769623503,0.00011410388833610341
0.011698143556714058,0.00582468044012785,-0.01275520771741867,0.006957412231713533,-0.00022185368288774043,0.00011059802636737004
0.011843916960060596,0.005919767078012228,-0.0135453250259161,0.006549864541739225,-0.00023935450008139014,8.228114893427119e-05
0.01200149580836296,0.00622896384447813,-0.01286234613507986,0.006547767203301191,-0.00023856922052800655,7.826448563719168e-05
0.012023154646158218,0.006167872343212366,-0.01334337331354618,0.006578432396054268,-0.00023038507788442075,7.595586794195697e-05
0.012182574719190598,0.005775931291282177,-0.012996467761695385,0.006541503593325615,-0.00022229013848118484,4.7866060413070954e-06
0.011812420561909676,0.0061381785199046135,-0.013488760218024254,0.006504037417471409,-0.00021471537183970213,-6.007979027344845e-05
0.01208506803959608,0.005758633837103844,-0.013142271898686886,0.0065634585916996,-0.0002295936574228108,-6.222249794518575e-05
0.011867182329297066,0.006095706019550562,-0.013548048213124275,0.006574656814336777,-0.00022922511561773717,-8.662092295708135e-05
0.012317418120801449,0.006222382187843323,-0.013463019393384457,0.007438782602548599,-0.0002225913485744968,-8.743750368012115e-05
0.01228113193064928,0.0057574305683374405,-0.013597060926258564,0.007023442070931196,-0.0002550224890001118,-0.00010949149873340502
0.012322095222771168,0.005551554262638092,-0.013681513257324696,0.006870894227176905,-0.0002538382541388273,-0.0001230206253239885
0.012501170858740807,0.005449776537716389,-0.013266672380268574,0.006768631283193827,-0.00024109774676617235,-0.0001325171033386141
0.012421333231031895,0.006214318796992302,-0.013234058395028114,0.007155844010412693,-0.0002512236242182553,-0.0005186850321479142
0.012870884500443935,0.006130573805421591,-0.012685326859354973,0.0074709560722112656,-0.00025983998784795403,-0.0005796681507490575
0.01241153385490179,0.005778070539236069,-0.014046725817024708,0.007360873743891716,-0.00024920119903981686,-0.0005303642828948796
0.01241967361420393,0.006012629251927137,-0.013703001663088799,0.006632911041378975,-0.00023828994017094374,-0.0005423521506600082
0.012618365697562695,0.0054928152821958065,-0.013759136199951172,0.00704418309032917,-0.00024682460934855044,-0.000551925040781498
0.012982743792235851,0.00595720112323761,-0.013363982550799847,0.007746213581413031,-0.00025419192388653755,-0.0006432751542888582
0.01295425370335579,0.0062004621140658855,-0.014012684114277363,0.007701322436332703,-0.0002454215718898922,-0.0007604086422361434
0.012342425994575024,0.006069079507142305,-0.013384482823312283,0.007550706155598164,-0.0002362892555538565,-0.0007835240685380995
0.012475988827645779,0.0052848877385258675,-0.013736843131482601,0.007697019260376692,-0.0002580824657343328,-0.0007970331353135407
0.012475988827645779,0.0052848877385258675,-0.013736843131482601,0.007697019260376692,-0.0002580824657343328,-0.0007970331353135407
0.012334676459431648,0.005786473397165537,-0.013398007489740849,0.007800624705851078,-0.00025106006069108844,-0.0009765122085809708
0.012478511780500412,0.00624303100630641,-0.013746168464422226,0.007987257093191147,-0.00031339118140749633,-0.0010880507761612535
0.012478511780500412,0.00624303100630641,-0.013746168464422226,0.007987257093191147,-0.00031339118140749633,-0.0010880507761612535
0.013194155879318714,0.00598220294341445,-0.01358860544860363,0.00819561816751957,-0.0003278341027908027,-0.0010927161201834679
0.013123268261551857,0.005807188339531422,-0.01374907698482275,0.008783785626292229,-0.0003122332564089447,-0.001105981762520969
0.012856368906795979,0.005597282201051712,-0.01333506777882576,0.007906120270490646,-0.0003411981160752475,-0.0010958913480862975
0.013010669499635696,0.005941212642937899,-0.013451134786009789,0.008157366886734962,-0.00032651241053827107,-0.0013394441921263933
0.013530723750591278,0.005863691680133343,-0.01372782327234745,0.007795380894094706,-0.00034335488453507423,-0.0014411499723792076
0.013056846335530281,0.0056756166741251945,-0.013590375892817974,0.007686943281441927,-0.00033755009644664824,-0.0016497988253831863
0.013675371184945107,0.005987638141959906,-0.013928767293691635,0.007552840746939182,-0.0003982032649219036,-0.0017499997047707438
0.013370993547141552,0.005866717547178268,-0.013706501573324203,0.007737613748759031,-0.00043210372678004205,-0.001636658445931971
0.013345383107662201,0.00633638072758913,-0.013821963220834732,0.007609125226736069,-0.00045699256588704884,-0.0016478282632306218
0.013173384591937065,0.006327611859887838,-0.013038993813097477,0.007417979650199413,-0.0004382634360808879,-0.0015920279547572136
0.013642328791320324,0.005902374163269997,-0.013457968831062317,0.007616961374878883,-0.00040645687840878963,-0.0017959987744688988
0.01354237925261259,0.005784725304692984,-0.012931350618600845,0.008219963870942593,-0.00043664532131515443,-0.002240618458017707
0.013427567668259144,0.006147942505776882,-0.013791020959615707,0.007941999472677708,-0.00041190910269506276,-0.0024487306363880634
0.01352648250758648,0.00601833825930953,-0.013388915918767452,0.007487051654607058,-0.0003868525964207947,-0.0027000491973012686
0.013569510541856289,0.006273697130382061,-0.014056072570383549,0.0074441032484173775,-0.0004129379231017083,-0.002592416713014245
0.013708768412470818,0.005910527426749468,-0.013584134168922901,0.0081563675776124,-0.0003935222630389035,-0.002363526029512286
0.014057218097150326,0.005908518563956022,-0.013711121864616871,0.00783306173980236,-0.0004085625405423343,-0.0019383181352168322
0.014064588584005833,0.006545362062752247,-0.013243058696389198,0.007742178160697222,-0.00040657640784047544,-0.0020097296219319105
0.013422338292002678,0.006125249434262514,-0.013243277557194233,0.008088035508990288,-0.00041125083225779235,-0.002174577908590436
0.013801551423966885,0.005930710583925247,-0.013496804982423782,0.008366089314222336,-0.00041296103154309094,-0.0024886252358555794
0.013544371351599693,0.0064758663065731525,-0.013719862326979637,0.007909765467047691,-0.0004328862705733627,-0.00278302701190114
0.014202709309756756,0.005916142370551825,-0.013903622515499592,0.007476151455193758,-0.00041893922025337815,-0.00275387242436409
0.014202709309756756,0.005916142370551825,-0.013903622515499592,0.007476151455193758,-0.00041893922025337815,-0.00275387242436409
0.013639428652822971,0.006147879641503096,-0.013195029459893703,0.00810170266777277,-0.00039371728780679405,-0.002705913269892335
0.014205017127096653,0.0066194296814501286,-0.01332919206470251,0.008263498544692993,-0.000370608177036047,-0.0025532678700983524
0.013878860510885715,0.006010015495121479,-0.012995448894798756,0.00820681918412447,-0.00038687209598720074,-0.002848532749339938
0.014481455087661743,0.005936097353696823,-0.013577019795775414,0.007874030619859695,-0.00037809519562870264,-0.002673403127118945
0.014682174660265446,0.0059862928465008736,-0.013503183610737324,0.008592146448791027,-0.0003428481286391616,-0.0026331094559282064
0.014220720157027245,0.006208105944097042,-0.013274206779897213,0.00807558186352253,-0.0003272632893640548,-0.0030210099648684263
0.014403501525521278,0.005883624777197838,-0.013898623175919056,0.007707392331212759,-0.00031303157447837293,-0.0029393883887678385
0.014062237925827503,0.00620146794244647,-0.01321630459278822,0.008056899532675743,-0.00031566707184538245,-0.0031292657367885113
0.01470091100782156,0.006350768264383078,-0.013726009987294674,0.008222648873925209,-0.0002977245021611452,-0.003110340563580394
0.014223453588783741,0.006119648925960064,-0.013151108287274837,0.00809315126389265,-0.0002794217725750059,-0.0035177976824343204
0.014696577563881874,0.00595497153699398,-0.013611193746328354,0.008572076447308064,-0.00026309004169888794,-0.0038367994129657745
0.01450822688639164,0.006031189113855362,-0.013477154076099396,0.008971447125077248,-0.0002727796963881701,-0.003477624850347638
0.014897223562002182,0.006036929786205292,-0.013276404701173306,0.008054239675402641,-0.00028098226175643504,-0.003366561606526375
0.014327310025691986,0.005875132512301207,-0.013790319673717022,0.007784477435052395,-0.0002684746286831796,-0.0032382942736148834
0.014840338379144669,0.006493521388620138,-0.013597396202385426,0.008159719407558441,-0.00025584697141312063,-0.0034588577691465616
0.014619411900639534,0.006147587206214666,-0.013358733616769314,0.008340860716998577,-0.00024427648168057203,-0.003787582740187645
0.015085131861269474,0.006141250487416983,-0.013069621287286282,0.007841012440621853,-0.0002699941105674952,-0.004115151707082987
0.015022865496575832,0.006494541186839342,-0.013847903348505497,0.008379261009395123,-0.00026116613298654556,-0.00407351553440094
0.01545124500989914,0.0062520792707800865,-0.01306102517992258,0.00884050689637661,-0.0002509172190912068,-0.0035335321445018053
0.01513813529163599,0.0063949404284358025,-0.01381612103432417,0.008299640379846096,-0.0002413145557511598,-0.0034951018169522285
0.015475093387067318,0.006181484553962946,-0.013609793037176132,0.008419315330684185,-0.00026336198789067566,-0.003672659397125244
0.015286317095160484,0.005873885005712509,-0.014325946569442749,0.008371017873287201,-0.0002560144930612296,-0.004303156863898039
0.015139258466660976,0.006302595604211092,-0.014111719094216824,0.008474544622004032,-0.0002473501372151077,-0.004156050272285938
0.015264034271240234,0.006487490143626928,-0.014320987276732922,0.007932435721158981,-0.00023914224584586918,-0.004223569296300411
0.0152707789093256,0.006333289202302694,-0.013509772717952728,0.00863997545093298,-0.00025159510551020503,-0.0041292873211205006
0.015463613905012608,0.005815951153635979,-0.01412255596369505,0.008896643295884132,-0.00024135665444191545,-0.004321919288486242
0.015128604136407375,0.005775474011898041,-0.012797286733984947,0.008845432661473751,-0.0002292696008225903,-0.004135298542678356
0.015519354492425919,0.005968854762613773,-0.014386827126145363,0.00869389995932579,-0.0002559483691584319,-0.004384630359709263
0.015272758901119232,0.006403267849236727,-0.01428036205470562,0.009566902182996273,-0.0002493081847205758,-0.004607208538800478
0.015683108940720558,0.005906724836677313,-0.014378441497683525,0.009405815973877907,-0.00023862753005232662,-0.004355674143880606
0.015320759266614914,0.005888605024665594,-0.013880006968975067,0.00972000602632761,-0.0002615572593640536,-0.004485159646719694
0.015320759266614914,0.005888605024665594,-0.013880006968975067,0.00972000602632761,-0.0002615572593640536,-0.004485159646719694
0.015582950785756111,0.006230795290321112,-0.01490829698741436,0.00937405414879322,-0.00027335932827554643,-0.004558046348392963
0.015068278647959232,0.006088180933147669,-0.014249158091843128,0.009523173794150352,-0.0002797060296870768,-0.004441402852535248
0.01626543700695038,0.005898164119571447,-0.014149489812552929,0.009371817111968994,-0.00039782264502719045,-0.004584793467074633
0.01580801047384739,0.00570291792973876,-0.014266611076891422,0.0093446159735322,-0.0004504352109506726,-0.004660235717892647
0.016737909987568855,0.006020016968250275,-0.013783315196633339,0.009165344759821892,-0.00042530096834525466,-0.00500123854726553
0.015964552760124207,0.0054963501170277596,-0.014445370994508266,0.008877940475940704,-0.00045167957432568073,-0.005096854642033577
0.016685670241713524,0.00592253590002656,-0.01413645688444376,0.009692835621535778,-0.0004287198244128376,-0.004745672922581434
0.016473740339279175,0.00595093471929431,-0.014654119499027729,0.008995317853987217,-0.00045527907786890864,-0.0047463527880609035
0.016196977347135544,0.005522396415472031,-0.014060796238481998,0.009133601561188698,-0.0004317683051340282,-0.004950784146785736
0.01511602383106947,0.0055694011971354485,-0.01416524313390255,0.009098648093640804,-0.0005708147073164582,-0.004847714211791754
0.017089108005166054,0.006032557226717472,-0.01416522916406393,0.00906241312623024,-0.0005178451538085938,-0.00468624010682106
0.016731200739741325,0.005640003830194473,-0.014627102762460709,0.008718703873455524,-0.0005450803437270224,-0.004767964128404856
0.016461417078971863,0.006012578960508108,-0.01433974876999855,0.009076320566236973,-0.0005456157377921045,-0.005181221757084131
0.01672961376607418,0.006184927187860012,-0.014260160736739635,0.009226575493812561,-0.0005366157274693251,-0.005161157809197903
0.015998927876353264,0.005542375613003969,-0.014724657870829105,0.008400585502386093,-0.0004967358545400202,-0.005407554097473621
0.016868650913238525,0.006032446399331093,-0.01452296320348978,0.00889961700886488,-0.0005217137513682246,-0.005103430710732937
0.01666935905814171,0.00547140184789896,-0.014401404187083244,0.009104911237955093,-0.0005305853555910289,-0.004810385871678591
0.016902290284633636,0.006119164638221264,-0.014573992229998112,0.008667978458106518,-0.0005111063364893198,-0.0047228154726326466
0.016847269609570503,0.0055440375581383705,-0.014318546280264854,0.008528194390237331,-0.0005469174357131124,-0.005077871959656477
0.016698867082595825,0.005986098200082779,-0.014331027865409851,0.008731728419661522,-0.0005018077208660543,-0.005163233261555433
0.016995461657643318,0.005475982092320919,-0.014396905899047852,0.00888916663825512,-0.0005254559800960124,-0.005344902630895376
0.016228992491960526,0.005511018447577953,-0.014470454305410385,0.009063898585736752,-0.000493289902806282,-0.0051689837127923965
0.016752764582633972,0.005854384042322636,-0.014308055862784386,0.00953273382037878,-0.0004897307371720672,-0.005771228577941656
0.016655366867780685,0.006051633041352034,-0.014866098761558533,0.009754296392202377,-0.00048576650442555547,-0.005581661127507687
0.016930771991610527,0.005443594418466091,-0.014467949979007244,0.009748393669724464,-0.0004568363365251571,-0.005455570761114359
0.016930771991610527,0.005443594418466091,-0.014467949979007244,0.009748393669724464,-0.0004568363365251571,-0.005455570761114359
0.017343927174806595,0.005833515897393227,-0.01463985163718462,0.009600245393812656,-0.00046355786616913974,-0.005737215746194124
0.017343927174806595,0.005833515897393227,-0.01463985163718462,0.009600245393812656,-0.00046355786616913974,-0.005737215746194124
0.017134729772806168,0.005950041115283966,-0.014377336949110031,0.010215367190539837,-0.0004437821335159242,-0.005864452570676804
0.017280926927924156,0.006184152327477932,-0.014388371258974075,0.009901355020701885,-0.00047486837138421834,-0.005785204470157623
0.01729963719844818,0.005481561180204153,-0.014633521437644958,0.009201288223266602,-0.00047641151468269527,-0.006145066116005182
0.01680094376206398,0.005380096845328808,-0.014856471680104733,0.009775562211871147,-0.0004736584087368101,-0.0058035473339259624
0.01746007800102234,0.00517494510859251,-0.014738683588802814,0.00973682664334774,-0.00044767919462174177,-0.0059603299014270306
0.017261456698179245,0.00646205572411418,-0.014816716313362122,0.009541417472064495,-0.0005179469590075314,-0.005669413134455681
0.017705446109175682,0.00590197928249836,-0.014538852497935295,0.009685128927230835,-0.00047163129784166813,-0.005764619912952185
0.017557619139552116,0.005272206850349903,-0.014812031760811806,0.010330718010663986,-0.0004898511688224971,-0.005926935002207756
0.017230531200766563,0.0054170177318155766,-0.01443292386829853,0.0101010138168931,-0.0004667990724556148,-0.0060835108160972595
0.017934314906597137,0.005588253028690815,-0.01500721462070942,0.010029655881226063,-0.00043079533497802913,-0.006208850536495447
0.017956966534256935,0.005690012127161026,-0.014406085014343262,0.009719575755298138,-0.00039901939453557134,-0.006593205966055393
0.01733054220676422,0.006174005568027496,-0.014844094403088093,0.009710099548101425,-0.0004291337390895933,-0.006061998195946217
0.017996590584516525,0.005472880322486162,-0.014442579820752144,0.010012011975049973,-0.00040527142118662596,-0.00607288908213377
0.01798124797642231,0.005367793142795563,-0.014716219156980515,0.010384094901382923,-0.000407485495088622,-0.006096103228628635
0.017909789457917213,0.005154708866029978,-0.014380181208252907,0.010162570513784885,-0.0004087754350621253,-0.006153927184641361
0.01811831071972847,0.006029259879142046,-0.015343156643211842,0.01066531054675579,-0.00038832062273286283,-0.006361327599734068
0.01766376942396164,0.005879297852516174,-0.01454668678343296,0.00971866212785244,-0.00037731879274360836,-0.00651375949382782
0.018219247460365295,0.005718593019992113,-0.014819714240729809,0.009505544789135456,-0.0003501497849356383,-0.006672678515315056
0.01787448674440384,0.005541340447962284,-0.014285183511674404,0.009461941197514534,-0.0003565200313460082,-0.006489960476756096
0.017896773293614388,0.005577459000051022,-0.014879787340760231,0.00958182755857706,-0.0003615268797148019,-0.006375742610543966
0.018362436443567276,0.005160101689398289,-0.014046542346477509,0.009370097890496254,-0.0003682245151139796,-0.006801057606935501
0.01846686750650406,0.0059916251339018345,-0.014830134809017181,0.009426102042198181,-0.0003720182867255062,-0.00695089902728796
0.018767336383461952,0.0054926518350839615,-0.01399917621165514,0.009591344743967056,-0.00035284689511172473,-0.006913577206432819
0.01909298077225685,0.0052695730701088905,-0.014954508282244205,0.009970776736736298,-0.000357514014467597,-0.006557222455739975
0.018567906692624092,0.005445689428597689,-0.014125850051641464,0.010629074648022652,-0.0003611382853705436,-0.006684729363769293
0.018567906692624092,0.005445689428597689,-0.014125850051641464,0.010629074648022652,-0.0003611382853705436,-0.006684729363769293
0.01863989792764187,0.006078046280890703,-0.014917952008545399,0.010292206890881062,-0.00034522818168625236,-0.006771389860659838
0.018661558628082275,0.005868987645953894,-0.015430977568030357,0.010829191654920578,-0.0003157158207613975,-0.006835529580712318
0.01909342035651207,0.005651520099490881,-0.015441978350281715,0.010311219841241837,-0.0003494441043585539,-0.007034128997474909
0.0191110298037529,0.005662013776600361,-0.015407734550535679,0.010522525757551193,-0.00032779714092612267,-0.006837105844169855
0.01882852613925934,0.005642648320645094,-0.014812269248068333,0.010489418171346188,-0.0003057597787119448,-0.006743740290403366
0.0194278322160244,0.006283106282353401,-0.01539132371544838,0.010129689238965511,-0.0002863113768398762,-0.006692388094961643
0.019320180639624596,0.006053935270756483,-0.015098854899406433,0.010669480077922344,-0.00026917681680060923,-0.006850381847470999
0.01890420913696289,0.0058111147955060005,-0.01546779926866293,0.010411868803203106,-0.00025397801073268056,-0.007193899247795343
0.019210243597626686,0.006049343850463629,-0.015824150294065475,0.009947146289050579,-0.00028201451641507447,-0.00739595340564847
0.01937083713710308,0.005909519735723734,-0.015665214508771896,0.010419241152703762,-0.00027342778048478067,-0.007398634683340788
0.018592484295368195,0.006165339611470699,-0.016035089269280434,0.010759552009403706,-0.00026060076197609305,-0.006885547656565905
0.020005084574222565,0.005891064181923866,-0.015462509356439114,0.01032197754830122,-0.00024862305144779384,-0.0065855225548148155
0.019919687882065773,0.005683587398380041,-0.01588124968111515,0.010753926821053028,-0.00025704270228743553,-0.006811617407947779
0.019764944911003113,0.005509200505912304,-0.015440032817423344,0.00996257085353136,-0.00026427701232023537,-0.007451192010194063
0.019423192366957664,0.005784415174275637,-0.016404103487730026,0.010629300959408283,-0.000254766404395923,-0.007189136929810047
0.019955333322286606,0.006502814590930939,-0.01599935069680214,0.010999954305589199,-0.00024493716773577034,-0.007280968129634857
0.019594106823205948,0.0059919883497059345,-0.016380688175559044,0.010069627314805984,-0.00025226667639799416,-0.007694600615650415
0.018954923376441002,0.005937221460044384,-0.016250723972916603,0.009816661477088928,-0.00025861195172183216,-0.007839000783860683
0.019309870898723602,0.005707547999918461,-0.016520939767360687,0.01003396138548851,-0.00025061643100343645,-0.00795271061360836
0.019453775137662888,0.005765455309301615,-0.017079811543226242,0.00962822511792183,-0.00024224894877988845,-0.007922688499093056
0.0200205035507679,0.006191941909492016,-0.01579180173575878,0.009689428843557835,-0.00023436686024069786,-0.008190887048840523
0.019772814586758614,0.005956845823675394,-0.016532883048057556,0.009937726892530918,-0.0002265810762764886,-0.007823058404028416
0.019398009404540062,0.005679668392986059,-0.016033029183745384,0.00958825834095478,-0.00021602725610136986,-0.0075764586217701435
0.01977950893342495,0.005260542035102844,-0.016545232385396957,0.00997324287891388,-0.0002061494451481849,-0.007910816930234432
0.02077367529273033,0.005722652189433575,-0.0168976541608572,0.010107720270752907,-0.00019711842469405383,-0.008097565732896328
0.02024037204682827,0.005779575556516647,-0.016506025567650795,0.010325510054826736,-0.00022157558123581111,-0.007673691026866436
0.01942419819533825,0.006146855652332306,-0.016738617792725563,0.010778069496154785,-0.00021715591719839722,-0.008095179684460163
0.020159898325800896,0.005646586883813143,-0.016173217445611954,0.010868843644857407,-0.00020904171105939895,-0.00792028196156025
0.01976480521261692,0.005869924556463957,-0.016820352524518967,0.010037639178335667,-0.00020126835443079472,-0.008109270595014095
0.01976424641907215,0.0045449212193489075,-0.01622798852622509,0.010292341001331806,-0.00021824240684509277,-0.008190242573618889
0.01976424641907215,0.0045449212193489075,-0.01622798852622509,0.010292341001331806,-0.00021824240684509277,-0.008190242573618889
0.02031780406832695,0.004517574328929186,-0.01669725775718689,0.010130214504897594,-0.00022596695635002106,-0.00835590623319149
0.02037939429283142,0.005075278226286173,-0.017106706276535988,0.010163982398808002,-0.0002261334884678945,-0.008177500218153
0.02037939429283142,0.005075278226286173,-0.017106706276535988,0.010163982398808002,-0.0002261334884678945,-0.008177500218153
0.020621811971068382,0.004925183951854706,-0.01633698306977749,0.01024333480745554,-0.0002193043037550524,-0.0081802261993289
0.02034836634993553,0.004841577727347612,-0.017136937007308006,0.010988063178956509,-0.00028434311388991773,-0.00874739233404398
0.02040552906692028,0.005048714112490416,-0.016629939898848534,0.0103177884593606,-0.0002895848301704973,-0.008071281015872955
0.020355209708213806,0.005044450983405113,-0.016185373067855835,0.010865031741559505,-0.00032443966483697295,-0.008153826929628849
0.020209936425089836,0.0051004900597035885,-0.01659037545323372,0.010950789786875248,-0.00030927479383535683,-0.008238263428211212
0.020485462620854378,0.004993929527699947,-0.016477787867188454,0.010274888016283512,-0.0002927265886683017,-0.008652153424918652
0.020131446421146393,0.0047441632486879826,-0.01645459234714508,0.010671548545360565,-0.00032077758805826306,-0.008051969110965729
0.020796896889805794,0.004835022613406181,-0.016070730984210968,0.010584562085568905,-0.0003079070884268731,-0.008689631707966328
0.02053900435566902,0.004832680337131023,-0.016746915876865387,0.010633973404765129,-0.00031422905158251524,-0.008596496656537056
0.020400017499923706,0.005145850591361523,-0.01611184887588024,0.0109105184674263,-0.0003193468146491796,-0.008537212386727333
0.020834118127822876,0.005039374344050884,-0.016769584268331528,0.010750874876976013,-0.000308218935970217,-0.008000979200005531
0.02049434557557106,0.004677982069551945,-0.0171665009111166,0.011120702140033245,-0.0004250434576533735,-0.007991128601133823
0.02028549462556839,0.004323947709053755,-0.016296247020363808,0.011308060958981514,-0.00046565677621401846,-0.009324946440756321
0.020791027694940567,0.004841180518269539,-0.01689102128148079,0.010749545879662037,-0.0004378299636300653,-0.008725745603442192
0.02109837532043457,0.004938756115734577,-0.01672746241092682,0.010857178829610348,-0.00046840280992910266,-0.008557614870369434
0.01985737308859825,0.00456013111397624,-0.01714375428855419,0.01097828522324562,-0.00043982782517559826,-0.008862145245075226
0.021200861781835556,0.005024340935051441,-0.0168369822204113,0.011339782737195492,-0.00045460573164746165,-0.00849948637187481
0.02186138741672039,0.004965277388691902,-0.01690932735800743,0.011886858381330967,-0.00044030294520780444,-0.008546904660761356
0.021351611241698265,0.004820701666176319,-0.016837814822793007,0.010739052668213844,-0.0005435051280073822,-0.00893950555473566
0.021350795403122902,0.00433059548959136,-0.01639878936111927,0.010800641030073166,-0.0005511687486432493,-0.009184807538986206
0.021156320348381996,0.004388745874166489,-0.01703188754618168,0.010894742794334888,-0.000540633627679199,-0.009264352731406689
0.021536314859986305,0.005099398083984852,-0.01691076159477234,0.010739097371697426,-0.0005705124349333346,-0.009068221785128117
0.02127881534397602,0.005145045928657055,-0.017117490991950035,0.011234106495976448,-0.0005831920425407588,-0.009536420926451683
0.02158081904053688,0.004961539059877396,-0.017094550654292107,0.011597947217524052,-0.0005556366522796452,-0.009065636433660984
0.022492066025733948,0.005145837087184191,-0.016589438542723656,0.011652054265141487,-0.0006472296663559973,-0.00965600460767746
0.022900398820638657,0.0049743251875042915,-0.017148245126008987,0.011571818962693214,-0.000584892462939024,-0.00923570990562439
0.022900398820638657,0.0049743251875042915,-0.017148245126008987,0.011571818962693214,-0.000584892462939024,-0.00923570990562439
0.0220831036567688,0.005406562704592943,-0.016907919198274612,0.012262899428606033,-0.000557214836589992,-0.009273163042962551
0.02109990082681179,0.005212862975895405,-0.016968335956335068,0.011416593566536903,-0.0005839874502271414,-0.009603632614016533
0.021989300847053528,0.004913128446787596,-0.016725389286875725,0.011866562068462372,-0.0005763769731856883,-0.009176692925393581
0.022716399282217026,0.004703835118561983,-0.01715725101530552,0.012172103859484196,-0.0005652924301102757,-0.00961175188422203
0.02261469140648842,0.004721685312688351,-0.016383463516831398,0.011415068060159683,-0.0005756127065978944,-0.009826897643506527
0.022307483479380608,0.004787804093211889,-0.017183765769004822,0.011973239481449127,-0.0005785182002000511,-0.00937409233301878
0.022578872740268707,0.00499336514621973,-0.016505185514688492,0.011946311220526695,-0.0005645919591188431,-0.009743228554725647
0.022954367101192474,0.0055906446650624275,-0.016725732013583183,0.012551081366837025,-0.0005876338109374046,-0.009719649329781532
0.023007666692137718,0.0052698394283652306,-0.01719149760901928,0.01227631513029337,-0.0006041327142156661,-0.009093294851481915
0.02330418862402439,0.0051537915132939816,-0.01680915802717209,0.012044950388371944,-0.0005743191577494144,-0.009783251211047173
0.022400645539164543,0.005056482274085283,-0.017297379672527313,0.01202489621937275,-0.0006587297539226711,-0.010328061878681183
0.02224625274538994,0.00500093400478363,-0.017172634601593018,0.011555664241313934,-0.0006135449511930346,-0.00986430048942566
0.02264975756406784,0.005265580024570227,-0.01699031889438629,0.012309009209275246,-0.0006355028017424047,-0.009474863298237324
0.023585114628076553,0.005407918710261583,-0.017375903204083443,0.012263843789696693,-0.0006506165373139083,-0.009287026710808277
0.02363007143139839,0.005457322113215923,-0.017186196520924568,0.012185651808977127,-0.0006521953619085252,-0.009751249104738235
0.023178070783615112,0.00508424686267972,-0.017723461613059044,0.012519760988652706,-0.0006342246779240668,-0.009970491752028465
0.023105205968022346,0.005820090416818857,-0.017122186720371246,0.01187167502939701,-0.0006428095512092113,-0.010415478609502316
0.02343665063381195,0.005465216003358364,-0.017125776037573814,0.012200621888041496,-0.0006126961088739336,-0.009869529865682125
0.023269716650247574,0.004929750692099333,-0.017139852046966553,0.01147390902042389,-0.0005944442236796021,-0.009790359996259212
0.02346295490860939,0.005280866287648678,-0.016808995977044106,0.012399911880493164,-0.0005774039891548455,-0.009771319106221199
0.023126089945435524,0.005103106144815683,-0.01731988973915577,0.01204860582947731,-0.0005664552445523441,-0.00955818872898817
0.02162916399538517,0.005303757730871439,-0.01698318123817444,0.011463146656751633,-0.0005547815235331655,-0.009922081604599953
0.024139367043972015,0.005620389245450497,-0.017569417133927345,0.012137762270867825,-0.0005121545400470495,-0.009914766065776348
0.023926323279738426,0.005482599139213562,-0.017495425418019295,0.011780526489019394,-0.00047377042938023806,-0.009343454614281654
0.0239584818482399,0.0054893712513148785,-0.017716892063617706,0.012554849497973919,-0.0004700717399828136,-0.010094982571899891
0.0239584818482399,0.0054893712513148785,-0.017716892063617706,0.012554849497973919,-0.0004700717399828136,-0.010094982571899891
0.023498281836509705,0.005695396568626165,-0.017443746328353882,0.012162081897258759,-0.0004417050804477185,-0.009697738103568554
0.023531097918748856,0.005308192688971758,-0.01799749583005905,0.012392046861350536,-0.00040911720134317875,-0.009249301627278328
0.024059824645519257,0.005683815572410822,-0.017782479524612427,0.01209220290184021,-0.00037085902295075357,-0.009766454808413982
0.02414647676050663,0.005430023185908794,-0.017170580103993416,0.012255007401108742,-0.0003754999197553843,-0.010323294438421726
0.02445414662361145,0.005370975937694311,-0.01780676282942295,0.012075903825461864,-0.0003794030344579369,-0.010349247604608536
0.024678854271769524,0.005074598360806704,-0.01715398021042347,0.012411394156515598,-0.000356340198777616,-0.010512050241231918
0.024006737396121025,0.005621485412120819,-0.017448540776968002,0.012647121213376522,-0.0003343912831041962,-0.010502239689230919
0.024165641516447067,0.005357673857361078,-0.017714109271764755,0.01225269678980112,-0.00036373434704728425,-0.009497570805251598
0.02446216344833374,0.0053955065086483955,-0.01758076809346676,0.012173199094831944,-0.000383442995371297,-0.009549546055495739
0.024442436173558235,0.005732023622840643,-0.01800389774143696,0.012323775328695774,-0.00037512139533646405,-0.010412685573101044
0.02463693916797638,0.005934425629675388,-0.017352383583784103,0.01248408854007721,-0.0003572655259631574,-0.010256238281726837
0.025167366489768028,0.0053255558013916016,-0.01730492152273655,0.012174146249890327,-0.00038929254515096545,-0.010531987063586712
0.02506394125521183,0.005801002960652113,-0.017878485843539238,0.012394428253173828,-0.0004019054176751524,-0.00993671640753746
0.025178907439112663,0.00539037212729454,-0.01741829887032509,0.012429783120751381,-0.0004077829944435507,-0.01011750940233469
0.025088099762797356,0.006021926179528236,-0.017820535227656364,0.012286807410418987,-0.0004097953496966511,-0.010026950389146805
0.0249678585678339,0.005558286793529987,-0.01770264469087124,0.012290057726204395,-0.000413864036090672,-0.009682186879217625
0.025407347828149796,0.005376191344112158,-0.01721768081188202,0.01223894115537405,-0.00041511529707349837,-0.009846536442637444
0.02563478611409664,0.0055280947126448154,-0.017939096316695213,0.013028617016971111,-0.00043235591147094965,-0.009292704984545708
0.025760462507605553,0.005388661753386259,-0.017874974757432938,0.013206485658884048,-0.0004201015690341592,-0.009357201866805553
0.025770248845219612,0.005337218288332224,-0.01814650185406208,0.013557856902480125,-0.00039773600292392075,-0.009529417380690575
0.026254257187247276,0.005774336401373148,-0.017985837534070015,0.013067224062979221,-0.0004763150936923921,-0.009751668199896812
0.02668982930481434,0.005798005033284426,-0.017396051436662674,0.013153951615095139,-0.0004447184328455478,-0.009895524010062218
0.027047641575336456,0.005363508127629757,-0.017813239246606827,0.013044935651123524,-0.0004809214733541012,-0.009988445788621902
0.026390019804239273,0.005295292939990759,-0.017654817551374435,0.012767997570335865,-0.0004821371112484485,-0.010356639511883259
0.024398114532232285,0.0053725712932646275,-0.017750922590494156,0.013063507154583931,-0.00047859380720183253,-0.009945420548319817
0.02637999691069126,0.00600716145709157,-0.018021568655967712,0.012977401725947857,-0.00044680017163045704,-0.00990747194737196
0.02680286578834057,0.005768558941781521,-0.017297416925430298,0.013397525995969772,-0.00044629594776779413,-0.00979463942348957
0.026052800938487053,0.005730411037802696,-0.0180598646402359,0.012673262506723404,-0.00044530778541229665,-0.009693212807178497
0.02691957727074623,0.005466184578835964,-0.017049647867679596,0.012319345027208328,-0.00046143255895003676,-0.01031023170799017
0.02691957727074623,0.005466184578835964,-0.017049647867679596,0.012319345027208328,-0.00046143255895003676,-0.01031023170799017
0.027075115591287613,0.005640794523060322,-0.01783030666410923,0.012919402681291103,-0.0004992950707674026,-0.010088291950523853
0.026686882600188255,0.006357149686664343,-0.0176067017018795,0.012985260225832462,-0.00046185130486264825,-0.010424750857055187
0.025923868641257286,0.006348426919430494,-0.018150171265006065,0.012792518362402916,-0.0004916870384477079,-0.01077546738088131
0.02606847509741783,0.005468506831675768,-0.018201326951384544,0.013548770919442177,-0.0004919811035506427,-0.010461661964654922
0.02689545787870884,0.0060012610629200935,-0.017614584416151047,0.013028711080551147,-0.00048809440340846777,-0.010667501948773861
0.02664078399538994,0.005658579990267754,-0.01823405921459198,0.012828163802623749,-0.00046105915680527687,-0.010490473359823227
0.026630885899066925,0.006487023085355759,-0.01776944473385811,0.012612035498023033,-0.0005992226069793105,-0.010175898671150208
0.026564545929431915,0.0057283854112029076,-0.01793110929429531,0.013264616020023823,-0.0005904400604777038,-0.010528184473514557
0.026743754744529724,0.005333724431693554,-0.018549814820289612,0.012824906036257744,-0.0006183823570609093,-0.010803187265992165
0.02639623172581196,0.005180846434086561,-0.01859607733786106,0.01295431051403284,-0.0006277011707425117,-0.010188985615968704
0.026710500940680504,0.005776107311248779,-0.01826396770775318,0.01318409200757742,-0.000595294579397887,-0.010053304024040699
0.026717280969023705,0.005724282469600439,-0.018452800810337067,0.01395491324365139,-0.0007450776756741107,-0.01008069608360529
0.026868315413594246,0.005718175787478685,-0.018056541681289673,0.013882981613278389,-0.0007741255103610456,-0.010351824574172497
0.026723749935626984,0.005178230814635754,-0.01843072846531868,0.013942494988441467,-0.0007827018853276968,-0.010632758028805256
0.02712487429380417,0.005016163922846317,-0.018584774807095528,0.013648789376020432,-0.0007083805976435542,-0.01019364409148693
0.02728937566280365,0.0058774990029633045,-0.0185964647680521,0.013896808959543705,-0.0007158388034440577,-0.010095246136188507
0.027052421122789383,0.006346616428345442,-0.01901981420814991,0.01414225809276104,-0.0006607670802623034,-0.010208746418356895
0.02717772126197815,0.006204238627105951,-0.019019268453121185,0.014620973728597164,-0.0006072053802199662,-0.010194058530032635
0.027205953374505043,0.0061789401806890965,-0.01768709160387516,0.014745288528501987,-0.0005764294182881713,-0.010573307052254677
0.027222968637943268,0.005409122910350561,-0.018592532724142075,0.014825847931206226,-0.0006018711137585342,-0.010736002586781979
0.027106327936053276,0.005967740900814533,-0.01897449977695942,0.014788534492254257,-0.0006197612965479493,-0.011157226748764515
0.025731127709150314,0.005817227065563202,-0.019016070291399956,0.014764855615794659,-0.0005838046781718731,-0.01135878823697567
0.02789345756173134,0.006172576919198036,-0.018578488379716873,0.013801385648548603,-0.0006066019996069372,-0.010553866624832153
0.028198108077049255,0.0058636958710849285,-0.01851809024810791,0.013562462292611599,-0.0007111989543773234,-0.009746965952217579
0.027994733303785324,0.005069580394774675,-0.019086558371782303,0.01351392176002264,-0.0006594056030735373,-0.01103923562914133
0.027866153046488762,0.004552648402750492,-0.01863062009215355,0.013363719917833805,-0.0006849787314422429,-0.011893581598997116
0.026791030541062355,0.005094537511467934,-0.017974907532334328,0.013921966776251793,-0.0006632987642660737,-0.011245911940932274
0.026791030541062355,0.005094537511467934,-0.017974907532334328,0.013921966776251793,-0.0006632987642660737,-0.011245911940932274
0.028018511831760406,0.004771813750267029,-0.018429312855005264,0.013798929750919342,-0.0006053075194358826,-0.010516494512557983
0.028018511831760406,0.004771813750267029,-0.018429312855005264,0.013798929750919342,-0.0006053075194358826,-0.010516494512557983
0.02817489579319954,0.005030169151723385,-0.018883148208260536,0.014137032441794872,-0.0005626104539260268,-0.010512193664908409
0.02877255715429783,0.004699672106653452,-0.018940014764666557,0.013793800957500935,-0.0005346142570488155,-0.010516004636883736
0.02828599512577057,0.0050189602188766,-0.01821024902164936,0.014363854192197323,-0.0004842270282097161,-0.010851789265871048
0.028566263616085052,0.005408002063632011,-0.018825294449925423,0.013796563260257244,-0.00043754788930527866,-0.011379635892808437
0.02819894254207611,0.00509240897372365,-0.01904582791030407,0.01436548214405775,-0.00045718043111264706,-0.01155710220336914
0.028040070086717606,0.004868315998464823,-0.01879091002047062,0.013804067857563496,-0.000438129180110991,-0.0116661312058568
0.02864173613488674,0.004746927879750729,-0.018969915807247162,0.014426338486373425,-0.00040632442687638104,-0.011785400100052357
0.02859927900135517,0.004731975495815277,-0.018895694985985756,0.014105204492807388,-0.0003779430116992444,-0.011571316048502922
0.028673993423581123,0.005039625335484743,-0.018615398555994034,0.014507579617202282,-0.0004040807543788105,-0.011382760480046272
0.028801007196307182,0.00490169133991003,-0.01905653066933155,0.014097793027758598,-0.000386246683774516,-0.011319941841065884
0.028592607006430626,0.00496588135138154,-0.018928127363324165,0.014701354317367077,-0.0003643538220785558,-0.011903040111064911
0.028372136875987053,0.005133504513651133,-0.01878628134727478,0.014404507353901863,-0.00039026199374347925,-0.011509147472679615
0.029051054269075394,0.004887233953922987,-0.019243037328124046,0.01482891570776701,-0.0003730272874236107,-0.011511264368891716
0.02906176634132862,0.004791189916431904,-0.018785379827022552,0.014212280511856079,-0.000355646014213562,-0.011635308153927326
0.029261792078614235,0.0045634047128260136,-0.018709078431129456,0.014622091315686703,-0.0003366808232385665,-0.011861602775752544
0.029475409537553787,0.005034592933952808,-0.019049305468797684,0.014499354176223278,-0.00031369662610813975,-0.011883183382451534
0.029422907158732414,0.005536770913749933,-0.018977414816617966,0.014810505323112011,-0.00034783012233674526,-0.011338260024785995
0.029697906225919724,0.005035759415477514,-0.01930316910147667,0.014554755762219429,-0.00037066807271912694,-0.011461189016699791
0.029766418039798737,0.004742181394249201,-0.019553285092115402,0.014911646954715252,-0.00038752402178943157,-0.011412524618208408
0.02923925593495369,0.004702739417552948,-0.019115634262561798,0.014819614589214325,-0.0003906691272277385,-0.0113687040284276
0.030139409005641937,0.004750169347971678,-0.018767787143588066,0.014843067154288292,-0.00061416084645316,-0.012244770303368568
0.029747851192951202,0.005045689642429352,-0.01937204785645008,0.014551110565662384,-0.0006560815963894129,-0.011743594892323017
0.029478993266820908,0.005324703641235828,-0.01959153637290001,0.01467817835509777,-0.0006587387179024518,-0.011922805570065975
0.029516762122511864,0.0046552433632314205,-0.019298793748021126,0.014309495687484741,-0.0006376478122547269,-0.011729082092642784
0.029516762122511864,0.0046552433632314205,-0.019298793748021126,0.014309495687484741,-0.0006376478122547269,-0.011729082092642784
0.029923997819423676,0.004516000393778086,-0.019282810389995575,0.014347548596560955,-0.0006588599062524736,-0.012174553237855434
0.029963115230202675,0.0050307754427194595,-0.019322669133543968,0.01493957731872797,-0.00075382215436548,-0.012197555042803288
0.03028889372944832,0.004471777472645044,-0.019581345841288567,0.014905592426657677,-0.0007148917648009956,-0.012381130829453468
0.030371874570846558,0.005063843447715044,-0.019281111657619476,0.015388328582048416,-0.000711830158252269,-0.012304398231208324
0.03050231747329235,0.004964139778167009,-0.019076725468039513,0.01574328914284706,-0.0007064215606078506,-0.01232125423848629
0.0306934155523777,0.004693255759775639,-0.01952570304274559,0.015828056260943413,-0.0006819546106271446,-0.012057164683938026
0.030808009207248688,0.004597114399075508,-0.019346989691257477,0.01569395698606968,-0.000699921976774931,-0.012436526827514172
0.030959738418459892,0.005021801218390465,-0.018846677616238594,0.015126582235097885,-0.0007084811804816127,-0.012339216656982899
0.03100152127444744,0.005030879285186529,-0.019346855580806732,0.015353200025856495,-0.0006512167165055871,-0.012552499771118164
0.03081025555729866,0.004827428143471479,-0.01929202489554882,0.015306530520319939,-0.0006727140862494707,-0.012326995842158794
0.030927876010537148,0.004839746747165918,-0.01901031658053398,0.01522525679320097,-0.0006886081537231803,-0.012181969359517097
0.03208381310105324,0.004747272934764624,-0.019778531044721603,0.01478494517505169,-0.0007183463894762099,-0.012315879575908184
0.032112039625644684,0.0046463594771921635,-0.019317924976348877,0.015190856531262398,-0.0007866316591389477,-0.011849574744701385
0.0302319023758173,0.004659877624362707,-0.019028520211577415,0.015391681343317032,-0.0007746381452307105,-0.012080740183591843
0.031126288697123528,0.004679832607507706,-0.019648464396595955,0.015884405001997948,-0.0007369655650109053,-0.012729818001389503
0.03202199563384056,0.004655151162296534,-0.020761949941515923,0.015407899394631386,-0.0007506201509386301,-0.012400944717228413
0.031367164105176926,0.004614637698978186,-0.019738471135497093,0.01571332849562168,-0.000763859658036381,-0.012596937827765942
0.032822173088788986,0.004436993505805731,-0.019917098805308342,0.015512712299823761,-0.000718747905921191,-0.01238373201340437
0.03287820890545845,0.004657102283090353,-0.01987285353243351,0.015002485364675522,-0.0007393311243504286,-0.01263764314353466
0.032292675226926804,0.004790350329130888,-0.019174637272953987,0.015085916966199875,-0.0007369269151240587,-0.012857861816883087
0.03152017295360565,0.004895513411611319,-0.019915301352739334,0.015503905713558197,-0.0006820938433520496,-0.01290168147534132
0.03162770718336105,0.004514569416642189,-0.020481161773204803,0.015613025985658169,-0.0006984321516938508,-0.012790617533028126
0.03264101967215538,0.004926714580506086,-0.020020078867673874,0.015660131350159645,-0.0006974806892685592,-0.013160469941794872
0.03119008056819439,0.004854083992540836,-0.019661733880639076,0.016361981630325317,-0.0006835607928223908,-0.013322358019649982
0.03251243755221367,0.004722937475889921,-0.020499337464571,0.015996022149920464,-0.0006546988734044135,-0.012976661324501038
0.0332598015666008,0.004405652172863483,-0.020383650436997414,0.016564754769206047,-0.0006776930531486869,-0.01303699892014265
0.032698433846235275,0.004325015004724264,-0.020659493282437325,0.01620945893228054,-0.00083907664520666,-0.012827388010919094
0.032698433846235275,0.004325015004724264,-0.020659493282437325,0.01620945893228054,-0.00083907664520666,-0.012827388010919094
0.03260042518377304,0.004860759247094393,-0.02028672955930233,0.01693377085030079,-0.0009773604106158018,-0.012822873890399933
0.03260042518377304,0.004860759247094393,-0.02028672955930233,0.01693377085030079,-0.0009773604106158018,-0.012822873890399933
0.0317499153316021,0.00449399882927537,-0.021414190530776978,0.01627001166343689,-0.0008631814271211624,-0.013387273997068405
0.0323307104408741,0.004146700259298086,-0.019794192165136337,0.015391906723380089,-0.0008835457847453654,-0.012383968569338322
0.03270762413740158,0.004291810095310211,-0.0198554378002882,0.01587062142789364,-0.0007487153634428978,-0.012829861603677273
0.032588399946689606,0.004540157504379749,-0.020684508606791496,0.015617839992046356,-0.0007517991471104324,-0.013226985931396484
0.03240220993757248,0.004557664971798658,-0.02038056217133999,0.016047604382038116,-0.0007265402819029987,-0.013472361490130424
0.0323481447994709,0.004358815494924784,-0.020345645025372505,0.016283271834254265,-0.0006952614639885724,-0.013369649648666382
0.03357350081205368,0.004544094670563936,-0.02002936787903309,0.01665671542286873,-0.0007123510586097836,-0.013301268219947815
0.03322281315922737,0.004443473648279905,-0.020210478454828262,0.01645950973033905,-0.0006533019477501512,-0.01320925448089838
0.03179486095905304,0.004232317674905062,-0.02050287462770939,0.015888061374425888,-0.000578263308852911,-0.013545871712267399
0.03214983642101288,0.004380896687507629,-0.02023261785507202,0.016139209270477295,-0.000599761726334691,-0.013545049354434013
0.033189963549375534,0.004584924317896366,-0.02049153670668602,0.015927184373140335,-0.0005944598815403879,-0.013459314592182636
0.0326029472053051,0.0046349274925887585,-0.02064499817788601,0.01665237918496132,-0.0005803985404781997,-0.013527324423193932
0.03428202494978905,0.0045096417888998985,-0.02009180746972561,0.016270030289888382,-0.0005338476039469242,-0.01421201229095459
0.03383967652916908,0.004867004696279764,-0.020026111975312233,0.01679513230919838,-0.0005576150142587721,-0.013917732052505016
0.03341858088970184,0.004349627066403627,-0.02053450420498848,0.016407955437898636,-0.0005214783595874906,-0.013849832117557526
0.03184039518237114,0.004444037564098835,-0.020582934841513634,0.016154596582055092,-0.0005698796594515443,-0.013482346199452877
0.032965198159217834,0.004599899519234896,-0.020195310935378075,0.01654580980539322,-0.0005185497575439513,-0.013395429588854313
0.033949367702007294,0.004322018474340439,-0.020468607544898987,0.016289792954921722,-0.0005521213752217591,-0.013529406860470772
0.03340419381856918,0.004382133949548006,-0.02037748508155346,0.01666140742599964,-0.0005786713445559144,-0.013638420961797237
0.033162008970975876,0.0045215170830488205,-0.019799191504716873,0.016701452434062958,-0.0005959321861155331,-0.013721409253776073
0.03356730565428734,0.004587219096720219,-0.01977640390396118,0.01683352328836918,-0.0005671440158039331,-0.013741608709096909
0.03329572454094887,0.004606036469340324,-0.02052268385887146,0.016455750912427902,-0.0006000783178023994,-0.014141196385025978
0.03345393389463425,0.004257445223629475,-0.02020268328487873,0.01630043238401413,-0.0006785421282984316,-0.014142433181405067
0.03378203883767128,0.004342436790466309,-0.02026757411658764,0.01633461005985737,-0.0007071724976412952,-0.014017721638083458
0.033789295703172684,0.004780319519340992,-0.020801369100809097,0.016063697636127472,-0.0007038836483843625,-0.013814273290336132
0.033789295703172684,0.004780319519340992,-0.020801369100809097,0.016063697636127472,-0.0007038836483843625,-0.013814273290336132
0.034044742584228516,0.005296872463077307,-0.020903615280985832,0.016557086259126663,-0.0006800142000429332,-0.01376219280064106
0.03391965106129646,0.0050178589299321175,-0.02002117969095707,0.016004029661417007,-0.0007939742645248771,-0.01344410888850689
0.0343361422419548,0.00494160782545805,-0.020338155329227448,0.01619630679488182,-0.0008501437259837985,-0.013799306005239487
0.03433028608560562,0.005102656316012144,-0.020262066274881363,0.01602073945105076,-0.0007692873477935791,-0.014491170644760132
0.03476550430059433,0.005041992757469416,-0.02019650861620903,0.016499975696206093,-0.0007715090177953243,-0.01459589134901762
0.03421749547123909,0.005236245226114988,-0.02100571244955063,0.016202442348003387,-0.0007092970190569758,-0.014268684200942516
0.03405512124300003,0.004917178303003311,-0.021779680624604225,0.016622480005025864,-0.0006932679680176079,-0.013977180235087872
0.035216689109802246,0.004967887885868549,-0.020607875660061836,0.01638353429734707,-0.0007097413763403893,-0.013979488983750343
0.03540653735399246,0.004988610278815031,-0.020843300968408585,0.0170713122934103,-0.0006908448413014412,-0.013619410805404186
0.0350128710269928,0.0048800064250826836,-0.02033482864499092,0.017378341406583786,-0.0007105972617864609,-0.01390046626329422
0.03456743061542511,0.004722858779132366,-0.019887862727046013,0.01684900000691414,-0.0006870473735034466,-0.013929614797234535
0.034686196595430374,0.005764831323176622,-0.020468764007091522,0.016739195212721825,-0.0007496128673665226,-0.014152836985886097
0.03495673090219498,0.005351124331355095,-0.02122471295297146,0.016170397400856018,-0.0007571597816422582,-0.014277821406722069
0.03560691699385643,0.004891814198344946,-0.021434932947158813,0.016676928848028183,-0.0007746414630673826,-0.014726665802299976
0.035257793962955475,0.0047312346287071705,-0.020446598529815674,0.017014453187584877,-0.000788905774243176,-0.014659442938864231
0.0348140113055706,0.004829046782106161,-0.020574498921632767,0.017342807725071907,-0.0007389372913166881,-0.014571906067430973
0.034519582986831665,0.005157165229320526,-0.021647125482559204,0.017926642671227455,-0.0009181489003822207,-0.013996711932122707
0.035254720598459244,0.004910127725452185,-0.021310728043317795,0.01681412383913994,-0.0009256096673198044,-0.014095313847064972
0.03663330152630806,0.004870141390711069,-0.020395103842020035,0.016890916973352432,-0.0009229400311596692,-0.014283815398812294
0.03608512878417969,0.004789385944604874,-0.021330945193767548,0.016389699652791023,-0.0008433410548605025,-0.014482585713267326
0.03420097008347511,0.005026737693697214,-0.021129826083779335,0.016361074522137642,-0.000827128766104579,-0.01427159458398819
0.034351564943790436,0.004998443648219109,-0.02088160067796707,0.016764281317591667,-0.0007589368615299463,-0.014200757257640362
0.03574490547180176,0.004474415443837643,-0.02112479880452156,0.01706576533615589,-0.000715306494385004,-0.013909401372075081
0.03623349592089653,0.0045151012018322945,-0.021526416763663292,0.017648911103606224,-0.0006800685077905655,-0.013972312211990356
0.037031710147857666,0.004929663613438606,-0.02141895331442356,0.0172942653298378,-0.000607104622758925,-0.014144706539809704
0.036153100430965424,0.004886616952717304,-0.02136440947651863,0.017105501145124435,-0.0006241302471607924,-0.014229292050004005
0.03487297520041466,0.004668861627578735,-0.02094789780676365,0.01740472950041294,-0.0005774952005594969,-0.014402358792722225
0.03487873449921608,0.005132879130542278,-0.02142830565571785,0.017310621216893196,-0.0005661888280883431,-0.014960220083594322
0.036481745541095734,0.004595394246280193,-0.021287743002176285,0.018053509294986725,-0.0005557765252888203,-0.015058829449117184
0.036193471401929855,0.004601879511028528,-0.020599786192178726,0.017898079007864,-0.0005179555155336857,-0.015422621741890907
0.036193471401929855,0.004601879511028528,-0.020599786192178726,0.017898079007864,-0.0005179555155336857,-0.015422621741890907
0.03661404177546501,0.005412615370005369,-0.02130736969411373,0.017732199281454086,-0.0004734906542580575,-0.015135843306779861
0.03631579875946045,0.004687359556555748,-0.02145313285291195,0.016864733770489693,-0.0005076579982414842,-0.014986386522650719
0.036612290889024734,0.005106460768729448,-0.02137661539018154,0.01729828491806984,-0.0005115585518069565,-0.015192435123026371
0.03694910928606987,0.005051330663263798,-0.021456893533468246,0.017349371686577797,-0.000506470154505223,-0.015250224620103836
0.03605372831225395,0.005178326275199652,-0.021443452686071396,0.017841162160038948,-0.0007509741117246449,-0.015139813534915447
0.03640686348080635,0.005523066036403179,-0.02140006422996521,0.018550146371126175,-0.0008061069529503584,-0.015287724323570728
0.03623609244823456,0.005067294929176569,-0.02106616273522377,0.018195567652583122,-0.0007970415754243731,-0.015257701277732849
0.03641796112060547,0.004740973934531212,-0.02113940194249153,0.018222853541374207,-0.000731323380023241,-0.015257689170539379
0.037360966205596924,0.005207010544836521,-0.021645493805408478,0.018052712082862854,-0.0007437376771122217,-0.015404344536364079
0.03668161854147911,0.005180384032428265,-0.021734006702899933,0.017829004675149918,-0.0007590458262711763,-0.015272414311766624
0.03559519350528717,0.004862332250922918,-0.020674796774983406,0.01841125823557377,-0.0007403536001220345,-0.015581798739731312
0.0365992970764637,0.004843270406126976,-0.021222397685050964,0.018282350152730942,-0.0007587528671137989,-0.015870781615376472
0.035819161683321,0.00466441223397851,-0.021196259185671806,0.01775764860212803,-0.000725085788872093,-0.015746884047985077
0.03617020696401596,0.004559157881885767,-0.021040774881839752,0.01765771023929119,-0.000733617867808789,-0.01563882641494274
0.03796401992440224,0.004149200394749641,-0.020782703533768654,0.017248664051294327,-0.0007392466650344431,-0.015524368733167648
0.03622816130518913,0.004467925056815147,-0.02115820348262787,0.017437873408198357,-0.0006935300771147013,-0.0157893355935812
0.03512211889028549,0.004961646627634764,-0.021374087780714035,0.01744147762656212,-0.0007741951267234981,-0.015556815080344677
0.03676114231348038,0.00503449747338891,-0.0209137424826622,0.017033906653523445,-0.0007927243714220822,-0.01564844138920307
0.03725346177816391,0.004654333461076021,-0.020962951704859734,0.017324289306998253,-0.0009144350769929588,-0.01512138918042183
0.03699049353599548,0.00436580553650856,-0.021160241216421127,0.017451459541916847,-0.0010187234729528427,-0.015398326329886913
0.03639955446124077,0.004361486528068781,-0.021109074354171753,0.017935197800397873,-0.0010062416549772024,-0.015397071838378906
0.03691060096025467,0.004556300118565559,-0.02052808366715908,0.017618650570511818,-0.0009915755363181233,-0.01559717021882534
0.036748114973306656,0.004667994566261768,-0.02127077244222164,0.017703082412481308,-0.000988481566309929,-0.015607470646500587
0.03704690933227539,0.00462679797783494,-0.0214915182441473,0.01806117780506611,-0.0009747016010805964,-0.01578875072300434
0.03685704991221428,0.004551263060420752,-0.021071912720799446,0.017611771821975708,-0.0008881766116246581,-0.015570568852126598
0.03671197220683098,0.004287542775273323,-0.021463144570589066,0.018438726663589478,-0.0008892288315109909,-0.01580197736620903
0.03686586767435074,0.004424723796546459,-0.022059978917241096,0.01800231635570526,-0.0008574504172429442,-0.01586219109594822
0.037757907062768936,0.004377097822725773,-0.021772021427750587,0.01776820980012417,-0.0008696310105733573,-0.016223495826125145
0.03743972256779671,0.004562587942928076,-0.021579397842288017,0.017926104366779327,-0.0008575876709073782,-0.01595558412373066
0.03732716292142868,0.004997161217033863,-0.0212760828435421,0.017721455544233322,-0.0008618425927124918,-0.015996279194951057
0.03732716292142868,0.004997161217033863,-0.0212760828435421,0.017721455544233322,-0.0008618425927124918,-0.015996279194951057
0.03777419403195381,0.005075086839497089,-0.021290292963385582,0.01789085939526558,-0.0008911277982406318,-0.0157729871571064
0.037915896624326706,0.0043942867778241634,-0.02176569029688835,0.017206396907567978,-0.0009477685671299696,-0.015975313261151314
0.03756028786301613,0.00418634619563818,-0.021891335025429726,0.017710769549012184,-0.000962546793743968,-0.01651233248412609
0.03750056028366089,0.004085424356162548,-0.02128116600215435,0.018090039491653442,-0.0009396382956765592,-0.016289472579956055
0.03852259740233421,0.004490850958973169,-0.02176264487206936,0.01799052581191063,-0.0008558757835999131,-0.016004083678126335
0.03792678564786911,0.004604312125593424,-0.021631725132465363,0.018712341785430908,-0.0008606254123151302,-0.015716657042503357
0.0378464013338089,0.004836578853428364,-0.021300118416547775,0.01830686442553997,-0.0008090327028185129,-0.015357588417828083
0.03848901763558388,0.005227155052125454,-0.0215777400881052,0.018267575651407242,-0.0008181413286365569,-0.015118774026632309
0.03829072788357735,0.004415381699800491,-0.0220223106443882,0.018398171290755272,-0.0007748664356768131,-0.015892555937170982
0.0385054387152195,0.004345540888607502,-0.021053064614534378,0.018210912123322487,-0.0007850566180422902,-0.015915455296635628
0.03890662267804146,0.004319482482969761,-0.020928658545017242,0.018431903794407845,-0.0007596338400617242,-0.016296345740556717
0.03868513181805611,0.004590896889567375,-0.02124767005443573,0.019003046676516533,-0.0007895586895756423,-0.016355745494365692
0.03833700716495514,0.004353215917944908,-0.021889032796025276,0.01859499141573906,-0.0008206263300962746,-0.01579558290541172
0.04003297537565231,0.004978768993169069,-0.02136198803782463,0.018877586349844933,-0.0008310482953675091,-0.01594124734401703
0.0392335020005703,0.004800725728273392,-0.020705796778202057,0.018887080252170563,-0.001108278869651258,-0.015991751104593277
0.03733794018626213,0.004359395243227482,-0.020968470722436905,0.019237032160162926,-0.0011070935288444161,-0.016506168991327286
0.038888316601514816,0.004425353836268187,-0.02173594757914543,0.01995707117021084,-0.0010763955069705844,-0.016482826322317123
0.03895941376686096,0.004395568277686834,-0.021343449130654335,0.019546089693903923,-0.000992734101600945,-0.016342923045158386
0.039216913282871246,0.004437064751982689,-0.021303705871105194,0.018545879051089287,-0.0009504188783466816,-0.015596557408571243
0.040361594408750534,0.004699780605733395,-0.022243907675147057,0.018334776163101196,-0.0009296828648075461,-0.015716005116701126
0.03825600445270538,0.004658744670450687,-0.02234438620507717,0.019087227061390877,-0.0008278493769466877,-0.016024358570575714
0.03985080122947693,0.004153840243816376,-0.02192639745771885,0.01958727091550827,-0.0008286566589958966,-0.016253354027867317
0.03920523822307587,0.004252628423273563,-0.022168047726154327,0.019574014469981194,-0.0008087577298283577,-0.016791194677352905
0.03920523822307587,0.004252628423273563,-0.022168047726154327,0.019574014469981194,-0.0008087577298283577,-0.016791194677352905
0.0397929847240448,0.0046792300418019295,-0.022715844213962555,0.018962610512971878,-0.0008104532025754452,-0.015796927735209465
0.03942234069108963,0.0046875919215381145,-0.02270941250026226,0.019143955782055855,-0.0008219124865718186,-0.01587657816708088
0.03970186784863472,0.004721246659755707,-0.022252965718507767,0.01927156187593937,-0.0008313031867146492,-0.01617821305990219
0.03952038660645485,0.005051292013376951,-0.022247465327382088,0.019000263884663582,-0.0009635214228183031,-0.016133181750774384
0.039440762251615524,0.004840693436563015,-0.022697923704981804,0.018869053572416306,-0.0010927370749413967,-0.016130393370985985
0.03928060829639435,0.004749922547489405,-0.02292262390255928,0.01887720450758934,-0.0011073917848989367,-0.016086231917142868
0.039637647569179535,0.004432945977896452,-0.0225358996540308,0.017840811982750893,-0.0011464394629001617,-0.015987183898687363
0.0414629690349102,0.004439730197191238,-0.022093579173088074,0.018258387222886086,-0.0011850240407511592,-0.016672559082508087
0.03927222266793251,0.004625246860086918,-0.022464890033006668,0.018549401313066483,-0.0011376317124813795,-0.01654946058988571
0.03836321085691452,0.00510616647079587,-0.02253088913857937,0.018800994381308556,-0.0011002939427271485,-0.016512908041477203
0.04014495015144348,0.004619786515831947,-0.022778667509555817,0.020155930891633034,-0.001015809248201549,-0.01630687527358532
0.04039379581809044,0.00432768277823925,-0.02240247279405594,0.01925421506166458,-0.0009519291343167424,-0.016366073861718178
0.04086674004793167,0.004152379464358091,-0.022187799215316772,0.01847594976425171,-0.0008716197917237878,-0.01640290394425392
0.04081686586141586,0.004493843298405409,-0.022570524364709854,0.019009998068213463,-0.0008706097723916173,-0.015987198799848557
0.03873284533619881,0.00455603189766407,-0.022710375487804413,0.018839476630091667,-0.0008663168991915882,-0.016260724514722824
0.03949471563100815,0.004830630961805582,-0.022060880437493324,0.018811488524079323,-0.0008628821233287454,-0.016424864530563354
0.0410570353269577,0.004797265864908695,-0.0219020564109087,0.01929699443280697,-0.0008596335537731647,-0.01631474494934082
0.04030788689851761,0.004558452870696783,-0.022660883143544197,0.01911132223904133,-0.0008648865041323006,-0.015986617654561996
0.040173474699258804,0.004092765506356955,-0.02339704893529415,0.019106633961200714,-0.0008412202005274594,-0.016134658828377724
0.040173474699258804,0.004092765506356955,-0.02339704893529415,0.019106633961200714,-0.0008412202005274594,-0.016134658828377724
0.04020271822810173,0.004405061714351177,-0.023218723013997078,0.019042588770389557,-0.0007978494977578521,-0.016188425943255424
0.040207408368587494,0.004748377948999405,-0.02243650145828724,0.01886771060526371,-0.0008029377204366028,-0.016347525641322136
0.04081125184893608,0.004379404708743095,-0.021841784939169884,0.019062437117099762,-0.0008906981674954295,-0.016501039266586304
0.04026371240615845,0.004850388970226049,-0.02365243248641491,0.01916147768497467,-0.0008429623558185995,-0.016765477135777473
0.0399978831410408,0.0043199434876441956,-0.023429537191987038,0.018870947882533073,-0.0009184699738398194,-0.016122084110975266
0.04049747809767723,0.004003626760095358,-0.022320006042718887,0.019261127337813377,-0.0009617775795049965,-0.016388386487960815
0.040987491607666016,0.004367760382592678,-0.022726520895957947,0.019804762676358223,-0.0009552181581966579,-0.01656312309205532
0.04050126299262047,0.004226379562169313,-0.02382391132414341,0.019950859248638153,-0.0009241582010872662,-0.01665954291820526
0.04086048901081085,0.004194839391857386,-0.023482153192162514,0.01987328566610813,-0.000842842273414135,-0.016360653564333916
0.040705446153879166,0.004174005705863237,-0.022734444588422775,0.019524164497852325,-0.0008046723087318242,-0.016218265518546104
0.040450625121593475,0.004456404596567154,-0.02237340807914734,0.019144568592309952,-0.000804740993771702,-0.01652977243065834
0.04095948114991188,0.004080988932400942,-0.02269616536796093,0.01939346082508564,-0.0008167549385689199,-0.016501938924193382
0.04084223136305809,0.0043642558157444,-0.022555513307452202,0.019289080053567886,-0.0007999439258128405,-0.016491254791617393
0.04136385768651962,0.004176116082817316,-0.023560112342238426,0.019147345796227455,-0.0007628389867022634,-0.01608412154018879
0.04137004539370537,0.003994347527623177,-0.023784272372722626,0.019725346937775612,-0.0008291234844364226,-0.01633908413350582
0.04130857437849045,0.003874523099511862,-0.02302650921046734,0.019507063552737236,-0.0008538548136129975,-0.016654856503009796
0.040963899344205856,0.004312257282435894,-0.02274923212826252,0.01927635632455349,-0.0009202896617352962,-0.016596246510744095
0.041286762803792953,0.0044053709134459496,-0.023200999945402145,0.01946236379444599,-0.0010097145568579435,-0.01691451482474804
0.0408233217895031,0.004247633740305901,-0.023495275527238846,0.01933087781071663,-0.0011045420542359352,-0.016992198303341866
0.040471166372299194,0.0039762272499501705,-0.023414114490151405,0.019369611516594887,-0.0010875248117372394,-0.01687329076230526
0.04134438931941986,0.004303329158574343,-0.023009369149804115,0.01978481374680996,-0.0010605824645608664,-0.016967816278338432
0.04182988405227661,0.0045377761125564575,-0.023025821894407272,0.01936524733901024,-0.001006734324619174,-0.016508188098669052
0.04257071763277054,0.004349437542259693,-0.02319232001900673,0.01893194578588009,-0.000972275563981384,-0.016685165464878082
0.040994223207235336,0.0045293718576431274,-0.023608364164829254,0.019585002213716507,-0.0008889632299542427,-0.01668710820376873
0.040718115866184235,0.004464681260287762,-0.023678600788116455,0.020485198125243187,-0.0008856061031110585,-0.01656666398048401
0.041483934968709946,0.004326394759118557,-0.023985309526324272,0.020088346675038338,-0.0008869703160598874,-0.0165865421295166
0.04141935333609581,0.004432197660207748,-0.02365132048726082,0.01981610804796219,-0.0008489053579978645,-0.016613531857728958
0.042884230613708496,0.004687716253101826,-0.023407919332385063,0.019631756469607353,-0.0008426496060565114,-0.016390668228268623
0.04180552065372467,0.004716323222965002,-0.023702671751379967,0.01892773248255253,-0.0008498638053424656,-0.01647179387509823
0.04180552065372467,0.004716323222965002,-0.023702671751379967,0.01892773248255253,-0.0008498638053424656,-0.01647179387509823
0.04209392890334129,0.004310945048928261,-0.02338326722383499,0.01946631260216236,-0.0009662306983955204,-0.018301529809832573
0.04274168238043785,0.004648239351809025,-0.02317783422768116,0.019429098814725876,-0.000996268936432898,-0.017469411715865135
0.04167062044143677,0.0042192270047962666,-0.023083984851837158,0.01918822154402733,-0.0009836641838774085,-0.01737368479371071
0.04192415252327919,0.004437404219061136,-0.023553956300020218,0.01951049268245697,-0.0009722620598040521,-0.0171956904232502
0.04193588346242905,0.00466143898665905,-0.02394830994307995,0.019911710172891617,-0.0009878638666123152,-0.017338071018457413
0.04146018996834755,0.004354429431259632,-0.023676201701164246,0.0207364484667778,-0.0010873529827222228,-0.017276111990213394
0.04150458052754402,0.004389844834804535,-0.02340286783874035,0.020937802270054817,-0.000997490482404828,-0.01667054556310177
0.04316301643848419,0.004514725413173437,-0.023168915882706642,0.020047791302204132,-0.0009714023326523602,-0.016811871901154518
0.04180937632918358,0.004600888583809137,-0.02381838485598564,0.019114023074507713,-0.0008725711377337575,-0.017041267827153206
0.04042630270123482,0.004752609878778458,-0.023820385336875916,0.019263895228505135,-0.000913744792342186,-0.01784643530845642
0.04241522401571274,0.004604613874107599,-0.02383500523865223,0.019611816853284836,-0.0008468111627735198,-0.01801818236708641
