davideferrari95/blind_handover_controller/data/Test 200 - [2024-02-08 -- 11-34-17]/joint_states_data.csv
shoulder_pan_joint,shoulder_lift_joint,elbow_joint,wrist_1_joint,wrist_2_joint,wrist_3_joint
0.00024300636141560972,-0.007633572909981012,-0.013395879417657852,0.018355589359998703,0.0,0.0004218085086904466
0.00024300636141560972,-0.007633572909981012,-0.013395879417657852,0.018355589359998703,0.0,0.0004218085086904466
0.00033946233452297747,-0.008530707098543644,-0.013640603981912136,0.017639929428696632,0.0,0.00042280828347429633
0.00031708585447631776,-0.007866019383072853,-0.014178059063851833,0.018150370568037033,0.0,0.0004232373903505504
0.0002962285070680082,-0.008283662609755993,-0.013175955042243004,0.018189502879977226,0.0,0.0004012950521428138
0.00027792929904535413,-0.008071541786193848,-0.013514491729438305,0.01854635775089264,0.0,0.0003802034188993275
0.00026176031678915024,-0.008216501213610172,-0.013441752642393112,0.018677987158298492,0.0,0.00036132032983005047
0.00024736893828958273,-0.007855762727558613,-0.013455873355269432,0.018297825008630753,0.0,0.0003679768124129623
0.0002344774839002639,-0.00857560709118843,-0.013313805684447289,0.018322447314858437,0.0,0.0003423395683057606
0.0002228639932582155,-0.008657547645270824,-0.013664091005921364,0.018130378797650337,0.0,0.00036505854222923517
0.00021234650921542197,-0.008242543786764145,-0.013418124057352543,0.018065787851810455,0.0,0.0003555883595254272
0.00024276300973724574,-0.008107376284897327,-0.013003370724618435,0.018507791683077812,0.0,0.00033450592309236526
0.0002328320115339011,-0.00803491659462452,-0.013427570462226868,0.01851683296263218,0.0,0.00031504352227784693
0.0002232145197922364,-0.008770456537604332,-0.013018100522458553,0.018354779109358788,0.0,0.00029767389059998095
0.0002403656835667789,-0.007626309059560299,-0.012838262133300304,0.01878286898136139,0.0,0.0003125783405266702
0.00023168277402874082,-0.007680132985115051,-0.013317379169166088,0.01887333206832409,0.0,0.0002979771525133401
0.0002444254350848496,-0.007681087590754032,-0.012684328481554985,0.019129451364278793,0.0,0.0003145471855532378
0.0002464940771460533,-0.007411722559481859,-0.01360594667494297,0.018624799326062202,0.0,0.0003104267525486648
0.00023847022384870797,-0.007402259390801191,-0.012756340205669403,0.018792567774653435,0.0,0.00029818620532751083
0.00023847022384870797,-0.007402259390801191,-0.012756340205669403,0.018792567774653435,0.0,0.00029818620532751083
0.00023627483460586518,-0.007779769599437714,-0.013004308566451073,0.0192092452198267,0.0,0.0003151728305965662
0.00022481480846181512,-0.007619389332830906,-0.01308815274387598,0.018844157457351685,0.0,0.0003042134048882872
0.00021412092610262334,-0.0072335004806518555,-0.01274064276367426,0.018892332911491394,0.0,0.00028557635960169137
0.00020439474610611796,-0.007762039080262184,-0.013036934658885002,0.018837114796042442,0.0,0.0002685680810827762
0.00023406777472700924,-0.007800071034580469,-0.012485702522099018,0.01887715607881546,0.0,0.00029079796513542533
0.00022483982320409268,-0.008123630657792091,-0.013088157400488853,0.018962999805808067,0.0,0.00028703498537652194
0.00021585820650216192,-0.007886051200330257,-0.012498434633016586,0.018829625099897385,0.0,0.00027327099815011024
0.0002075605298159644,-0.007048642262816429,-0.013443107716739178,0.018169142305850983,0.0,0.0003005361068062484
0.00019987770065199584,-0.0072401431389153,-0.012772382237017155,0.018746981397271156,0.0,0.000289365736534819
0.00019274315855000168,-0.007314077112823725,-0.012991356663405895,0.01856914348900318,0.0,0.0003110849647782743
0.00021346098219510168,-0.006946724373847246,-0.012585682794451714,0.01845754310488701,0.0,0.0003027152270078659
0.00020983458671253175,-0.00704400846734643,-0.012877062894403934,0.01867005228996277,4.273550075595267e-06,0.0003680252702906728
0.00020311606931500137,-0.007036255672574043,-0.012552118860185146,0.018378717824816704,2.7903229238290805e-07,0.0003995317383669317
0.00021523878967855126,-0.007102704141288996,-0.012400542385876179,0.018281085416674614,1.821881490116084e-08,0.0004036386089865118
0.00021794222993776202,-0.00681377574801445,-0.013415995053946972,0.018739884719252586,1.1895584517418456e-09,0.0004081874212715775
0.00021165893122088164,-0.005604048725217581,-0.012815303169190884,0.018683496862649918,7.766966236832928e-11,0.00040979721234180033
0.00020561623387038708,-0.00529532739892602,-0.013121494092047215,0.0187007337808609,5.071273262435838e-12,0.0003864912723656744
0.00024721978115849197,-0.0051516820676624775,-0.012847109697759151,0.018947280943393707,3.311178913521784e-13,0.00036425492726266384
0.0002403251564828679,-0.005956795532256365,-0.013474141247570515,0.01896694302558899,2.1619631676269083e-14,0.0003869099891744554
0.000258127402048558,-0.005624817218631506,-0.013016103766858578,0.01885301247239113,1.4116075116536037e-15,0.00037270327447913587
0.0002604349283501506,-0.00538155622780323,-0.012909566052258015,0.019637661054730415,9.216788506967186e-17,0.0003547166706994176
0.00024864060105755925,-0.0056532761082053185,-0.013396527618169785,0.01907697133719921,6.017904392445787e-18,0.00041896349284797907
0.0002655997814144939,-0.005586248356848955,-0.01333935558795929,0.018749961629509926,2.5655268423447844e-20,0.00036363894469104707
0.00029077540966682136,-0.0057210177183151245,-0.012886767275631428,0.01843666471540928,1.6751057678020202e-21,0.0003364801814313978
0.0002799516951199621,-0.005307865794748068,-0.013234387151896954,0.01889016106724739,1.0937243430882137e-22,0.0003434524987824261
0.00026947943842969835,-0.005370762664824724,-0.01293465681374073,0.019465286284685135,7.141238286299205e-24,0.000349117093719542
0.00026947943842969835,-0.005370762664824724,-0.01293465681374073,0.019465286284685135,7.141238286299205e-24,0.000349117093719542
0.000260423548752442,-0.00542156957089901,-0.012822399847209454,0.01893256977200508,4.662718673375637e-25,0.0003700954548548907
0.00039165414636954665,-0.0054551986977458,-0.013128579594194889,0.01848677545785904,3.044421925533087e-26,0.0003616146568674594
0.000409473548643291,-0.00544818677008152,-0.012641964480280876,0.017899194732308388,1.987790043828976e-27,0.0003851483343169093
0.0004019468033220619,-0.005510047078132629,-0.012865716591477394,0.017519047483801842,1.2978849117462874e-28,0.00037305476143956184
0.0003743830311577767,-0.005245922598987818,-0.012719846330583096,0.018177418038249016,8.474260274173972e-30,0.0004154660855419934
0.00035010839928872883,-0.005070140585303307,-0.013085474260151386,0.01830146461725235,5.533086703953292e-31,0.0004513768362812698
0.0003828030894510448,-0.005231725051999092,-0.012995707802474499,0.018540220335125923,3.612709971203493e-32,0.0004251837672200054
0.0003615579626057297,-0.0053692590445280075,-0.013242296874523163,0.018455110490322113,2.358841554921045e-33,0.00039469730108976364
0.0003419405547901988,-0.005519208963960409,-0.012685498222708702,0.01776827499270439,1.5401549685551794e-34,0.0004207927850075066
0.0003687672724481672,-0.0051618944853544235,-0.013259190134704113,0.01842390187084675,1.0056111668177627e-35,0.0004012135323137045
0.00035249264328740537,-0.004958570469170809,-0.0131361810490489,0.01845405623316765,6.565922739193837e-37,0.00041736525599844754
0.00040649130824021995,-0.00529414601624012,-0.012782943435013294,0.017503732815384865,4.2870781513749295e-38,0.0004062633088324219
0.00037577489274553955,-0.005149604752659798,-0.01277709286659956,0.01796106994152069,2.7991553396212524e-39,0.0003853286034427583
0.000415204995078966,-0.005810766015201807,-0.013117414899170399,0.018019599840044975,1.8276435220956427e-40,0.0003657986526377499
0.00038640882121399045,-0.005359294358640909,-0.01337020006030798,0.017608074471354485,1.1933457722190142e-41,0.00039290328277274966
0.0004135104827582836,-0.005299690179526806,-0.013194424100220203,0.017286043614149094,7.791219461645983e-43,0.00037580213393084705
0.00039427715819329023,-0.005681865848600864,-0.013544181361794472,0.016957739368081093,5.044674471569341e-44,0.0003477671416476369
0.0004219666589051485,-0.005371915176510811,-0.012830875813961029,0.017458349466323853,2.802596928649634e-45,0.000354188698111102
0.0004005257214885205,-0.005675258114933968,-0.01372360810637474,0.018281346186995506,0.0,0.00035931842285208404
0.0005108429468236864,-0.005759796127676964,-0.0132169583812356,0.017836136743426323,0.0,0.0003386577300261706
0.0005044665886089206,-0.005353862885385752,-0.012848148122429848,0.017070606350898743,0.0,0.0003507089277263731
0.0005044665886089206,-0.005353862885385752,-0.012848148122429848,0.017070606350898743,0.0,0.0003507089277263731
0.0004960995865985751,-0.005854048300534487,-0.013267959468066692,0.017998892813920975,0.0,0.0003606598183978349
0.0005247436347417533,-0.005807611159980297,-0.013028545305132866,0.017427274957299232,0.0,0.00041796601726673543
0.0006530132377520204,-0.005529473535716534,-0.013244656845927238,0.01764782704412937,0.0,0.0003931380342692137
0.0006662350497208536,-0.00576752657070756,-0.012769995257258415,0.01738428883254528,0.0,0.00039730354910716414
0.0006254229228943586,-0.005673206876963377,-0.013335797004401684,0.017462128773331642,0.0,0.00039988564094528556
0.0006254229228943586,-0.005673206876963377,-0.013335797004401684,0.017462128773331642,0.0,0.00039988564094528556
0.0005926473531872034,-0.006055979989469051,-0.01372583582997322,0.01707003451883793,0.0,0.0003930556704290211
0.000592262193094939,-0.00566129619255662,-0.013360587880015373,0.017718711867928505,0.0,0.00038258734275586903
0.000592262193094939,-0.00566129619255662,-0.013360587880015373,0.017718711867928505,0.0,0.00038258734275586903
0.0005697884480468929,-0.005923666525632143,-0.013337835669517517,0.01805109530687332,0.0,0.00040957797318696976
0.0006038565188646317,-0.005866326857358217,-0.013318710029125214,0.017868954688310623,0.0,0.0005010748282074928
0.0006384043954312801,-0.0061482032760977745,-0.013446073979139328,0.018123583868145943,0.0,0.0005535949603654444
0.0006662333616986871,-0.0059543694369494915,-0.013344023376703262,0.017779428511857986,0.0,0.0005869646556675434
0.0006887118215672672,-0.005839304067194462,-0.013676277361810207,0.016932958737015724,0.0,0.0006139652687124908
0.0009146686643362045,-0.00609699496999383,-0.013456383720040321,0.017388567328453064,0.0,0.0007644900470040739
0.0009306785650551319,-0.005598815158009529,-0.012940919026732445,0.017138425260782242,0.0,0.0008067143498919904
0.0008084867731668055,-0.00590085843577981,-0.013630762696266174,0.017491450533270836,0.0,0.0008221635944209993
0.0008059954270720482,-0.005877404939383268,-0.01287060882896185,0.017878010869026184,0.0,0.0007212752243503928
0.0007257154793478549,-0.006204716861248016,-0.01288899127393961,0.0182237196713686,0.0,0.0006366479792632163
0.0007398696034215391,-0.0054400586523115635,-0.012981344014406204,0.018511170521378517,0.0,0.0005694280844181776
0.0006977543816901743,-0.005974150728434324,-0.013646072708070278,0.01822795905172825,0.0,0.0005778397317044437
0.0007276542601175606,-0.00573382806032896,-0.013111154548823833,0.01808634214103222,0.0,0.0005469946772791445
0.0007481573265977204,-0.005836346186697483,-0.013537758961319923,0.01770872250199318,0.0,0.0005044304416514933
0.0007642728742212057,-0.005504834000021219,-0.012809268198907375,0.017533166334033012,0.0,0.00046708338777534664
0.0010944053065031767,-0.005640339106321335,-0.013386140577495098,0.018808549270033836,0.0,0.0004925898974761367
0.0011092722415924072,-0.005842297337949276,-0.013393945060670376,0.01835598424077034,0.0,0.00046455994015559554
0.0009691163431853056,-0.006015240680426359,-0.013199595734477043,0.01801091991364956,0.0,0.0003412567311897874
0.001099468325264752,-0.005499419756233692,-0.012714122422039509,0.017932336777448654,0.0,0.00037562669604085386
0.0010670910123735666,-0.005085450131446123,-0.013411286287009716,0.018686827272176743,0.0,0.0003547494416125119
0.001053239917382598,-0.005746976938098669,-0.013106673024594784,0.017954863607883453,0.0,0.0003739844833035022
0.0012300898088142276,-0.005906221456825733,-0.013429797254502773,0.017202215269207954,0.0,0.00036509474739432335
0.001229510409757495,-0.0058457679115235806,-0.012962163425981998,0.01778354123234749,0.0,0.00038864175439812243
0.0011760871857404709,-0.005600993521511555,-0.013410011306405067,0.017109472304582596,0.0,0.00037433672696352005
0.0013566530542448163,-0.00572031969204545,-0.013044045306742191,0.017188096418976784,1.5277140846592374e-05,0.0004742249147966504
0.0013139061629772186,-0.0051914360374212265,-0.013438823632895947,0.016939915716648102,5.824360414408147e-05,0.00046459093573503196
0.0012420288985595107,-0.005885242950171232,-0.013390477746725082,0.016373716294765472,6.028035204508342e-05,0.00042342059896327555
0.001142114750109613,-0.005908425431698561,-0.012944948859512806,0.017479972913861275,5.9665126173058525e-05,0.00045901795965619385
0.0011088959872722626,-0.005781471263617277,-0.01311182975769043,0.01744549721479416,5.889621752430685e-05,0.0004618722596205771
0.0010856421431526542,-0.005462887696921825,-0.012917266227304935,0.017274655401706696,6.824679439887404e-05,0.0004599406383931637
0.0012723638210445642,-0.005041811615228653,-0.013494748622179031,0.01711643487215042,6.877464329591021e-05,0.00048372262972407043
0.0012723638210445642,-0.005041811615228653,-0.013494748622179031,0.01711643487215042,6.877464329591021e-05,0.00048372262972407043
0.001283918390981853,-0.005232613999396563,-0.012961752712726593,0.017048297449946404,6.799984112149104e-05,0.0005256502190604806
0.0013276266399770975,-0.005660447757691145,-0.013156237080693245,0.017757674679160118,6.716007919749245e-05,0.0005790414288640022
0.0013253482757136226,-0.00520076509565115,-0.012470075860619545,0.017615407705307007,7.594998169224709e-05,0.0005679489695467055
0.0014358689077198505,-0.005265562329441309,-0.01368393748998642,0.01780114322900772,7.63581192586571e-05,0.0005967672914266586
0.0013750387588515878,-0.00531552080065012,-0.013030128553509712,0.01743743196129799,7.552946044597775e-05,0.0006178119219839573
0.0013199684908613563,-0.004704159218817949,-0.012810328043997288,0.016899295151233673,8.391357550863177e-05,0.0007853856077417731
0.0013726017205044627,-0.005617187358438969,-0.012530048377811909,0.017572438344359398,8.421405800618231e-05,0.0008366008405573666
0.0013299601851031184,-0.0058369990438222885,-0.012537720613181591,0.017469899728894234,8.332326979143545e-05,0.0008478101808577776
0.001463129185140133,-0.005619017407298088,-0.013112323358654976,0.01754176989197731,0.0002704914368223399,0.0007737758569419384
0.0014234838308766484,-0.00546016450971365,-0.012398221530020237,0.017737148329615593,0.00027982654864899814,0.000690776389092207
0.0013685699086636305,-0.005476666148751974,-0.012689687311649323,0.017471471801400185,0.00030412443447858095,0.0006225368124432862
0.0014829074498265982,-0.005143061280250549,-0.012460462749004364,0.017961975187063217,0.0002995797258336097,0.0006362070562317967
0.0015350679168477654,-0.0054189651273190975,-0.013174292631447315,0.017706377431750298,0.0002845939598046243,0.0005932238418608904
0.0015126962680369616,-0.0054923612624406815,-0.012474492192268372,0.017779329791665077,0.0003000195138156414,0.0004867021052632481
0.0014224775368347764,-0.005510285962373018,-0.012765740044414997,0.017710652202367783,0.00028671210748143494,0.00047993907355703413
0.0014787116087973118,-0.004974128678441048,-0.012742502614855766,0.017967339605093002,0.000310754869133234,0.0004756221314892173
0.001502940314821899,-0.0054528070613741875,-0.013106504455208778,0.017712634056806564,0.00030017824610695243,0.0005074383807368577
0.0014849388971924782,-0.005427451804280281,-0.012752912007272243,0.016342170536518097,0.0003500595048535615,0.0005323222139850259
0.0015640902565792203,-0.005868216510862112,-0.012857144698500633,0.01752549782395363,0.0003794071089942008,0.0007075219764374197
0.0014928050804883242,-0.005377570632845163,-0.01258492935448885,0.01787818782031536,0.0004191884654574096,0.0007960663642734289
0.0015533758560195565,-0.005150866229087114,-0.013329127803444862,0.017732923850417137,0.0003931932442355901,0.0008055532234720886
0.0015533758560195565,-0.005150866229087114,-0.013329127803444862,0.017732923850417137,0.0003931932442355901,0.0008055532234720886
0.0015910841757431626,-0.004874615930020809,-0.01315553579479456,0.01723424904048443,0.00042361626401543617,0.0007767534116283059
0.0016256342642009258,-0.004942710977047682,-0.013517402112483978,0.016540827229619026,0.00040040924795903265,0.0007421366753987968
0.001537984237074852,-0.0058107380755245686,-0.012813317589461803,0.017014030367136,0.00042677795863710344,0.000742570438887924
0.001615089480765164,-0.005381476599723101,-0.013090618886053562,0.017109369859099388,0.0004081138176843524,0.0006956034922040999
0.0016720028361305594,-0.005346435122191906,-0.013782992027699947,0.017380576580762863,0.0005410344456322491,0.0007183157140389085
0.0015681597869843245,-0.004955539479851723,-0.012662493623793125,0.017181655392050743,0.000578615115955472,0.0007395329885184765
0.0016059220070019364,-0.004922065883874893,-0.012985196895897388,0.016906199976801872,0.0005765840760432184,0.0007565051200799644
0.0016544230747967958,-0.005376804154366255,-0.012997769750654697,0.017228586599230766,0.0005644133198074996,0.0008167056366801262
0.0018018345581367612,-0.005765428766608238,-0.013644665479660034,0.016981441527605057,0.0005748917465098202,0.0008570085628889501
0.0018055500695481896,-0.005582572892308235,-0.013084737583994865,0.017279809340834618,0.0005481668631546199,0.0008734859293326735
0.0018908552592620254,-0.0054845563136041164,-0.013186030089855194,0.017147110775113106,0.0005148567142896354,0.0008773541776463389
0.0018870045896619558,-0.004740662407130003,-0.013191981241106987,0.016789788380265236,0.0005596096161752939,0.0009920761222019792
0.002007819013670087,-0.005061332602053881,-0.013917405158281326,0.017103828489780426,0.0005040247924625874,0.0009986651130020618
0.0019764069002121687,-0.005274082068353891,-0.013629375956952572,0.016883928328752518,0.0004536097985692322,0.0009745450806804001
0.0017534587532281876,-0.005171291995793581,-0.013257721439003944,0.01705176942050457,0.0004885384114459157,0.0009477298008278012
0.0017966123996302485,-0.005241420120000839,-0.013331430032849312,0.0168850589543581,0.00045255388249643147,0.0009043545578606427
0.001679914421401918,-0.004933791700750589,-0.01338992826640606,0.016745449975132942,0.0004178346134722233,0.0008742852369323373
0.0019222076516598463,-0.005100530106574297,-0.013072216883301735,0.016489708796143532,0.00045112386578693986,0.0008187926723621786
0.001985507784411311,-0.0050498624332249165,-0.013351383619010448,0.01695358380675316,0.0004500751383602619,0.0008278642781078815
0.0019578449428081512,-0.004882358480244875,-0.013247963972389698,0.016338787972927094,0.00042727511026896536,0.0008500420372001827
0.0021571225952357054,-0.005114222876727581,-0.014391965232789516,0.01618272438645363,0.0004081668157596141,0.0008866897551342845
0.0021979643497616053,-0.005008775275200605,-0.01347216684371233,0.01588132418692112,0.0004116939671803266,0.0009515589335933328
0.0021677985787391663,-0.0045869057066738605,-0.013501441106200218,0.015956850722432137,0.0004133078327868134,0.0009082065080292523
0.0021404039580374956,-0.004832753911614418,-0.01288476213812828,0.016167515888810158,0.0003859227290377021,0.0011410029837861657
0.0020496873185038567,-0.004944355692714453,-0.013698168098926544,0.01612924411892891,0.0004121852107346058,0.001134439604356885
0.002193296328186989,-0.004925662651658058,-0.013658452779054642,0.016778912395238876,0.00039352200110442936,0.0011002513347193599
0.0022044896613806486,-0.005131683778017759,-0.013744278810918331,0.016172194853425026,0.0003708140575326979,0.0010760733857750893
0.0022044896613806486,-0.005131683778017759,-0.013744278810918331,0.016172194853425026,0.0003708140575326979,0.0010760733857750893
0.002377481432631612,-0.00487983925268054,-0.013156305067241192,0.016400998458266258,0.0003502211766317487,0.001035473309457302
0.0023337032180279493,-0.004627165384590626,-0.01294563990086317,0.016333861276507378,0.0003548867825884372,0.001012400258332491
0.0022667383309453726,-0.004703788086771965,-0.01341172493994236,0.01659446395933628,0.00035860860953107476,0.0009962585754692554
0.002405783860012889,-0.005117195192724466,-0.013049609959125519,0.01699025370180607,0.0003429246135056019,0.0009492233511991799
0.0021665911190211773,-0.005039773881435394,-0.013354126363992691,0.016393469646573067,0.0003274180053267628,0.0009681111550889909
0.002210838720202446,-0.005207820795476437,-0.012580004520714283,0.01635790802538395,0.0003131790435872972,0.0010703450534492731
0.0023137973621487617,-0.0053645046427845955,-0.013577619567513466,0.01590837351977825,0.00031118214246816933,0.0013899445766583085
0.002207152545452118,-0.004661761224269867,-0.01303890347480774,0.01608644798398018,0.0003012133529409766,0.0014305214863270521
0.0021187076345086098,-0.005045358557254076,-0.013007177971303463,0.015571339055895805,0.000282974069705233,0.0013612733455374837
0.0022123639937490225,-0.005018109921365976,-0.012328959070146084,0.015654735267162323,0.00026626867474988103,0.00128332176245749
0.0026759866159409285,-0.004873988218605518,-0.012880285270512104,0.015973221510648727,0.00029819164774380624,0.0012099921004846692
0.0025364889297634363,-0.005087444093078375,-0.013262010179460049,0.01654737815260887,0.0002854748163372278,0.0011527624446898699
0.0024119496811181307,-0.004909237381070852,-0.012787505984306335,0.016532722860574722,0.00029339559841901064,0.0011309660039842129
0.0023803343065083027,-0.004693727474659681,-0.012988018803298473,0.015686726197600365,0.0002999015850946307,0.001102112582884729
0.00246417592279613,-0.00472659757360816,-0.012387188151478767,0.01637367717921734,0.0002875500067602843,0.0011748484103009105
0.002416417934000492,-0.004705188330262899,-0.012780586257576942,0.016507670283317566,0.0003116930020041764,0.0013638546224683523
0.0028185583651065826,-0.005003717727959156,-0.012428248301148415,0.01747206412255764,0.000301051331916824,0.0015076006529852748
0.0026267864741384983,-0.004852806217968464,-0.012976077385246754,0.017208049073815346,0.0003839281853288412,0.0014260285533964634
0.0025145045947283506,-0.004927642177790403,-0.012785358354449272,0.01656324230134487,0.0003668550052680075,0.0013200517278164625
0.0027831988409161568,-0.004470969550311565,-0.012752765789628029,0.015842780470848083,0.0003791227063629776,0.0011099621187895536
0.0027831988409161568,-0.004470969550311565,-0.012752765789628029,0.015842780470848083,0.0003791227063629776,0.0011099621187895536
0.0026824057567864656,-0.00464451452717185,-0.012484628707170486,0.014279330149292946,0.0003878359275404364,0.0009923195466399193
0.0025757793337106705,-0.005109979305416346,-0.012720095925033092,0.01566067710518837,0.00041072885505855083,0.0010934462770819664
0.002657704520970583,-0.004910660441964865,-0.012646766379475594,0.016281122341752052,0.0003944143245462328,0.0011045153951272368
0.0025386225897818804,-0.004457383882254362,-0.01243487186729908,0.01599770411849022,0.0003743083798326552,0.0016435901634395123
0.002791688544675708,-0.004014116711914539,-0.012556402012705803,0.0157623253762722,0.0004475867608562112,0.0015809220494702458
0.0026324752252548933,-0.0042015984654426575,-0.01228049024939537,0.015670256689190865,0.00046063767513260245,0.0014634680701419711
0.0026324752252548933,-0.0042015984654426575,-0.01228049024939537,0.015670256689190865,0.00046063767513260245,0.0014634680701419711
0.002494825515896082,-0.004535660147666931,-0.011509017087519169,0.01568007841706276,0.00045914313523098826,0.0013631331967189908
0.002663505496457219,-0.004630355164408684,-0.012379055842757225,0.015111768618226051,0.0004774827102664858,0.0012702866224572062
0.0028940432239323854,-0.0044165500439703465,-0.011986424215137959,0.015335087664425373,0.00045899636461399496,0.0012070391094312072
0.002882721135392785,-0.0044772629626095295,-0.012373380362987518,0.0152852488681674,0.0004817332956008613,0.001115140039473772
0.0027467424515634775,-0.004172570072114468,-0.011654316447675228,0.015586752444505692,0.00045834711636416614,0.001136592822149396
0.0028362940065562725,-0.0038813345599919558,-0.011842777021229267,0.01512860506772995,0.0005597910494543612,0.001331679872237146
0.002860234584659338,-0.00413056043908,-0.012826016172766685,0.015257027931511402,0.0005160250584594905,0.0015962241450324655
0.002910566981881857,-0.004179369192570448,-0.011403566226363182,0.014887894503772259,0.0005501481937244534,0.0017550723860040307
0.0027384439017623663,-0.004320994485169649,-0.011602101847529411,0.01512130443006754,0.0005660009919665754,0.0020520733669400215
0.0029296434950083494,-0.004441499710083008,-0.011540903709828854,0.01505238562822342,0.0005370931467041373,0.002116524614393711
0.0029624057933688164,-0.004260915331542492,-0.011409600265324116,0.015199090354144573,0.0005571854999288917,0.0019031603587791324
0.002930667717009783,-0.004065774846822023,-0.012442960403859615,0.014894886873662472,0.0005249486421234906,0.0016993189929053187
0.002775413915514946,-0.003839752171188593,-0.011502202600240707,0.015255346894264221,0.0005632007378153503,0.001484364620409906
0.003148683113977313,-0.00379983801394701,-0.011469553224742413,0.01505073718726635,0.000524474133271724,0.0014277437003329396
0.0033411530312150717,-0.003140621352940798,-0.011238059028983116,0.015014268457889557,0.0005586397601291537,0.001466559013351798
0.0032803283538669348,-0.0026018626522272825,-0.011420200578868389,0.01512001734226942,0.0005526270251721144,0.0016076822066679597
0.003357531735673547,-0.00250804889947176,-0.011875614523887634,0.014937648549675941,0.0005425846320576966,0.0017350817797705531
0.0033792860340327024,-0.002853723941370845,-0.01220303401350975,0.01474585011601448,0.0005544243613258004,0.002048119204118848
0.0034203517716377974,-0.0032053226605057716,-0.011894233524799347,0.014926242642104626,0.0005300715565681458,0.00182852684520185
0.0032802524510771036,-0.0031550468411296606,-0.011387660168111324,0.014727375470101833,0.000618566875346005,0.0015790370525792241
0.0032802524510771036,-0.0031550468411296606,-0.011387660168111324,0.014727375470101833,0.000618566875346005,0.0015790370525792241
0.003301887307316065,-0.002416683826595545,-0.011118724010884762,0.014697675593197346,0.0006049111252650619,0.001456660684198141
0.0034585492685437202,-0.0026380750350654125,-0.012057013809680939,0.015112753957509995,0.0006253871833905578,0.0016130406875163317
0.0037049243692308664,-0.0029969969764351845,-0.01197984628379345,0.01463902834802866,0.0007559842779301107,0.0018157182494178414
0.0037518455646932125,-0.0030403740238398314,-0.01209474541246891,0.015302089974284172,0.0008016438805498183,0.0017080385005101562
0.0038722422905266285,-0.002677367767319083,-0.01184637937694788,0.014527003280818462,0.0008166189072653651,0.0018608614336699247
0.0038722422905266285,-0.002677367767319083,-0.01184637937694788,0.014527003280818462,0.0008166189072653651,0.0018608614336699247
0.0035931651946157217,-0.002353019081056118,-0.011374677531421185,0.014572042040526867,0.0007999781519174576,0.0019508319674059749
0.0035083135589957237,-0.0022642321418970823,-0.011976788751780987,0.014268320053815842,0.0007628911989741027,0.0019280721899122
0.0036360735539346933,-0.002286267699673772,-0.011702965945005417,0.014167161658406258,0.0008289794786833227,0.001791582559235394
0.0038523904513567686,-0.0024141722824424505,-0.012264994904398918,0.013648835942149162,0.0008446581778116524,0.0016147984424605966
0.0043352460488677025,-0.0023551995400339365,-0.012056221254169941,0.01414528675377369,0.0007459857733920217,0.0015033099334686995
0.004262825008481741,-0.0025170280132442713,-0.011834346689283848,0.013988034799695015,0.0007575653144158423,0.0014210977824404836
0.0035201285500079393,-0.0023173107765614986,-0.013722694478929043,0.014001334086060524,0.0007532827439717948,0.0015547912335023284
0.003594460664317012,-0.002410585293546319,-0.011599254794418812,0.014247381128370762,0.0007020345656201243,0.00186460604891181
0.003913051448762417,-0.0024203406646847725,-0.011724025011062622,0.014666897244751453,0.0006795019726268947,0.0022889687679708004
0.004079447593539953,-0.002371900947764516,-0.012197151780128479,0.014340771362185478,0.0007005947409197688,0.002266655210405588
0.004038812126964331,-0.00266306777484715,-0.012052069418132305,0.014046081341803074,0.0007097712368704379,0.00216609425842762
0.004022349137812853,-0.002813252154737711,-0.01245133113116026,0.014012066647410393,0.0007288768538273871,0.001821904326789081
0.003979841712862253,-0.0024451722856611013,-0.011616531759500504,0.014017797075212002,0.0006825441378168762,0.001768590183928609
0.004016299266368151,-0.0023593453224748373,-0.012567457742989063,0.01483303215354681,0.0007630176260136068,0.001728131202980876
0.003911261446774006,-0.0023711773101240396,-0.011971116997301579,0.01421621534973383,0.0007974397158250213,0.001798308570869267
0.00425803242251277,-0.0022931282874196768,-0.01259764563292265,0.014027353376150131,0.0008036601939238608,0.0021586816292256117
0.004169098101556301,-0.002461823867633939,-0.011877067387104034,0.014064472168684006,0.0008142957813106477,0.0021458768751472235
0.00391673156991601,-0.002697182120755315,-0.011763474904000759,0.01423265878111124,0.0008953899960033596,0.0022184872068464756
0.0038154353387653828,-0.002561557339504361,-0.012865391559898853,0.013244874775409698,0.0009304009145125747,0.0021248003467917442
0.003900303039699793,-0.00258235284127295,-0.01149627473205328,0.013475912623107433,0.0009280738304369152,0.0021712228190153837
0.004407644737511873,-0.0024028499610722065,-0.012193000875413418,0.01425236091017723,0.0009136555599980056,0.0024706546682864428
0.004548037424683571,-0.0025617647916078568,-0.012105053290724754,0.014219539240002632,0.000952846952714026,0.002450257306918502
0.004205741919577122,-0.0024242266081273556,-0.01200755313038826,0.014446052722632885,0.0009474425460211933,0.0023000515066087246
0.003918499685823917,-0.00253378227353096,-0.011759116314351559,0.013913003727793694,0.0009107934893108904,0.001972390804439783
0.004288109485059977,-0.0024347654543817043,-0.012140166945755482,0.014046171680092812,0.0008560759015381336,0.0019004311179742217
0.004214473068714142,-0.002333501586690545,-0.011557795107364655,0.013691498897969723,0.0008609835058450699,0.0018629520200192928
0.004214473068714142,-0.002333501586690545,-0.011557795107364655,0.013691498897969723,0.0008609835058450699,0.0018629520200192928
0.004216770641505718,-0.002360320184379816,-0.01171900611370802,0.013788603246212006,0.0008649334777146578,0.001951142679899931
0.004378391895443201,-0.0023628955241292715,-0.011446270160377026,0.01359611190855503,0.0007768805953674018,0.0025613161269575357
0.004378391895443201,-0.0023628955241292715,-0.011446270160377026,0.01359611190855503,0.0007768805953674018,0.0025613161269575357
0.004466131329536438,-0.0024902697186917067,-0.012141307815909386,0.01299231592565775,0.0007849388057366014,0.0023763396311551332
0.004313845653086901,-0.0023186770267784595,-0.01207485981285572,0.013144823722541332,0.0007828723173588514,0.002099444856867194
0.004457022063434124,-0.0021976639982312918,-0.01190111692994833,0.012774740345776081,0.0009955924469977617,0.0019947609398514032
0.004287808667868376,-0.0022513074800372124,-0.011975293979048729,0.012923572212457657,0.0009397219400852919,0.0019223680719733238
0.004975292831659317,-0.002211756305769086,-0.011563366279006004,0.012798113748431206,0.0009321387624368072,0.0019645283464342356
0.004874804988503456,-0.002429877407848835,-0.012494617141783237,0.012720249593257904,0.0010655978694558144,0.0022792709060013294
0.004388860426843166,-0.002257400890812278,-0.011693570762872696,0.012849021703004837,0.0010329678189009428,0.0027705919928848743
0.004016523249447346,-0.0023687630891799927,-0.01183132641017437,0.011596661992371082,0.0009480381268076599,0.0027162497863173485
0.003983674570918083,-0.002213995670899749,-0.012101070955395699,0.013060211203992367,0.0009372510248795152,0.002749777166172862
0.005147126037627459,-0.00217175274156034,-0.011598396115005016,0.012938730418682098,0.0009345164289698005,0.002418345771729946
0.005042451433837414,-0.0020557711832225323,-0.012144001200795174,0.013189785182476044,0.0009274249896407127,0.0022216320503503084
0.00478898361325264,-0.001988539006561041,-0.011788231320679188,0.012278805486857891,0.0009589146357029676,0.0022942288778722286
0.0045908777974545956,-0.002200920134782791,-0.012504064477980137,0.012553677894175053,0.0009694083128124475,0.00240147951990366
0.004670620895922184,-0.0021947238128632307,-0.01175836194306612,0.012937599793076515,0.0012420715065672994,0.0027109684888273478
0.004759581759572029,-0.002165714744478464,-0.011565467342734337,0.01291635911911726,0.0012123618507757783,0.0028518703766167164
0.004720956087112427,-0.002015983685851097,-0.012060840614140034,0.01287089753895998,0.0011608847416937351,0.0026712818071246147
0.00505983829498291,-0.0019801058806478977,-0.01219858042895794,0.01225279550999403,0.0010750603396445513,0.0025497726164758205
0.00536544481292367,-0.0018504554172977805,-0.012042133137583733,0.012838859111070633,0.0010672103380784392,0.0027281760703772306
0.0056148674339056015,-0.001795968390069902,-0.01172986812889576,0.01260032132267952,0.0010393067495897412,0.002980063436552882
0.005314087029546499,-0.0017275786958634853,-0.011680797673761845,0.012605511583387852,0.0009533006232231855,0.0029288791120052338
0.00478338310495019,-0.001949156867340207,-0.01207129005342722,0.012280390597879887,0.0009417848195880651,0.0028264315333217382
0.005383490119129419,-0.0019816881977021694,-0.011979395523667336,0.012577974237501621,0.0008867098949849606,0.002440221142023802
0.0060228509828448296,-0.0018987865187227726,-0.011574400588870049,0.011903364211320877,0.000888100650627166,0.002385443774983287
0.005558989942073822,-0.001849210006184876,-0.01187876146286726,0.012393845245242119,0.0008747978718020022,0.002720615128055215
0.005437237676233053,-0.0017130837077274919,-0.01138358749449253,0.011732717975974083,0.0008872898761183023,0.0028695445507764816
0.005323932971805334,-0.001837418065406382,-0.011017518118023872,0.011989803984761238,0.0009291032329201698,0.003011423861607909
0.005079325288534164,-0.0017231226665899158,-0.011880495585501194,0.012046294286847115,0.0008928963216021657,0.003325891913846135
0.005079325288534164,-0.0017231226665899158,-0.011880495585501194,0.012046294286847115,0.0008928963216021657,0.003325891913846135
0.006103132851421833,-0.0020168081391602755,-0.01176554523408413,0.011396512389183044,0.0008918132516555488,0.003192761680111289
0.005561093334108591,-0.0018387297168374062,-0.01215815544128418,0.011784344911575317,0.0008539496921002865,0.0032448687124997377
0.00534052262082696,-0.0018009277991950512,-0.011465146206319332,0.011649945750832558,0.0009349503670819104,0.0029110158793628216
0.005485086236149073,-0.0017801066860556602,-0.011089126579463482,0.011817330494523048,0.0009343601996079087,0.0027613863348960876
0.006171687971800566,-0.0017962473211809993,-0.011551661416888237,0.011555088683962822,0.000930025998968631,0.0026102550327777863
0.005781181156635284,-0.0018016865942627192,-0.011333191767334938,0.011456537991762161,0.0008756177267059684,0.002834099577739835
0.0058964695781469345,-0.001820707111619413,-0.0116220498457551,0.011611098423600197,0.000974542461335659,0.0031451641116291285
0.005621576216071844,-0.0018297648057341576,-0.012051013298332691,0.011145497672259808,0.0009686067351140082,0.0028451308608055115
0.005763869266957045,-0.0019154537003487349,-0.011494842357933521,0.010966213420033455,0.0009914615657180548,0.0030714403837919235
0.005970448721200228,-0.001902504125609994,-0.011481223627924919,0.01124707330018282,0.0010247864993289113,0.00337722385302186
0.006118007004261017,-0.001710245618596673,-0.011151053942739964,0.010534931905567646,0.0010974656324833632,0.003636819776147604
0.006451019085943699,-0.0017285055946558714,-0.011485741473734379,0.011381068266928196,0.001080534653738141,0.003267229301854968
0.006160175893455744,-0.001582705182954669,-0.01167888194322586,0.011356842704117298,0.0010552803287282586,0.0031465881038457155
0.005560611840337515,-0.001559596392326057,-0.011034502647817135,0.011132501997053623,0.0011681634932756424,0.0029582770075649023
0.0059059071354568005,-0.001565708196721971,-0.011772319674491882,0.011666923761367798,0.0011698600137606263,0.0029167127795517445
0.00598003389313817,-0.001882921322248876,-0.011220076121389866,0.011268749833106995,0.0011486628791317344,0.0028891924303025007
0.006054161582142115,-0.0018173393327742815,-0.010832099243998528,0.011227681301534176,0.0012722071260213852,0.003035369561985135
0.006443487014621496,-0.0016932535218074918,-0.011650112457573414,0.011038138531148434,0.0012689250288531184,0.0031546412501484156
0.006156616378575563,-0.0017824702663347125,-0.011265214532613754,0.01066095195710659,0.0012094361009076238,0.0032559107057750225
0.006454094313085079,-0.0014405231922864914,-0.011222477070987225,0.011108492501080036,0.0011841411469504237,0.0031861397437751293
0.006242533680051565,-0.0013044102815911174,-0.010857225395739079,0.011537996120750904,0.0011233326513320208,0.003043664153665304
0.006089805159717798,-0.0013835481368005276,-0.011598336510360241,0.011433734558522701,0.0010880872141569853,0.0030036962125450373
0.006066534668207169,-0.0016522281803190708,-0.011285054497420788,0.0110000716522336,0.0010013625724241138,0.003126381663605571
0.005992732010781765,-0.0016978061757981777,-0.012196571566164494,0.011259791441261768,0.0009595985757187009,0.0031256498768925667
0.006415029987692833,-0.001811879687011242,-0.011400914750993252,0.010622047819197178,0.0010343416361138225,0.003518809797242284
0.0060841478407382965,-0.001659896457567811,-0.011030414141714573,0.010568500496447086,0.000986795173957944,0.0033291331492364407
0.0060841478407382965,-0.001659896457567811,-0.011030414141714573,0.010568500496447086,0.000986795173957944,0.0033291331492364407
0.005956643261015415,-0.001513408380560577,-0.011718536727130413,0.011035425588488579,0.0011546916794031858,0.003108719829469919
0.006027919240295887,-0.001377139356918633,-0.011412606574594975,0.010878686793148518,0.0012325523421168327,0.002924690255895257
0.006819029338657856,-0.0013359260046854615,-0.011915256269276142,0.010434389114379883,0.0012761879479512572,0.00281232176348567
0.006868247874081135,-0.0012768555898219347,-0.011759309098124504,0.010800675489008427,0.0012877281988039613,0.0028034758288413286
0.006626592017710209,-0.0013539640931412578,-0.011289535090327263,0.010578958317637444,0.0012404322624206543,0.0027608659584075212
0.006607947405427694,-0.0012786888983100653,-0.012183341197669506,0.01069127582013607,0.0011954912915825844,0.002837812528014183
0.006388808134943247,-0.0013950895518064499,-0.011509586125612259,0.010836360044777393,0.0010987803107127547,0.002975173993036151
0.007115777116268873,-0.0013565929839387536,-0.01229855790734291,0.01050611026585102,0.0010649192845448852,0.0032115867361426353
0.007451734505593777,-0.001265056780539453,-0.01145114004611969,0.010342961177229881,0.0011082544224336743,0.0032145020086318254
0.006972087547183037,-0.0012078722938895226,-0.01133729424327612,0.010565302334725857,0.0011242751497775316,0.003067704616114497
0.006321061868220568,-0.00107106426730752,-0.012422015890479088,0.00991060957312584,0.0011640387820079923,0.002916136058047414
0.006905657239258289,-0.0010255598463118076,-0.0122970687225461,0.01004897989332676,0.0012102833716198802,0.003129301592707634
0.0069249290972948074,-0.0010050091659650207,-0.011868094094097614,0.010129522532224655,0.0012653248850256205,0.0031777932308614254
0.006947315763682127,-0.001000480493530631,-0.011863725259900093,0.010119834914803505,0.0014838537899777293,0.0032834834419190884
0.006879224441945553,-0.0010062026558443904,-0.011313189752399921,0.00978434644639492,0.0014114825753495097,0.003011690452694893
0.006818714551627636,-0.0009982504416257143,-0.012457613833248615,0.009313806891441345,0.0015056966803967953,0.0030070715583860874
0.007440556772053242,-0.0009828954935073853,-0.011455693282186985,0.009194893762469292,0.0014465416315943003,0.003151756012812257
0.007845104672014713,-0.0009750554454512894,-0.01215798407793045,0.009422175586223602,0.0013687836471945047,0.0033758245408535004
0.006830272730439901,-0.0009960061870515347,-0.012141364626586437,0.009685126133263111,0.0013191483449190855,0.0036475942470133305
0.006667553912848234,-0.0009834211086854339,-0.012344563379883766,0.009099164046347141,0.0013143429532647133,0.003825439140200615
0.007325788028538227,-0.0009704391704872251,-0.012390422634780407,0.00958695262670517,0.0012788993772119284,0.003411902580410242
0.007301559671759605,-0.0008568303310312331,-0.012630471959710121,0.008448153734207153,0.0015489646466448903,0.003318334463983774
0.006710777059197426,-0.0007835268042981625,-0.01212724857032299,0.008930123411118984,0.0016203284030780196,0.0034075952135026455
0.006710777059197426,-0.0007835268042981625,-0.01212724857032299,0.008930123411118984,0.0016203284030780196,0.0034075952135026455
0.0070825619623064995,-0.0007995931664481759,-0.012293166480958462,0.008716624230146408,0.0015295918565243483,0.0030954317189753056
0.007251483388245106,-0.0008113121148198843,-0.011632854118943214,0.008917752653360367,0.0012100645108148456,0.0033692759461700916
0.007251483388245106,-0.0008113121148198843,-0.011632854118943214,0.008917752653360367,0.0012100645108148456,0.0033692759461700916
0.007207374554127455,-0.0007449426921084523,-0.012015449814498425,0.009830169379711151,0.0011304435320198536,0.004001668654382229
0.007673407439142466,-0.0007503713713958859,-0.011704395525157452,0.008950247429311275,0.001174515695311129,0.004504232667386532
0.00750426622107625,-0.0007714306120760739,-0.012415382079780102,0.008460452780127525,0.0011883970582857728,0.004225383512675762
0.007251786068081856,-0.0007842961931601167,-0.01281315740197897,0.009156957268714905,0.0013122016098350286,0.003912345506250858
0.007373466156423092,-0.0007012448040768504,-0.011958518996834755,0.008949288167059422,0.0013303800951689482,0.003758651204407215
0.007741054054349661,-0.0007198267849162221,-0.011906432919204235,0.008929849602282047,0.0016157515347003937,0.00369116454385221
0.007630959618836641,-0.0007146568386815488,-0.011402447707951069,0.00907008908689022,0.001616199966520071,0.003731717588379979
0.00733755249530077,-0.0007277122349478304,-0.012362155131995678,0.008871177211403847,0.0014099041000008583,0.0038879483472555876
0.0076262569054961205,-0.0006761004333384335,-0.01213150005787611,0.0083944546058774,0.001294036628678441,0.003630142891779542
0.007887517102062702,-0.0006999985198490322,-0.011567071080207825,0.008764256723225117,0.001284165307879448,0.0035183499567210674
0.00816597230732441,-0.0007103452226147056,-0.012423872947692871,0.009244652464985847,0.001250394037924707,0.0035496391355991364
0.008201121352612972,-0.0006554980063810945,-0.011777200736105442,0.008585995063185692,0.0013778717257082462,0.003715821309015155
0.00792771764099598,-0.0006782412528991699,-0.011948257684707642,0.008303185924887657,0.0014404455432668328,0.004243491217494011
0.00822409801185131,-0.0006252118619158864,-0.01209260430186987,0.008510306477546692,0.001577170449309051,0.004063278902322054
0.00820219237357378,-0.0005493799108080566,-0.011909157037734985,0.008622956462204456,0.0015378748066723347,0.0038759219460189342
0.008116621524095535,-0.0004895751480944455,-0.01184829231351614,0.008046307601034641,0.0014402020024135709,0.0037625147961080074
0.008410320617258549,-0.0004415155854076147,-0.011684708297252655,0.008150150999426842,0.001291162334382534,0.0037596188485622406
0.008014354854822159,-0.0004544552357401699,-0.012219873256981373,0.008753168396651745,0.0013057902688160539,0.003769786562770605
0.0084010548889637,-0.00044250075006857514,-0.01133133377879858,0.008175552822649479,0.0012790394248440862,0.004252191167324781
0.008460037410259247,-0.00040929234819486737,-0.011671418324112892,0.007921812124550343,0.0012136221630498767,0.004564571660012007
0.008505365811288357,-0.00038045400287956,-0.011788632720708847,0.008134004659950733,0.0013206722214818,0.004355211742222309
0.007976294495165348,-0.00038239042623899877,-0.012072655372321606,0.007827839814126492,0.001583379926159978,0.0038090655580163
0.008900200016796589,-0.00036631443072110415,-0.01154901459813118,0.007999266497790813,0.0016158916987478733,0.0037451067473739386
0.008675751276314259,-0.0003462618333287537,-0.01195734553039074,0.00829176977276802,0.001500664628110826,0.004179331474006176
0.008286196738481522,-0.0003282204270362854,-0.011937078088521957,0.008247798308730125,0.001499582314863801,0.004469185136258602
0.008286196738481522,-0.0003282204270362854,-0.011937078088521957,0.008247798308730125,0.001499582314863801,0.004469185136258602
0.008407367393374443,-0.0002972451038658619,-0.01185508444905281,0.007975723594427109,0.0014178897254168987,0.004826572258025408
0.008549905382096767,-0.00028385198675096035,-0.011625797487795353,0.008379715494811535,0.00136741460300982,0.004356571938842535
0.008584849536418915,-0.0002716133603826165,-0.012149927206337452,0.00799369253218174,0.0013290317729115486,0.00400131568312645
0.008697970770299435,-0.0002970638743136078,-0.01171659491956234,0.007665029726922512,0.0015704251127317548,0.0039728786796331406
0.008697970770299435,-0.0002970638743136078,-0.01171659491956234,0.007665029726922512,0.0015704251127317548,0.0039728786796331406
0.008921065367758274,-0.0002857658255379647,-0.011689940467476845,0.00773247517645359,0.0015667175175622106,0.004004931543022394
0.009221828542649746,-0.0002748622791841626,-0.0123281953856349,0.007676917593926191,0.0019080482888966799,0.00423474470153451
0.008789893239736557,-0.000264754839008674,-0.011420851573348045,0.007516448851674795,0.001793898525647819,0.004650191869586706
0.009172261692583561,-0.0002553640806581825,-0.012066592462360859,0.007378284353762865,0.0016594443004578352,0.004819496534764767
0.008968469686806202,-0.00024661736097186804,-0.011804481968283653,0.007384220138192177,0.0016767758643254638,0.004794313572347164
0.008881733752787113,-0.00023844953102525324,-0.011484835296869278,0.0073814899660646915,0.0015520966844633222,0.00458728801459074
0.0094517907127738,-0.000205350574105978,-0.011652544140815735,0.00686543807387352,0.0016321911243721843,0.004423308651894331
0.009832239709794521,-8.384730608668178e-05,-0.011404372751712799,0.006658401805907488,0.0017030772287398577,0.00442579947412014
0.009047775529325008,-3.382668364793062e-05,-0.012139000929892063,0.00689318310469389,0.0017526410520076752,0.004477206617593765
0.00883003231137991,-3.1993935408536345e-05,-0.011546152643859386,0.007300831377506256,0.0016870961990207434,0.004865129478275776
0.009293780662119389,-3.088746598223224e-05,-0.011940783821046352,0.00725074578076601,0.0018623105715960264,0.004527846351265907
0.008917707949876785,-2.9862429073546082e-05,-0.011558943428099155,0.006898217834532261,0.001723433961160481,0.004898282699286938
0.009596987627446651,-2.890338328143116e-05,-0.011433345265686512,0.007078611757606268,0.0017659681616351008,0.004816659726202488
0.009586540050804615,-2.8004033083561808e-05,-0.012055392377078533,0.007289474364370108,0.0017884206026792526,0.004842660389840603
0.009147895500063896,-2.7158952434547246e-05,-0.011426893062889576,0.007004268001765013,0.0017762314528226852,0.004350900184363127
0.009341991506516933,-2.6363361030234955e-05,-0.011866467073559761,0.006855403073132038,0.0016599663067609072,0.004501893650740385
0.010559315793216228,-2.5613055186113343e-05,-0.011791601777076721,0.007140205707401037,0.001563823432661593,0.004910863470286131
0.009773479774594307,-2.925103217421565e-06,-0.011130495928227901,0.007446039002388716,0.0015406969469040632,0.005031244363635778
0.010369116440415382,-5.26508281417648e-10,-0.011648355051875114,0.0073178536258637905,0.001732274773530662,0.004818134009838104
0.009374380111694336,-7.063780983751489e-12,-0.011952094733715057,0.006736684590578079,0.001773394295014441,0.004650413524359465
0.010245283134281635,-9.476964433477106e-14,-0.011622048914432526,0.007067595608532429,0.0018787479493767023,0.004549321252852678
0.01035652682185173,-1.2714557461350126e-15,-0.010979555547237396,0.006733278278261423,0.0019230588804930449,0.0045381514355540276
0.010497811250388622,-1.7058201310129792e-17,-0.011625556275248528,0.006240797694772482,0.0021331324242055416,0.004958161152899265
0.010143967345356941,-2.288575334905123e-19,-0.011521016247570515,0.005897731054574251,0.0019446132937446237,0.005495809484273195
0.01008323859423399,-3.0704158758724532e-21,-0.011299076490104198,0.006431944668292999,0.0018325189594179392,0.00525522930547595
0.009812362492084503,-4.119354969784136e-23,-0.011553741991519928,0.0062401448376476765,0.0018245289102196693,0.004981625359505415
0.009812362492084503,-4.119354969784136e-23,-0.011553741991519928,0.0062401448376476765,0.0018245289102196693,0.004981625359505415
0.010494677349925041,-5.526640186766494e-25,-0.011127570644021034,0.006946436129510403,0.0017446186393499374,0.004501284100115299
0.01071945484727621,-7.414693159678818e-27,-0.011772624216973782,0.00675713736563921,0.0017642821185290813,0.004599471110850573
0.009999802336096764,-9.947757376409942e-29,-0.011282476596534252,0.006163539364933968,0.0016632224433124065,0.004938804544508457
0.010834377259016037,-1.334618670104399e-30,-0.011821123771369457,0.006160446908324957,0.0017160677816718817,0.005475289653986692
0.01050878781825304,-1.7905614843144798e-32,-0.01181266363710165,0.006357754580676556,0.001736356527544558,0.0053956713527441025
0.01018206775188446,-2.402266658045572e-34,-0.011036182753741741,0.0060774534940719604,0.0018416624516248703,0.005203476175665855
0.010450620204210281,-3.222947366114731e-36,-0.011788744479417801,0.005780990235507488,0.0018821432022377849,0.0048586116172373295
0.010268202051520348,-4.323995359417567e-38,-0.011674356646835804,0.005342128220945597,0.0021376172080636024,0.004910741932690144
0.010542555712163448,0.0004343799373600632,-0.01165605615824461,0.005654951091855764,0.0021107636857777834,0.005385210737586021
0.010538463480770588,0.0005130982026457787,-0.012017356231808662,0.005864891689270735,0.001929525868035853,0.005681320559233427
0.01109512522816658,0.00046211524750106037,-0.011533520184457302,0.005944730248302221,0.0017958598909899592,0.0056769754737615585
0.010643159039318562,0.000492714811116457,-0.011402512900531292,0.0054632872343063354,0.0017366335960105062,0.005328405182808638
0.01062785368412733,0.0004599016101565212,-0.011164220981299877,0.005200323648750782,0.001650257152505219,0.005032823421061039
0.010313291102647781,0.00042390977614559233,-0.011367670260369778,0.005123989190906286,0.001823693630285561,0.005215727258473635
0.01092776469886303,0.0004576086066663265,-0.011892495676875114,0.005810219328850508,0.001745022484101355,0.005319348536431789
0.01049155555665493,0.0004274246748536825,-0.011309233494102955,0.005550463683903217,0.0020427927374839783,0.005719881039112806
0.010945688001811504,0.00045061358832754195,-0.01158098690211773,0.005723923910409212,0.0020731198601424694,0.005728430114686489
0.011499577201902866,0.0004300320288166404,-0.011520631611347198,0.005527924280613661,0.002100995508953929,0.005563521292060614
0.010395322926342487,0.00043679456575773656,-0.011560291051864624,0.005640820134431124,0.0019872980192303658,0.005470852833241224
0.010929066687822342,0.00047627653111703694,-0.011677104979753494,0.005424714181572199,0.0018982066540047526,0.005705615039914846
0.010540875606238842,0.0005347686819732189,-0.012041609734296799,0.00535309175029397,0.0020957603119313717,0.005814616102725267
0.011350318789482117,0.0005090923514217138,-0.011686986312270164,0.0049874805845320225,0.0021706013940274715,0.005237365607172251
0.01091955229640007,0.0008913888595998287,-0.011744365096092224,0.005090152844786644,0.0019457549788057804,0.0052202725782990456
0.010645896196365356,0.0008971840143203735,-0.011569879949092865,0.005156959407031536,0.001815557130612433,0.005148080177605152
0.011198112741112709,0.0008216002606786788,-0.011336547322571278,0.0049568298272788525,0.001746632973663509,0.005918401293456554
0.010084250941872597,0.0008295650477521122,-0.0122209582477808,0.004802274983376265,0.0016900653718039393,0.005711263976991177
0.010084250941872597,0.0008295650477521122,-0.0122209582477808,0.004802274983376265,0.0016900653718039393,0.005711263976991177
0.010589437559247017,0.0008692415431141853,-0.011584801599383354,0.004991312511265278,0.001954064005985856,0.0056661805137991905
0.011319885961711407,0.0008865116978995502,-0.011413767002522945,0.0046090842224657536,0.0023058124352246523,0.005331330467015505
0.010877012275159359,0.0008921866538003087,-0.012000173330307007,0.004479922354221344,0.0023457787465304136,0.005024431739002466
0.011126079596579075,0.0009106819052249193,-0.01199773233383894,0.004626804031431675,0.002448515733703971,0.00513425562530756
0.01140341442078352,0.001204533502459526,-0.011701982468366623,0.005016288720071316,0.002199714770540595,0.005483927670866251
0.011117512360215187,0.001263789483346045,-0.011575594544410706,0.004742239601910114,0.002089094603434205,0.006258737295866013
0.011187450960278511,0.0011288992827758193,-0.012637617997825146,0.004683414474129677,0.001867885934188962,0.00568248750641942
0.011059372685849667,0.0012342112604528666,-0.011790743097662926,0.004834147170186043,0.0017667087959125638,0.0053452253341674805
0.011972992680966854,0.001211700146086514,-0.011021904647350311,0.004763667471706867,0.00177484517917037,0.005447500851005316
0.011332105845212936,0.0012001749128103256,-0.012137613259255886,0.004485649056732655,0.0018916978733614087,0.005966121796518564
0.011095220223069191,0.0014973155921325088,-0.011471215635538101,0.0045837159268558025,0.001892449683509767,0.00606921873986721
0.011427673511207104,0.0014294408028945327,-0.011297321878373623,0.004531295038759708,0.0018147153314203024,0.005903374403715134
0.011327826417982578,0.0017177034169435501,-0.011423200368881226,0.004090026021003723,0.0016745119355618954,0.0060875024646520615
0.011744529940187931,0.001749279908835888,-0.011142443865537643,0.004257430788129568,0.0015680628130212426,0.005716513842344284
0.011627105064690113,0.001884528319351375,-0.012120806612074375,0.0042055947706103325,0.001642907503992319,0.0058164712972939014
0.011736303567886353,0.0018154341960325837,-0.011968905106186867,0.00443447707220912,0.0018654180457815528,0.0062247589230537415
0.012066833674907684,0.0017946572043001652,-0.011591932736337185,0.004139632452279329,0.0021682053338736296,0.006816360633820295
0.01159621775150299,0.0018047300400212407,-0.012164028361439705,0.003957386128604412,0.0022207810543477535,0.006710459478199482
0.01248661708086729,0.001966639654710889,-0.011877787299454212,0.003982058726251125,0.002241158625110984,0.00629968848079443
0.011735215783119202,0.002015350153669715,-0.011444774456322193,0.003930353559553623,0.0021610683761537075,0.006393786519765854
0.011763176880776882,0.002332808682695031,-0.011157289147377014,0.004130681045353413,0.0021259367931634188,0.005869845859706402
0.012346494011580944,0.002464703284204006,-0.011666350066661835,0.003858808893710375,0.002135189948603511,0.005774984136223793
0.013454231433570385,0.0027283779345452785,-0.011219581589102745,0.003668424440547824,0.0023219084832817316,0.006282886490225792
0.013682189397513866,0.0024850659538060427,-0.011360631324350834,0.0036817658692598343,0.0023510518949478865,0.006417141295969486
0.013485242612659931,0.002224492374807596,-0.010929412208497524,0.0037782255094498396,0.0024905381724238396,0.0062376344576478004
0.013190402649343014,0.0021864017471671104,-0.011136057786643505,0.0037679211236536503,0.002620177110657096,0.006210945080965757
0.013523859903216362,0.0026261876337230206,-0.011643122881650925,0.003672112012282014,0.00234385603107512,0.0064748539589345455
0.013523859903216362,0.0026261876337230206,-0.011643122881650925,0.003672112012282014,0.00234385603107512,0.0064748539589345455
0.013469547033309937,0.0028664362616837025,-0.011018774472177029,0.0034576724283397198,0.0020112120546400547,0.006530958227813244
0.01371676754206419,0.0025439364835619926,-0.011403833515942097,0.003489073598757386,0.0018245126120746136,0.006606616545468569
0.013813111931085587,0.0026499752420932055,-0.011092668399214745,0.003528730943799019,0.0017323490465059876,0.0062303380109369755
0.013913736678659916,0.002768373116850853,-0.010433276183903217,0.0034466981887817383,0.0016861270414665341,0.0061876242980360985
0.014188360422849655,0.0032300471793860197,-0.011216610670089722,0.0031929416581988335,0.0021113359834998846,0.006263632792979479
0.013675561174750328,0.0041489796712994576,-0.010928214527666569,0.003028387203812599,0.002607339061796665,0.006362438201904297
0.01415294036269188,0.004393941722810268,-0.010754321701824665,0.0030718741472810507,0.002862776629626751,0.006508176680654287
0.014013722538948059,0.004273905418813229,-0.011507748626172543,0.002965566236525774,0.002793319057673216,0.00653542997315526
0.014119191095232964,0.004020983818918467,-0.01085728034377098,0.0028521784115582705,0.0028006546199321747,0.006286508869379759
0.01470884494483471,0.004268552176654339,-0.011228393763303757,0.0026710880920290947,0.0026379853952676058,0.006440913304686546
0.014642177149653435,0.004526133649051189,-0.011380137875676155,0.0027132511604577303,0.0024933430831879377,0.007138379849493504
0.013897649012506008,0.0047265938483178616,-0.010960220359265804,0.002784914802759886,0.0024267469998449087,0.006902862805873156
0.014535471796989441,0.004381607752293348,-0.011651348322629929,0.0028702574782073498,0.0022410063538700342,0.006613356061279774
0.014285109005868435,0.004326603375375271,-0.01118480134755373,0.0028554259333759546,0.0021743779070675373,0.00640176422894001
0.014355550520122051,0.004635426681488752,-0.01126215048134327,0.0026861221995204687,0.002220535185188055,0.006726901046931744
0.01359386183321476,0.004793226253241301,-0.011043606325984001,0.0022723970469087362,0.0021836841478943825,0.006866808049380779
0.015311258845031261,0.004860742017626762,-0.010976866818964481,0.00221710791811347,0.0024905335158109665,0.007001867517828941
0.014497830532491207,0.004899065010249615,-0.011306602507829666,0.0021355601493269205,0.002800474176183343,0.006489663850516081
0.014437931589782238,0.005413306411355734,-0.010992399416863918,0.00214969995431602,0.002788683632388711,0.007038801442831755
0.014479544945061207,0.005202999338507652,-0.01070262398570776,0.002117258496582508,0.002837794367223978,0.007140301167964935
0.014533892273902893,0.005219292361289263,-0.011014869436621666,0.0021440840791910887,0.0023644366301596165,0.00705172773450613
0.0152591522783041,0.005099841859191656,-0.011443107388913631,0.0021561961621046066,0.0021603875793516636,0.006806722842156887
0.014545133337378502,0.005622289143502712,-0.011332616209983826,0.002184285782277584,0.0023098199162632227,0.006900910288095474
0.015112465247511864,0.005802256520837545,-0.010356542654335499,0.0020105461589992046,0.002584532368928194,0.0072496929205954075
0.014753764495253563,0.006076631136238575,-0.010988609865307808,0.0019785051699727774,0.002743579912930727,0.0075487797148525715
0.015011808834969997,0.005432702600955963,-0.010809218510985374,0.0018277285853400826,0.0027300098445266485,0.00704592652618885
0.014342028647661209,0.005358018446713686,-0.010472598485648632,0.0019346370827406645,0.0025913878343999386,0.007135265972465277
0.014342028647661209,0.005358018446713686,-0.010472598485648632,0.0019346370827406645,0.0025913878343999386,0.007135265972465277
0.014119184575974941,0.00652305455878377,-0.010331892408430576,0.0021872029174119234,0.002517904620617628,0.007374772801995277
0.014119184575974941,0.00652305455878377,-0.010331892408430576,0.0021872029174119234,0.002517904620617628,0.007374772801995277
0.01462697982788086,0.0060042450204491615,-0.010824368335306644,0.0022635385394096375,0.00243087369017303,0.006585363764315844
0.014190982095897198,0.005923760589212179,-0.010981962084770203,0.002085590735077858,0.002540756016969681,0.0065252589993178844
0.014550907537341118,0.006508820224553347,-0.010490158572793007,0.001728074625134468,0.0026681830640882254,0.006908969022333622
0.014826580882072449,0.006832535844296217,-0.010850955732166767,0.0015155215514823794,0.002680376637727022,0.0069563123397529125
0.014979085884988308,0.0065256329253315926,-0.010557937435805798,0.00147115474101156,0.002780163660645485,0.006920356769114733
0.01487337239086628,0.006399002391844988,-0.010096298530697823,0.0013238898245617747,0.0024437536485493183,0.006602681707590818
0.014614777639508247,0.006673547439277172,-0.010908776894211769,0.0012063327012583613,0.0023395803291350603,0.006748266518115997
0.014857955276966095,0.007385352626442909,-0.01090747769922018,0.0011465661227703094,0.0023265571799129248,0.007322287652641535
0.014783280901610851,0.007107950747013092,-0.010680762119591236,0.0010031794663518667,0.0021735443733632565,0.007321794517338276
0.015089621767401695,0.006501737050712109,-0.010897154919803143,0.0009817981626838446,0.0024238689802587032,0.007164443377405405
0.015191009268164635,0.0067236172035336494,-0.010726015083491802,0.0008884696871973574,0.002720501273870468,0.007230446673929691
0.015420970506966114,0.006955018732696772,-0.011132110841572285,0.0008820973453111947,0.0028114013839513063,0.0069399867206811905
0.015131459571421146,0.007628195453435183,-0.01095617190003395,0.0008672158583067358,0.0026869862340390682,0.0071885124780237675
0.015348914079368114,0.007222298998385668,-0.010531875304877758,0.0007880991324782372,0.002913367236033082,0.007301246747374535
0.015004387125372887,0.006881786976009607,-0.011413774453103542,0.0007949971477501094,0.003013678127899766,0.007867755368351936
0.015286726877093315,0.007154517807066441,-0.011034004390239716,0.0007955949986353517,0.0029164913576096296,0.00719031784683466
0.015394392423331738,0.007540724240243435,-0.01069236733019352,0.0007685120217502117,0.002584704663604498,0.006918519269675016
0.015816861763596535,0.007253214716911316,-0.010940290987491608,0.000725522346328944,0.002524071140214801,0.00688030244782567
0.01551904994994402,0.007134402170777321,-0.010624933056533337,0.000642955070361495,0.0023031088057905436,0.007738570217043161
0.01548773143440485,0.008247523568570614,-0.011075427755713463,0.0006026356131769717,0.002361210761591792,0.00751847680658102
0.015818320214748383,0.00797882117331028,-0.010727247223258018,0.0005524551379494369,0.0023044415283948183,0.007479628548026085
0.015709152445197105,0.0074718971736729145,-0.011238072998821735,0.0005080406554043293,0.0024756789207458496,0.007477225735783577
0.01558550912886858,0.008066036738455296,-0.010943948291242123,0.0004701079451479018,0.0025662295520305634,0.007217578589916229
0.015927903354167938,0.00847415067255497,-0.011147604323923588,0.0004374439886305481,0.0024848561733961105,0.0073518999852240086
0.015579412691295147,0.007681665010750294,-0.011445011012256145,0.00040902552427724004,0.0026102217379957438,0.0073427543975412846
0.015845702961087227,0.007851582951843739,-0.010466603562235832,0.0003840746940113604,0.0030032359063625336,0.00764526566490531
0.015845702961087227,0.007851582951843739,-0.010466603562235832,0.0003840746940113604,0.0030032359063625336,0.00764526566490531
0.015707554295659065,0.008312705904245377,-0.011727150529623032,0.0003619961498770863,0.0030858993995934725,0.007764987647533417
0.016002679243683815,0.008432259783148766,-0.012091628275811672,0.00034231913741678,0.003097901353612542,0.0075690788216888905
0.015612689778208733,0.008398536592721939,-0.010697509162127972,0.00032467040000483394,0.003060937160626054,0.007315540686249733
0.016072986647486687,0.008266878314316273,-0.01166902482509613,0.00030875427182763815,0.002811248879879713,0.007561178412288427
0.01577611453831196,0.008555546402931213,-0.010940508916974068,0.00029432520386762917,0.0026997290551662445,0.007435328792780638
0.015998851507902145,0.008064336143434048,-0.010977431200444698,0.0002811852900777012,0.002544812625274062,0.007495946250855923
0.01658414676785469,0.008333126083016396,-0.011235986836254597,0.0002691687550395727,0.002624709391966462,0.007455137092620134
0.016124071553349495,0.00915102194994688,-0.011007473804056644,0.00025813706452026963,0.0029833652079105377,0.008653262630105019
0.016091156750917435,0.00898021087050438,-0.011972500942647457,0.00024797447258606553,0.0030390643514692783,0.008159941993653774
0.015949375927448273,0.008852825500071049,-0.011295950040221214,0.00012447003973647952,0.0029297545552253723,0.007775887381285429
0.016639482229948044,0.009209063835442066,-0.01118770893663168,8.300608169520274e-05,0.0031945540104061365,0.00840835738927126
0.016605740413069725,0.00904256384819746,-0.011750767938792706,7.710822683293372e-05,0.00330920098349452,0.007646807935088873
0.01674019731581211,0.00946766883134842,-0.01136449072510004,7.379300222964957e-05,0.003101377747952938,0.008346103131771088
0.016355499625205994,0.008701251819729805,-0.011580916121602058,7.087678386596963e-05,0.0026753079146146774,0.00818041805177927
0.016338849440217018,0.009940223768353462,-0.012272771447896957,6.819063128205016e-05,0.002597370883449912,0.008369384333491325
0.01670711301267147,0.008720604702830315,-0.011342667043209076,4.140073724556714e-05,0.002576502040028572,0.007774607744067907
0.016268985345959663,0.008728454820811749,-0.01109835971146822,3.225180626031943e-05,0.0026766438968479633,0.007395426742732525
0.016839509829878807,0.009509400464594364,-0.010957244783639908,3.0651754059363157e-05,0.002701566321775317,0.007444240152835846
0.016446305438876152,0.009816518984735012,-0.011615741066634655,2.9610358978970908e-05,0.0029571037739515305,0.00856021512299776
0.0171054620295763,0.009710288606584072,-0.010661294683814049,2.4768615958237206e-07,0.0029438051860779524,0.00794901791960001
0.01660054922103882,0.007851976901292801,-0.011240426450967789,1.617213563065434e-08,0.0032808887772262096,0.008322680369019508
0.017438601702451706,0.005493664648383856,-0.011093798093497753,1.0559250140929066e-09,0.0031395223923027515,0.008402854204177856
0.016836654394865036,0.005509804934263229,-0.01124177873134613,6.894435022886114e-11,0.003286961931735277,0.008524478413164616
0.01697061024606228,0.00706166448071599,-0.01220365334302187,-0.00022815956617705524,0.003248747671023011,0.00826332252472639
0.01750594936311245,0.007552820723503828,-0.011434035375714302,-0.0012083700858056545,0.003045635763555765,0.008347639814019203
0.017119796946644783,0.007432583719491959,-0.011355242691934109,-0.0012268370483070612,0.002982857869938016,0.008467966690659523
0.01759970374405384,0.006889731623232365,-0.01113186776638031,-0.001177397440187633,0.0029472506139427423,0.008534732274711132
0.01759970374405384,0.006889731623232365,-0.01113186776638031,-0.001177397440187633,0.0029472506139427423,0.008534732274711132
0.017140032723546028,0.00700881564989686,-0.011254029348492622,-0.0011242065811529756,0.0030652277637273073,0.008239640854299068
0.017180684953927994,0.00814725086092949,-0.011447174474596977,-0.0011961398413404822,0.002958228113129735,0.008627140894532204
0.017228446900844574,0.007118108216673136,-0.011037980206310749,-0.001219473429955542,0.0031414309050887823,0.008462054654955864
0.017413320019841194,0.006721425801515579,-0.01130825374275446,-0.001669658930040896,0.0031901332549750805,0.008438212797045708
0.017794249579310417,0.006882317364215851,-0.011326572857797146,-0.0021752072498202324,0.003406758652999997,0.008896500803530216
0.01781722530722618,0.007931401021778584,-0.010569815523922443,-0.0031132420990616083,0.003548298729583621,0.008484192192554474
0.01819729059934616,0.007577709853649139,-0.011590400710701942,-0.003384434850886464,0.003215290606021881,0.008460081182420254
0.018695246428251266,0.00716334069147706,-0.011898143216967583,-0.0033860462717711926,0.0030942538287490606,0.008947952650487423
0.018466107547283173,0.0068919542245566845,-0.01157375704497099,-0.003375760978087783,0.003081160131841898,0.0090274503454566
0.019282862544059753,0.007627452723681927,-0.01139459665864706,-0.003330784849822521,0.0032298907171934843,0.008874679915606976
0.018897444009780884,0.007493359036743641,-0.011077878065407276,-0.0033627564553171396,0.003108589444309473,0.009081734344363213
0.018319927155971527,0.006908950861543417,-0.011762464419007301,-0.003381707239896059,0.0029495058115571737,0.008508636616170406
0.019276801496744156,0.006921783555299044,-0.01147548295557499,-0.0036488850601017475,0.0030032088980078697,0.008584171533584595
0.018856586888432503,0.007582169957458973,-0.011371470056474209,-0.003714603604748845,0.0032524955458939075,0.00894242525100708
0.018576906993985176,0.007372099440544844,-0.012019319459795952,-0.003734404454007745,0.003638205584138632,0.008358275517821312
0.01892605610191822,0.007602974772453308,-0.01134101115167141,-0.0037706992588937283,0.0037859217263758183,0.008146524429321289
0.019124722108244896,0.007073606364428997,-0.011831485666334629,-0.003429656382650137,0.003975018858909607,0.008590384386479855
0.019206712022423744,0.007797198835760355,-0.011255250312387943,-0.0035116500221192837,0.003912996035069227,0.008753797970712185
0.01944386400282383,0.008361413143575191,-0.011199471540749073,-0.0037581135984510183,0.0035872855223715305,0.009135988540947437
0.01950041577219963,0.007981379516422749,-0.011782658286392689,-0.0043198042549192905,0.0031644590198993683,0.008935866877436638
0.01917709782719612,0.008311191573739052,-0.011483710259199142,-0.004636622499674559,0.003016996430233121,0.009091261774301529
0.019588246941566467,0.007995888590812683,-0.01120278425514698,-0.004427412990480661,0.002951669506728649,0.00921989232301712
0.01898111030459404,0.007651644758880138,-0.011393043212592602,-0.004620186053216457,0.0033161405008286238,0.00883630383759737
0.01960342936217785,0.008504477329552174,-0.01155006606131792,-0.004971563816070557,0.0032885416876524687,0.00879755150526762
0.019475378096103668,0.008483338169753551,-0.011263886466622353,-0.004954403731971979,0.003155013080686331,0.009326637722551823
0.019071297720074654,0.007951825857162476,-0.011561001650989056,-0.004907512571662664,0.0033317781053483486,0.009472852572798729
0.019071297720074654,0.007951825857162476,-0.011561001650989056,-0.004907512571662664,0.0033317781053483486,0.009472852572798729
0.01961028203368187,0.007921346463263035,-0.01178160309791565,-0.004800800234079361,0.0030714573804289103,0.009246143512427807
0.01934635080397129,0.008188323117792606,-0.011353754438459873,-0.004773297347128391,0.003098919289186597,0.008730616420507431
0.018933704122900963,0.008248663507401943,-0.011577238328754902,-0.005141953472048044,0.0033654444850981236,0.009333578869700432
0.019580364227294922,0.008320197463035583,-0.011450526304543018,-0.005516748409718275,0.0038133009802550077,0.008840479888021946
0.019650815054774284,0.008520562201738358,-0.011872630566358566,-0.005174696445465088,0.003956017550081015,0.009077257476747036
0.01928873360157013,0.00896735955029726,-0.01143439020961523,-0.00519948685541749,0.0039795199409127235,0.00882704183459282
0.01998317800462246,0.00858820416033268,-0.011661142110824585,-0.0051717134192585945,0.003748520277440548,0.008891073986887932
0.019799234345555305,0.008825661614537239,-0.011876946315169334,-0.005478513892740011,0.0035038061905652285,0.009221582673490047
0.019325312227010727,0.009297369047999382,-0.011338358744978905,-0.005728165619075298,0.0036421807017177343,0.0091164605692029
0.01976175047457218,0.008721766993403435,-0.011477363295853138,-0.0055241091176867485,0.003882803488522768,0.009010441601276398
0.02112395502626896,0.0088792834430933,-0.011569380760192871,-0.005625883117318153,0.0039566801860928535,0.009454944171011448
0.020314384251832962,0.009073005989193916,-0.011951922439038754,-0.005434076301753521,0.004056410863995552,0.009438036940991879
0.020153045654296875,0.009281652048230171,-0.011720282025635242,-0.005608885549008846,0.0040344311855733395,0.009689729660749435
0.020530004054307938,0.00894140638411045,-0.01121264323592186,-0.006061816122382879,0.0036351827438920736,0.010479954071342945
0.020516980439424515,0.009474716149270535,-0.011487877927720547,-0.0057175736874341965,0.0034289690665900707,0.009439032524824142
0.020264513790607452,0.00936799868941307,-0.011260372586548328,-0.0058121043257415295,0.0032573880162090063,0.009417353197932243
0.020460665225982666,0.009615106508135796,-0.011245746165513992,-0.005396612919867039,0.0032432861626148224,0.009785895235836506
0.020776119083166122,0.009612592868506908,-0.012278690002858639,-0.005619810428470373,0.003492007264867425,0.008471885696053505
0.021286437287926674,0.009479249827563763,-0.01138219516724348,-0.005870609078556299,0.00417003408074379,0.009948513470590115
0.020595423877239227,0.009150742553174496,-0.011396202258765697,-0.006009466014802456,0.0041913483291864395,0.00984878744930029
0.0213965754956007,0.009669629856944084,-0.011284228414297104,-0.006304535549134016,0.0039699869230389595,0.009294434450566769
0.020356396213173866,0.009607347659766674,-0.0117975864559412,-0.006439802702516317,0.00407277699559927,0.009724916890263557
0.021259481087327003,0.010080336593091488,-0.01142003946006298,-0.006821592338383198,0.004007749259471893,0.00942520797252655
0.02165788784623146,0.009486762806773186,-0.011295972391963005,-0.006291610654443502,0.003906110767275095,0.0090191550552845
0.021701430901885033,0.009146926924586296,-0.011403605341911316,-0.006061154883354902,0.003912363201379776,0.009944700635969639
0.02137523889541626,0.009527511894702911,-0.011596113443374634,-0.006502078380435705,0.0038755834102630615,0.009952850639820099
0.021717073395848274,0.010055502876639366,-0.012030216865241528,-0.006892682518810034,0.003429141128435731,0.009700268507003784
0.022256402298808098,0.009679768234491348,-0.011784328147768974,-0.007142296992242336,0.0034730941988527775,0.0102008618414402
0.02241511642932892,0.00969773530960083,-0.011725610122084618,-0.006948449648916721,0.003640862414613366,0.009771897457540035
0.02179226092994213,0.01002057921141386,-0.011727160774171352,-0.006439147517085075,0.003624632256105542,0.009303233586251736
0.021790947765111923,0.010589497163891792,-0.01149539090692997,-0.006907183211296797,0.003500736551359296,0.009610548615455627
0.021790947765111923,0.010589497163891792,-0.01149539090692997,-0.006907183211296797,0.003500736551359296,0.009610548615455627
0.02173999324440956,0.010399884544312954,-0.012236210517585278,-0.007657644804567099,0.003567824838683009,0.010364560410380363
0.02210577391088009,0.010455220937728882,-0.012395558878779411,-0.0076117380522191525,0.0035108369775116444,0.009891205467283726
0.022155992686748505,0.009844496846199036,-0.011942824348807335,-0.0073227952234447,0.0038485119584947824,0.010116945020854473
0.02247198112308979,0.010311569087207317,-0.011930793523788452,-0.007620392832905054,0.003978859167546034,0.00993520300835371
0.022575492039322853,0.010377155616879463,-0.011440759524703026,-0.008046462200582027,0.003936664666980505,0.009812707081437111
0.022827036678791046,0.010575844906270504,-0.012399595230817795,-0.008002235554158688,0.004185039084404707,0.009986767545342445
0.023106759414076805,0.011358424089848995,-0.011937699280679226,-0.008064305409789085,0.00419418653473258,0.009849756956100464
0.022517183795571327,0.010577009059488773,-0.011527919210493565,-0.007814613170921803,0.003950593527406454,0.010517140850424767
0.02256140112876892,0.010708778165280819,-0.011618390679359436,-0.00814160704612732,0.003742651781067252,0.010594075545668602
0.0228853952139616,0.011144676245748997,-0.011882156133651733,-0.0071058874018490314,0.0036864138673990965,0.010177334770560265
0.02338673174381256,0.011673497967422009,-0.012336304411292076,-0.00868260394781828,0.004219807684421539,0.010068796575069427
0.02297605387866497,0.011723827570676804,-0.011929050087928772,-0.008900672197341919,0.004106136970221996,0.010067800059914589
0.02381008490920067,0.010529165156185627,-0.012157310731709003,-0.008564328774809837,0.004427535925060511,0.010300187394022942
0.02312111109495163,0.01054035872220993,-0.011461636051535606,-0.008020997978746891,0.0041748699732124805,0.010008202865719795
0.02360479161143303,0.011364622972905636,-0.011674134992063046,-0.00832013227045536,0.004144237842410803,0.010262830182909966
0.024144701659679413,0.011750301346182823,-0.012446288950741291,-0.009068905375897884,0.00363352638669312,0.010509095154702663
0.023750064894557,0.010566212236881256,-0.011256402358412743,-0.00898671429604292,0.003567697945982218,0.010882271453738213
0.023600827902555466,0.010818309150636196,-0.011264745146036148,-0.00787217915058136,0.003813124494627118,0.010426928289234638
0.023402877151966095,0.010933825746178627,-0.01095527783036232,-0.007971635088324547,0.0037492020055651665,0.010317585431039333
0.02340655028820038,0.011190173216164112,-0.011390870437026024,-0.008486897684633732,0.00380698312073946,0.010311678983271122
0.024156374856829643,0.010798043571412563,-0.011832059361040592,-0.008181972429156303,0.0041395071893930435,0.010225090198218822
0.02426224574446678,0.011248507536947727,-0.012804392725229263,-0.008103631436824799,0.004156582523137331,0.010855828411877155
0.024311084300279617,0.011728010140359402,-0.011617708951234818,-0.008137790486216545,0.003835338167846203,0.011022553779184818
0.024097027257084846,0.010544382967054844,-0.010949431918561459,-0.00798072200268507,0.0037442955654114485,0.010299229063093662
0.02361474186182022,0.011854671873152256,-0.01178736425936222,-0.00815222505480051,0.003778537968173623,0.010566940531134605
0.024205289781093597,0.010627689771354198,-0.011507220566272736,-0.008770521730184555,0.003789331065490842,0.010197896510362625
0.024610524997115135,0.011007034219801426,-0.012041309848427773,-0.008738233707845211,0.003905306337401271,0.010351583361625671
0.024412376806139946,0.011674567125737667,-0.011262986809015274,-0.00843922421336174,0.004358052741736174,0.010580653324723244
0.024372296407818794,0.011419283226132393,-0.011417918838560581,-0.008722127415239811,0.0044534895569086075,0.010444297455251217
0.02442042902112007,0.011423179879784584,-0.0122957369312644,-0.00880896020680666,0.004285489674657583,0.010589325800538063
0.02442042902112007,0.011423179879784584,-0.0122957369312644,-0.00880896020680666,0.004285489674657583,0.010589325800538063
0.02437521703541279,0.011103047989308834,-0.011448352597653866,-0.008632808923721313,0.004435816779732704,0.011049190536141396
0.024944312870502472,0.010940929874777794,-0.01173804048448801,-0.008932285010814667,0.004259438253939152,0.010397304780781269
0.024952121078968048,0.011063157580792904,-0.01178809069097042,-0.009309014305472374,0.004060065373778343,0.010062694549560547
0.024820799008011818,0.011040687561035156,-0.011957946233451366,-0.008855683729052544,0.004090780857950449,0.010187758132815361
0.024862485006451607,0.01136121153831482,-0.012102000415325165,-0.0092433737590909,0.004078771453350782,0.010051421821117401
0.025402672588825226,0.011073928326368332,-0.011133351363241673,-0.009704593569040298,0.004286299459636211,0.009613118134438992
0.025749938562512398,0.010196604765951633,-0.011438763700425625,-0.00973059143871069,0.004200691822916269,0.010916012339293957
0.026159288361668587,0.011087214574217796,-0.011301124468445778,-0.009139325469732285,0.003941181115806103,0.011316974647343159
0.02537568286061287,0.011046946980059147,-0.011198868043720722,-0.009662922471761703,0.004192919936031103,0.010972640477120876
0.022856909781694412,0.011164474301040173,-0.011872869916260242,-0.00940345972776413,0.0041378871537745,0.01053651049733162
0.026206668466329575,0.011487708427011967,-0.011739139445126057,-0.009434911422431469,0.004003848880529404,0.010610906407237053
0.026483546942472458,0.011233651079237461,-0.011810454539954662,-0.009834672324359417,0.00420662434771657,0.010893221944570541
0.025741498917341232,0.011326974257826805,-0.011695538647472858,-0.009510119445621967,0.004800308495759964,0.010823545046150684
0.025708261877298355,0.01185015868395567,-0.011954021640121937,-0.009721833281219006,0.004939112346619368,0.010841450653970242
0.026443198323249817,0.011535326018929482,-0.011965540237724781,-0.009998353198170662,0.004791847430169582,0.011063325218856335
0.026896990835666656,0.011535031720995903,-0.011152089573442936,-0.009626250714063644,0.004271351266652346,0.010499547235667706
0.026188671588897705,0.011243065819144249,-0.011841627769172192,-0.009817583486437798,0.0038413209840655327,0.011606001295149326
0.025776216760277748,0.011642085388302803,-0.011539638973772526,-0.010316464118659496,0.004017188213765621,0.011459104716777802
0.02663898654282093,0.011072243563830853,-0.011710820719599724,-0.010843832977116108,0.00501294108107686,0.011135030537843704
0.026902545243501663,0.011811093427240849,-0.010974455624818802,-0.011386923491954803,0.0054673547856509686,0.011082032695412636
0.0264926515519619,0.011531931348145008,-0.011829685419797897,-0.01033000461757183,0.0048256367444992065,0.011370101012289524
0.026839183643460274,0.011455010622739792,-0.011747661046683788,-0.010160990059375763,0.004152257461100817,0.01134556345641613
0.0268340315669775,0.011283907108008862,-0.01152082160115242,-0.01067090779542923,0.0038419717457145452,0.011288884095847607
0.026433568447828293,0.010981940664350986,-0.012021924369037151,-0.010031367652118206,0.004282339010387659,0.011327710933983326
0.026433568447828293,0.010981940664350986,-0.012021924369037151,-0.010031367652118206,0.004282339010387659,0.011327710933983326
0.026773620396852493,0.011610939167439938,-0.011595428921282291,-0.01082534808665514,0.004475260619074106,0.012013888917863369
0.026750847697257996,0.011930270120501518,-0.011363143101334572,-0.01095525361597538,0.004481937270611525,0.011438417248427868
0.026750847697257996,0.011930270120501518,-0.011363143101334572,-0.01095525361597538,0.004481937270611525,0.011438417248427868
0.02660198323428631,0.011478160507977009,-0.011373593471944332,-0.011345254257321358,0.004533836618065834,0.011127913370728493
0.026729458943009377,0.011598348617553711,-0.011549597606062889,-0.010979562997817993,0.004379813093692064,0.011480012908577919
0.026842419058084488,0.011921587400138378,-0.010897180996835232,-0.010651377029716969,0.004001473542302847,0.011273857206106186
0.02684194967150688,0.011681918054819107,-0.01140427216887474,-0.011004443280398846,0.0038147151935845613,0.011603306047618389
0.026274416595697403,0.01231685932725668,-0.011292739771306515,-0.010701457038521767,0.004194215871393681,0.012212593108415604
0.026663601398468018,0.012190436013042927,-0.010738826356828213,-0.010654227808117867,0.004586394410580397,0.011447472497820854
0.027280770242214203,0.011912024579942226,-0.011068823747336864,-0.010715527459979057,0.004808057565242052,0.011682545766234398
0.026833808049559593,0.011949526146054268,-0.010819164104759693,-0.010800334624946117,0.004741580691188574,0.011542546562850475
0.02732020989060402,0.011707406491041183,-0.012121519073843956,-0.010991999879479408,0.0047428724355995655,0.01215394213795662
0.027164332568645477,0.0121112409979105,-0.011538864113390446,-0.010878643952310085,0.004369369708001614,0.012103819288313389
0.02787652425467968,0.011777780018746853,-0.010609039105474949,-0.010894175618886948,0.0043437364511191845,0.011663023382425308
0.028339004144072533,0.011938056908547878,-0.010828074999153614,-0.010946172289550304,0.004508822690695524,0.012037361972033978
0.027803808450698853,0.012390419840812683,-0.0109742796048522,-0.01086384616792202,0.004318132996559143,0.011953203938901424
0.027024919167160988,0.011844065971672535,-0.011062159202992916,-0.011133083142340183,0.0042988271452486515,0.012118457816541195
0.027523180469870567,0.012555576860904694,-0.010942804627120495,-0.0111067034304142,0.004240162204951048,0.012075045146048069
0.02827620320022106,0.01204858347773552,-0.01042954158037901,-0.011114797554910183,0.004596706014126539,0.012195014394819736
0.028545096516609192,0.012323183938860893,-0.011242595501244068,-0.011026653461158276,0.004799624439328909,0.012406939640641212
0.028079694136977196,0.012358294799923897,-0.011177676729857922,-0.010900444351136684,0.004518540110439062,0.012002692557871342
0.028367459774017334,0.012705775909125805,-0.011444308795034885,-0.01125328615307808,0.0046555353328585625,0.011958383023738861
0.028516627848148346,0.01080922782421112,-0.010941886343061924,-0.011110607534646988,0.00475661875680089,0.01192853506654501
0.02783636376261711,0.012754731811583042,-0.010944608598947525,-0.01139051839709282,0.005099896807223558,0.011621902696788311
0.027651185169816017,0.012143117375671864,-0.011712059378623962,-0.010628190822899342,0.005003002006560564,0.012553774751722813
0.027651185169816017,0.012143117375671864,-0.011712059378623962,-0.010628190822899342,0.005003002006560564,0.012553774751722813
0.02814965508878231,0.012426045723259449,-0.011455447413027287,-0.010457590222358704,0.004794484935700893,0.012743420898914337
0.028377000242471695,0.012716528959572315,-0.011250205338001251,-0.011225198395550251,0.004598475527018309,0.012681101448833942
0.02850942499935627,0.012677938677370548,-0.010581081733107567,-0.011550831608474255,0.004192851949483156,0.012335571460425854
0.0284932479262352,0.012952081859111786,-0.011369395069777966,-0.011520938947796822,0.0047294762916862965,0.012136784382164478
0.028087852522730827,0.012360317632555962,-0.011966678313910961,-0.011562911793589592,0.005049003288149834,0.012884427793323994
0.02801015041768551,0.012976380065083504,-0.011065037921071053,-0.011228403076529503,0.005369727034121752,0.012545268051326275
0.02851799502968788,0.012952986173331738,-0.011295163072645664,-0.011644221842288971,0.0049569192342460155,0.012384888716042042
0.028326768428087234,0.012663725763559341,-0.011406708508729935,-0.011568853631615639,0.00451064296066761,0.012369698844850063
0.028386177495121956,0.012494942173361778,-0.011271856725215912,-0.011446207761764526,0.00446684192866087,0.012373625300824642
0.02837383560836315,0.012453218922019005,-0.011887484230101109,-0.011860888451337814,0.004518162924796343,0.012335699051618576
0.02869325876235962,0.013294879347085953,-0.011006553657352924,-0.011451479978859425,0.0046468027867376804,0.01227598451077938
0.028899844735860825,0.012707119807600975,-0.012060758657753468,-0.012218678370118141,0.004911553580313921,0.012470468878746033
0.02909931354224682,0.01362459734082222,-0.01211339421570301,-0.01198414247483015,0.0052445027977228165,0.012650048360228539
0.02769935317337513,0.013521824963390827,-0.011710488237440586,-0.011970586143434048,0.005293373484164476,0.012965917587280273
0.029368702322244644,0.014111227355897427,-0.012353173457086086,-0.012442279607057571,0.004909127485007048,0.013014554977416992
0.029166311025619507,0.01329317782074213,-0.011644147336483002,-0.012526063248515129,0.004809309262782335,0.012661109678447247
0.02905356138944626,0.013932256028056145,-0.011902151629328728,-0.01248893141746521,0.0047476934269070625,0.012687171809375286
0.028770603239536285,0.013359189964830875,-0.01251230575144291,-0.012293055653572083,0.00483292993158102,0.012358107604086399
0.029001159593462944,0.013760989531874657,-0.012042395770549774,-0.012909570708870888,0.004787771962583065,0.012769589200615883
0.029137710109353065,0.014278973452746868,-0.012535610236227512,-0.013090364634990692,0.005289015360176563,0.013040976598858833
0.02929101139307022,0.013755361549556255,-0.011208967305719852,-0.01261672843247652,0.005037641618400812,0.013303810730576515
0.029224183410406113,0.01348685473203659,-0.012165836989879608,-0.012923766858875751,0.004590384662151337,0.013213768601417542
0.02969823032617569,0.014052754268050194,-0.01212478056550026,-0.012849950231611729,0.004520435817539692,0.012752940878272057
0.029186801984906197,0.013689447194337845,-0.011622379533946514,-0.012738892808556557,0.004555901046842337,0.012914512306451797
0.029432808980345726,0.013992497697472572,-0.01164618693292141,-0.01328276377171278,0.004723142832517624,0.013133975677192211
0.029853612184524536,0.013963006436824799,-0.012628037482500076,-0.012893704697489738,0.004653927870094776,0.012903794646263123
0.029917925596237183,0.014120220206677914,-0.01168267522007227,-0.013560197316110134,0.0044344025664031506,0.012961538508534431
0.029584383592009544,0.014286241494119167,-0.01222669705748558,-0.01322487834841013,0.004363539628684521,0.012756926007568836
0.02925412543118,0.014232358895242214,-0.012254089117050171,-0.013339290395379066,0.004354243166744709,0.013022638857364655
0.02971348911523819,0.01418442465364933,-0.01190892793238163,-0.013458658009767532,0.004303331021219492,0.012981490232050419
0.02971348911523819,0.01418442465364933,-0.01190892793238163,-0.013458658009767532,0.004303331021219492,0.012981490232050419
0.03072584979236126,0.014477265067398548,-0.012187506072223186,-0.013917027041316032,0.004423931706696749,0.013202279806137085
0.030939895659685135,0.014241950586438179,-0.012109210714697838,-0.0142771415412426,0.0047431630082428455,0.01341897901147604
0.02937331609427929,0.014010644517838955,-0.01224153209477663,-0.01392260380089283,0.005159885156899691,0.013228071853518486
0.029291469603776932,0.014120765030384064,-0.011694816872477531,-0.013977780006825924,0.004836637992411852,0.013258825056254864
0.03058510459959507,0.014034674502909184,-0.011753949336707592,-0.013927876017987728,0.004415401257574558,0.013178718276321888
0.03003695420920849,0.01410573348402977,-0.012447454035282135,-0.0139406006783247,0.004554100334644318,0.013483453541994095
0.030467800796031952,0.01389097236096859,-0.011942891404032707,-0.013930617831647396,0.004999292548745871,0.012808523140847683
0.03112620674073696,0.013640330173075199,-0.012433636002242565,-0.014206171035766602,0.004974742420017719,0.013949018903076649
0.030046168714761734,0.01431235671043396,-0.011858486570417881,-0.014422441832721233,0.00486036529764533,0.013674485497176647
0.029916319996118546,0.013955281116068363,-0.011963154189288616,-0.014752904884517193,0.004674250725656748,0.01362692005932331
0.02945457026362419,0.014577636495232582,-0.012294518761336803,-0.01422023493796587,0.004673612769693136,0.013259833678603172
0.030123725533485413,0.014300241135060787,-0.012287824414670467,-0.013278452679514885,0.004580472595989704,0.013251441530883312
0.030785366892814636,0.014607198536396027,-0.012240772135555744,-0.014138993807137012,0.0044957781210541725,0.013184073381125927
0.029317934066057205,0.014094050973653793,-0.011687153950333595,-0.014478889293968678,0.0049537052400410175,0.012719588354229927
0.03126342222094536,0.014561128802597523,-0.012457089498639107,-0.013985863886773586,0.0053333197720348835,0.01308318693190813
0.031245892867445946,0.014401077292859554,-0.011982851661741734,-0.014111128635704517,0.005071969237178564,0.012894349172711372
0.03112488053739071,0.014908447861671448,-0.0118728531524539,-0.014162766747176647,0.004972272552549839,0.012964666821062565
0.03060108795762062,0.014357848092913628,-0.012412172742187977,-0.014515046030282974,0.00481041194871068,0.012974636629223824
0.03127448260784149,0.014871960505843163,-0.012375441379845142,-0.014331409707665443,0.004728354047983885,0.01336586195975542
0.030989153310656548,0.014655372127890587,-0.012011726386845112,-0.013783058151602745,0.005140403751283884,0.013620459474623203
0.03132861480116844,0.014419670216739178,-0.012832743115723133,-0.014219832606613636,0.004685775842517614,0.01350404042750597
0.03144264593720436,0.014379764907062054,-0.011605988256633282,-0.014163144864141941,0.004608062095940113,0.013503894209861755
0.03156350553035736,0.014686116948723793,-0.010833793319761753,-0.01458823587745428,0.0050847334787249565,0.013392491266131401
0.03156350553035736,0.014686116948723793,-0.010833793319761753,-0.01458823587745428,0.0050847334787249565,0.013392491266131401
0.03121851198375225,0.015082858502864838,-0.012160415761172771,-0.014736216515302658,0.005115533713251352,0.013435155153274536
0.03297986462712288,0.015106700360774994,-0.011707368306815624,-0.014218679629266262,0.00499947601929307,0.013553298078477383
0.03297986462712288,0.015106700360774994,-0.011707368306815624,-0.014218679629266262,0.00499947601929307,0.013553298078477383
0.03366544097661972,0.015010640025138855,-0.01140990573912859,-0.014438742771744728,0.004770199302583933,0.013911794871091843
0.03178320452570915,0.015301947481930256,-0.011285755783319473,-0.014377346262335777,0.004770186729729176,0.013704176992177963
0.03174959868192673,0.015341992489993572,-0.012196925468742847,-0.015135198831558228,0.005095183849334717,0.01402638852596283
0.032753266394138336,0.01485619880259037,-0.011801352724432945,-0.015103215351700783,0.005014712922275066,0.013957186602056026
0.031973645091056824,0.015266661532223225,-0.011999654583632946,-0.015081881545484066,0.004895283840596676,0.013968083076179028
0.03288375586271286,0.014987459406256676,-0.011823178268969059,-0.014404251240193844,0.005526341497898102,0.013983986340463161
0.033445801585912704,0.015239931643009186,-0.01206613052636385,-0.014777270145714283,0.005177185870707035,0.014176033437252045
0.033562514930963516,0.014903401024639606,-0.011802872642874718,-0.014992166310548782,0.004615832585841417,0.014051588252186775
0.032047469168901443,0.015418251976370811,-0.011353426612913609,-0.014277592301368713,0.00448827538639307,0.013918161392211914
0.032516367733478546,0.014952154830098152,-0.011630754917860031,-0.014486043713986874,0.004908828996121883,0.013734882697463036
0.03391341120004654,0.015639377757906914,-0.01148406695574522,-0.015013437718153,0.005060040857642889,0.014130953699350357
0.03291353955864906,0.014965765178203583,-0.011184761300683022,-0.015049783512949944,0.005710695870220661,0.01391802728176117
0.03241894021630287,0.015264988876879215,-0.011960858479142189,-0.015216921456158161,0.005761930253356695,0.01387910358607769
0.03334730491042137,0.014885753393173218,-0.011257950216531754,-0.014516811817884445,0.005567711312323809,0.013790439814329147
0.03328314423561096,0.01529176626354456,-0.011490540578961372,-0.014564511366188526,0.00519406097009778,0.014301618561148643
0.03352338820695877,0.014795220457017422,-0.011461753398180008,-0.014989765360951424,0.005834014620631933,0.012657257728278637
0.03308156132698059,0.01521508302539587,-0.011295764707028866,-0.014602918177843094,0.005601140670478344,0.01483413577079773
0.033109065145254135,0.015447831712663174,-0.01214770507067442,-0.014886884018778801,0.005914914887398481,0.0146188260987401
0.03314448520541191,0.01607021875679493,-0.011092141270637512,-0.01509255263954401,0.005467390175908804,0.014725819230079651
0.033308245241642,0.015313916839659214,-0.011473712511360645,-0.015338819473981857,0.005036844871938229,0.014197266660630703
0.03387456759810448,0.015447785146534443,-0.011602758429944515,-0.014988523907959461,0.005131246522068977,0.014360770583152771
0.03371400386095047,0.01580616645514965,-0.0118457842618227,-0.014795597642660141,0.004890847951173782,0.014486867934465408
0.03354741632938385,0.0160731989890337,-0.011665364727377892,-0.015057655982673168,0.00498511828482151,0.014391003176569939
0.03366781771183014,0.015602088533341885,-0.011602305807173252,-0.015003111213445663,0.005117061547935009,0.014827534556388855
0.032204803079366684,0.01578935794532299,-0.011900638230144978,-0.01562575250864029,0.00560977915301919,0.014519783668220043
0.034211620688438416,0.015665704384446144,-0.011716018430888653,-0.015620240941643715,0.00544026680290699,0.014563426375389099
0.03419895097613335,0.015993313863873482,-0.012075663544237614,-0.01585095189511776,0.00511598214507103,0.01406033430248499
0.03419895097613335,0.015993313863873482,-0.012075663544237614,-0.01585095189511776,0.00511598214507103,0.01406033430248499
0.03350021690130234,0.0165890883654356,-0.011665897443890572,-0.015691261738538742,0.0052764276042580605,0.014527993276715279
0.033291008323431015,0.016463667154312134,-0.012032194063067436,-0.015831807628273964,0.005596913397312164,0.014555909670889378
0.03319322317838669,0.016801226884126663,-0.01254053134471178,-0.015678491443395615,0.005371406674385071,0.015009337104856968
0.033672794699668884,0.01602986268699169,-0.012161056511104107,-0.015556970611214638,0.005418421234935522,0.015081332065165043
0.03372636064887047,0.01620776765048504,-0.012585069984197617,-0.01590484380722046,0.006135803647339344,0.01450301893055439
0.034116148948669434,0.01583987846970558,-0.011751160956919193,-0.015876727178692818,0.005936900153756142,0.014336438849568367
0.03359696641564369,0.016416016966104507,-0.0122003722935915,-0.01611015386879444,0.005526524502784014,0.014558310620486736
0.033184878528118134,0.016371019184589386,-0.012407797388732433,-0.015849951654672623,0.005330574233084917,0.014457618817687035
0.03304430842399597,0.016940759494900703,-0.012281643226742744,-0.016439378261566162,0.005330175627022982,0.014577961526811123
0.033112768083810806,0.016873184591531754,-0.012180720455944538,-0.016283143311738968,0.005107740871608257,0.014292835257947445
0.034649454057216644,0.016064319759607315,-0.011876478791236877,-0.01638764515519142,0.005272112786769867,0.014527661725878716
0.03451121225953102,0.016827015206217766,-0.012425955384969711,-0.01669948734343052,0.005636968184262514,0.01472836546599865
0.03282594680786133,0.016330353915691376,-0.012477971613407135,-0.016494588926434517,0.005212194751948118,0.015252859331667423
0.03251498192548752,0.01725754328072071,-0.012762944214046001,-0.01654857210814953,0.005215431563556194,0.014996984042227268
0.03360007703304291,0.017082273960113525,-0.01234910823404789,-0.016100240871310234,0.005198574159294367,0.014851495623588562
0.0328749343752861,0.01660747639834881,-0.012413017451763153,-0.016467826440930367,0.005116976797580719,0.0142169538885355
0.033830441534519196,0.017329426482319832,-0.012605216354131699,-0.016230490058660507,0.005779503379017115,0.014409594237804413
0.034794390201568604,0.01631614938378334,-0.012589138001203537,-0.01652424968779087,0.005749205127358437,0.014598813839256763
0.03272629156708717,0.01660282351076603,-0.012265567667782307,-0.016618454828858376,0.005259871482849121,0.01518222689628601
0.03345802426338196,0.01644374616444111,-0.012776707299053669,-0.017076551914215088,0.004877391271293163,0.015268608927726746
0.034283313900232315,0.017280660569667816,-0.012921610847115517,-0.016630584374070168,0.005322683602571487,0.015226914547383785
0.03392941877245903,0.01658955030143261,-0.012832368724048138,-0.01693747006356716,0.006027833092957735,0.014810210093855858
0.03399675339460373,0.01712179370224476,-0.01291606668382883,-0.016928741708397865,0.005848239175975323,0.01554426085203886
0.03417579084634781,0.01643335074186325,-0.012710222974419594,-0.01754126511514187,0.005251211579889059,0.015250644646584988
0.03417579084634781,0.01643335074186325,-0.012710222974419594,-0.01754126511514187,0.005251211579889059,0.015250644646584988
0.03381390497088432,0.016980446875095367,-0.012869751080870628,-0.01777658984065056,0.005387401673942804,0.01523259561508894
0.033830393105745316,0.01707262173295021,-0.012287834659218788,-0.01659229025244713,0.005538681987673044,0.01528889685869217
0.03416289761662483,0.01661604270339012,-0.013206551782786846,-0.017237739637494087,0.005708005279302597,0.015512518584728241
0.03408665582537651,0.017183566465973854,-0.012184991501271725,-0.017413103953003883,0.006002514623105526,0.01531418040394783
0.034161604940891266,0.016670938581228256,-0.012150176800787449,-0.016585074365139008,0.005655757151544094,0.015521300956606865
0.034422144293785095,0.016901422291994095,-0.012109353207051754,-0.016910918056964874,0.005909484811127186,0.015293522737920284
0.034389544278383255,0.016843849793076515,-0.012204152531921864,-0.01661835052073002,0.005497426260262728,0.015431452542543411
0.03508249670267105,0.016547922044992447,-0.012426766566932201,-0.017558228224515915,0.005087547469884157,0.01529746875166893
