davideferrari95/blind_handover_controller/data/Test 30 - [2024-02-07 -- 14-44-55]/joint_states_data.csv
shoulder_pan_joint,shoulder_lift_joint,elbow_joint,wrist_1_joint,wrist_2_joint,wrist_3_joint
0.009105360135436058,-0.0014950258191674948,-0.009226612746715546,0.011630790308117867,0.00017520079563837498,0.008104942739009857
0.008512016385793686,-0.0012958439765498042,-0.009207472205162048,0.011414612643420696,0.00018519307195674628,0.007826069369912148
0.008647365495562553,-0.0011213220423087478,-0.008862465620040894,0.011403010226786137,0.000193974090507254,0.007916301488876343
0.008647365495562553,-0.0011213220423087478,-0.008862465620040894,0.011403010226786137,0.000193974090507254,0.007916301488876343
0.008799813687801361,-0.0010862296912819147,-0.00946976151317358,0.01112406700849533,0.0001882206997834146,0.007861381396651268
0.00821044109761715,-0.0008797214832156897,-0.008888009004294872,0.011750365607440472,0.00018194409494753927,0.00808795914053917
0.008413813076913357,-0.0009064069599844515,-0.008881653659045696,0.011548194102942944,0.00017601742001716048,0.008291233330965042
0.009228046052157879,-0.0009151729755103588,-0.009732616133987904,0.011131126433610916,0.00019511167192831635,0.007890144363045692
0.008309516124427319,-0.0012947090435773134,-0.008477669209241867,0.011580618098378181,0.00018704360991250724,0.008035979233682156
0.008772899396717548,-0.0012271157465875149,-0.009136072359979153,0.011202226392924786,0.00018166446534451097,0.008230648003518581
0.00851624459028244,-0.0011400645598769188,-0.008856830187141895,0.011532299220561981,0.00017657311400398612,0.00810337532311678
0.00804116204380989,-0.0011102487333118916,-0.00881097000092268,0.011027446016669273,0.0001838061143644154,0.008439508266746998
0.008474335074424744,-0.0010740174911916256,-0.00911087729036808,0.011703274212777615,0.00019027056987397373,0.008499354124069214
0.008471454493701458,-0.0010655958903953433,-0.0088924216106534,0.011387541890144348,0.00018609217659104615,0.00803541112691164
0.008451765403151512,-0.0012559388997033238,-0.009000963531434536,0.011012711562216282,0.0001814502611523494,0.007926556281745434
0.008467346429824829,-0.001316092093475163,-0.008877413347363472,0.011423486284911633,0.00017699318414088339,0.008198479190468788
0.008369481191039085,-0.0013865474611520767,-0.008891846053302288,0.011245235800743103,0.00020946776203345507,0.007948465645313263
0.008276860229671001,-0.0015703367535024881,-0.008646567352116108,0.011121953837573528,0.00023367129324469715,0.008559489622712135
0.009081918746232986,-0.0014629610814154148,-0.008775323629379272,0.010933366604149342,0.00022431764227803797,0.008256516419351101
0.008429460227489471,-0.001615281100384891,-0.00938116479665041,0.010887818410992622,0.00023468951985705644,0.008497667498886585
0.007671371567994356,-0.0016040182672441006,-0.008808133192360401,0.011842177249491215,0.00024350946478080004,0.007873522117733955
0.007742078043520451,-0.0014650485245510936,-0.008775392547249794,0.011315716430544853,0.00023421502555720508,0.008148468099534512
0.008578239940106869,-0.0013699939008802176,-0.00910438597202301,0.010967127047479153,0.00022455658472608775,0.008510922081768513
0.00848505087196827,-0.0014395850012078881,-0.009535144083201885,0.011583393439650536,0.0002155950351152569,0.008321255445480347
0.00848505087196827,-0.0014395850012078881,-0.009535144083201885,0.011583393439650536,0.0002155950351152569,0.008321255445480347
0.008054674603044987,-0.0013804987538605928,-0.008834145963191986,0.011223292909562588,0.00020731646509375423,0.008269432932138443
0.007775811944156885,-0.0014765906380489469,-0.009258123114705086,0.011229862459003925,0.0002242619957542047,0.00875393208116293
0.008740204386413097,-0.0014194234972819686,-0.008959448896348476,0.011039030738174915,0.00022405374329537153,0.008237508125603199
0.008679723367094994,-0.001700241700746119,-0.008564313873648643,0.011102511547505856,0.000216848828131333,0.007694175932556391
0.008035561069846153,-0.0015803113346919417,-0.009050154127180576,0.011955682188272476,0.00020966387819498777,0.008041284047067165
0.007760754320770502,-0.0016517100157216191,-0.008998123928904533,0.011400978080928326,0.00020291274995543063,0.008425570093095303
0.008115017786622047,-0.0015284098917618394,-0.008741381578147411,0.011239995248615742,0.00021035471581853926,0.008744011633098125
0.008184884674847126,-0.001419145381078124,-0.00850838702172041,0.011328961700201035,0.00021693002781830728,0.008496042340993881
0.008320339024066925,-0.001387470168992877,-0.009215337224304676,0.011080826632678509,0.0002114045637426898,0.008356914855539799
0.00858268328011036,-0.001331233768723905,-0.009066629223525524,0.011651168577373028,0.00020542721904348582,0.008418533951044083
0.008386985398828983,-0.0012788133462890983,-0.008710633963346481,0.011072331108152866,0.0001997319923248142,0.00849338248372078
0.008136759512126446,-0.001395976752974093,-0.009071901440620422,0.011111365631222725,0.00019434071145951748,0.007888512685894966
0.008767714723944664,-0.0017800150671973825,-0.00848905649036169,0.010972587391734123,0.00021328413276933134,0.00802937988191843
0.008292757906019688,-0.0017377953045070171,-0.008586128242313862,0.011480899527668953,0.00020391125872265548,0.007637218572199345
0.00756470812484622,-0.001855802140198648,-0.00944867916405201,0.01111944392323494,0.00019508828700054437,0.008016194216907024
0.008005526848137379,-0.0018627285026013851,-0.00874719861894846,0.010348106734454632,0.00018698140047490597,0.008384634740650654
0.00862417183816433,-0.0019871252588927746,-0.008731652051210403,0.010425020940601826,0.00019709061598405242,0.008088191971182823
0.008603718131780624,-0.0019602945540100336,-0.00943826325237751,0.010407504625618458,0.0002059615944745019,0.008121272549033165
0.007908561266958714,-0.001993855694308877,-0.00884684082120657,0.010647529736161232,0.00019942632934544235,0.008075468242168427
0.0082582738250494,-0.0019577827770262957,-0.00898702908307314,0.010857239365577698,0.00019238988170400262,0.00873500481247902
0.008811110630631447,-0.001985773677006364,-0.009672626852989197,0.009907078929245472,0.00018577525042928755,0.008096837438642979
0.007803567685186863,-0.0019496622262522578,-0.009251582436263561,0.01000040490180254,0.0001795960561139509,0.007629736792296171
0.008073970675468445,-0.001940747257322073,-0.008806206285953522,0.010632184334099293,0.00017381458019372076,0.008062606677412987
0.007722300477325916,-0.0019728406332433224,-0.009217360988259315,0.010076049715280533,0.0001683936279732734,0.008251291699707508
0.007897238247096539,-0.002056659199297428,-0.009385695680975914,0.010760549455881119,0.00018692035519052297,0.00825058575719595
0.007897238247096539,-0.002056659199297428,-0.009385695680975914,0.010760549455881119,0.00018692035519052297,0.00825058575719595
0.007526841014623642,-0.001994233811274171,-0.008883122354745865,0.010814771056175232,0.00018468988128006458,0.008372698910534382
0.007977851666510105,-0.001965421484783292,-0.008992896415293217,0.01099179033190012,0.00017963584105018526,0.008607682771980762
0.008363565430045128,-0.0019261030247434974,-0.009252957999706268,0.010635066777467728,0.00017466860299464315,0.008439724333584309
0.008348025381565094,-0.001954464241862297,-0.009024813771247864,0.011721068061888218,0.0001699573767837137,0.008319299668073654
0.007608724292367697,-0.001932853483594954,-0.00940348394215107,0.010041579604148865,0.00016549238353036344,0.008306484669446945
0.008134807460010052,-0.0022386349737644196,-0.01018840353935957,0.010423591360449791,0.0001612560881767422,0.007891388610005379
0.008265026845037937,-0.0025629953015595675,-0.00959748961031437,0.0103768827393651,0.00015723174146842211,0.007909811101853848
0.00804052408784628,-0.002426851773634553,-0.009298457764089108,0.010647510178387165,0.00015340273967012763,0.007912960834801197
0.007631716318428516,-0.0022269089240580797,-0.009730035439133644,0.010808673687279224,0.00014975607336964458,0.007931513711810112
0.008158711716532707,-0.0021049603819847107,-0.009375270456075668,0.009902381338179111,0.00014627866039518267,0.008552243001759052
0.0078718988224864,-0.001972746104001999,-0.009739624336361885,0.010850770398974419,0.00014295944129116833,0.00852267351001501
0.007908768951892853,-0.0019292201614007354,-0.010160853154957294,0.010972355492413044,0.00013978722563479096,0.008237950503826141
0.00809081457555294,-0.002234770217910409,-0.009681361727416515,0.01034611277282238,0.0001512418093625456,0.007977398112416267
0.008189803920686245,-0.00256641348823905,-0.009692362509667873,0.01091436855494976,0.0001526386186014861,0.00809594988822937
0.008073312230408192,-0.0022997595369815826,-0.010067101567983627,0.010706618428230286,0.00014673189434688538,0.008048978634178638
0.008073312230408192,-0.0022997595369815826,-0.010067101567983627,0.010706618428230286,0.00014673189434688538,0.008048978634178638
0.008431324735283852,-0.002311914460733533,-0.00995895080268383,0.010566744022071362,0.00014098669635131955,0.00842300895601511
0.007931767962872982,-0.002416620496660471,-0.009627673774957657,0.010664543136954308,0.00013827878865413368,0.008407849818468094
0.008219393901526928,-0.002288229065015912,-0.009856635704636574,0.010457342490553856,0.0001356733264401555,0.00827584695070982
0.008189531043171883,-0.0025379329454153776,-0.0104001984000206,0.010571167804300785,0.00013316380500327796,0.00833525974303484
0.008333425968885422,-0.0024234489537775517,-0.009501404128968716,0.010981753468513489,0.00013074568414594978,0.008416110649704933
0.007740636356174946,-0.002529062330722809,-0.009264220483601093,0.01062177773565054,0.00012841391435358673,0.008537203073501587
0.008138010278344154,-0.002648616675287485,-0.010477344505488873,0.010609074495732784,0.00012616363528650254,0.008581219241023064
0.008224821649491787,-0.0024124719202518463,-0.00946617592126131,0.010898739099502563,0.00012399097613524646,0.008449671790003777
0.007981676608324051,-0.002469233702868223,-0.009430757723748684,0.011033376678824425,0.00012189190601930022,0.008985483087599277
0.0078004635870456696,-0.0024191783741116524,-0.009913692250847816,0.01059856079518795,0.0001198626559926197,0.008540176786482334
0.008125357329845428,-0.0023345525842159986,-0.009721430949866772,0.010807517915964127,0.00011789987911470234,0.008381394669413567
0.008241789415478706,-0.0023909646552056074,-0.009741256944835186,0.010559339076280594,0.00011600030120462179,0.008477662689983845
0.00825019832700491,-0.002431536326184869,-0.009591583162546158,0.011063424870371819,0.00011416097549954429,0.008596591651439667
0.00825019832700491,-0.002431536326184869,-0.009591583162546158,0.011063424870371819,0.00011416097549954429,0.008596591651439667
0.008061203174293041,-0.0022777013946324587,-0.009957188740372658,0.011063424870371819,0.00011237924627494067,0.008548756130039692
0.00850063469260931,-0.00223994767293334,-0.009693245403468609,0.010746018961071968,0.00010154796473216265,0.008650695905089378
0.008533851243555546,-0.00215538265183568,-0.010317007079720497,0.011024056933820248,9.653338929638267e-05,0.008459385484457016
0.008487006649374962,-0.0023786169476807117,-0.009353875182569027,0.010679526254534721,9.432464867131785e-05,0.008393838070333004
0.008095537312328815,-0.0025480431504547596,-0.00982434768229723,0.0102815181016922,9.237616905011237e-05,0.008135105483233929
0.008229123428463936,-0.002459632232785225,-0.010496988892555237,0.010311943478882313,9.051719825947657e-05,0.008134814910590649
0.008151535876095295,-0.002408997155725956,-0.009596867486834526,0.01036052405834198,8.873231854522601e-05,0.008294764906167984
0.008183595724403858,-0.002154069021344185,-0.009480991400778294,0.010980254039168358,8.701640035724267e-05,0.008671046234667301
0.008381462655961514,-0.0020822060760110617,-0.010364428162574768,0.011306602507829666,8.536568930139765e-05,0.008835811167955399
0.008031466044485569,-0.002363109029829502,-0.009263870306313038,0.010272073559463024,8.377643098356202e-05,0.008652864955365658
0.008035829290747643,-0.0023309297394007444,-0.009476852603256702,0.010347935371100903,8.224524208344519e-05,0.008831988088786602
0.008248104713857174,-0.0025537663605064154,-0.009821871295571327,0.010542706586420536,8.076895755948499e-05,0.008825967088341713
0.008595813065767288,-0.0023340098559856415,-0.010016859509050846,0.01069639716297388,7.79700858402066e-05,0.009515676647424698
0.007772135082632303,-0.002193679567426443,-0.009933327324688435,0.010768231935799122,7.664212898816913e-05,0.0081055648624897
0.00807835254818201,-0.002103967359289527,-0.009190194308757782,0.010923231951892376,7.535862823715433e-05,0.00810917653143406
0.008356017991900444,-0.002358868019655347,-0.008881326764822006,0.011281787417829037,7.411742262775078e-05,0.008479423820972443
0.008506201207637787,-0.0025713518261909485,-0.00929616205394268,0.01025318168103695,7.291648216778412e-05,0.008831515908241272
0.008646726608276367,-0.0024338483344763517,-0.009375864639878273,0.00995566975325346,7.175373320933431e-05,0.00849938578903675
0.008219961076974869,-0.001870589330792427,-0.009238751605153084,0.010975153185427189,7.062761869747192e-05,0.008357472717761993
0.008493547327816486,-0.0015870040515437722,-0.01008630357682705,0.010460035875439644,6.953624688321725e-05,0.008821661584079266
0.008418499492108822,-0.001423301873728633,-0.009377917274832726,0.01047111302614212,6.847801705589518e-05,0.009181405417621136
0.00867818295955658,-0.0013259191764518619,-0.009426608681678772,0.010667434893548489,6.745167047483847e-05,0.008576877415180206
0.008594333194196224,-0.0010883315699175,-0.009942138567566872,0.010589096695184708,6.645554822171107e-05,0.008452084846794605
0.008479064330458641,-0.001200988539494574,-0.009729600511491299,0.01047808863222599,6.54884206596762e-05,0.008998042903840542
0.008479064330458641,-0.001200988539494574,-0.009729600511491299,0.01047808863222599,6.54884206596762e-05,0.008998042903840542
0.008582159876823425,-0.001788106863386929,-0.009176192805171013,0.010573620907962322,6.454902177210897e-05,0.008348178118467331
0.008707743138074875,-0.0016974066384136677,-0.009778810665011406,0.010569743812084198,6.363626016536728e-05,0.008465472608804703
0.008408485911786556,-0.0015837521059438586,-0.009870006702840328,0.011155517771840096,6.274889892665669e-05,0.008610429242253304
0.008856664411723614,-0.0015609624097123742,-0.009390655905008316,0.011007149703800678,6.188593397382647e-05,0.008637769147753716
0.008654680103063583,-0.001412144978530705,-0.009831390343606472,0.01106029562652111,6.104636850068346e-05,0.008929413743317127
0.008402581326663494,-0.0013168195728212595,-0.009876349940896034,0.011205373331904411,6.022937668603845e-05,0.009018704295158386
0.008263430558145046,-0.0011077765375375748,-0.009453710168600082,0.01095551811158657,5.943386349827051e-05,0.008729808032512665
0.00889203604310751,-0.001038266345858574,-0.009811801835894585,0.011265154927968979,5.865914499736391e-05,0.008463007397949696
0.009974430315196514,-0.0011266394285485148,-0.009884921833872795,0.01097150519490242,5.79043262405321e-05,0.008950543589890003
0.008953453041613102,-0.0012337691150605679,-0.009431428276002407,0.010385901667177677,5.716871964978054e-05,0.009007807821035385
0.008902990259230137,-0.001394494785927236,-0.010138758458197117,0.01146109588444233,5.645159399136901e-05,0.009312610141932964
0.009066203609108925,-0.0013041360070928931,-0.009715556167066097,0.011006156913936138,5.5752170737832785e-05,0.008878152817487717
0.009206578135490417,-0.0011552309151738882,-0.009390359744429588,0.0105717983096838,5.506991874426603e-05,0.009123099967837334
0.008822383359074593,-0.001183048589155078,-0.009522590786218643,0.011368201114237309,5.440413951873779e-05,0.008700515143573284
0.0093741649761796,-0.0011308931279927492,-0.009759103879332542,0.010838164016604424,5.3754287364427e-05,0.008904431946575642
0.009255493059754372,-0.0011270687682554126,-0.009466869756579399,0.010611881501972675,5.311969653121196e-05,0.008542035706341267
0.009522655047476292,-0.0012098036240786314,-0.009888525120913982,0.010159730911254883,5.1894592616008595e-05,0.008769291453063488
0.009561201557517052,-0.0012067151255905628,-0.009330492466688156,0.011064541526138783,5.130292629473843e-05,0.008547854609787464
0.009284836240112782,-0.0014813645975664258,-0.009141970425844193,0.010630704462528229,5.0724713219096884e-05,0.008765074424445629
0.00951779168099165,-0.001363451243378222,-0.009202415123581886,0.010549385100603104,5.015927672502585e-05,0.008870774880051613
0.010286222212016582,-0.0012776097282767296,-0.009046182967722416,0.01045055128633976,2.5145383915514685e-05,0.00891887117177248
0.009047328494489193,-0.0011362893274053931,-0.010025042109191418,0.010367728769779205,1.6418139239249285e-06,0.009021339006721973
0.009722365997731686,-0.001127762719988823,-0.009703603573143482,0.010027885437011719,1.0719870857656133e-07,0.009004115127027035
0.00966660026460886,-0.0011012041941285133,-0.009075281210243702,0.01031255442649126,6.99930957637207e-09,0.008911561220884323
0.009160550311207771,-0.0013445118675008416,-0.009234455414116383,0.010370739735662937,4.5700493389588814e-10,0.009323582984507084
0.009205298498272896,-0.0013592420145869255,-0.009501149877905846,0.010874791070818901,2.983915545207161e-11,0.009059670381247997
0.009717212058603764,-0.001431793556548655,-0.009834612719714642,0.011196966283023357,1.9482833315404013e-12,0.009339924901723862
0.008972733281552792,-0.0013437534216791391,-0.009183109737932682,0.010255629196763039,1.2720896655927377e-13,0.008879445493221283
0.008972733281552792,-0.0013437534216791391,-0.009183109737932682,0.010255629196763039,1.2720896655927377e-13,0.008879445493221283
0.009057714603841305,-0.0012920622248202562,-0.009575161151587963,0.01009554322808981,8.305837368252113e-15,0.009690698236227036
0.00986239593476057,-0.0012162906350567937,-0.008903181180357933,0.010654076933860779,5.423118386279409e-16,0.009065642952919006
0.00899612158536911,-0.0011646636994555593,-0.009560255333781242,0.009845242835581303,3.5409087394332954e-17,0.008862931281328201
0.009657053276896477,-0.0010363234905526042,-0.009857463650405407,0.010516926646232605,2.311960092713515e-18,0.009150408208370209
0.009288906119763851,-0.00112299551256001,-0.00924075860530138,0.010878590866923332,1.5095446473148654e-19,0.00959867238998413
0.009543552994728088,-0.0011335646267980337,-0.008828304708003998,0.010055841878056526,9.856247970655727e-21,0.009571606293320656
0.009366383776068687,-0.0013878330355510116,-0.009529520757496357,0.010410797782242298,6.435425280855187e-22,0.009599690325558186
0.009525149129331112,-0.001295312657020986,-0.009122543036937714,0.010237392038106918,4.201872975913875e-23,0.009272889234125614
0.009491204284131527,-0.0012251395964995027,-0.008714440278708935,0.009628292173147202,2.7435229387134337e-24,0.008914687670767307
0.009003899991512299,-0.0011692995904013515,-0.009321469813585281,0.010117188096046448,1.7913243894580787e-25,0.008991985581815243
0.010193507187068462,-0.0011367382248863578,-0.008968326263129711,0.010085958987474442,1.1696069322418664e-26,0.009027878753840923
0.00971214473247528,-0.001095170620828867,-0.00921094324439764,0.009852013550698757,7.636697896966754e-28,0.009134841151535511
0.009212126955389977,-0.0010658313985913992,-0.009310027584433556,0.010646140202879906,4.9862181815439707e-29,0.009071309119462967
0.009652397595345974,-0.0010646556038409472,-0.009919515810906887,0.011043037287890911,3.255644263980908e-30,0.008897780440747738
0.00952394213527441,-0.0011616988340392709,-0.009032783098518848,0.0106992581859231,2.125703093419652e-31,0.009579894132912159
0.010861899703741074,-0.0014174062525853515,-0.009798618964850903,0.010511971078813076,9.062204619660683e-34,0.009757759980857372
0.009148279204964638,-0.0013785910559818149,-0.009239476174116135,0.010800794698297977,5.916972496896394e-35,0.00965950358659029
0.009053993038833141,-0.0012929014628753066,-0.009527705609798431,0.010459842160344124,3.863360046178041e-36,0.00979676004499197
0.009688293561339378,-0.0011775039602071047,-0.009443853050470352,0.010337366722524166,2.522497992744498e-37,0.009596593677997589
0.010322916321456432,-0.0012504656333476305,-0.009697782807052135,0.0104726143181324,1.6470109652398557e-38,0.00911415833979845
0.009220526553690434,-0.0011916686780750751,-0.009356090798974037,0.010521695017814636,1.0753802635967581e-39,0.009026560001075268
0.009663852863013744,-0.0011795853497460485,-0.009815736673772335,0.01076516043394804,7.021486215192361e-41,0.009603011421859264
0.010711326263844967,-0.0012941753957420588,-0.0095326267182827,0.01042797788977623,4.5850485752708015e-42,0.009447445161640644
0.009788096882402897,-0.001267988933250308,-0.00920511782169342,0.009871119633316994,2.9987787136551085e-43,0.009200582280755043
0.009712759405374527,-0.0013176130596548319,-0.010215233080089092,0.009924070909619331,1.961817850054744e-44,0.008942701853811741
0.010189160704612732,-0.0013858210295438766,-0.009160833433270454,0.010614534839987755,1.401298464324817e-45,0.009047058410942554
0.010189160704612732,-0.0013858210295438766,-0.009160833433270454,0.010614534839987755,1.401298464324817e-45,0.009047058410942554
0.00966646894812584,-0.0012965996284037828,-0.009561101906001568,0.010151754133403301,0.0,0.008914988487958908
0.00976969301700592,-0.00115915946662426,-0.010147446766495705,0.010316534899175167,0.0,0.009289015084505081
0.010319501161575317,-0.001142786699347198,-0.010120594874024391,0.010283548384904861,0.0,0.009354108944535255
0.009625405073165894,-0.0011368978302925825,-0.009780904278159142,0.010087777860462666,0.0,0.009777190163731575
0.009906277060508728,-0.001111967721953988,-0.010249053128063679,0.010590695776045322,0.0,0.009742945432662964
0.010120533406734467,-0.0012552214320749044,-0.00982564128935337,0.010742652229964733,0.0,0.009789600037038326
0.009725875221192837,-0.0012483285972848535,-0.009772703982889652,0.0107590826228261,0.0,0.009826276451349258
0.010436493903398514,-0.0011910665780305862,-0.010039624758064747,0.011349016800522804,0.0,0.009629471227526665
0.010046635754406452,-0.001169022056274116,-0.009464827366173267,0.010747089050710201,0.0,0.00954480841755867
0.00988233182579279,-0.0011188237695023417,-0.00958966463804245,0.01060851477086544,0.0,0.009122774936258793
0.0099579943343997,-0.0011806640541180968,-0.010544244199991226,0.011011628434062004,0.0,0.009124062024056911
0.010491405613720417,-0.001065419870428741,-0.01028537005186081,0.010768483392894268,0.0,0.00970910582691431
0.009847256354987621,-0.0011258325539529324,-0.010339124128222466,0.010688172653317451,0.0,0.009842311032116413
0.009948471561074257,-0.0011003819527104497,-0.010933345183730125,0.010552052408456802,0.0,0.009686848148703575
0.010110215283930302,-0.0013520980719476938,-0.010320080444216728,0.010804860852658749,0.0,0.010029926896095276
0.010119840502738953,-0.0013840318424627185,-0.010450124740600586,0.010748771019279957,0.0,0.009228148497641087
0.010231402702629566,-0.001337728463113308,-0.01007045991718769,0.010061903856694698,0.0,0.009457794018089771
0.010278220288455486,-0.001278584823012352,-0.010704233311116695,0.010779311880469322,0.0,0.009359899908304214
0.01122222188860178,-0.001205351436510682,-0.01068033091723919,0.011160342954099178,0.0,0.00925128161907196
0.010316933505237103,-0.0011674900306388736,-0.011242962442338467,0.010276822373270988,0.0,0.009403416886925697
0.009945663623511791,-0.0012688550632447004,-0.010589081794023514,0.010797047056257725,0.0,0.009563136845827103
0.010354206897318363,-0.0012164838844910264,-0.010467692278325558,0.01030155923217535,0.0,0.009438126347959042
0.010055710561573505,-0.0011852284660562873,-0.010376207530498505,0.010022873990237713,0.0,0.009880295023322105
0.01092582382261753,-0.0013677418464794755,-0.010888667777180672,0.010501795448362827,0.0,0.010271832346916199
0.011311000213027,-0.0012901381123811007,-0.010382789187133312,0.010037503205239773,0.0,0.00966821052134037
0.010133761912584305,-0.0012279567308723927,-0.010688891634345055,0.010483604855835438,0.0,0.010334912687540054
0.01019035279750824,-0.0011214333353564143,-0.0101315351203084,0.010904883034527302,0.0,0.010230788961052895
0.010351945646107197,-0.0011951013002544641,-0.010520377196371555,0.010220621712505817,0.0,0.009871089830994606
0.010145296342670918,-0.0011820192448794842,-0.010527035221457481,0.010394196957349777,0.0,0.009944687597453594
0.011134280823171139,-0.0013246155576780438,-0.010603280737996101,0.010261889547109604,0.0,0.009980597533285618
0.01033641304820776,-0.001300458563491702,-0.010129280388355255,0.01025446131825447,0.0,0.010335758328437805
0.01033641304820776,-0.001300458563491702,-0.010129280388355255,0.01025446131825447,0.0,0.010335758328437805
0.01052580401301384,-0.001395512605085969,-0.010359675623476505,0.011042311787605286,0.0,0.009733876213431358
0.010072306729853153,-0.0012979161692783237,-0.009776024147868156,0.010957887396216393,0.0,0.009572215378284454
0.010072306729853153,-0.0012979161692783237,-0.009776024147868156,0.010957887396216393,0.0,0.009572215378284454
0.010797587223351002,-0.0012639685301110148,-0.01077253744006157,0.010965093970298767,0.0,0.00990039762109518
0.010401936247944832,-0.0011650716187432408,-0.009981860406696796,0.010807442478835583,0.0,0.009682181291282177
0.01049108523875475,-0.0011405879631638527,-0.00903394166380167,0.01030033640563488,0.0,0.009724586270749569
0.009993067942559719,-0.0012048882199451327,-0.010486853308975697,0.01042937021702528,0.0,0.009765580296516418
0.010118319652974606,-0.0012570008402690291,-0.010938325896859169,0.010065484791994095,0.0,0.009876683354377747
0.010612113401293755,-0.001256935065612197,-0.010384444147348404,0.010626807808876038,0.0,0.010255386121571064
0.010559429414570332,-0.0011899403762072325,-0.010438134893774986,0.010468756780028343,0.0,0.009588204324245453
0.010598587803542614,-0.0011403246317058802,-0.01076890341937542,0.010505745187401772,0.0,0.01099685300141573
0.010598587803542614,-0.0011403246317058802,-0.01076890341937542,0.010505745187401772,0.0,0.01099685300141573
0.0105812456458807,-0.0011034574126824737,-0.009920528158545494,0.010035394690930843,0.0,0.009749442338943481
0.010162381455302238,-0.0011294996365904808,-0.010540135204792023,0.010489664040505886,0.0,0.009774940088391304
0.00984233245253563,-0.001084425370208919,-0.010529515333473682,0.010694567114114761,0.0,0.009890684857964516
0.010556811466813087,-0.001088551478460431,-0.010372950695455074,0.010355941951274872,0.0,0.009837286546826363
0.009892026893794537,-0.0010608393931761384,-0.010053401812911034,0.010734796524047852,0.0,0.010265406221151352
0.009984471835196018,-0.0010566723067313433,-0.009855260141193867,0.010574708692729473,0.0,0.010765615850687027
0.010817274451255798,-0.001038499642163515,-0.01001537125557661,0.010484615340828896,0.0,0.01068247389048338
0.009628505446016788,-0.0011145129101350904,-0.010442592203617096,0.010630487464368343,0.0,0.011018897406756878
0.01013210229575634,-0.0011997658293694258,-0.009952455759048462,0.010395772755146027,0.0,0.011106922291219234
0.010293778032064438,-0.0012163895880803466,-0.010325953364372253,0.010852289386093616,0.0,0.010342267341911793
0.010505879297852516,-0.001106846029870212,-0.010125446133315563,0.010933333076536655,0.0,0.010289770551025867
0.01006726548075676,-0.0009832179639488459,-0.009628968313336372,0.010813765227794647,0.0,0.010222422890365124
0.009928446263074875,-0.0009573905845172703,-0.011138007044792175,0.010898972861468792,0.0,0.009971067309379578
0.010299635119736195,-0.0008564910967834294,-0.010617004707455635,0.010664944536983967,0.0,0.010705878958106041
0.010299635119736195,-0.0008564910967834294,-0.010617004707455635,0.010664944536983967,0.0,0.010705878958106041
0.010391094721853733,-0.0007115924381650984,-0.010266277939081192,0.010213145054876804,0.0,0.010379460640251637
0.010369605384767056,-0.0007339509902521968,-0.010628891177475452,0.010483087971806526,0.0,0.010067837312817574
0.010708293877542019,-0.0008237959700636566,-0.010721961967647076,0.010242320597171783,0.0,0.010297602973878384
0.011139458976686,-0.0007832478149794042,-0.010313348844647408,0.010454650036990643,0.0,0.01018801424652338
0.010640117339789867,-0.0010929277632385492,-0.010556086897850037,0.010752386413514614,0.0,0.010522238910198212
0.011041315272450447,-0.001063762349076569,-0.01041150651872158,0.010287478566169739,0.0,0.01095676515251398
0.011337256990373135,-0.001039800001308322,-0.010649116709828377,0.011765418574213982,0.0,0.01042378880083561
0.01035115122795105,-0.0009210320422425866,-0.01093471609055996,0.010340799577534199,0.0,0.010827369056642056
0.010882318951189518,-0.0008710446418263018,-0.010895637795329094,0.009773923084139824,0.0,0.010639469139277935
0.010995910502970219,-0.0007602760451845825,-0.01119251735508442,0.011354089714586735,0.0,0.011042044498026371
0.0111760962754488,-0.0007759532309137285,-0.010023334994912148,0.010933703742921352,0.0,0.010508284904062748
0.010796735063195229,-0.0007867602398619056,-0.010384896770119667,0.010983339510858059,0.0,0.010405515320599079
0.011275341734290123,-0.0007746642804704607,-0.010746690444648266,0.010280054062604904,0.0,0.010644945316016674
0.011569363996386528,-0.0008090744959190488,-0.01047882903367281,0.01056437473744154,0.0,0.010882338508963585
0.011289838701486588,-0.000831003999337554,-0.011110632680356503,0.010485232807695866,0.0,0.010729348286986351
0.011386977508664131,-0.0008392029558308423,-0.010550061240792274,0.010317439213395119,0.0,0.011048291809856892
0.010907566174864769,-0.0010133545147255063,-0.010217222385108471,0.010805808939039707,0.0,0.011182586662471294
0.01131531409919262,-0.0010245926678180695,-0.01068793423473835,0.010986512526869774,0.0,0.011419565416872501
0.011389331892132759,-0.0010007844539359212,-0.010527169331908226,0.01055308897048235,0.0,0.010743722319602966
0.011345510371029377,-0.0009767956798896194,-0.01143342163413763,0.011077337898314,0.0,0.010476414114236832
0.011584523133933544,-0.0008822761592455208,-0.010726455599069595,0.011193881742656231,0.0,0.011077451519668102
0.011568206362426281,-0.0009131008991971612,-0.010496064089238644,0.010633217170834541,0.0,0.010974511504173279
0.0119315255433321,-0.00091164669720456,-0.011036200448870659,0.010726086795330048,0.0,0.010958680883049965
0.01170067023485899,-0.0009102184558287263,-0.01067278441041708,0.010482460260391235,0.0,0.011025940999388695
0.01141729112714529,-0.0008408217108808458,-0.00962851382791996,0.011104199104011059,0.0,0.01086438912898302
0.01141729112714529,-0.0008408217108808458,-0.00962851382791996,0.011104199104011059,0.0,0.01086438912898302
0.011819152161478996,-0.0008890755707398057,-0.01036869641393423,0.010571310296654701,0.0,0.010934817604720592
0.011524887755513191,-0.0008955129305832088,-0.011091389693319798,0.010427465662360191,0.0,0.011155277490615845
0.01180918700993061,-0.0008961128769442439,-0.01041317731142044,0.011049943044781685,0.0,0.010878964327275753
0.01200595311820507,-0.0008933561621233821,-0.011843866668641567,0.01041402481496334,0.0,0.010921647772192955
0.011793529614806175,-0.0008084991713985801,-0.010549509897828102,0.010510938242077827,0.0,0.010872420854866505
0.011961251497268677,-0.0007705432362854481,-0.010078453458845615,0.011515060439705849,0.0,0.010829387232661247
0.01153854001313448,-0.0007742477464489639,-0.010454476810991764,0.011082489974796772,0.0,0.011839514598250389
0.01228404138237238,-0.0007639398099854589,-0.009949694387614727,0.011212554760277271,0.0,0.010012194514274597
0.012049462646245956,-0.0007790669915266335,-0.010626666247844696,0.011331109330058098,0.0,0.01003202609717846
0.012027152813971043,-0.0007318622665479779,-0.010791460052132607,0.010345582850277424,0.0,0.010809558443725109
0.012354617938399315,-0.0007408083765767515,-0.011026580817997456,0.01083287876099348,0.0,0.0113783935084939
0.012393214739859104,-0.000783332041464746,-0.010608982294797897,0.011052611283957958,0.0,0.011804320849478245
0.012064121663570404,-0.0007952310843393207,-0.010860821232199669,0.012130380608141422,0.0,0.011274466291069984
0.012533362954854965,-0.0008951210766099393,-0.011243409477174282,0.011385426856577396,0.0,0.011732004582881927
0.012391112744808197,-0.0008671273244544864,-0.010181079618632793,0.011302584782242775,0.0,0.011313057504594326
0.01212286576628685,-0.0007868147222325206,-0.01063245628029108,0.011153195053339005,0.0,0.011296907439827919
0.01249674241989851,-0.0007999885128811002,-0.011004443280398846,0.011023939587175846,0.0,0.011383024044334888
0.012217980809509754,-0.0008002752438187599,-0.010662243701517582,0.010560175403952599,0.0,0.011093269102275372
0.012905432842671871,-0.0007301256991922855,-0.012030566111207008,0.01060996949672699,7.527433467657829e-07,0.01133712287992239
0.012276622466742992,-0.0007000969490036368,-0.010591249912977219,0.010465539060533047,4.9148759728723235e-08,0.011081904172897339
0.012276622466742992,-0.0007000969490036368,-0.010591249912977219,0.010465539060533047,4.9148759728723235e-08,0.011081904172897339
0.012648613192141056,-0.0007143699331209064,-0.01027611829340458,0.011067156679928303,3.2090627932745974e-09,0.01120899897068739
0.012544786557555199,-0.0007363231852650642,-0.011061006225645542,0.010736534371972084,2.0952888035719042e-10,0.012106291018426418
0.012125704437494278,-0.0007319982396438718,-0.010783986188471317,0.010727073065936565,1.3680739700816513e-11,0.011685057543218136
0.0127025805413723,-0.000696609728038311,-0.010554054751992226,0.010739144869148731,8.932546000615937e-13,0.011550966650247574
0.01244535855948925,-0.0007680047419853508,-0.011077389121055603,0.010618540458381176,5.832313798581623e-14,0.011299442499876022
0.012545623816549778,-0.0007877135649323463,-0.010631578974425793,0.0112413065508008,3.808084371518779e-15,0.01120765134692192
0.012271327897906303,-0.0007895423332229257,-0.011787771247327328,0.010883566923439503,2.486406983149875e-16,0.011362058110535145
0.012858756817877293,-0.0007787178037688136,-0.011235580779612064,0.01053880900144577,1.6234461768924985e-17,0.011103386990725994
0.012910883873701096,-0.0007312778034247458,-0.01055298000574112,0.011198228225111961,1.0599943182688338e-18,0.011725036427378654
0.012785656377673149,-0.0007392055122181773,-0.012199526652693748,0.010709731839597225,6.921005321829551e-20,0.011374332010746002
0.012712111696600914,-0.0007575259660370648,-0.01132214441895485,0.010714526288211346,4.5189220176037854e-21,0.011153860948979855
0.012520793825387955,-0.0007496552425436676,-0.011327091604471207,0.010951213538646698,2.950533151111672e-22,0.011407476849853992
0.012752988375723362,-0.0007010107510723174,-0.011403582990169525,0.010630672797560692,1.9264873140598198e-23,0.011220594868063927
0.012494221329689026,-0.0007175359642133117,-0.01091973390430212,0.011158425360918045,1.2578584348975338e-24,0.011828737333416939
0.013136232271790504,-0.0007536843768320978,-0.011813705787062645,0.011203164234757423,8.21291654961988e-26,0.011693050153553486
0.012980643659830093,-0.0007773315883241594,-0.011214880272746086,0.010749578475952148,5.362448018401034e-27,0.011595232412219048
0.013294435106217861,-0.0007163540576584637,-0.010656164027750492,0.01096915453672409,3.5012951388010586e-28,0.011814714409410954
0.012865270487964153,-0.000566474802326411,-0.010968216694891453,0.010453185066580772,1.4926571147249947e-30,0.01131204329431057
0.013036253862082958,-0.0005126697360537946,-0.012022404000163078,0.010753178037703037,-0.00018187212117481977,0.011745643801987171
0.013002492487430573,-0.00046820001443848014,-0.01143510639667511,0.011064491234719753,-0.00019740036805160344,0.011909685097634792
0.013594204559922218,-0.0004308328789193183,-0.011479679495096207,0.011456742882728577,-0.0001905762474052608,0.01173392403870821
0.013250353746116161,-0.00039899323019199073,-0.011788662523031235,0.011229613795876503,-0.00021463997836690396,0.011657051742076874
0.013574161566793919,-0.0003715326020028442,-0.011194746941328049,0.011176553554832935,-0.00021062695304863155,0.012209946289658546
0.013188096694648266,-0.00034761265851557255,-0.011431258171796799,0.01147913932800293,-0.0002029931201832369,0.011696026660501957
0.013493122532963753,-0.0003265847044531256,-0.011136168614029884,0.011129938997328281,-0.0002116282848874107,0.011774249374866486
0.013353432528674603,-0.00030795784550718963,-0.011819972656667233,0.010638713836669922,-0.00021919707069173455,0.011798841878771782
0.013741964474320412,-0.0002913417119998485,-0.011820736341178417,0.011188428848981857,-0.00021276954794302583,0.012980425730347633
0.013741964474320412,-0.0002913417119998485,-0.011820736341178417,0.011188428848981857,-0.00021276954794302583,0.012980425730347633
0.013661743141710758,-0.0003066096396651119,-0.011560024693608284,0.01057642325758934,-0.00020587927429005504,0.012096415273845196
0.01428531575948,-0.0003065772179979831,-0.011623465456068516,0.01092775072902441,-0.00022592807363253087,0.011361053213477135
0.013463478535413742,-0.00029254102264530957,-0.01228087767958641,0.011102707125246525,-0.00022073366562835872,0.011866101995110512
0.013816162943840027,-0.00027956071426160634,-0.01149955578148365,0.010939069092273712,-0.00021427718456834555,0.012197128497064114
0.013503237627446651,-0.0002676825679372996,-0.011278891004621983,0.011582027189433575,-0.00020809110719710588,0.011993547901511192
0.013769070617854595,-0.00025677194935269654,-0.011031772010028362,0.010906240902841091,-0.00020224567560944706,0.012530491687357426
0.013533866964280605,-0.00024671576102264225,-0.011719867587089539,0.010720402002334595,-0.00019671977497637272,0.011851419694721699
0.013818934559822083,-0.0002374180476181209,-0.011548392474651337,0.011408510617911816,-0.00024984084302559495,0.012097814120352268
0.01414088997989893,-0.00022879544121678919,-0.011450144462287426,0.0114826625213027,-0.0002547900367062539,0.012395529076457024
0.01356820110231638,-0.0002207774668931961,-0.012210345827043056,0.011465880088508129,-0.00024231593124568462,0.012117456644773483
0.014122683554887772,-0.00021330216259229928,-0.011547312140464783,0.011194120161235332,-0.0002639465092215687,0.012431232258677483
0.014003020711243153,-0.00020631666120607406,-0.010713135823607445,0.011087280698120594,-0.0002618017606437206,0.012374619022011757
0.01391027495265007,-0.0001997740619117394,-0.011718389578163624,0.011324764229357243,-0.00025035825092345476,0.01247380394488573
0.013861275278031826,-0.00019363465253263712,-0.01130389329046011,0.010776895098388195,-0.0002393061586190015,0.012699984945356846
0.01441473513841629,-0.0001878601760836318,-0.011312553659081459,0.010970935225486755,-0.0002478283131495118,0.012462535873055458
0.013964589685201645,-0.00018242037913296372,-0.011082872748374939,0.011275348253548145,-0.0002551846264395863,0.01261533796787262
0.014591719955205917,-0.00017728746752254665,-0.010857170447707176,0.010753192938864231,-0.000246342271566391,0.012096017599105835
0.014355144463479519,-0.00016784094623290002,-0.010896573774516582,0.010881065391004086,-0.0002568566706031561,0.012045033276081085
0.014912069775164127,-0.00016348548524547368,-0.011479208245873451,0.01056201197206974,-0.00025176428607665,0.012311361730098724
0.014306738041341305,-0.00015935025294311345,-0.011681106872856617,0.011493871919810772,-0.00024350300373043865,0.012499234639108181
0.013451753184199333,-0.00015541940229013562,-0.011048505082726479,0.010884796269237995,-0.00023555239022243768,0.012662719935178757
0.014374807476997375,-0.00015167746460065246,-0.01228188257664442,0.011349350214004517,-0.00022809063375461847,0.012638850137591362
0.014262213371694088,-0.00014811151777394116,-0.01142889354377985,0.012192175723612309,-0.00022108617122285068,0.012425491586327553
0.01459417212754488,-0.00014470949827227741,-0.011374090798199177,0.01141326129436493,-0.0002514339576009661,0.012562678195536137
0.01412105094641447,-0.00014146008470561355,-0.011099043302237988,0.01172536239027977,-0.00024340445816051215,0.012436910532414913
0.014843210577964783,-0.000138353745569475,-0.010533297434449196,0.011241849511861801,-0.00023125638836063445,0.012827612459659576
0.014843210577964783,-0.000138353745569475,-0.010533297434449196,0.011241849511861801,-0.00023125638836063445,0.012827612459659576
0.01435068529099226,-0.0001353806583210826,-0.011574682779610157,0.010933960787951946,-0.00021997198928147554,0.012472180649638176
0.014066779054701328,-0.00012980213796254247,-0.011629045940935612,0.010399531573057175,-0.0002596736594568938,0.012517950497567654
0.014066779054701328,-0.00012980213796254247,-0.011629045940935612,0.010399531573057175,-0.0002596736594568938,0.012517950497567654
0.014927087351679802,-0.0001271819055546075,-0.011938153766095638,0.011487173847854137,-0.0002672059345059097,0.012569276615977287
0.014155837707221508,-0.00012466510816011578,-0.011319977231323719,0.011819371953606606,-0.00028469384415075183,0.012526976875960827
0.014733763411641121,-0.00012224624515511096,-0.011556384153664112,0.011856692843139172,-0.0002821842208504677,0.012324170209467411
0.014309675432741642,-0.00011991930659860373,-0.011443708091974258,0.01221457589417696,-0.00027208420215174556,0.012955957092344761
0.014985681511461735,-0.00011767933756345883,-0.011399847455322742,0.011349550448358059,-0.00026332016568630934,0.012632377445697784
0.014620313420891762,-0.00011552159412531182,-0.011425487697124481,0.011292585171759129,-0.0003738783998414874,0.012927276082336903
0.015029811300337315,-0.00011344153608661145,-0.01094251312315464,0.010866894386708736,-0.0003532052505761385,0.012796229682862759
0.01488115731626749,-0.0001114348488044925,-0.01108856126666069,0.011206388473510742,-0.00038465496618300676,0.01291300542652607
0.015304980799555779,-6.018609565217048e-05,-0.011238574050366879,0.012291979044675827,-0.00036631120019592345,0.014240781776607037
0.014691467396914959,-3.4154792956542224e-05,-0.010802339762449265,0.011250169947743416,-0.00034350561327300966,0.012506071478128433
0.01511672418564558,-3.319091410958208e-05,-0.011833110824227333,0.012416878715157509,-0.0003491835086606443,0.012439271435141563
0.014716316014528275,-3.258559081587009e-05,-0.01129129994660616,0.011467243544757366,-0.00035373627906665206,0.012613321654498577
0.014986386522650719,-3.200618812115863e-05,-0.010683014057576656,0.0105800935998559,-0.0003364227886777371,0.012933251447975636
0.01491519995033741,-3.144698712276295e-05,-0.01138471532613039,0.011857320554554462,-0.0003194611635990441,0.013155880384147167
0.015142329968512058,-3.090706013608724e-05,-0.010853526182472706,0.011795459315180779,-0.00034165868419222534,0.01339165773242712
0.01479235477745533,-2.9880917281843722e-05,-0.010941817425191402,0.011732429265975952,-0.0003168610855937004,0.013844376429915428
0.014755794778466225,-2.9393013392109424e-05,-0.011985245160758495,0.01126767136156559,-0.0003400055575184524,0.013620889745652676
0.0148021774366498,-2.892074735427741e-05,-0.011543539352715015,0.012380294501781464,-0.0003216587647330016,0.013862349092960358
0.0148021774366498,-2.892074735427741e-05,-0.011543539352715015,0.012380294501781464,-0.0003216587647330016,0.013862349092960358
0.014875116758048534,-2.8020391255267896e-05,-0.011230440810322762,0.012079300358891487,-0.00033756662742234766,0.013212259858846664
0.015026534907519817,-2.7590889658313245e-05,-0.011254635639488697,0.012047402560710907,-0.0003181361826136708,0.012696157209575176
0.014897373504936695,-2.717436473176349e-05,-0.010825558565557003,0.012056699953973293,-0.0003004576137755066,0.012801548466086388
0.015150011517107487,-2.677022166608367e-05,-0.011639630421996117,0.012184605933725834,-0.00031960298656485975,0.013274767436087132
0.014998214319348335,-2.637793295434676e-05,-0.011618434451520443,0.01169322244822979,-0.00031461098114959896,0.013684675097465515
0.015369795262813568,-2.5996956537710503e-05,-0.011844148859381676,0.01176886260509491,-0.0003003269375767559,0.013998456299304962
0.014753990806639194,-2.5626875867601484e-05,-0.011359091848134995,0.011385844089090824,-0.00031695031793788075,0.013829097151756287
0.015336154960095882,-2.5267132514272816e-05,-0.011222737841308117,0.011321314610540867,-0.00031269891769625247,0.013784755952656269
0.015336154960095882,-2.5267132514272816e-05,-0.011222737841308117,0.011321314610540867,-0.00031269891769625247,0.013784755952656269
0.014956394210457802,-2.4917379050748423e-05,-0.01217835582792759,0.011618009768426418,-0.00030027696629986167,0.013423123396933079
0.01530787069350481,-2.4577160729677416e-05,-0.012197880074381828,0.011583223938941956,-0.0002884615969378501,0.01383922714740038
0.015127578750252724,-2.4246113753179088e-05,-0.011708886362612247,0.01190708577632904,-0.00032566211302764714,0.013655341230332851
0.015650611370801926,-2.392385431448929e-05,-0.011744008399546146,0.011274920776486397,-0.0003072259423788637,0.013954422436654568
0.015438811853528023,-2.361007318540942e-05,-0.011165416799485683,0.011408480815589428,-0.00028781473520211875,0.014227046631276608
0.015518013387918472,-1.3010633665544447e-05,-0.012762833386659622,0.011341741308569908,-0.0002705198712646961,0.014150753617286682
0.015454169362783432,-1.1521493433974683e-05,-0.011969093233346939,0.01099001057446003,-0.0003026757331099361,0.013980945572257042
0.015401468612253666,-1.1358344636391848e-05,-0.012360887601971626,0.01140100508928299,-0.00028954059234820306,0.01384607795625925
0.015316620469093323,-1.121655532188015e-05,-0.012181776575744152,0.011586916632950306,-0.0002749937120825052,0.013811795972287655
0.015278373844921589,-1.1078482202719897e-05,-0.012152331881225109,0.012037280015647411,-0.0002616768470034003,0.013475975953042507
0.015494146384298801,-1.0943776032945607e-05,-0.012604588642716408,0.011687053367495537,-0.00028832798125222325,0.013567622750997543
0.016012709587812424,-1.0683952496037818e-05,-0.012977168895304203,0.011995218694210052,-0.0002665206848178059,0.01401966717094183
0.015347249805927277,-1.055861412169179e-05,-0.01214203704148531,0.011551755480468273,-0.0002735838934313506,0.01421585213392973
0.01587647572159767,-1.0436177944939118e-05,-0.0124551085755229,0.011625723913311958,-0.000279622821835801,0.014325630851089954
0.015454152598977089,-1.0316553016309626e-05,-0.012194487266242504,0.011799657717347145,-0.0002702166384551674,0.014225222170352936
0.015591666102409363,-1.0199642019870225e-05,-0.01257925946265459,0.011847076006233692,-0.00026050969609059393,0.014725026674568653
0.015496114268898964,-1.0085343092214316e-05,-0.01284071709960699,0.01246179174631834,-0.0002801381051540375,0.013503392226994038
0.01595257595181465,-9.973586202249862e-06,-0.012361349537968636,0.011426416225731373,-0.0002680720645003021,0.013505586422979832
0.015498862601816654,-1.1488612017274136e-06,-0.013025022111833096,0.01146559789776802,-0.0002971079957205802,0.013504375703632832
0.015812406316399574,-1.5413439413691776e-08,-0.012498265132308006,0.011692377738654613,-0.00028731144266203046,0.014085505157709122
0.015665927901864052,-2.0679095935616232e-10,-0.012343456037342548,0.011314149014651775,-0.00027316671912558377,0.014338351786136627
0.015665927901864052,-2.0679095935616232e-10,-0.012343456037342548,0.011314149014651775,-0.00027316671912558377,0.014338351786136627
0.015104258432984352,-2.774364722332723e-12,-0.01248292624950409,0.011775958351790905,-0.0002920251281466335,0.014536366797983646
0.015781676396727562,-3.7221639751514393e-14,-0.012702077627182007,0.011568494141101837,-0.00028869244852103293,0.014269476756453514
0.015585465356707573,-4.993757914711796e-16,-0.012749690562486649,0.011562679894268513,-0.0002766690158750862,0.01423380896449089
0.01626611314713955,-6.699763433443661e-18,-0.012569044716656208,0.011948549188673496,-0.00029788550455123186,0.013763192109763622
0.01558939553797245,-8.988587853110739e-20,-0.012890825048089027,0.011848376132547855,-0.00029037584317848086,0.014198514632880688
0.0156708937138319,-1.205933710538827e-21,-0.012283271178603172,0.012114346958696842,-0.00027940041036345065,0.014068982563912868
0.01568402349948883,-1.617914115790853e-23,-0.012709775939583778,0.011644945479929447,-0.0003253921167925,0.014190815389156342
0.015987077727913857,-2.170638048453254e-25,-0.012609892524778843,0.0118700060993433,-0.00035374381695874035,0.014133710414171219
0.01561991311609745,-2.9121878837002508e-27,-0.01262859907001257,0.01219620369374752,-0.00033123031607829034,0.014757427386939526
0.01564146764576435,-3.9070717863817466e-29,-0.012495909817516804,0.011610305868089199,-0.00030872225761413574,0.01442886795848608
0.015910034999251366,-5.241835409045534e-31,-0.012015522457659245,0.011761046014726162,-0.0003314306086394936,0.014148853719234467
0.0156959667801857,-7.032591114414128e-33,-0.012748832814395428,0.011598413810133934,-0.00032476652995683253,0.013872520998120308
0.016275787726044655,-9.435118034255812e-35,-0.012348392978310585,0.011832255870103836,-0.0003071558312512934,0.014514585956931114
0.0156524907797575,-1.2658413765410852e-36,-0.013193376362323761,0.011666994541883469,-0.00029067214927636087,0.014430385082960129
0.016112590208649635,-2.278469264038223e-40,-0.012889420613646507,0.01158414501696825,-0.0003059451701119542,0.014552085660398006
0.016148632392287254,-3.056231950692426e-42,-0.012316526845097542,0.011271864175796509,-0.0002919460239354521,0.014809521846473217
0.016373425722122192,-4.0637655465419695e-44,-0.012101104483008385,0.012246927246451378,-0.0003135589067824185,0.014686211943626404
0.01653480716049671,-0.0,-0.01273927092552185,0.011895143426954746,-0.00030501087894663215,0.014668270945549011
0.01677658222615719,0.0,-0.012272539548575878,0.011671663261950016,-0.0002929886104539037,0.014746395871043205
0.016421223059296608,0.0,-0.012494728900492191,0.011989782564342022,-0.0003164000518154353,0.015130496583878994
0.01694159023463726,0.0,-0.012314452789723873,0.011597380973398685,-0.0002983016602229327,0.015772564336657524
0.016783220693469048,0.0,-0.013183049857616425,0.012040742672979832,-0.00027992509421892464,0.01572505757212639
0.0173634085804224,0.0,-0.012798981741070747,0.012376958504319191,-0.00030912074726074934,0.015732400119304657
0.017246000468730927,0.0,-0.012848961167037487,0.012065224349498749,-0.0002982763689942658,0.015406941063702106
0.016769759356975555,0.0,-0.012584171257913113,0.012179750017821789,-0.00031784179736860096,0.015172101557254791
0.01728687807917595,0.0,-0.012389164417982101,0.011617766693234444,-0.00031298864632844925,0.01480986550450325
0.017264170572161674,0.0,-0.013084225356578827,0.012222752906382084,-0.00031970624695532024,0.015746938064694405
0.017326420173048973,0.0,-0.012130843475461006,0.011964176781475544,-0.0003246990963816643,0.015279660932719707
0.0173878725618124,0.0,-0.013049637898802757,0.011992069892585278,-0.0004388293600641191,0.015451684594154358
0.0173878725618124,0.0,-0.013049637898802757,0.011992069892585278,-0.0004388293600641191,0.015451684594154358
0.017120707780122757,0.0,-0.012901072390377522,0.012034779414534569,-0.00041735157719813287,0.015623349696397781
0.017597151920199394,0.0,-0.013280943967401981,0.012372392229735851,-0.00044911124859936535,0.015768203884363174
0.017552247270941734,0.0,-0.012897628359496593,0.012698015198111534,-0.0004571739991661161,0.015401611104607582
0.017363307997584343,0.0,-0.012896724045276642,0.012012079358100891,-0.00045588015927933156,0.01591986045241356
0.017409317195415497,0.0,-0.013163675554096699,0.012928818352520466,-0.00047193068894557655,0.015922849997878075
0.017262358218431473,0.0,-0.012797744944691658,0.012225909158587456,-0.00045704757212661207,0.016217539086937904
0.01782194897532463,0.0,-0.013468834571540356,0.01197673100978136,-0.0005856916541233659,0.015992095693945885
0.017474712803959846,0.0,-0.01280716061592102,0.012029444798827171,-0.0006201581563800573,0.01545407623052597
0.0174571480602026,0.0,-0.013183210976421833,0.01190573163330555,-0.000613568932749331,0.015733154490590096
0.01757447049021721,0.0,-0.012723605148494244,0.012543239630758762,-0.0005972107755951583,0.015693385154008865
0.01770269125699997,0.0,-0.013283342123031616,0.012377743609249592,-0.0006053530960343778,0.015617553144693375
0.01818556897342205,0.0,-0.01300883200019598,0.013085856102406979,-0.0005749154952354729,0.015679698437452316
0.01786700077354908,0.0,-0.01310708187520504,0.012379887513816357,-0.0005729634431190789,0.016420328989624977
0.018423855304718018,0.0,-0.01350889541208744,0.011618578806519508,-0.000511561578605324,0.01682499423623085
0.018254149705171585,5.443735790322535e-05,-0.013516231440007687,0.01184834074229002,-0.0005447068833746016,0.016751572489738464
0.018306976184248924,0.0001955994957825169,-0.013275336474180222,0.012574302032589912,-0.0004998203366994858,0.016502289101481438
0.018201757222414017,0.00018929917132481933,-0.013360599055886269,0.012641994282603264,-0.00045776847400702536,0.016591308638453484
0.017972860485315323,0.0001816819712985307,-0.012971710413694382,0.012611771933734417,-0.00042198525625281036,0.016209879890084267
0.01845756731927395,0.0002081396378343925,-0.013382196426391602,0.012763549573719501,-0.00042301835492253304,0.016520608216524124
0.018539294600486755,0.00020170988864265382,-0.012879923917353153,0.012380292639136314,-0.00042353791650384665,0.016694961115717888
0.018611261621117592,0.0001944638352142647,-0.013855429366230965,0.01262617390602827,-0.00039862471749074757,0.016873866319656372
0.018845053389668465,0.00018770400492940098,-0.012884736061096191,0.0121361268684268,-0.0003750096366275102,0.016527200117707253
0.018776683136820793,0.00018139867461286485,-0.013423781841993332,0.013047592714428902,-0.00035393942380324006,0.01602363958954811
0.018602292984724045,0.0001755027478793636,-0.012975642457604408,0.0120780561119318,-0.0003765370056498796,0.016480010002851486
0.01915191113948822,0.00019716414681170136,-0.012789036147296429,0.012424688786268234,-0.0003632090811152011,0.016422882676124573
0.018543576821684837,0.00019224065181333572,-0.013374470174312592,0.01252406183630228,-0.0003461156156845391,0.01659701205790043
0.018543576821684837,0.00019224065181333572,-0.013374470174312592,0.01252406183630228,-0.0003461156156845391,0.01659701205790043
0.019050253555178642,0.00020706783107016236,-0.013898137956857681,0.012909641489386559,-0.00031577260233461857,0.016473013907670975
0.019050253555178642,0.00020706783107016236,-0.013898137956857681,0.012909641489386559,-0.00031577260233461857,0.016473013907670975
0.018903428688645363,0.00020129239419475198,-0.013759962283074856,0.012361757457256317,-0.00030250297277234495,0.01823423244059086
0.01910162717103958,0.0002860021195374429,-0.013787001371383667,0.01273767277598381,-0.00025994968018494546,0.016211042180657387
0.019229430705308914,0.00027999962912872434,-0.01372793409973383,0.012172957882285118,-0.000237423533690162,0.016053741797804832
0.01930660381913185,0.0002637447032611817,-0.014367897063493729,0.012508830055594444,-0.0002249731624033302,0.01630878634750843
0.019172895699739456,0.00029692036332562566,-0.01352005172520876,0.012119680643081665,-0.00021422190184239298,0.016775500029325485
0.01993241161108017,0.0002832579193636775,-0.013655900955200195,0.01229795627295971,-0.00020448261057026684,0.01693158596754074
0.019916081801056862,0.0002691629924811423,-0.013499069958925247,0.012356088496744633,-0.00022449236712418497,0.017403194680809975
0.019209234043955803,0.0002985112660098821,-0.014437508769333363,0.01231528539210558,-0.00022426493524108082,0.01731475256383419
0.019845373928546906,0.00028554603341035545,-0.013729741796851158,0.012925306335091591,-0.00021589170501101762,0.01703701913356781
0.019330115988850594,0.00030757489730603993,-0.014247072860598564,0.012597235850989819,-0.000207628239877522,0.017103029415011406
0.019727878272533417,0.0002872806799132377,-0.014672141522169113,0.012599549256265163,-0.0002238252927782014,0.017223209142684937
0.020443588495254517,0.0002779767382889986,-0.014035572297871113,0.01288327481597662,-0.00021710818691644818,0.017476513981819153
0.019379856064915657,0.0003603970108088106,-0.014805241487920284,0.012472609058022499,-0.00020993758516851813,0.016786616295576096
0.019962405785918236,0.00039391237078234553,-0.014120182953774929,0.012446328066289425,-0.00020317062444519252,0.017008105292916298
0.020322119817137718,0.0003740272659342736,-0.015256409533321857,0.012435236014425755,-0.00019682280253618956,0.017157141119241714
0.01987917348742485,0.00040736570372246206,-0.014470377005636692,0.012346704490482807,-0.00019085954409092665,0.01715809479355812
0.02012624777853489,0.00043157130130566657,-0.015073560178279877,0.012921996414661407,-0.00020821503130719066,0.017321454361081123
0.02016860619187355,0.00041290250374004245,-0.014415891841053963,0.012650003656744957,-0.00020543452410493046,0.017198335379362106
0.0199449360370636,0.0005448174197226763,-0.015173139981925488,0.012512614950537682,-0.00019993603928014636,0.017258625477552414
0.020253390073776245,0.0005537348333746195,-0.014681072905659676,0.012427476234734058,-0.00019454691209830344,0.017011623829603195
0.020064108073711395,0.000493945088237524,-0.015065079554915428,0.01230551302433014,-0.0002132090594386682,0.01725553162395954
0.020303934812545776,0.0005327640101313591,-0.014826172962784767,0.012552994303405285,-0.000211266364203766,0.017682833597064018
0.020244793966412544,0.00048598513239994645,-0.015207653865218163,0.012312155216932297,-0.00020229487563483417,0.017494570463895798
0.02072252705693245,0.000494334613904357,-0.015149025246500969,0.013062137179076672,-0.00019362333114258945,0.01767406426370144
0.020710250362753868,0.00048013890045695007,-0.015159805305302143,0.012953715398907661,-0.00021781421673949808,0.01765585131943226
0.020568910986185074,0.0005075422814115882,-0.015220792964100838,0.01330745778977871,-0.00021361326798796654,0.01791796088218689
0.02057037688791752,0.0005227240035310388,-0.014992321841418743,0.012875004671514034,-0.00020576109818648547,0.01799803040921688
0.02083304524421692,0.0005750434356741607,-0.015190256759524345,0.013224655762314796,-0.00019822534522973,0.017555322498083115
0.02083304524421692,0.0005750434356741607,-0.015190256759524345,0.013224655762314796,-0.00019822534522973,0.017555322498083115
0.020910445600748062,0.0006070958916097879,-0.014896288514137268,0.01320564839988947,-0.000214784246054478,0.017865147441625595
0.020528094843029976,0.0005626464262604713,-0.015351561829447746,0.013055921532213688,-0.00021490365907084197,0.01781783625483513
0.020889896899461746,0.00058934889966622,-0.01504700630903244,0.012878486886620522,-0.00020828489505220205,0.018608544021844864
0.0210394486784935,0.0007356788846664131,-0.015483119525015354,0.012604564428329468,-0.00020164911984466016,0.018046293407678604
0.020836232230067253,0.0007111714803613722,-0.014977844431996346,0.013324582017958164,-0.00019539629283826798,0.0171426422894001
0.020687777549028397,0.0007362227188423276,-0.015249247662723064,0.013041519559919834,-0.00018951788661070168,0.01754203625023365
0.021204525604844093,0.0007528147543780506,-0.01457415334880352,0.012875671498477459,-0.00020345010852906853,0.017879342660307884
0.02162078395485878,0.0007389034144580364,-0.015154975466430187,0.012788531370460987,-0.00020385449170134962,0.017834272235631943
0.020956510677933693,0.0007074500899761915,-0.014616931788623333,0.012852665968239307,-0.00019863303168676794,0.018385957926511765
0.02070549875497818,0.0008345675887539983,-0.015146498568356037,0.012832148000597954,-0.00022486603120341897,0.01859266683459282
0.020941713824868202,0.0012229548301547766,-0.015382149256765842,0.012917837128043175,-0.00023231850354932249,0.01838494837284088
0.021093128249049187,0.0013087984407320619,-0.014679028652608395,0.012723651714622974,-0.000221032983972691,0.017928844317793846
0.021262912079691887,0.0012303789844736457,-0.0150483762845397,0.012977578677237034,-0.0002499405818525702,0.017546694725751877
0.02238430641591549,0.0011759473709389567,-0.015115891583263874,0.012774158269166946,-0.00024132894759532064,0.017926568165421486
0.021960856392979622,0.0010540630901232362,-0.015553002245724201,0.01340335514396429,-0.0002670639369171113,0.01803922839462757
0.02163057029247284,0.0010387268848717213,-0.015061510726809502,0.013365259394049644,-0.00025845758500508964,0.018388304859399796
0.019896266981959343,0.0010162729304283857,-0.01526745967566967,0.013747532851994038,-0.00024841848062351346,0.01879694126546383
0.022114165127277374,0.0012271814048290253,-0.015644000843167305,0.013389749452471733,-0.0002708284300751984,0.018288346007466316
0.0225602425634861,0.0013910239795222878,-0.015384008176624775,0.013681492768228054,-0.0003482922038529068,0.018505649641156197
0.02205338329076767,0.0013786896597594023,-0.015504780225455761,0.012949269264936447,-0.000397852883907035,0.018571823835372925
0.02102081850171089,0.0018676414620131254,-0.015343273989856243,0.012732647359371185,-0.0004392402770463377,0.019234878942370415
0.02204706147313118,0.0017009784933179617,-0.01557199563831091,0.013042082078754902,-0.0004438527685124427,0.019262518733739853
0.022083602845668793,0.0014662235043942928,-0.015210812911391258,0.012125973589718342,-0.00044326166971586645,0.01853620447218418
0.02199743315577507,0.0013486117823049426,-0.015856929123401642,0.01261129230260849,-0.0004673543735407293,0.018335184082388878
0.022196555510163307,0.0013797194696962833,-0.014933543279767036,0.012890683487057686,-0.0005775815225206316,0.01823957823216915
0.022196555510163307,0.0013797194696962833,-0.014933543279767036,0.012890683487057686,-0.0005775815225206316,0.01823957823216915
0.022018220275640488,0.00149612408131361,-0.0153528843075037,0.013897127471864223,-0.0006225478136911988,0.018259797245264053
0.021903354674577713,0.001577569404616952,-0.015070884488523006,0.013677247799932957,-0.0006567062227986753,0.018589749932289124
0.021719686686992645,0.001912137377075851,-0.01554090529680252,0.013508292846381664,-0.0005918801762163639,0.019064823165535927
0.02191869542002678,0.0019202225375920534,-0.015043986961245537,0.01292216032743454,-0.0006103134946897626,0.019117457792162895
0.022572064772248268,0.0019240292022004724,-0.015433091670274734,0.013421228155493736,-0.0006049383082427084,0.019049694761633873
0.02250739373266697,0.0017235736595466733,-0.015331017784774303,0.013138139620423317,-0.0005913436762057245,0.01890992559492588
0.022339491173624992,0.0015609348192811012,-0.015511463396251202,0.013681858777999878,-0.0006080915918573737,0.018776705488562584
0.022154802456498146,0.0015073586255311966,-0.015205629169940948,0.014096003025770187,-0.000636764511000365,0.018894370645284653
0.022147532552480698,0.0015192896826192737,-0.015257293358445168,0.013883162289857864,-0.0005930191837251186,0.018830090761184692
0.02274087630212307,0.001729431445710361,-0.01548699103295803,0.013434287160634995,-0.0006186702521517873,0.01891968585550785
0.02285141684114933,0.0017736746231094003,-0.01547071523964405,0.013449250720441341,-0.0005683269118890166,0.018547169864177704
0.022462667897343636,0.002023325301706791,-0.015083516016602516,0.013185831718146801,-0.0005492109339684248,0.01896301656961441
0.022462667897343636,0.002023325301706791,-0.015083516016602516,0.013185831718146801,-0.0005492109339684248,0.01896301656961441
0.02270829863846302,0.001986623276025057,-0.01483980007469654,0.012605598196387291,-0.0005336558097042143,0.019095808267593384
0.022920986637473106,0.0018674565944820642,-0.015553204342722893,0.012979906052350998,-0.0005607313360087574,0.01919606886804104
0.02308688685297966,0.0018468305934220552,-0.015224102884531021,0.013049345463514328,-0.0005181348533369601,0.01949765905737877
0.02295084483921528,0.001964748604223132,-0.01583564467728138,0.013856817036867142,-0.000546658004168421,0.019496841356158257
0.02307339943945408,0.002012836281210184,-0.01526707038283348,0.013793835416436195,-0.000542532536201179,0.019457818940281868
0.02290150709450245,0.00236900825984776,-0.015278873965144157,0.013966772705316544,-0.0005345504032447934,0.01933079957962036
0.023303978145122528,0.002462939824908972,-0.015186646953225136,0.013676133938133717,-0.0004995590425096452,0.019500989466905594
0.02304067462682724,0.002351419534534216,-0.015983182936906815,0.013696208596229553,-0.0005179318250156939,0.0193812046200037
0.022988975048065186,0.0023968114983290434,-0.015915730968117714,0.013351114466786385,-0.0004811443213839084,0.019705234095454216
0.023466607555747032,0.00215789582580328,-0.015413417480885983,0.01327592320740223,-0.0005165793118067086,0.01958874985575676
0.02366640232503414,0.002382939914241433,-0.01608172431588173,0.013406612910330296,-0.00047633014037273824,0.019655950367450714
0.023498810827732086,0.0027329036965966225,-0.01604851707816124,0.01348967757076025,-0.0005058249225839972,0.01992928609251976
0.023520521819591522,0.0029295110143721104,-0.016092997044324875,0.014127343893051147,-0.0005306038074195385,0.0199673343449831
0.023356694728136063,0.002789710182696581,-0.015013501048088074,0.013931826688349247,-0.0005906328442506492,0.02019929140806198
0.023356694728136063,0.002789710182696581,-0.015013501048088074,0.013931826688349247,-0.0005906328442506492,0.02019929140806198
0.02360941469669342,0.002659917576238513,-0.01574449986219406,0.013404250144958496,-0.0006321736727841198,0.020018240436911583
0.02360941469669342,0.002659917576238513,-0.01574449986219406,0.013404250144958496,-0.0006321736727841198,0.020018240436911583
0.024023065343499184,0.002519480884075165,-0.01569242775440216,0.01378687098622322,-0.0005719625041820109,0.019494403153657913
0.02413211017847061,0.002702498808503151,-0.015269759111106396,0.013511532917618752,-0.0005590905202552676,0.01962672919034958
0.023584701120853424,0.0029677748680114746,-0.01571698673069477,0.013952042907476425,-0.0005480243708007038,0.01963219977915287
0.02327660284936428,0.0032850392162799835,-0.016338897868990898,0.013545718975365162,-0.0005414324114099145,0.019807303324341774
0.022541895508766174,0.0031318010296672583,-0.016622992232441902,0.014184272848069668,-0.0005333911394700408,0.02051091194152832
0.024467524141073227,0.0028906145598739386,-0.016779707744717598,0.01377209834754467,-0.0005010142922401428,0.02030232921242714
0.024474110454320908,0.003013524692505598,-0.015621550381183624,0.014199195429682732,-0.0004923233645968139,0.020234348252415657
0.024242756888270378,0.0033398852683603764,-0.016146793961524963,0.013823755085468292,-0.00044645904563367367,0.019809486344456673
0.02429286763072014,0.003227022010833025,-0.016077222302556038,0.014204383827745914,-0.0004658068355638534,0.02051827497780323
0.02338191121816635,0.003267822554334998,-0.016823237761855125,0.014384971000254154,-0.000446184363681823,0.02040637657046318
0.023556511849164963,0.003522127866744995,-0.016081899404525757,0.013999310322105885,-0.0004451849963515997,0.019866405054926872
0.02456635609269142,0.0032124838326126337,-0.016456076875329018,0.014262177981436253,-0.0004176574293524027,0.019563788548111916
0.024813322350382805,0.0032542019616812468,-0.015909260138869286,0.013902210630476475,-0.0003917995491065085,0.019992323592305183
0.023809518665075302,0.003265986917540431,-0.016603868454694748,0.014095849357545376,-0.0004178962844889611,0.01945374719798565
0.023974817246198654,0.0035099321976304054,-0.0161148514598608,0.013825799338519573,-0.0003979871980845928,0.02040889672935009
0.025128789246082306,0.003759166458621621,-0.01648232713341713,0.014315703883767128,-0.0004070939030498266,0.020997796207666397
0.02463013492524624,0.0034107498358935118,-0.016384154558181763,0.0140804722905159,-0.0003783679858315736,0.020925240591168404
0.02466501109302044,0.003607709426432848,-0.016490496695041656,0.014294947497546673,-0.00041425737435929477,0.020725874230265617
0.02466501109302044,0.003607709426432848,-0.016490496695041656,0.014294947497546673,-0.00041425737435929477,0.020725874230265617
0.024112818762660027,0.0033764506224542856,-0.01673872023820877,0.01415965799242258,-0.00042013393249362707,0.02053878642618656
0.024141579866409302,0.0034791550133377314,-0.016225647181272507,0.01400319766253233,-0.00042112512164749205,0.020072678104043007
0.024488018825650215,0.0036350495647639036,-0.01661425456404686,0.0142638785764575,-0.000438227056292817,0.020289350301027298
0.024351676926016808,0.003692420432344079,-0.016291340813040733,0.014051619917154312,-0.00042547311750240624,0.02037292905151844
0.024686647579073906,0.0037406275514513254,-0.01667788438498974,0.015542068518698215,-0.00040253641782328486,0.020819135010242462
0.02487618662416935,0.0037904945202171803,-0.016413982957601547,0.013599611818790436,-0.000381269259378314,0.020805666223168373
0.024730641394853592,0.003812232753261924,-0.01661386340856552,0.013912866823375225,-0.0004531509184744209,0.021185047924518585
0.025085996836423874,0.0038928105495870113,-0.016970649361610413,0.014397957362234592,-0.0004657269746530801,0.021434281021356583
0.024780165404081345,0.003514597425237298,-0.016471967101097107,0.014459776692092419,-0.0004637842648662627,0.021328963339328766
0.024911368265748024,0.0034712764900177717,-0.017122285440564156,0.014306488446891308,-0.0004293783276807517,0.021278424188494682
0.024599622935056686,0.003576546674594283,-0.016601238399744034,0.014191733673214912,-0.0004595197970047593,0.021300731226801872
0.024925049394369125,0.004226433113217354,-0.016592858359217644,0.014138939790427685,-0.0004320231091696769,0.02113061398267746
0.02471626177430153,0.0040945010259747505,-0.016908828169107437,0.014252310618758202,-0.0004544787807390094,0.021386664360761642
0.025296717882156372,0.004398064222186804,-0.016435785219073296,0.014368316158652306,-0.00043391837971284986,0.02114437147974968
0.024944622069597244,0.00435255840420723,-0.017166705802083015,0.014255043119192123,-0.00040966723463498056,0.0210734810680151
0.02523224987089634,0.004045243375003338,-0.016572993248701096,0.01459004171192646,-0.00042444514110684395,0.021627789363265038
0.02519078366458416,0.004086579196155071,-0.016334151849150658,0.01478138379752636,-0.0004260439018253237,0.021613357588648796
0.024969974532723427,0.004091926850378513,-0.016934016719460487,0.014542198739945889,-0.00042654279968701303,0.021925142034888268
0.025965122506022453,0.0039694891311228275,-0.017022788524627686,0.014694541692733765,-0.0003973744751419872,0.022174188867211342
0.025568557903170586,0.00438008364289999,-0.016129491850733757,0.014851539395749569,-0.00040022109169512987,0.022147148847579956
0.02580471709370613,0.00421050563454628,-0.017188485711812973,0.01458175852894783,-0.00040217043715529144,0.022109532728791237
0.025627966970205307,0.00391313387081027,-0.016706200316548347,0.014472195878624916,-0.00037972148857079446,0.02181127481162548
0.02571111172437668,0.003918650094419718,-0.0167242418974638,0.01431716326624155,-0.0003582377976272255,0.0219232439994812
0.025745287537574768,0.0041388156823813915,-0.01669655181467533,0.014626107178628445,-0.00038404471706598997,0.02223084680736065
0.026658430695533752,0.004448807332664728,-0.01682300865650177,0.014960311353206635,-0.00036738355993293226,0.021788375452160835
0.025944534689188004,0.004463559482246637,-0.017289044335484505,0.015276066958904266,-0.0003790064947679639,0.02195635437965393
0.025944534689188004,0.004463559482246637,-0.017289044335484505,0.015276066958904266,-0.0003790064947679639,0.02195635437965393
0.026315316557884216,0.004259051289409399,-0.016381504014134407,0.015364131890237331,-0.0003543395723681897,0.02243197150528431
0.02486289106309414,0.004452326335012913,-0.01698664389550686,0.014705178327858448,-0.00038554315688088536,0.022037362679839134
0.02582656592130661,0.004351689480245113,-0.017062833532691002,0.014843975193798542,-0.00036708582774735987,0.022442491725087166
0.026468349620699883,0.003895809641107917,-0.017221150919795036,0.014128373004496098,-0.00039755250327289104,0.022294478490948677
0.02650495059788227,0.002655298449099064,-0.01807836815714836,0.014372865669429302,-0.00037725246511399746,0.022036349400877953
0.026387115940451622,0.002050989307463169,-0.016871679574251175,0.014607304707169533,-0.0004001631459686905,0.022321689873933792
0.02686416357755661,0.0018089672084897757,-0.017525697126984596,0.015097851864993572,-0.00038480639341287315,0.022992180660367012
0.027361799031496048,0.0015971021493896842,-0.017078977078199387,0.014577511698007584,-0.0004758696013595909,0.021671082824468613
0.026712384074926376,0.0025019373279064894,-0.016754748299717903,0.015156358480453491,-0.000532377976924181,0.021901950240135193
0.02606917917728424,0.0026868036948144436,-0.017416346818208694,0.01500615756958723,-0.0005467117880471051,0.023046210408210754
0.026210865005850792,0.003067893208935857,-0.01764375902712345,0.01505906879901886,-0.0005384233081713319,0.023687494918704033
0.026666119694709778,0.002554856240749359,-0.018147911876440048,0.014272707514464855,-0.0005597613053396344,0.02291112393140793
0.02674621157348156,0.0020916759967803955,-0.017145847901701927,0.01479282509535551,-0.0007058789487928152,0.0216202549636364
0.027040479704737663,0.002025054767727852,-0.017953014001250267,0.01540658064186573,-0.0007238684338517487,0.022592393681406975
0.02721814438700676,0.0023476025089621544,-0.01747097074985504,0.014769155532121658,-0.0007033474976196885,0.023043915629386902
0.0269465371966362,0.002494479063898325,-0.01843835413455963,0.014984138309955597,-0.0007218615501187742,0.022517506033182144
0.027207983657717705,0.0024198126047849655,-0.017712708562612534,0.014163912273943424,-0.0006968997186049819,0.022851157933473587
0.02751806378364563,0.0025330304633826017,-0.0172248724848032,0.014974992722272873,-0.0007284838939085603,0.024064399302005768
0.027572764083743095,0.0023720450699329376,-0.01863054558634758,0.014320867136120796,-0.0007032123394310474,0.024242615327239037
0.02834565006196499,0.002466589445248246,-0.017833543941378593,0.014598006382584572,-0.0006708489963784814,0.022836696356534958
0.027866587042808533,0.0022298446856439114,-0.01722036302089691,0.014546288177371025,-0.0006857598200440407,0.022042855620384216
0.028246499598026276,0.002168657723814249,-0.01792656071484089,0.01493503525853157,-0.0006724010454490781,0.022410660982131958
0.028246499598026276,0.002168657723814249,-0.01792656071484089,0.01493503525853157,-0.0006724010454490781,0.022410660982131958
0.027824852615594864,0.002064464380964637,-0.01795107312500477,0.01497576478868723,-0.0006513700354844332,0.023180697113275528
0.028351595625281334,0.002505841199308634,-0.01839599944651127,0.01560247503221035,-0.000702943536452949,0.02400175668299198
0.02889646403491497,0.0025141816586256027,-0.017778925597667694,0.015767252072691917,-0.0007122420938685536,0.023768732324242592
0.02889646403491497,0.0025141816586256027,-0.017778925597667694,0.015767252072691917,-0.0007122420938685536,0.023768732324242592
0.02890239655971527,0.0023406934924423695,-0.01824047975242138,0.015621420927345753,-0.0006619200576096773,0.02357291243970394
0.02834824100136757,0.0023006524424999952,-0.017933044582605362,0.017110997810959816,-0.0006799702532589436,0.023358775302767754
0.028612704947590828,0.0024916543625295162,-0.018300164490938187,0.01592344231903553,-0.0007018620963208377,0.02373739331960678
0.02871752716600895,0.0024409990292042494,-0.01826567016541958,0.01530211977660656,-0.0006745196296833456,0.02377178706228733
0.028862375766038895,0.0028759429696947336,-0.017374804243445396,0.01612306572496891,-0.0006922130705788732,0.023945720866322517
0.029332034289836884,0.002997494302690029,-0.018027888610959053,0.016291936859488487,-0.0006258717621676624,0.023929864168167114
0.029062749817967415,0.0026461633387953043,-0.01840522699058056,0.01672317087650299,-0.0006420845165848732,0.023610632866621017
0.02942102961242199,0.002643395448103547,-0.017970604822039604,0.01644972339272499,-0.000592599215451628,0.02337348833680153
0.029239946976304054,0.0026848723646253347,-0.01829761080443859,0.01646578125655651,-0.000609027047175914,0.023905159905552864
0.029499011114239693,0.0028476747684180737,-0.017762303352355957,0.016365591436624527,-0.0005699153989553452,0.02409043349325657
0.02981395274400711,0.0033197468146681786,-0.018091648817062378,0.01606655679643154,-0.0005286371451802552,0.024095874279737473
0.02989000827074051,0.0029713381081819534,-0.018591824918985367,0.016644854098558426,-0.0004961598315276206,0.024342145770788193
0.03011605329811573,0.0027631190605461597,-0.018465861678123474,0.0160977765917778,-0.0004843306669499725,0.024081513285636902
0.030885865911841393,0.0031005076598376036,-0.018573462963104248,0.015828711912035942,-0.00044899043859913945,0.02434786781668663
0.030842319130897522,0.002921417821198702,-0.017916252836585045,0.016048535704612732,-0.00047445460222661495,0.024863917380571365
0.028346659615635872,0.003200978972017765,-0.0186220183968544,0.015840942040085793,-0.00044878802145831287,0.024629829451441765
0.02983381785452366,0.0033478743862360716,-0.018704744055867195,0.015544582158327103,-0.00047515748883597553,0.02424437366425991
0.030762432143092155,0.0031126008834689856,-0.01816542074084282,0.015354232862591743,-0.0004491708241403103,0.023797981441020966
0.02967028319835663,0.0033738522324711084,-0.018646134063601494,0.015500259585678577,-0.0004242985451128334,0.024089211598038673
0.030192896723747253,0.0032346202060580254,-0.01874995045363903,0.01579652912914753,-0.0004643311840482056,0.024896815419197083
0.031207799911499023,0.003155901562422514,-0.01871440000832081,0.015302927233278751,-0.00042586418567225337,0.025051455944776535
0.030712801963090897,0.0031223793048411608,-0.01886087842285633,0.015322401188313961,-0.0004616440273821354,0.02436143532395363
0.030712801963090897,0.0031223793048411608,-0.01886087842285633,0.015322401188313961,-0.0004616440273821354,0.02436143532395363
0.029968520626425743,0.003150329226627946,-0.01851382851600647,0.015142346732318401,-0.00046432483941316605,0.023708593100309372
0.029627738520503044,0.0034737451933324337,-0.018746327608823776,0.016050776466727257,-0.00046219484647735953,0.02368234470486641
0.031049365177750587,0.0033351981546729803,-0.019036155194044113,0.015739593654870987,-0.0004900191561318934,0.02463361993432045
0.031009942293167114,0.0035722008906304836,-0.018565639853477478,0.0159632358700037,-0.00046511730761267245,0.024877019226551056
0.0311361663043499,0.0037237436044961214,-0.01883036084473133,0.015617132186889648,-0.000561918190214783,0.025133198127150536
0.031153053045272827,0.0037680580280721188,-0.0192407313734293,0.015988312661647797,-0.0005828323191963136,0.025309810414910316
0.031190522015094757,0.003736921353265643,-0.018650993704795837,0.016622940078377724,-0.0005911750486120582,0.0252968892455101
0.030778657644987106,0.0037147183902561665,-0.018801148980855942,0.01625729352235794,-0.0005781011423096061,0.02492102049291134
0.030940596014261246,0.0033181793987751007,-0.019290031865239143,0.01641540229320526,-0.0006025507464073598,0.024569520726799965
0.031182657927274704,0.003499417332932353,-0.018438320606946945,0.015560594387352467,-0.0005604021134786308,0.024159332737326622
0.031119851395487785,0.0037645462434738874,-0.018771588802337646,0.015673913061618805,-0.000627937144599855,0.024491891264915466
0.030677035450935364,0.003382677212357521,-0.018965082243084908,0.014934835024178028,-0.0006215683533810079,0.02564512938261032
0.031159477308392525,0.00353297614492476,-0.018550502136349678,0.015325462445616722,-0.0006017847335897386,0.025767380371689796
0.0308082178235054,0.00421447679400444,-0.019182022660970688,0.015330540016293526,-0.0005443085101433098,0.025767123326659203
0.03143136948347092,0.003805941203609109,-0.018387634307146072,0.016449037939310074,-0.0005832028109580278,0.025259245187044144
0.031535182148218155,0.0037955099251121283,-0.019062906503677368,0.016299424692988396,-0.0005559282144531608,0.02560800313949585
0.030955590307712555,0.003917652647942305,-0.019909558817744255,0.016696343198418617,-0.0005738971522077918,0.025560477748513222
0.032269299030303955,0.003962812479585409,-0.019167345017194748,0.016293665394186974,-0.0005789630231447518,0.025482172146439552
0.0328875295817852,0.003918870817869902,-0.01962839812040329,0.01706811971962452,-0.0005651097744703293,0.02566651999950409
0.031801097095012665,0.0043556224554777145,-0.019460417330265045,0.01670505292713642,-0.0005881267716176808,0.026254629716277122
0.030315298587083817,0.004512171261012554,-0.018861740827560425,0.01659540645778179,-0.0006146922823973,0.026104403659701347
0.030780483037233353,0.004389142617583275,-0.019324002787470818,0.015947949141263962,-0.0007598692318424582,0.026262858882546425
0.03218524158000946,0.004079374484717846,-0.01964820921421051,0.0153576098382473,-0.0008263621130026877,0.026215918362140656
0.031995974481105804,0.0039164223708212376,-0.0192817784845829,0.016568941995501518,-0.0008233862463384867,0.027855319902300835
0.032303567975759506,0.003949138335883617,-0.019407566636800766,0.01527929026633501,-0.0007531924638897181,0.02597326599061489
0.03235017508268356,0.003992133308202028,-0.020045923069119453,0.015750180929899216,-0.0007636123918928206,0.026048297062516212
0.03295138478279114,0.0039620487950742245,-0.019610662013292313,0.015735382214188576,-0.0008099953993223608,0.026370761916041374
0.03177429735660553,0.0038681214209645987,-0.020167183130979538,0.016781669110059738,-0.0008349026902578771,0.02625686302781105
0.03177429735660553,0.0038681214209645987,-0.020167183130979538,0.016781669110059738,-0.0008349026902578771,0.02625686302781105
0.031777746975421906,0.004198207054287195,-0.020148031413555145,0.016586121171712875,-0.0008443419937975705,0.026290131732821465
0.032272130250930786,0.004042779561132193,-0.01918812282383442,0.016795611009001732,-0.0008509544422850013,0.026319585740566254
0.032454293221235275,0.003747248090803623,-0.019460951909422874,0.01669662818312645,-0.0008533257059752941,0.026026202365756035
0.03236961364746094,0.0036432824563235044,-0.020992396399378777,0.016503043472766876,-0.0007908681873232126,0.025906331837177277
0.03288230672478676,0.004199385643005371,-0.019272029399871826,0.015989556908607483,-0.0008023983100429177,0.026286035776138306
0.03247411549091339,0.004154213238507509,-0.019150501117110252,0.01560662966221571,-0.0008709485409781337,0.026472575962543488
0.03289889171719551,0.003937423229217529,-0.02067030966281891,0.016002029180526733,-0.000833860132843256,0.026421628892421722
0.032962020486593246,0.004309543874114752,-0.020009590312838554,0.016220180317759514,-0.000992185203358531,0.026575801894068718
0.03305981680750847,0.004307442810386419,-0.019172295928001404,0.016876334324479103,-0.0008806171827018261,0.026539213955402374
0.03259006142616272,0.004481717478483915,-0.01967637427151203,0.016479816287755966,-0.0008767114486545324,0.026003222912549973
0.03295174986124039,0.004147603176534176,-0.020406149327754974,0.016644975170493126,-0.0008294047438539565,0.026039544492959976
0.033710673451423645,0.0039347256533801556,-0.019596276804804802,0.016605189070105553,-0.0007864753133617342,0.026375096291303635
0.03199845552444458,0.00395056651905179,-0.019847145304083824,0.016881445422768593,-0.0007351477397605777,0.02685956470668316
0.03404002636671066,0.003974927589297295,-0.01918424293398857,0.0166986845433712,-0.0006565230432897806,0.02759811282157898
0.03326340392231941,0.00441714096814394,-0.019843347370624542,0.016835758462548256,-0.0006080189486965537,0.026584483683109283
0.03365642949938774,0.004654128570109606,-0.020541677251458168,0.017014900222420692,-0.0006264779949560761,0.02648400329053402
0.03394513204693794,0.004528502468019724,-0.020069802179932594,0.016720186918973923,-0.0006402579601854086,0.02705492451786995
0.03459406644105911,0.004304526373744011,-0.01987587660551071,0.0169085580855608,-0.0006057985010556877,0.027690595015883446
0.03423500806093216,0.004006447736173868,-0.020502371713519096,0.01641574315726757,-0.0006071787793189287,0.027304545044898987
0.03462936729192734,0.0041677942499518394,-0.020301109179854393,0.016908442601561546,-0.0006314185447990894,0.02811763808131218
0.03451385721564293,0.004648336675018072,-0.01986568607389927,0.01674600876867771,-0.0005883050034753978,0.028947753831744194
0.03480111435055733,0.00475133303552866,-0.020178891718387604,0.01687542349100113,-0.0006082745967432857,0.027851467952132225
0.03507717326283455,0.004696234595030546,-0.020286040380597115,0.016997797414660454,-0.0006031824159435928,0.026333190500736237
0.0349796786904335,0.004369895905256271,-0.019924219697713852,0.01689017005264759,-0.0005899968091398478,0.027936995029449463
0.03473294526338577,0.004049894865602255,-0.020442061126232147,0.017101328819990158,-0.0006801099516451359,0.028646893799304962
0.03473294526338577,0.004049894865602255,-0.020442061126232147,0.017101328819990158,-0.0006801099516451359,0.028646893799304962
0.034723494201898575,0.003835199400782585,-0.020398253574967384,0.01708192750811577,-0.0007040931959636509,0.02882983908057213
0.035786859691143036,0.003902576630935073,-0.01997256465256214,0.017581535503268242,-0.0007130897720344365,0.027985284104943275
0.03631662204861641,0.003966497257351875,-0.020002994686365128,0.017693305388092995,-0.0007082491065375507,0.02756805159151554
0.034324053674936295,0.004090538248419762,-0.020292434841394424,0.01740098185837269,-0.000690739369019866,0.02769818715751171
0.03445597365498543,0.0036201949696987867,-0.020254503935575485,0.01771099865436554,-0.0007687177276238799,0.02771650440990925
0.035707321017980576,0.0035439433995634317,-0.0202131737023592,0.0170145183801651,-0.0007909078267402947,0.027636924758553505
0.035857055336236954,0.004000790882855654,-0.02056402713060379,0.017119109630584717,-0.0007530312286689878,0.02765536867082119
0.03648281469941139,0.004271962214261293,-0.020365111529827118,0.017521444708108902,-0.0007171127945184708,0.027849391102790833
0.03567596897482872,0.004082794301211834,-0.01992149092257023,0.017246060073375702,-0.0006911326781846583,0.027870096266269684
0.03496053069829941,0.0038046552799642086,-0.020330023020505905,0.017505669966340065,-0.0006672678282484412,0.027852997183799744
0.03458353504538536,0.003921619616448879,-0.020624594762921333,0.016919288784265518,-0.00062755768885836,0.02823101170361042
0.036249835044145584,0.004047494847327471,-0.0199646707624197,0.01700076274573803,-0.0005646015051752329,0.02808084525167942
0.036243829876184464,0.004414026625454426,-0.020667891949415207,0.016922371461987495,-0.0005956045933999121,0.028250137344002724
0.03544216230511665,0.004117992240935564,-0.02050463669002056,0.01750383898615837,-0.0006257463828660548,0.028044482693076134
0.03676387667655945,0.003986353520303965,-0.02047109417617321,0.016943613067269325,-0.0006346491863951087,0.028092799708247185
0.03631822019815445,0.003990063443779945,-0.020731141790747643,0.016721133142709732,-0.0007081343210302293,0.028788378462195396
0.03640366718173027,0.003929070197045803,-0.02075304463505745,0.017209943383932114,-0.0007300892611965537,0.028532175347208977
0.03630645573139191,0.004420679993927479,-0.020269447937607765,0.017494414001703262,-0.0007505008252337575,0.02841821126639843
0.03672007843852043,0.004607311449944973,-0.020981384441256523,0.018035888671875,-0.0007733125821687281,0.028453916311264038
0.03701892867684364,0.004125285893678665,-0.02194422483444214,0.018118614330887794,-0.0009019839344546199,0.028795085847377777
0.036576010286808014,0.004046352114528418,-0.021517345681786537,0.01848503388464451,-0.0009239693754352629,0.02983148954808712
0.03637630492448807,0.00403182627633214,-0.02057577297091484,0.01821785606443882,-0.0009217359474860132,0.029333585873246193
0.0369754321873188,0.004399740602821112,-0.020787961781024933,0.017759788781404495,-0.0009109998936764896,0.028406638652086258
0.03810848295688629,0.004580594599246979,-0.020951950922608376,0.01807129941880703,-0.0009117432055063546,0.028200378641486168
0.03669159114360809,0.004637721460312605,-0.021020207554101944,0.018102629110217094,-0.0009352454799227417,0.029180245473980904
0.035961877554655075,0.004540944937616587,-0.02095470018684864,0.017713967710733414,-0.0009222239605151117,0.028992662206292152
0.037494681775569916,0.004213517997413874,-0.021745875477790833,0.018049487844109535,-0.0009035329567268491,0.029038820415735245
0.03708852455019951,0.004396724049001932,-0.021672366186976433,0.017526451498270035,-0.0008270166581496596,0.029974322766065598
0.038150813430547714,0.004151889123022556,-0.021361393854022026,0.017547395080327988,-0.0008190916269086301,0.029658079147338867
0.03770792856812477,0.004477593116462231,-0.020734736695885658,0.01779676415026188,-0.0007006606901995838,0.028974901884794235
0.03770792856812477,0.004477593116462231,-0.020734736695885658,0.01779676415026188,-0.0007006606901995838,0.028974901884794235
0.0367097482085228,0.004589574411511421,-0.021147603169083595,0.01782464236021042,-0.0007104131509549916,0.028658771887421608
0.0365467295050621,0.004654080606997013,-0.02128918282687664,0.018406584858894348,-0.0006912811077199876,0.028919139876961708
0.037868719547986984,0.004699289798736572,-0.021013597026467323,0.01796603575348854,-0.0007107575074769557,0.030239244922995567
0.03739406168460846,0.0045413002371788025,-0.021341023966670036,0.017467070370912552,-0.0006871906807646155,0.030406825244426727
0.03713754937052727,0.004246416501700878,-0.021244069561362267,0.01777859404683113,-0.0007226230227388442,0.0295560285449028
0.03750034421682358,0.004451577086001635,-0.021400485187768936,0.018146593123674393,-0.00074864731868729,0.029790669679641724
0.03743148222565651,0.004507793113589287,-0.021167540922760963,0.018792252987623215,-0.0007919781492091715,0.029569484293460846
0.03721731901168823,0.0046643526293337345,-0.02099217288196087,0.01845998875796795,-0.0009435476968064904,0.02919110655784607
0.037550173699855804,0.004795098677277565,-0.02138713374733925,0.017419962212443352,-0.001080170157365501,0.029762737452983856
0.037505630403757095,0.004673950374126434,-0.02174651436507702,0.01787608489394188,-0.0010191294131800532,0.030306247994303703
0.03759349137544632,0.004412101116031408,-0.021175939589738846,0.01724301651120186,-0.0009355959482491016,0.030172208324074745
0.03790200501680374,0.00473298504948616,-0.020671740174293518,0.01815137267112732,-0.0009184732916764915,0.030145594850182533
0.037882015109062195,0.004831814672797918,-0.021238625049591064,0.01884339191019535,-0.000826659903395921,0.02998560294508934
0.03834760934114456,0.0048607587814331055,-0.02076932042837143,0.018525343388319016,-0.0006368868635036051,0.0305043775588274
0.03819670528173447,0.005077078938484192,-0.02153550460934639,0.018247811123728752,-0.0006612061988562346,0.030683046206831932
0.03830323740839958,0.004475397057831287,-0.021422842517495155,0.018016446381807327,-0.000680275319609791,0.03047174960374832
0.03926605358719826,0.004417785909026861,-0.021104633808135986,0.019104812294244766,-0.0006677663768641651,0.03068702481687069
0.03870784491300583,0.004404057282954454,-0.020761771127581596,0.019446857273578644,-0.0006472986424341798,0.03059740737080574
0.038248613476753235,0.005126819014549255,-0.02121683955192566,0.018604962155222893,-0.0006474185502156615,0.030579419806599617
0.03895490616559982,0.005083662457764149,-0.021450482308864594,0.018633434548974037,-0.0006402918370440602,0.030738485977053642
0.03854267671704292,0.0044806660152971745,-0.020931199193000793,0.018743807449936867,-0.0006676721968688071,0.03077993355691433
0.03886641189455986,0.004620724823325872,-0.02098306082189083,0.018999582156538963,-0.0006915861740708351,0.031016109511256218
0.03937346860766411,0.00462117837741971,-0.02113688364624977,0.01916630193591118,-0.0008290886762551963,0.030722007155418396
0.038692355155944824,0.004930061288177967,-0.021494245156645775,0.018311182036995888,-0.0009527606307528913,0.03158602863550186
0.03887402266263962,0.004848911426961422,-0.02133680321276188,0.018921086564660072,-0.000916584744118154,0.031469568610191345
0.03940345346927643,0.0047078984789550304,-0.021504366770386696,0.018236367031931877,-0.0008540773415006697,0.03246285021305084
0.04030894115567207,0.004770251922309399,-0.021253962069749832,0.017989402636885643,-0.0008554923115298152,0.0324324332177639
0.04030894115567207,0.004770251922309399,-0.021253962069749832,0.017989402636885643,-0.0008554923115298152,0.0324324332177639
0.03956238552927971,0.005208331625908613,-0.021263545379042625,0.018256060779094696,-0.0008501315605826676,0.030779248103499413
0.03925091028213501,0.004957528319209814,-0.021597471088171005,0.018085597082972527,-0.0008851643069647253,0.03089383989572525
0.03925091028213501,0.004957528319209814,-0.021597471088171005,0.018085597082972527,-0.0008851643069647253,0.03089383989572525
0.03986624628305435,0.004706238396465778,-0.022255558520555496,0.018441004678606987,-0.0008875611238181591,0.031615953892469406
0.041047606617212296,0.004739805590361357,-0.022111542522907257,0.018218377605080605,-0.0009731148602440953,0.031197933480143547
0.04043952003121376,0.0056800260208547115,-0.0219662357121706,0.01797601766884327,-0.0009765960276126862,0.032198887318372726
0.03875117376446724,0.005344629753381014,-0.021414801478385925,0.018312690779566765,-0.0009296825737692416,0.032122157514095306
0.03900379687547684,0.0048141167499125,-0.021726487204432487,0.017720967531204224,-0.0009233560413122177,0.03162442520260811
0.040651727467775345,0.0048103295266628265,-0.02254394441843033,0.017964132130146027,-0.0008682379848323762,0.030758515000343323
0.03992800787091255,0.005208748858422041,-0.02196945622563362,0.01843509078025818,-0.0008138995035551488,0.03157290071249008
0.039936795830726624,0.00495735090225935,-0.021190784871578217,0.01829032227396965,-0.0007641486590728164,0.032745253294706345
0.040212810039520264,0.0055350204929709435,-0.022274285554885864,0.018931400030851364,-0.0007206871523521841,0.03267424553632736
0.040103983134031296,0.005292411427944899,-0.022568797692656517,0.019071470946073532,-0.0007377700530923903,0.03216853365302086
0.040682487189769745,0.0050102840177714825,-0.022359948605298996,0.018491048365831375,-0.0007546382257714868,0.03229957073926926
0.039971496909856796,0.005051880143582821,-0.021678179502487183,0.018431948497891426,-0.0006752163753844798,0.03240494802594185
0.03996877372264862,0.00567062059417367,-0.02163444086909294,0.01854916289448738,-0.000698865856975317,0.03223726898431778
0.0400235541164875,0.00537128746509552,-0.021876197308301926,0.019403943791985512,-0.0007146988064050674,0.032335348427295685
0.0414758026599884,0.005312933120876551,-0.02170911617577076,0.01937560923397541,-0.00069804658414796,0.03212287276983261
0.039723243564367294,0.005480251275002956,-0.022601090371608734,0.019010236486792564,-0.0006739177624695003,0.03252551704645157
0.039242565631866455,0.005303073674440384,-0.022424183785915375,0.019471485167741776,-0.0007061791839078069,0.03296387568116188
0.04046505689620972,0.005273747723549604,-0.02215973287820816,0.01985871233046055,-0.0007151950849220157,0.03162216767668724
0.040088195353746414,0.005077135283499956,-0.02190571278333664,0.019960002973675728,-0.0006567223463207483,0.0334852933883667
0.04192977026104927,0.0054131923243403435,-0.022117402404546738,0.01991746947169304,-0.0006585023947991431,0.0336596854031086
0.0405379943549633,0.0055679515935480595,-0.022304655984044075,0.01912335678935051,-0.0006160772172734141,0.033175334334373474
0.03877044841647148,0.005197321530431509,-0.022433431819081306,0.018274636939167976,-0.000637062534224242,0.03354085609316826
0.04089434817433357,0.005315473768860102,-0.021989978849887848,0.018720336258411407,-0.0006483213510364294,0.03321509063243866
0.04089434817433357,0.005315473768860102,-0.021989978849887848,0.018720336258411407,-0.0006483213510364294,0.03321509063243866
0.04117299243807793,0.005111665930598974,-0.022549573332071304,0.0189228393137455,-0.0006883597816340625,0.033251672983169556
0.040780648589134216,0.005555726587772369,-0.02293710596859455,0.01946689561009407,-0.0006998429889790714,0.032350026071071625
0.04049385339021683,0.005800184793770313,-0.02328902669250965,0.020361078903079033,-0.0006965123466216028,0.03400583565235138
0.040396854281425476,0.0051728771068155766,-0.02328343689441681,0.02034822478890419,-0.0006733244517818093,0.03488074988126755
0.040927283465862274,0.005263523664325476,-0.022849848493933678,0.019554993137717247,-0.0008875267812982202,0.033916302025318146
0.04112756997346878,0.0052010612562298775,-0.022724507376551628,0.019498644396662712,-0.0009162513306364417,0.032502468675374985
0.04082298278808594,0.005832517519593239,-0.022857321426272392,0.019492195919156075,-0.0009466371266171336,0.03299206867814064
0.040661465376615524,0.005603198427706957,-0.023109178990125656,0.019379448145627975,-0.0011073421919718385,0.03340307995676994
0.04119959846138954,0.00575321726500988,-0.023288391530513763,0.019415689632296562,-0.0011015593772754073,0.03403427079319954
0.04107755422592163,0.005163196474313736,-0.02262796089053154,0.01954904943704605,-0.0010287348413839936,0.03477201983332634
0.040789633989334106,0.005251188296824694,-0.022733034566044807,0.019518941640853882,-0.0009426361066289246,0.03390179201960564
0.04194622114300728,0.00558885233476758,-0.023107750341296196,0.01953529193997383,-0.0009324558195658028,0.032893240451812744
0.04178472235798836,0.005316455848515034,-0.02315863035619259,0.01985647901892662,-0.0008420479716733098,0.03271321579813957
0.04179936647415161,0.005127493292093277,-0.022790759801864624,0.020495504140853882,-0.0008345439564436674,0.03323590010404587
0.04203856363892555,0.005578729324042797,-0.022613713517785072,0.019403871148824692,-0.0008566682226955891,0.03437153995037079
0.04184131696820259,0.005346411373466253,-0.023256080225110054,0.018323853611946106,-0.0009769637836143374,0.03509892150759697
0.04242583364248276,0.005385532975196838,-0.02351308800280094,0.019028792157769203,-0.0010106246918439865,0.034285593777894974
0.04242883250117302,0.005703350063413382,-0.022902313619852066,0.01964583434164524,-0.0009958865121006966,0.03400310128927231
0.04223600775003433,0.005907202139496803,-0.02284715510904789,0.019460627809166908,-0.000991729204542935,0.034048087894916534
0.04289309307932854,0.0054053738713264465,-0.023483499884605408,0.019811848178505898,-0.0011152985971421003,0.03418079391121864
0.0427907258272171,0.0055177295580506325,-0.024011677131056786,0.020100390538573265,-0.0011268964735791087,0.03456359729170799
0.0425744391977787,0.005593270529061556,-0.0238936860114336,0.02021264098584652,-0.001094526145607233,0.03474226966500282
0.043942149728536606,0.005844898521900177,-0.02358347550034523,0.019831079989671707,-0.0009931776439771056,0.034943822771310806
0.043950557708740234,0.005638553760945797,-0.02309042401611805,0.019758637994527817,-0.000939623627346009,0.03510236367583275
0.04137766361236572,0.005156600382179022,-0.023301877081394196,0.019757580012083054,-0.0010040953056886792,0.03490262106060982
0.04282649606466293,0.005294225178658962,-0.0239415243268013,0.01951701194047928,-0.0009935179259628057,0.03528298810124397
0.043564323335886,0.005530459340661764,-0.023385947570204735,0.019993841648101807,-0.0009268417488783598,0.03495856374502182
0.043564323335886,0.005530459340661764,-0.023385947570204735,0.019993841648101807,-0.0009268417488783598,0.03495856374502182
0.043912820518016815,0.00567988958209753,-0.023923538625240326,0.02012299746274948,-0.000897934369277209,0.034983642399311066
0.04551917687058449,0.005682912655174732,-0.024684596806764603,0.02005736716091633,-0.0008858797373250127,0.035127390176057816
0.04266348481178284,0.006060242187231779,-0.024332411587238312,0.020190414041280746,-0.0008701282204128802,0.03528619185090065
0.04337750002741814,0.005400633905082941,-0.022993238642811775,0.020373115316033363,-0.0008727668318897486,0.03538605198264122
0.04428542032837868,0.005478134378790855,-0.022972777485847473,0.019630191847682,-0.0008648000075481832,0.03445286303758621
0.04458840191364288,0.005253663752228022,-0.023977473378181458,0.01953994110226631,-0.0008930717594921589,0.036504946649074554
0.04408177360892296,0.005780911538749933,-0.02384456805884838,0.02002907730638981,-0.0008623909088782966,0.037505749613046646
0.04411570727825165,0.005656981375068426,-0.024427393451333046,0.020393097773194313,-0.0008652351680211723,0.03585352003574371
