davideferrari95/blind_handover_controller/data/Test 253 - [2024-02-08 -- 12-44-14]/joint_states_data.csv
shoulder_pan_joint,shoulder_lift_joint,elbow_joint,wrist_1_joint,wrist_2_joint,wrist_3_joint
0.0012136962031945586,-0.011052504181861877,-0.018528440967202187,0.030358077958226204,0.00025247165467590094,0.0027619581669569016
0.0012136962031945586,-0.011052504181861877,-0.018528440967202187,0.030358077958226204,0.00025247165467590094,0.0027619581669569016
0.0010916023747995496,-0.01167063508182764,-0.019650889560580254,0.02934688702225685,0.00027431268244981766,0.0026617576368153095
0.0012076366692781448,-0.011109975166618824,-0.01820484921336174,0.029535561800003052,0.0002715705195441842,0.002266930416226387
0.001724402536638081,-0.010706163942813873,-0.01815478689968586,0.029991982504725456,0.0002592516830191016,0.0019315617391839623
0.001724402536638081,-0.010706163942813873,-0.01815478689968586,0.029991982504725456,0.0002592516830191016,0.0019315617391839623
0.0014919363893568516,-0.01093160081654787,-0.018864408135414124,0.030032819136977196,0.0002365790423937142,0.0015112555120140314
0.0012958530569449067,-0.011355644091963768,-0.018466241657733917,0.02906033582985401,0.00022664660355076194,0.0015562584158033133
0.001208602450788021,-0.011197680607438087,-0.018834849819540977,0.02980884164571762,0.00021751564054284245,0.0019705472514033318
0.001262919045984745,-0.011008734814822674,-0.018418079242110252,0.030460739508271217,0.0002415726485196501,0.0022173752076923847
0.0012370760086923838,-0.011154646053910255,-0.01884615235030651,0.029931658878922462,0.0002346904802834615,0.0023075989447534084
0.001353657804429531,-0.011811729520559311,-0.018905257806181908,0.02994821034371853,0.00022639446251560003,0.0020467371214181185
0.0012988124508410692,-0.011617130599915981,-0.018407436087727547,0.029883580282330513,0.00021854828810319304,0.0017380459466949105
0.0015358455711975694,-0.0112428218126297,-0.01863955892622471,0.02957950532436371,0.00021122090402059257,0.0016504668164998293
0.0015499128494411707,-0.011240768246352673,-0.018567493185400963,0.02965679205954075,0.00020436850900296122,0.0014392919838428497
0.0014504471328109503,-0.01182760950177908,-0.01810256578028202,0.029310110956430435,0.0001979463268071413,0.0014255753485485911
0.0015077198622748256,-0.0118018863722682,-0.01877913624048233,0.029543226584792137,0.00021570769604295492,0.001373315928503871
0.0014349316479638219,-0.012197074480354786,-0.01860031858086586,0.029526544734835625,0.00021261087385937572,0.001500703627243638
0.001502323430031538,-0.01146304327994585,-0.018404889851808548,0.028706541284918785,0.00020672068058047444,0.0015759692760184407
0.001430963515304029,-0.011176697909832,-0.018891185522079468,0.02966991439461708,0.00020096395746804774,0.0017905377317219973
0.001581826014444232,-0.011267442256212234,-0.01822470873594284,0.03049936331808567,0.00019550744036678225,0.001857420546002686
0.0016686710296198726,-0.011133203282952309,-0.018349800258874893,0.031242677941918373,0.00019033887656405568,0.0017194765387102962
0.0015660034259781241,-0.011199035681784153,-0.018514713272452354,0.03081100806593895,0.00018543624901212752,0.0020363307558000088
0.0015721922973170877,-0.011696917936205864,-0.017885245382785797,0.02977098897099495,0.00017248757649213076,0.0018381858244538307
0.001469819457270205,-0.011595504358410835,-0.018104100599884987,0.02919294312596321,0.0001638432586332783,0.0017802382353693247
0.0014058719389140606,-0.012432044371962547,-0.01861828938126564,0.029496919363737106,0.00015793764032423496,0.0016787598142400384
0.0014432629104703665,-0.011742553673684597,-0.01842287741601467,0.029340485110878944,0.0001525716797914356,0.0015784655697643757
0.0015018853591755033,-0.012019445188343525,-0.01860460638999939,0.029138565063476562,0.00014756729069631547,0.001632036524824798
0.0016671232879161835,-0.012601641938090324,-0.017755309119820595,0.03036757931113243,0.00014288102102000266,0.0017782592913135886
0.0017032776959240437,-0.012211182154715061,-0.01779647171497345,0.030039485543966293,0.00016251821944024414,0.0019503321964293718
0.0015738782240077853,-0.012704032473266125,-0.018513046205043793,0.028822369873523712,0.00016097952902782708,0.0018941261805593967
0.0015738782240077853,-0.012704032473266125,-0.018513046205043793,0.028822369873523712,0.00016097952902782708,0.0018941261805593967
0.0016052915016189218,-0.011973653919994831,-0.017823541536927223,0.028458964079618454,0.00015652889851480722,0.0018461400177329779
0.0015934130642563105,-0.012344269081950188,-0.018808063119649887,0.029393188655376434,0.0001479652855778113,0.0016932609723880887
0.0015915230615064502,-0.012160682119429111,-0.01775466278195381,0.029071560129523277,0.00014401850057765841,0.0017152689397335052
0.0018284833058714867,-0.012733176350593567,-0.017903964966535568,0.029221246019005775,0.0001605768338777125,0.0020052888430655003
0.0018521116580814123,-0.012033512815833092,-0.01807076297700405,0.02941972389817238,0.00015931153029669076,0.001922109047882259
0.001696219784207642,-0.012493920512497425,-0.01779205910861492,0.029709553346037865,0.00015556039579678327,0.0021429788321256638
0.001773345866240561,-0.01188642717897892,-0.018533259630203247,0.0290813110768795,0.0001518233329989016,0.0019635502249002457
0.0016234515933319926,-0.012402364984154701,-0.018034378066658974,0.02937193587422371,0.0001482511288486421,0.0019216059008613229
0.0018216475145891309,-0.012713511474430561,-0.018912294879555702,0.029391571879386902,0.00016018513997551054,0.001755578094162047
0.001666175085119903,-0.011879811994731426,-0.018594369292259216,0.029380496591329575,0.0001614648208487779,0.0016439722385257483
0.001984962960705161,-0.01242664735764265,-0.01789092645049095,0.029665134847164154,0.00015823448484297842,0.0016677789390087128
0.0018339661182835698,-0.012222743593156338,-0.0184014979749918,0.029772702604532242,0.00015485189214814454,0.0018052526284009218
0.0020806416869163513,-0.012396772392094135,-0.01834949664771557,0.02980274334549904,0.00015159303438849747,0.0018532935064285994
0.0018700228538364172,-0.011899856850504875,-0.018393518403172493,0.029835455119609833,0.0001484670938225463,0.0019630123861134052
0.0017794067971408367,-0.011815940961241722,-0.01874830387532711,0.02897145226597786,0.0001797467120923102,0.001966795651242137
0.0017831608420237899,-0.012246291153132915,-0.01877066120505333,0.03047054633498192,0.00018363510025665164,0.0019385461928322911
0.0020168418996036053,-0.012158941477537155,-0.018534118309617043,0.03031514398753643,0.0001771399547578767,0.0019210405880585313
0.001866100705228746,-0.012511704117059708,-0.019633417949080467,0.029704809188842773,0.00017047554138116539,0.0017597615951672196
0.0020872976165264845,-0.012024026364088058,-0.018965033814311028,0.029513221234083176,0.00016425545618403703,0.0017587881302461028
0.0018469857750460505,-0.013006092049181461,-0.018030982464551926,0.029508769512176514,0.000181920055183582,0.0016264033038169146
0.0017172378720715642,-0.012294898740947247,-0.019417770206928253,0.029904121533036232,0.00018315642955712974,0.00161439657676965
0.0017335355514660478,-0.01249730121344328,-0.018627522513270378,0.030217109248042107,0.00017761546769179404,0.001624680357053876
0.0017335355514660478,-0.01249730121344328,-0.018627522513270378,0.030217109248042107,0.00017761546769179404,0.001624680357053876
0.0018444701563566923,-0.01247588824480772,-0.018456628546118736,0.030088672414422035,0.00017198921705130488,0.001751095987856388
0.002104533137753606,-0.012727990746498108,-0.01833747699856758,0.029618140310049057,0.0001616909576114267,0.0020303346682339907
0.002104533137753606,-0.012727990746498108,-0.01833747699856758,0.029618140310049057,0.0001616909576114267,0.0020303346682339907
0.001897779293358326,-0.012664924375712872,-0.018671488389372826,0.029934298247098923,0.00017462483083363622,0.0022190206218510866
0.0016583249671384692,-0.012121177278459072,-0.01801794394850731,0.0299508199095726,0.00017287065566051751,0.0023343530483543873
0.0014991022180765867,-0.011882951483130455,-0.018657032400369644,0.029363567009568214,0.00016844696074258536,0.0022210730239748955
0.0013263750588521361,-0.0125080905854702,-0.01857668161392212,0.029430603608489037,0.00016407252405770123,0.002056104363873601
0.0014151250943541527,-0.012233578599989414,-0.018155351281166077,0.029640382155776024,0.00015990878455340862,0.0018649284029379487
0.0017816881882026792,-0.012133645825088024,-0.018077347427606583,0.02973189763724804,0.0001559503289172426,0.0017462242394685745
0.0018906356999650598,-0.01177552156150341,-0.01791522465646267,0.029243407770991325,0.00015218295447994024,0.0017843837849795818
0.0020168088376522064,-0.012134211137890816,-0.01816505938768387,0.02914150431752205,0.00014859334623906761,0.0021131951361894608
0.0017966238083317876,-0.011967947706580162,-0.01832568272948265,0.029676614329218864,0.00015536286809947342,0.0021798370871692896
0.0016169510781764984,-0.01212589256465435,-0.017915362492203712,0.029000775888562202,0.0001614821085240692,0.002224087482318282
0.0014497032389044762,-0.012453281320631504,-0.01836523972451687,0.028185361996293068,0.00015855337551329285,0.002128303050994873
0.00147738098166883,-0.011655433103442192,-0.018555868417024612,0.028083451092243195,0.0001551770546939224,0.0019925597589462996
0.0016889154212549329,-0.01201101578772068,-0.017667550593614578,0.028891703113913536,0.00015190584235824645,0.001942741102539003
0.0018012122018262744,-0.01179639995098114,-0.017950687557458878,0.029010716825723648,0.00014876684872433543,0.0017853324534371495
0.002024343702942133,-0.012303649447858334,-0.0179260466247797,0.029104821383953094,0.00014575538807548583,0.001639787689782679
0.0019749323837459087,-0.011840246617794037,-0.017795922234654427,0.029391830787062645,0.00014286320947576314,0.0015275682089850307
0.0018752426840364933,-0.011443558149039745,-0.018051153048872948,0.02886865846812725,0.00014008348807692528,0.0015371801564469934
0.0016981071094051003,-0.011933514848351479,-0.017586417496204376,0.02868102304637432,0.00013741021393798292,0.0015646853717043996
0.0016981071094051003,-0.011933514848351479,-0.017586417496204376,0.02868102304637432,0.00013741021393798292,0.0015646853717043996
0.0016396702267229557,-0.012111964635550976,-0.01792660728096962,0.02688777819275856,0.0001459660561522469,0.0017500508110970259
0.001861528609879315,-0.011261532083153725,-0.01806035079061985,0.02853361703455448,0.00014301607734523714,0.0017316354205831885
0.002127541694790125,-0.011219204403460026,-0.01722603477537632,0.02946033515036106,0.00013871768896933645,0.0017831906443461776
0.0020707075018435717,-0.011135811917483807,-0.01751093380153179,0.028873486444354057,0.00013457579188980162,0.0018175288569182158
0.0021261179354041815,-0.011313161812722683,-0.01708366535604,0.028511712327599525,0.0001306683843722567,0.0016792481765151024
0.0020528978202492,-0.010991943068802357,-0.017526492476463318,0.02826690673828125,0.00012698084174189717,0.001751030096784234
0.0019229878671467304,-0.010827925056219101,-0.0179222971200943,0.02876395545899868,0.000123495701700449,0.0017733473796397448
0.001894523622468114,-0.010904624126851559,-0.01691778190433979,0.02880210243165493,0.00012019700079690665,0.0018600838957354426
0.00186864600982517,-0.010395972058176994,-0.01705089397728443,0.028803646564483643,0.00011410119623178616,0.0017937625525519252
0.0021144303027540445,-0.010768887586891651,-0.017125140875577927,0.028926240280270576,0.00011127949255751446,0.0017365090316161513
0.002123176120221615,-0.010799689218401909,-0.017351634800434113,0.028753062710165977,0.00010859379835892469,0.00199484801851213
0.0021419634576886892,-0.010701197199523449,-0.01701807789504528,0.028636988252401352,0.0001258238626178354,0.00197187764570117
0.0020517511293292046,-0.010729927569627762,-0.017408007755875587,0.028754200786352158,0.00012422008148860186,0.002028270624577999
0.0019398921867832541,-0.011431866325438023,-0.017031507566571236,0.028674110770225525,0.00012150906695751473,0.001956732477992773
0.0019041311461478472,-0.010652545839548111,-0.016874978318810463,0.02878018654882908,0.0001188402675325051,0.0019772350788116455
0.0018719480140134692,-0.01032332144677639,-0.01739826612174511,0.029169313609600067,0.00011628163338173181,0.002092560287564993
0.0019189780578017235,-0.010061132721602917,-0.017041794955730438,0.029711976647377014,0.00011383039236534387,0.0020982720889151096
0.002285722643136978,-0.010530143976211548,-0.017061155289411545,0.028714509680867195,0.0001114803526434116,0.0020890366286039352
0.0024693049490451813,-0.010025407187640667,-0.016790354624390602,0.027702420949935913,0.0001092253442038782,0.0021094398107379675
0.002353901043534279,-0.01092361006885767,-0.01735089346766472,0.027792803943157196,0.000107059910078533,0.0020801059436053038
0.0021858743857592344,-0.010425613261759281,-0.017472920939326286,0.028580954298377037,0.00010497858602320775,0.002019556937739253
0.002077152021229267,-0.010542085394263268,-0.017034810036420822,0.02899465709924698,0.00010297651897417381,0.0021983119659125805
0.0021724256221204996,-0.010954625904560089,-0.017323650419712067,0.028909092769026756,0.00010104960529133677,0.002032981952652335
0.0019809077493846416,-0.01010632049292326,-0.01699475757777691,0.02987510897219181,0.00011146193719469011,0.0021536843851208687
0.0021548615768551826,-0.010009482502937317,-0.017396215349435806,0.028911028057336807,0.00011335969611536711,0.002397367497906089
0.0021548615768551826,-0.010009482502937317,-0.017396215349435806,0.028911028057336807,0.00011335969611536711,0.002397367497906089
0.002251961501315236,-0.010485587641596794,-0.016562871634960175,0.027300668880343437,0.00010968004062306136,0.0024077959824353456
0.002251961501315236,-0.010485587641596794,-0.016562871634960175,0.027300668880343437,0.00010968004062306136,0.0024077959824353456
0.0022826034110039473,-0.010734367184340954,-0.017079612240195274,0.02789626643061638,0.00010780433512991294,0.002179739996790886
0.0021787122823297977,-0.01103643886744976,-0.016954749822616577,0.028483910486102104,0.00010599072265904397,0.0020309763494879007
0.002181677147746086,-0.010085813701152802,-0.017261944711208344,0.028291456401348114,0.00010423696949146688,0.0018726171692833304
0.001955027226358652,-0.010574724525213242,-0.017347302287817,0.028221217915415764,0.0001025404199026525,0.0019149541622027755
0.002127520041540265,-0.011036223731935024,-0.016378456726670265,0.028874367475509644,0.00010089822171721607,0.002268265699967742
0.0024339647497981787,-0.010820150375366211,-0.01640694960951805,0.028164159506559372,9.7766584076453e-05,0.0025923652574419975
0.002611722331494093,-0.011024500243365765,-0.017372051253914833,0.02802305854856968,9.627263352740556e-05,0.002692242618650198
0.002543387236073613,-0.010638643056154251,-0.016840698197484016,0.0276630986481905,9.482353925704956e-05,0.002557314932346344
0.002332469914108515,-0.01111074723303318,-0.016418175771832466,0.028576374053955078,9.3417453172151e-05,0.002239024033769965
0.0022516639437526464,-0.010406732559204102,-0.016860879957675934,0.028332451358437538,9.205257811117917e-05,0.002106916392222047
0.002246041316539049,-0.010622072964906693,-0.015776578336954117,0.028194421902298927,9.072688408195972e-05,0.0019354289397597313
0.0025776370894163847,-0.011225197464227676,-0.01637687347829342,0.028358053416013718,8.943886496126652e-05,0.0018988087540492415
0.0027891837526112795,-0.010447930544614792,-0.016018372029066086,0.028272485360503197,8.818699279800057e-05,0.0021333673503249884
0.002453387947753072,-0.010384037159383297,-0.01616492308676243,0.028339121490716934,8.696949225850403e-05,0.0022087907418608665
0.0025621671229600906,-0.010678678750991821,-0.01677931658923626,0.028676528483629227,8.578528650105e-05,0.002438272349536419
0.002462987555190921,-0.010427643544971943,-0.016958309337496758,0.028738947585225105,8.463287667836994e-05,0.002574932761490345
0.002369820373132825,-0.010820913128554821,-0.016921037808060646,0.028638584539294243,8.351106225745752e-05,0.002717290772125125
0.002662249142304063,-0.010771261528134346,-0.016298050060868263,0.02854164130985737,8.241852628998458e-05,0.002537635387852788
0.0025793141685426235,-0.01016356609761715,-0.0162467323243618,0.028538694605231285,8.135419921018183e-05,0.002229452133178711
0.002639547223225236,-0.01064106822013855,-0.015949325636029243,0.028073467314243317,8.031705510802567e-05,0.0020903213880956173
0.0027700047940015793,-0.01051254104822874,-0.016529429703950882,0.027900580316781998,7.930611172923818e-05,0.0019607655704021454
0.002776576206088066,-0.010118494741618633,-0.01640540547668934,0.02790752239525318,7.832011760910973e-05,0.002006947062909603
0.0027699689380824566,-0.01051404234021902,-0.016189759597182274,0.02804606221616268,7.73584542912431e-05,0.0022723053116351366
0.0027699689380824566,-0.01051404234021902,-0.016189759597182274,0.02804606221616268,7.73584542912431e-05,0.0022723053116351366
0.0026093297637999058,-0.010327870026230812,-0.016385963186621666,0.028030136600136757,7.642012496944517e-05,0.0025821044109761715
0.0025193626061081886,-0.010956601239740849,-0.016524091362953186,0.027389517053961754,8.517679816577584e-05,0.0025641003157943487
0.0025193626061081886,-0.010956601239740849,-0.016524091362953186,0.027389517053961754,8.517679816577584e-05,0.0025641003157943487
0.002495216904208064,-0.011194533668458462,-0.015784837305545807,0.027620570734143257,8.42646841192618e-05,0.00233671092428267
0.0027410401962697506,-0.010290051810443401,-0.016027480363845825,0.027452921494841576,8.32953883218579e-05,0.002437111223116517
0.002849103882908821,-0.010068192146718502,-0.01590411551296711,0.02743097022175789,8.234311826527119e-05,0.002468362683430314
0.002705767285078764,-0.010417681187391281,-0.016060100868344307,0.027350647374987602,8.0501900811214e-05,0.00246443715877831
0.0028383706230670214,-0.010065456852316856,-0.015999028459191322,0.02742563933134079,7.961173832882196e-05,0.0024224892258644104
0.0029538122471421957,-0.01030486449599266,-0.016168853268027306,0.027567969635128975,5.1980778152938e-06,0.0023618987761437893
0.0030464434530586004,-0.01028040237724781,-0.015951521694660187,0.028488928452134132,3.393973031506903e-07,0.0025197425857186317
0.002860793611034751,-0.010100669227540493,-0.016343295574188232,0.028301211073994637,2.216021677270419e-08,0.0026635504327714443
0.0030375169590115547,-0.010234761983156204,-0.01578974723815918,0.026834389194846153,1.4469039300024633e-09,0.002698606811463833
0.0029475069604814053,-0.010889128781855106,-0.016754990443587303,0.026886075735092163,9.44724853901846e-11,0.0028876319993287325
0.002951037837192416,-0.009903197176754475,-0.016939423978328705,0.027503961697220802,6.168378308135658e-12,0.002843444934114814
0.0028488077223300934,-0.009785952046513557,-0.016741424798965454,0.027247613295912743,4.027510204680784e-13,0.002517566317692399
0.003085267962887883,-0.010380295105278492,-0.016543876379728317,0.027395708486437798,2.6296762957824828e-14,0.0025487500242888927
0.0032801139168441296,-0.010318093001842499,-0.016082266345620155,0.02855892851948738,1.71699073534692e-15,0.002710637403652072
0.003481888445094228,-0.010284596122801304,-0.01686752960085869,0.027988966554403305,1.121072193190504e-16,0.0028940460179001093
0.00330428802408278,-0.010692477226257324,-0.01650165393948555,0.02765311300754547,7.319800649820547e-18,0.003391560399904847
0.003108850447461009,-0.009945989586412907,-0.01694192737340927,0.026455393061041832,4.7793068906757285e-19,0.00316377030685544
0.0030288530979305506,-0.010514053516089916,-0.01681056246161461,0.02715829759836197,3.120545969439686e-20,0.002890496514737606
0.003029732732102275,-0.009787576273083687,-0.016459012404084206,0.0280299112200737,2.0374934729924666e-21,0.0025716000236570835
0.003150631906464696,-0.009869837202131748,-0.016752762719988823,0.027992168441414833,1.3303376811373559e-22,0.0023978175595402718
0.0032170230988413095,-0.009985675103962421,-0.01623753271996975,0.027565035969018936,8.686152949414898e-24,0.002572928322479129
0.0032170230988413095,-0.009985675103962421,-0.01623753271996975,0.027565035969018936,8.686152949414898e-24,0.002572928322479129
0.0031518093310296535,-0.010176580399274826,-0.016406305134296417,0.027271924540400505,3.7030434360460655e-26,0.002668407279998064
0.003489202121272683,-0.009825502522289753,-0.016679134219884872,0.02720293588936329,2.41782304479843e-27,0.0027990068774670362
0.003489202121272683,-0.009825502522289753,-0.016679134219884872,0.02720293588936329,2.41782304479843e-27,0.0027990068774670362
0.003271917812526226,-0.009268161840736866,-0.016448840498924255,0.025961313396692276,1.5786656364853949e-28,0.003125261515378952
0.0031907460652291775,-0.009456553496420383,-0.016373446211218834,0.02686198428273201,1.0307558254450873e-29,0.003191997529938817
0.0031430013477802277,-0.010153897106647491,-0.016499893739819527,0.026949580758810043,4.394272949051803e-32,0.0026317087467759848
0.0033848329912871122,-0.010031454265117645,-0.016963524743914604,0.0267048217356205,2.8691460604740624e-33,0.0026765053626149893
0.003383347997441888,-0.009800209663808346,-0.01639765314757824,0.027024727314710617,1.8733473499689442e-34,0.002832024125382304
0.0034202313981950283,-0.00948934257030487,-0.016882920637726784,0.02693493478000164,1.223161995581981e-35,0.0029166422318667173
0.0032241179142147303,-0.00929871667176485,-0.016638103872537613,0.02683163806796074,7.986373478305783e-37,0.0030720215290784836
0.003214369062334299,-0.00936660636216402,-0.015974020585417747,0.026543987914919853,5.214532024143396e-38,0.0029558681417256594
0.0033866476733237505,-0.009796584956347942,-0.016806168481707573,0.026782333850860596,3.404716661889972e-39,0.002872072160243988
0.00355755933560431,-0.009526330977678299,-0.016471534967422485,0.026582103222608566,2.223033896789533e-40,0.002770191989839077
0.0035403070505708456,-0.008522218093276024,-0.01747477427124977,0.02717931941151619,1.4514649493476455e-41,0.0028384136967360973
0.003563028061762452,-0.010279051959514618,-0.016974128782749176,0.028627553954720497,9.472777618835763e-43,0.0030361658427864313
0.0036072430666536093,-0.009352450259029865,-0.01608090102672577,0.028346939012408257,6.165713243029195e-44,0.003043937496840954
0.0037207419518381357,-0.00928547140210867,-0.01683472841978073,0.02754691056907177,4.203895392974451e-45,0.0030220202170312405
0.0039002196863293648,-0.009429477155208588,-0.016654660925269127,0.027548030018806458,0.0,0.0033615250140428543
0.003672885475680232,-0.009311278350651264,-0.017254367470741272,0.027619849890470505,0.0,0.0032327394001185894
0.0035291844978928566,-0.008914592675864697,-0.016635052859783173,0.027745231986045837,0.0,0.0032387396786361933
0.003707464085891843,-0.009712645784020424,-0.01630578562617302,0.0274210125207901,0.0,0.002886715577915311
0.004137092269957066,-0.00852575246244669,-0.016823114827275276,0.02715223655104637,0.0,0.0027307027485221624
0.004014168865978718,-0.009336236864328384,-0.016323404386639595,0.028100384399294853,0.0,0.002641372149810195
0.00381290796212852,-0.009005524218082428,-0.016955193132162094,0.027256762608885765,0.0,0.003120705019682646
0.004204121418297291,-0.008855333551764488,-0.015960849821567535,0.026791132986545563,0.0,0.003609864041209221
0.004133160226047039,-0.008860246278345585,-0.016601454466581345,0.026095882058143616,0.0,0.0036694142036139965
0.003968121018260717,-0.008824482560157776,-0.016573121771216393,0.026924043893814087,0.0,0.003427916206419468
0.003968121018260717,-0.008824482560157776,-0.016573121771216393,0.026924043893814087,0.0,0.003427916206419468
0.003948046825826168,-0.009670461528003216,-0.016706468537449837,0.028171364217996597,0.0,0.0030559294391423464
0.0034932810813188553,-0.008614102378487587,-0.016744373366236687,0.028069084510207176,0.0,0.0028598627541214228
0.004165079910308123,-0.008773456327617168,-0.016628766432404518,0.02744939923286438,0.0,0.0027215268928557634
0.004248638171702623,-0.008654395118355751,-0.015879223123192787,0.026999173685908318,0.0,0.003252593567594886
0.004242793656885624,-0.008933614008128643,-0.016700053587555885,0.02708493173122406,0.0,0.0036054488737136126
0.0041122292168438435,-0.008789127692580223,-0.016310429200530052,0.026650188490748405,0.0,0.0034586868714541197
0.004057675134390593,-0.008639581501483917,-0.016594618558883667,0.026613961905241013,0.0,0.0034796707332134247
0.004089600872248411,-0.008508633822202682,-0.016830729320645332,0.027017487213015556,0.0,0.0036576129496097565
0.004032187629491091,-0.00851998571306467,-0.016327397897839546,0.026972655206918716,0.0,0.003426286159083247
0.004468206316232681,-0.008457988500595093,-0.016762612387537956,0.026491565629839897,0.0,0.003460607258602977
0.0042097000405192375,-0.007553331553936005,-0.01587679795920849,0.026661919429898262,0.0,0.003657297231256962
0.004169457592070103,-0.008756812661886215,-0.016899975016713142,0.026330018416047096,0.0,0.0033809011802077293
0.004006668925285339,-0.008275200612843037,-0.016677865758538246,0.026193590834736824,0.0,0.003459574654698372
0.0038813527207821608,-0.008432697504758835,-0.016754522919654846,0.026594283059239388,0.0,0.0035715203266590834
0.004474218934774399,-0.008008074946701527,-0.016537249088287354,0.026500551030039787,0.0,0.0036831782199442387
0.004753764718770981,-0.008818755857646465,-0.01628376543521881,0.026833033189177513,0.0,0.0041239080019295216
0.004847087897360325,-0.008665421046316624,-0.016858121380209923,0.026820385828614235,0.0,0.0041619339026510715
0.004460339900106192,-0.008101636543869972,-0.016451049596071243,0.026733001694083214,0.0,0.0036714202724397182
0.0040916274301707745,-0.008317346684634686,-0.016755446791648865,0.026963165029883385,0.0,0.003363701980561018
0.004265098366886377,-0.008475895039737225,-0.016387509182095528,0.02685750275850296,0.0,0.0031834214460104704
0.004524292424321175,-0.008135700598359108,-0.016388649120926857,0.026868576183915138,0.0,0.0034534370061010122
0.0045555876567959785,-0.008034544065594673,-0.01691850647330284,0.026549778878688812,0.0,0.003720661858096719
0.004691263660788536,-0.008014759980142117,-0.016582880169153214,0.026866309344768524,0.0,0.0035476642660796642
0.004468922968953848,-0.008626499213278294,-0.016921760514378548,0.02683538757264614,0.0,0.0035460193175822496
0.004387576598674059,-0.007791018579155207,-0.016162723302841187,0.026543335989117622,0.0,0.0036398267839103937
0.004387576598674059,-0.007791018579155207,-0.016162723302841187,0.026543335989117622,0.0,0.0036398267839103937
0.004562433809041977,-0.00839665625244379,-0.016245335340499878,0.026268431916832924,0.0,0.004205732140690088
0.004562433809041977,-0.00839665625244379,-0.016245335340499878,0.026268431916832924,0.0,0.004205732140690088
0.004661493469029665,-0.008298535831272602,-0.016575396060943604,0.025968201458454132,0.0,0.003926124423742294
0.004557676613330841,-0.008146109990775585,-0.016770100221037865,0.025921212509274483,0.0,0.0037708270829170942
0.005015854723751545,-0.007955833338201046,-0.01599787175655365,0.02568354457616806,0.0,0.00393842626363039
0.004831685684621334,-0.007989919744431973,-0.015823163092136383,0.027275675907731056,0.0,0.003516789758577943
0.004597844090312719,-0.008178587071597576,-0.016428513452410698,0.026599528267979622,0.0,0.0035048227291554213
0.004597979597747326,-0.008471264503896236,-0.016134023666381836,0.025696851313114166,0.0,0.003672587452456355
0.004679695703089237,-0.008384482935070992,-0.016144469380378723,0.024971479550004005,0.0,0.004170649219304323
0.004849948920309544,-0.00807660911232233,-0.01613660342991352,0.02542436309158802,0.0,0.004007682204246521
0.004861540626734495,-0.00864804070442915,-0.015841737389564514,0.025767354294657707,0.0,0.0037539678160101175
0.0050177969969809055,-0.00876112561672926,-0.016480430960655212,0.02525249868631363,0.0,0.003741487395018339
0.004822693765163422,-0.00840400904417038,-0.015877394005656242,0.02568303793668747,0.0,0.003811584785580635
0.004483131226152182,-0.008302198722958565,-0.016509659588336945,0.026194237172603607,0.0,0.004168085753917694
0.004478388000279665,-0.008699160069227219,-0.01586545631289482,0.02616824209690094,0.0,0.004002915229648352
0.004664347507059574,-0.00905620213598013,-0.016041504219174385,0.026619363576173782,0.0,0.003533810144290328
0.00532945292070508,-0.00865622516721487,-0.016575096175074577,0.02505827695131302,0.0,0.0039616534486413
0.004810454323887825,-0.007941178977489471,-0.01648377813398838,0.024269932880997658,0.0,0.004352733958512545
0.004844920709729195,-0.00824111606925726,-0.01650591939687729,0.02557954750955105,0.0,0.004068862646818161
0.004744581878185272,-0.008645671419799328,-0.01596633903682232,0.02565852552652359,0.0,0.004200768191367388
0.004895886871963739,-0.008603074587881565,-0.016279088333249092,0.025662146508693695,0.0,0.004325095098465681
0.004860302433371544,-0.008644727058708668,-0.01573372073471546,0.02535872347652912,0.0,0.0045221224427223206
0.00532153295353055,-0.008525829762220383,-0.016622625291347504,0.025355476886034012,0.0,0.00434719817712903
0.005057464819401503,-0.008872673846781254,-0.016191065311431885,0.025458546355366707,0.0,0.004359693732112646
0.004829498007893562,-0.008723833598196507,-0.017038021236658096,0.025284649804234505,0.0,0.004100814461708069
0.004829498007893562,-0.008723833598196507,-0.017038021236658096,0.025284649804234505,0.0,0.004100814461708069
0.005201232153922319,-0.008929280564188957,-0.015890294685959816,0.025325283408164978,0.0,0.004284868948161602
0.004990149289369583,-0.00908181257545948,-0.01568412221968174,0.025942208245396614,0.0,0.004567084833979607
0.005005293525755405,-0.008803540840744972,-0.016697440296411514,0.02559776045382023,0.0,0.004637645557522774
0.005395276937633753,-0.00991979893296957,-0.01599854789674282,0.02496222034096718,0.0,0.004305958282202482
0.005076050292700529,-0.00900943297892809,-0.016970457509160042,0.02516782470047474,0.0,0.004393452312797308
0.005515986122190952,-0.008762872777879238,-0.015914861112833023,0.025573622435331345,0.0,0.004184584598988295
0.005059949122369289,-0.009219400584697723,-0.016696270555257797,0.025736941024661064,0.0,0.004266169387847185
0.005462483037263155,-0.00920883473008871,-0.0163583904504776,0.025638975203037262,0.0,0.004326579160988331
0.005202956032007933,-0.008445704355835915,-0.016004711389541626,0.02590302750468254,0.0,0.004540423862636089
0.005325299687683582,-0.008829383179545403,-0.015476677566766739,0.025820907205343246,0.0,0.0046629225835204124
0.005476620513945818,-0.008817560970783234,-0.016348131000995636,0.0255428534001112,0.0,0.004587207920849323
0.005196692422032356,-0.00870798621326685,-0.01600043661892414,0.025225818157196045,0.0,0.0046029649674892426
0.005286483559757471,-0.009458525106310844,-0.016406208276748657,0.025735322386026382,0.0,0.0044192299246788025
0.00556817464530468,-0.00877163652330637,-0.015763990581035614,0.02610763907432556,0.0,0.004333840683102608
0.005634184926748276,-0.008788175880908966,-0.01614272966980934,0.026730326935648918,0.0,0.004596509970724583
0.005607665050774813,-0.00852186419069767,-0.016171516850590706,0.026082463562488556,0.0,0.004973544739186764
0.005383170675486326,-0.00880581233650446,-0.015508112497627735,0.025425920262932777,0.0,0.005039968527853489
0.005042435135692358,-0.00858012679964304,-0.015912959352135658,0.025178108364343643,0.0,0.004936245270073414
0.005402037873864174,-0.00868363305926323,-0.015690350905060768,0.025667032226920128,0.0,0.00433939415961504
0.005791828967630863,-0.008889109827578068,-0.01611895114183426,0.02569631114602089,0.0,0.004207972437143326
0.006073018070310354,-0.008820414543151855,-0.01552902814000845,0.025079185143113136,0.0,0.004508346319198608
0.00535921473056078,-0.00808572769165039,-0.01596585102379322,0.025175131857395172,0.0,0.004900985397398472
0.00530969025567174,-0.008351793512701988,-0.015692278742790222,0.026370245963335037,0.0,0.005277609918266535
0.00530969025567174,-0.008351793512701988,-0.015692278742790222,0.026370245963335037,0.0,0.005277609918266535
0.0057226670905947685,-0.008724100887775421,-0.01585540361702442,0.025619501248002052,0.0,0.005616434849798679
0.005714811384677887,-0.008445056155323982,-0.015958823263645172,0.02518070861697197,0.0,0.005058653652667999
0.005764963570982218,-0.0086060194298625,-0.015701746568083763,0.02431839518249035,0.0,0.004738476127386093
0.005977341439574957,-0.008551770821213722,-0.015714628621935844,0.024683725088834763,0.0,0.00496401684358716
0.005357901565730572,-0.008369202725589275,-0.015356496907770634,0.02528122439980507,0.0,0.005339018069207668
0.005899976938962936,-0.00817797053605318,-0.01533992774784565,0.025390950962901115,0.0,0.00555451912805438
0.006126619875431061,-0.008544004522264004,-0.014698512852191925,0.025082334876060486,0.0,0.005579927004873753
0.0062392414547502995,-0.00811633002012968,-0.015247287228703499,0.025130540132522583,0.0,0.0050840419717133045
0.005465278401970863,-0.008117301389575005,-0.015729568898677826,0.02543916366994381,0.0,0.004941089544445276
0.005842588376253843,-0.008381006307899952,-0.015019625425338745,0.025370992720127106,7.118801022443222e-06,0.005481853149831295
0.0062019359320402145,-0.00836765393614769,-0.015373369678854942,0.02538423240184784,4.6480687387884245e-07,0.005792167037725449
0.006069973111152649,-0.008373127318918705,-0.015324009582400322,0.025062603875994682,3.0348566326665605e-08,0.0057046376168727875
0.0060461414977908134,-0.008419041521847248,-0.015567935071885586,0.024520104750990868,1.981544484053188e-09,0.0051244585774838924
0.005812305025756359,-0.008321978151798248,-0.01487036608159542,0.024485329166054726,1.293807005975367e-10,0.00505494698882103
0.006107572466135025,-0.00820986833423376,-0.014979570172727108,0.024465125054121017,8.447634952668537e-12,0.0051253302954137325
0.00656745582818985,-0.007995985448360443,-0.015409143641591072,0.0243940819054842,5.515701827565889e-13,0.005648284684866667
0.007311814930289984,-0.008290544152259827,-0.0150773786008358,0.02451440691947937,3.601359458587673e-14,0.005770256742835045
0.006647683680057526,-0.007855004630982876,-0.015569872222840786,0.024493014439940453,2.351430377180771e-15,0.005717973690479994
0.006363376509398222,-0.0074939304031431675,-0.015250073745846748,0.024077637121081352,1.5353157736275878e-16,0.005208649206906557
0.006427043583244085,-0.0074787563644349575,-0.01516780722886324,0.023920683190226555,1.0024515816746437e-17,0.005263324826955795
0.007206932175904512,-0.007962075062096119,-0.014605852775275707,0.024175677448511124,6.545292520530635e-19,0.0054921372793614864
0.0069503383710980415,-0.007864001207053661,-0.015437077730894089,0.024267414584755898,4.2736082783573304e-20,0.005862765479832888
0.006617749109864235,-0.0071106040850281715,-0.015038300305604935,0.024469668045639992,2.7903607124574845e-21,0.005890862550586462
0.0064224055968225,-0.007648100145161152,-0.015549099072813988,0.02462957426905632,1.8219060674796253e-22,0.005491713993251324
0.0067680650390684605,-0.007919314317405224,-0.014399580657482147,0.024219626560807228,1.189574477169422e-23,0.005609582178294659
0.00725084263831377,-0.00809314101934433,-0.015086603350937366,0.02397630177438259,7.76707122469498e-25,0.0059095723554492
0.00725084263831377,-0.00809314101934433,-0.015086603350937366,0.02397630177438259,7.76707122469498e-25,0.0059095723554492
0.00743648037314415,-0.0072420574724674225,-0.014784847386181355,0.024288564920425415,5.071342705823332e-26,0.005717535503208637
0.0065937102772295475,-0.007196897175163031,-0.015157902613282204,0.024471716955304146,3.311224390365753e-27,0.005904546007514
0.006912498269230127,-0.008674669079482555,-0.01463767047971487,0.024789003655314445,2.1619928628594807e-28,0.005459940060973167
0.0069844964891672134,-0.007946684956550598,-0.015474621206521988,0.024309920147061348,1.411626903699084e-29,0.0058382051065564156
0.0069129285402596,-0.007075847592204809,-0.015148176811635494,0.023995043709874153,9.216914847452861e-31,0.005916072987020016
0.007231526076793671,-0.007997349835932255,-0.014483602717518806,0.024075744673609734,3.9293150482600754e-33,0.006439226679503918
0.007410415448248386,-0.007412124425172806,-0.015040959231555462,0.02414080686867237,2.5655618792402407e-34,0.006142034195363522
0.007374398875981569,-0.007265806198120117,-0.015065542422235012,0.023748118430376053,1.675128524515019e-35,0.0062332069501280785
0.007316690869629383,-0.007804678287357092,-0.015112387016415596,0.023925025016069412,1.0937391456141616e-36,0.005801656283438206
0.007410177029669285,-0.007685343734920025,-0.015240754000842571,0.02511081099510193,7.141335909729748e-38,0.005832429509609938
0.007483622990548611,-0.00707932747900486,-0.015243345871567726,0.024862056598067284,4.662781403683828e-39,0.006411476526409388
0.007864896208047867,-0.007238693535327911,-0.015239307656884193,0.02435152605175972,3.0444610435920976e-40,0.006535041611641645
0.007403128314763308,-0.007105106953531504,-0.015019363723695278,0.023451227694749832,1.9878820014911855e-41,0.006570304743945599
0.007495244964957237,-0.007619453128427267,-0.015323066152632236,0.023911889642477036,1.2976023779647806e-42,0.006296873092651367
0.0076250373385846615,-0.007466443814337254,-0.015215130522847176,0.02440299093723297,8.407790785948902e-44,0.00650767469778657
0.007410389371216297,-0.0074133542366325855,-0.016380298882722855,0.024630310013890266,5.605193857299268e-45,0.006375747267156839
0.007413866464048624,-0.007523496635258198,-0.01596064120531082,0.02432897314429283,0.0,0.006154564209282398
0.007752986159175634,-0.007602381985634565,-0.016298025846481323,0.024807844310998917,0.0,0.006123214494436979
0.008135340176522732,-0.0074049062095582485,-0.016079967841506004,0.025290805846452713,0.0,0.0059911757707595825
0.00786612369120121,-0.007480665575712919,-0.016159899532794952,0.024743378162384033,0.0,0.006434210576117039
0.007509256713092327,-0.007539786864072084,-0.01563509926199913,0.024773025885224342,0.0,0.0066550192423164845
0.008182840421795845,-0.007737607229501009,-0.01565755531191826,0.024108439683914185,0.0,0.006217687390744686
0.007993746548891068,-0.007257616147398949,-0.01601184718310833,0.023830173537135124,0.0,0.006142334081232548
0.007446349132806063,-0.0070326910354197025,-0.015467087738215923,0.023992212489247322,0.0,0.006821195129305124
0.007884267717599869,-0.007148736622184515,-0.016644759103655815,0.024210812523961067,0.0,0.007024538237601519
0.008253534324467182,-0.007730892393738031,-0.01581553742289543,0.024427536875009537,0.0,0.006772939581423998
0.008560534566640854,-0.0074090296402573586,-0.016226867213845253,0.024416012689471245,0.0,0.006428497843444347
0.007976590655744076,-0.006968094501644373,-0.015606287866830826,0.024566050618886948,-0.0002520302659831941,0.006671920884400606
0.007976590655744076,-0.006968094501644373,-0.015606287866830826,0.024566050618886948,-0.0002520302659831941,0.006671920884400606
0.007598362863063812,-0.007372728548943996,-0.015890486538410187,0.024270426481962204,-0.00038864879752509296,0.007103725336492062
0.008047573268413544,-0.007617916911840439,-0.015828188508749008,0.023804694414138794,-0.00043568562250584364,0.0068769208155572414
0.007979042828083038,-0.0070481146685779095,-0.015766747295856476,0.023571519181132317,-0.0004578765365295112,0.0066916304640471935
0.007513902150094509,-0.007164045237004757,-0.015950137749314308,0.02356884256005287,-0.00044163086568005383,0.00799428392201662
0.008386034518480301,-0.007460067979991436,-0.01577131077647209,0.023618735373020172,-0.00041365763172507286,0.00706616323441267
0.008221517316997051,-0.006782543379813433,-0.01576225832104683,0.023528821766376495,-0.00041766956564970315,0.006555791012942791
0.008146258071064949,-0.006927051581442356,-0.01573079265654087,0.023437172174453735,-0.0004667082102969289,0.0071647437289357185
0.008769910782575607,-0.0070299748331308365,-0.01540526282042265,0.023303717374801636,-0.00048563143354840577,0.007566644344478846
0.008564393036067486,-0.007307123392820358,-0.01601138710975647,0.023022236302495003,-0.00044240226270630956,0.007849402725696564
0.008346554823219776,-0.007233554031699896,-0.015887664631009102,0.02294330485165119,-0.0004724775499198586,0.007340009789913893
0.009086890146136284,-0.007398172747343779,-0.016292784363031387,0.02300894632935524,-0.00044313573744148016,0.007006751373410225
0.008827018551528454,-0.007492387667298317,-0.01613144390285015,0.0226646289229393,-0.00041007803520187736,0.007266902830451727
0.00855744257569313,-0.00757357943803072,-0.015588059090077877,0.02261405624449253,-0.0003811508940998465,0.007639660499989986
0.008731677196919918,-0.0070811244659125805,-0.01572464406490326,0.022962208837270737,-0.00040728022577241063,0.00756645854562521
0.009254462085664272,-0.006556127220392227,-0.015560731291770935,0.022553037852048874,-0.0003891164669767022,0.0071793668903410435
0.00919011514633894,-0.007055607158690691,-0.016105594113469124,0.022516842931509018,-0.00039242624188773334,0.007252214942127466
0.008433183655142784,-0.007036347407847643,-0.015514939092099667,0.02252555638551712,-0.00039450867916457355,0.008068371564149857
0.009581856429576874,-0.006740388460457325,-0.01581265963613987,0.022382136434316635,-0.0003754720091819763,0.007799755781888962
0.0091959647834301,-0.006169436499476433,-0.015273042023181915,0.022295860573649406,-0.0003676461928989738,0.0075311800464987755
0.010352743789553642,-0.007563295308500528,-0.01575096882879734,0.022774679586291313,-0.00039465390727855265,0.007603595033288002
0.009249902330338955,-0.007638914976269007,-0.01615307852625847,0.023633865639567375,-0.000382684578653425,0.008097413927316666
0.00895295012742281,-0.00682603707537055,-0.01622195355594158,0.022687241435050964,-0.0004022711655125022,0.007822439074516296
0.00865949410945177,-0.0064541916362941265,-0.01580224372446537,0.022559987381100655,-0.00039106616168282926,0.007362244185060263
0.010379951447248459,-0.006735527887940407,-0.015432560816407204,0.02219688706099987,-0.0004181218973826617,0.007916860282421112
0.009826356545090675,-0.006752611603587866,-0.0160687193274498,0.022337879985570908,-0.0006087120855227113,0.008307058364152908
0.009292082861065865,-0.006762530654668808,-0.015595396049320698,0.022664500400424004,-0.0005971569335088134,0.008269304409623146
0.009099963121116161,-0.0063318549655377865,-0.01591985486447811,0.02256065607070923,-0.000622361374553293,0.007763533387333155
0.00953225139528513,-0.006096736062318087,-0.015255102887749672,0.02221275120973587,-0.0005693005514331162,0.007825328968465328
0.00953225139528513,-0.006096736062318087,-0.015255102887749672,0.02221275120973587,-0.0005693005514331162,0.007825328968465328
0.00942396093159914,-0.00654074689373374,-0.015943128615617752,0.022783953696489334,-0.00058968790108338,0.008449544198811054
0.009513262659311295,-0.006805724930018187,-0.015452024526894093,0.023187344893813133,-0.0005863148835487664,0.00841683242470026
0.009930197149515152,-0.007025050465017557,-0.015910672023892403,0.023245126008987427,-0.0005745792877860367,0.008294048719108105
0.00946818571537733,-0.006899219937622547,-0.01567281410098076,0.022497469559311867,-0.0005342221120372415,0.007822285406291485
0.009610475040972233,-0.0065838973969221115,-0.01580151729285717,0.022122906520962715,-0.000524790957570076,0.007521356455981731
0.009660317562520504,-0.00675173569470644,-0.015300200320780277,0.02223537489771843,-0.00043007911881431937,0.0076488410122692585
0.009714211337268353,-0.006062825210392475,-0.015681078657507896,0.022448144853115082,-0.0004500701616052538,0.007982339709997177
0.01016393955796957,-0.006007806397974491,-0.015398150309920311,0.022826367989182472,-0.0004318529972806573,0.008536663837730885
0.009504014626145363,-0.006657169666141272,-0.01587475650012493,0.022882044315338135,-0.00040093259303830564,0.008565336465835571
0.009561151266098022,-0.006676276680082083,-0.015332582406699657,0.02241467498242855,-0.00037327519385144114,0.008240005001425743
0.010305272415280342,-0.006191644351929426,-0.016098035499453545,0.022049318999052048,-0.00039942076546140015,0.008160577155649662
0.009967382997274399,-0.00590532086789608,-0.015546618029475212,0.022044289857149124,-0.0003820560232270509,0.008299182169139385
0.010488731786608696,-0.006102703046053648,-0.015591207891702652,0.022086163982748985,-0.0003606277168728411,0.008717005141079426
0.010344217531383038,-0.006878458429127932,-0.015378527343273163,0.022086549550294876,-0.00034112221328541636,0.008769639767706394
0.01011636946350336,-0.007003356236964464,-0.015849290415644646,0.021845994517207146,-0.000323596119415015,0.008853468112647533
0.010234242305159569,-0.006323695182800293,-0.01666056178510189,0.022008763626217842,-0.0003458551364019513,0.008737188763916492
0.010926333256065845,-0.006325235590338707,-0.015817277133464813,0.021993670612573624,-0.0003349770850036293,0.00885376613587141
0.01008884608745575,-0.006624375469982624,-0.01648969016969204,0.02138455957174301,-0.0003204085223842412,0.008820866234600544
0.010225503705441952,-0.006456556264311075,-0.015530532225966454,0.021339958533644676,-0.000306776404613629,0.008706214837729931
0.010654294863343239,-0.006296928972005844,-0.015645265579223633,0.021667009219527245,-0.00029423824162222445,0.009478205814957619
0.010065325535833836,-0.006518426351249218,-0.015202882699668407,0.021695313975214958,-0.00025773467496037483,0.00915608275681734
0.010443421080708504,-0.006211149971932173,-0.015947718173265457,0.02177857607603073,-0.00024098149151541293,0.009429690428078175
0.010582671500742435,-0.00606940034776926,-0.01591850072145462,0.021433882415294647,-0.00022854548296891153,0.009122062474489212
0.009845023974776268,-0.0067636012099683285,-0.016302790492773056,0.02138381451368332,-0.0002551493817009032,0.008990825153887272
0.010658174753189087,-0.006624777335673571,-0.01633686199784279,0.022327475249767303,-0.00024856431991793215,0.008891400881111622
0.010099741630256176,-0.005682499147951603,-0.015509741380810738,0.02219286374747753,-0.00023794671869836748,0.008819720707833767
0.009972264990210533,-0.006364391651004553,-0.015802225098013878,0.021526271477341652,-0.00025599313084967434,0.009281625971198082
0.010563359595835209,-0.006749998312443495,-0.015767771750688553,0.021448928862810135,-0.0002544928283896297,0.010058737359941006
0.010563359595835209,-0.006749998312443495,-0.015767771750688553,0.021448928862810135,-0.0002544928283896297,0.010058737359941006
0.010494895279407501,-0.006366584450006485,-0.015665587037801743,0.02137349359691143,-0.0002674477291293442,0.009687962010502815
0.010904231108725071,-0.004713417496532202,-0.016257649287581444,0.021445047110319138,-0.00025984691455960274,0.009253567084670067
0.010904231108725071,-0.004713417496532202,-0.016257649287581444,0.021445047110319138,-0.00025984691455960274,0.009253567084670067
0.009871500544250011,-0.003812618087977171,-0.015856776386499405,0.021109919995069504,-0.0003691111924126744,0.009417446330189705
0.010146668180823326,-0.0036636115983128548,-0.016310840845108032,0.021254761144518852,-0.0003571794368326664,0.009612910449504852
0.010215910151600838,-0.004102384205907583,-0.01611228473484516,0.020761391147971153,-0.00036415402428247035,0.010149098001420498
0.010228864848613739,-0.004847274161875248,-0.015841443091630936,0.021201515570282936,-0.0003470352094154805,0.008357099257409573
0.010268774814903736,-0.004224651027470827,-0.01592181995511055,0.021407416090369225,-0.00036622665356844664,0.009042653255164623
0.010364201851189137,-0.004229899030178785,-0.01715840958058834,0.02155398577451706,-0.0003579395415727049,0.009419998154044151
0.011132588610053062,-0.0043179853819310665,-0.016153160482645035,0.021572774276137352,-0.0003394669620320201,0.009412959218025208
0.010354257188737392,-0.004626408684998751,-0.015956254675984383,0.02191353775560856,-0.00036199463647790253,0.009599464014172554
0.009939825162291527,-0.004968433175235987,-0.01591893658041954,0.022004680708050728,-0.00034986052196472883,0.010508865118026733
0.010476011782884598,-0.004422828555107117,-0.015898017212748528,0.022590793669223785,-0.0003339843824505806,0.0102985305711627
0.010277798399329185,-0.004448496736586094,-0.01610434800386429,0.02243136428296566,-0.00035088619915768504,0.009930351749062538
0.010491184890270233,-0.004219666589051485,-0.01601087674498558,0.02177501656115055,-0.0003542885242495686,0.009973112493753433
0.011240708641707897,-0.003528439439833164,-0.017086166888475418,0.021019991487264633,-0.0003303023986518383,0.010607780888676643
0.010358674451708794,-0.0040577491745352745,-0.015015142038464546,0.02102525345981121,-0.00033772471942938864,0.01064529549330473
0.010261035524308681,-0.004148651845753193,-0.015792332589626312,0.021112894639372826,-0.00034367042826488614,0.010370518080890179
0.01086503453552723,-0.0040121604688465595,-0.01564909517765045,0.02180592156946659,-0.0003247888816986233,0.010762668214738369
0.010517781600356102,-0.003821958787739277,-0.01649913378059864,0.021815668791532516,-0.0003064664197154343,0.01072475966066122
0.010697439312934875,-0.003775568911805749,-0.016172941774129868,0.021300051361322403,-0.00033500834251753986,0.010640122927725315
0.010738462209701538,-0.0037360689602792263,-0.016555150970816612,0.021323982626199722,-0.0003208760463166982,0.010070720687508583
0.01030364353209734,-0.0037258171942085028,-0.016374200582504272,0.02215496450662613,-0.0003055034903809428,0.009839789941906929
0.010855237022042274,-0.003672053338959813,-0.015944557264447212,0.02246345393359661,-0.0002913820499088615,0.010645054280757904
0.010966270230710506,-0.003917846363037825,-0.016226356849074364,0.021924834698438644,-0.0002784986572805792,0.01033774670213461
0.010932864621281624,-0.003947203513234854,-0.015734443441033363,0.020646652206778526,-0.00030220835469663143,0.010289001278579235
0.01084398478269577,-0.0038390513509511948,-0.016022711992263794,0.020462101325392723,-0.0002922554558608681,0.010604527778923512
0.010747574269771576,-0.003773288568481803,-0.01589316502213478,0.021024057641625404,-0.0002809981524478644,0.010700180195271969
0.010747574269771576,-0.003773288568481803,-0.01589316502213478,0.021024057641625404,-0.0002809981524478644,0.010700180195271969
0.010777679271996021,-0.0038294580299407244,-0.016536662355065346,0.02120903879404068,-0.0002704513317439705,0.01046836469322443
0.011016021482646465,-0.004384523723274469,-0.01631074585020542,0.021449154242873192,-0.00026927280123345554,0.01030571386218071
0.011101046577095985,-0.004140198230743408,-0.01616007462143898,0.020578643307089806,-0.00026217559934593737,0.010707546956837177
0.011090656742453575,-0.004395527299493551,-0.016212763264775276,0.02059248834848404,-0.0002482696436345577,0.010340478271245956
0.01234416663646698,-0.003920514602214098,-0.016128206625580788,0.020427457988262177,-0.00025524935335852206,0.00978080090135336
0.01234416663646698,-0.003920514602214098,-0.016128206625580788,0.020427457988262177,-0.00025524935335852206,0.00978080090135336
0.012588921934366226,-0.0038657065015286207,-0.01650121621787548,0.020413918420672417,-0.00024405682052019984,0.010536561720073223
0.014316479675471783,-0.0038227876648306847,-0.016193600371479988,0.02068627066910267,-0.00026227737544104457,0.010913076810538769
0.01359725371003151,-0.003824248444288969,-0.01630789041519165,0.020761879161000252,-0.00026048487052321434,0.010907553136348724
0.014038371853530407,-0.0038223390001803637,-0.016148287802934647,0.020624060183763504,-0.00025070933043025434,0.010969117283821106
0.013306180015206337,-0.0034245492424815893,-0.015610861591994762,0.0203651525080204,-0.00027326124836690724,0.011113154701888561
0.013304016552865505,-0.003561576595529914,-0.015788063406944275,0.02030918002128601,-0.0002661537437234074,0.01044861413538456
0.013196369633078575,-0.004124956671148539,-0.01571916975080967,0.020471079275012016,-0.0003600661875680089,0.01067220326513052
0.013583177700638771,-0.004203575197607279,-0.01667649857699871,0.020064501091837883,-0.00034037319710478187,0.010257704183459282
0.013834720477461815,-0.003520155558362603,-0.016222743317484856,0.02018072083592415,-0.00037581732613034546,0.010475420393049717
0.013774623163044453,-0.0031711540650576353,-0.016355428844690323,0.02075495384633541,-0.0003549763059709221,0.010498179122805595
0.014195866882801056,-0.0031695584766566753,-0.015970947220921516,0.02118091844022274,-0.0003333087370265275,0.010888825170695782
0.014227836392819881,-0.0034198348876088858,-0.015780042856931686,0.02089332789182663,-0.00033941763103939593,0.011613813228905201
0.013837828300893307,-0.003558105556294322,-0.01574639417231083,0.02063128910958767,-0.0003443793684709817,0.011023868806660175
0.014108462259173393,-0.0035464793909341097,-0.015853414312005043,0.02049499936401844,-0.0003279839875176549,0.011176458559930325
0.014264385215938091,-0.0035453373566269875,-0.016643768176436424,0.019907131791114807,-0.00031184472027234733,0.011489832773804665
0.014452995732426643,-0.003650776343420148,-0.016085172072052956,0.0195783581584692,-0.00029713878757320344,0.011754777282476425
0.014626613818109035,-0.0033986743073910475,-0.016605891287326813,0.019941048696637154,-0.0002837525389622897,0.012696905992925167
0.014421296305954456,-0.0036109609063714743,-0.01622059755027294,0.020120196044445038,-0.0002715204900596291,0.011267168447375298
0.014424294233322144,-0.0038256270345300436,-0.0161709263920784,0.020211299881339073,-0.0002602995955385268,0.01101707387715578
0.01444227434694767,-0.003421881701797247,-0.01615704409778118,0.020330647006630898,-0.00028325157472863793,0.011338264681398869
0.01444227434694767,-0.003421881701797247,-0.01615704409778118,0.020330647006630898,-0.00028325157472863793,0.011338264681398869
0.014095558784902096,-0.0031631411984562874,-0.01622050255537033,0.020190691575407982,-0.00027461626450531185,0.011926849372684956
0.01395978033542633,-0.003386060707271099,-0.016509167850017548,0.02017100900411606,-0.0002552866644691676,0.011676354333758354
0.01395978033542633,-0.003386060707271099,-0.016509167850017548,0.02017100900411606,-0.0002552866644691676,0.011676354333758354
0.014153598807752132,-0.0034610279835760593,-0.01657283864915371,0.020156756043434143,-0.0002378397766733542,0.01210525631904602
0.014153598807752132,-0.0034610279835760593,-0.01657283864915371,0.020156756043434143,-0.0002378397766733542,0.01210525631904602
0.013586495071649551,-0.003460834501311183,-0.01676274463534355,0.020447509363293648,-0.00021513336105272174,0.012562190182507038
0.014398675411939621,-0.00353832496330142,-0.01633378304541111,0.020393669605255127,-0.0002053157368209213,0.012002909556031227
0.015018929727375507,-0.0036814631894230843,-0.016481202095746994,0.019828008487820625,-0.00023038024664856493,0.012317768298089504
0.014333756640553474,-0.00327484542503953,-0.016038915142416954,0.019107313826680183,-0.00022542924853041768,0.012427136301994324
0.014519819989800453,-0.0034739107359200716,-0.017156099900603294,0.019043169915676117,-0.00021668690897058696,0.011975024826824665
0.014270050451159477,-0.0036974530667066574,-0.016878506168723106,0.019013728946447372,-0.00023845056421123445,0.012077775783836842
0.014273214153945446,-0.004215487744659185,-0.016845889389514923,0.01983688212931156,-0.00023373783915303648,0.012002105824649334
0.014498764649033546,-0.0042333947494626045,-0.016993030905723572,0.020043296739459038,-0.00022563603124581277,0.012515367940068245
0.01478416845202446,-0.003988453187048435,-0.01637115515768528,0.01945463940501213,-0.00023310078540816903,0.012490887194871902
0.014379027299582958,-0.0038542523980140686,-0.01665232703089714,0.01972750388085842,-0.00023961406259331852,0.012092790566384792
0.014779220335185528,-0.00391206331551075,-0.0160121638327837,0.02023487538099289,-0.00023279865854419768,0.012021057307720184
0.014432241208851337,-0.003433131380006671,-0.016593096777796745,0.019916031509637833,-0.0002255656145280227,0.012221458368003368
0.014654750004410744,-0.00392176304012537,-0.01635684445500374,0.018863126635551453,-0.0002661881153471768,0.012254838831722736
0.014603338204324245,-0.0042143333703279495,-0.016900604590773582,0.01882997527718544,-0.0002937407116405666,0.012214519083499908
0.014771233312785625,-0.004033428151160479,-0.016990141943097115,0.018205882981419563,-0.000278498133411631,0.012732039205729961
0.0147290900349617,-0.003400468500331044,-0.016225485131144524,0.018662720918655396,-0.0003078410227317363,0.01269947923719883
0.014409405179321766,-0.0034927604719996452,-0.016840234398841858,0.019112372770905495,-0.0002971187059301883,0.012757549993693829
0.0148297268897295,-0.004214401822537184,-0.01647174544632435,0.019024357199668884,-0.00028200517408549786,0.01270538941025734
0.014777401462197304,-0.004144270904362202,-0.01673683151602745,0.019375445321202278,-0.0002680299221538007,0.012754061259329319
0.014777401462197304,-0.004144270904362202,-0.01673683151602745,0.019375445321202278,-0.0002680299221538007,0.012754061259329319
0.01510336808860302,-0.00348156550899148,-0.016636641696095467,0.019246015697717667,-0.0002922116545960307,0.012739247642457485
0.01491952408105135,-0.0032574350479990244,-0.01708218641579151,0.019101126119494438,-0.00027214130386710167,0.012563004158437252
0.014875602908432484,-0.003383735893294215,-0.016584133729338646,0.019062167033553123,-0.00029319198802113533,0.012548524886369705
0.014875602908432484,-0.003383735893294215,-0.016584133729338646,0.019062167033553123,-0.00029319198802113533,0.012548524886369705
0.014753760769963264,-0.003481882391497493,-0.017031574621796608,0.018578195944428444,-0.0002859795349650085,0.013169731013476849
0.014924487099051476,-0.003426657058298588,-0.016291474923491478,0.019272945821285248,-0.00033480525598861277,0.013001526705920696
0.014753764495253563,-0.00356434122659266,-0.016508083790540695,0.01907947286963463,-0.0003164699301123619,0.01286044716835022
0.015195903368294239,-0.003721350571140647,-0.0167325958609581,0.019469784572720528,-0.00029598255059681833,0.012951426208019257
0.014749310910701752,-0.0033665543887764215,-0.017352836206555367,0.01923101581633091,-0.0002777292102109641,0.012742930091917515
0.015210040844976902,-0.0035730479285120964,-0.016333427280187607,0.01898026280105114,-0.00030012454953975976,0.012757601216435432
0.014798860996961594,-0.0037983963266015053,-0.01672866940498352,0.019476106390357018,-0.0002957441611215472,0.013879960402846336
0.01520933024585247,-0.0034420834854245186,-0.016564907506108284,0.019447943195700645,-0.0002811324084177613,0.013187814503908157
0.01514754630625248,-0.003552759997546673,-0.01640222780406475,0.019229652360081673,-0.00030583326588384807,0.013174602761864662
0.015249299816787243,-0.0038025060202926397,-0.016551988199353218,0.019298570230603218,-0.00029671424999833107,0.013118713162839413
0.014694780111312866,-0.0034779307898133993,-0.016069695353507996,0.019202273339033127,-0.0003136300074402243,0.01325706671923399
0.015545396134257317,-0.00342441163957119,-0.016669288277626038,0.01863742247223854,-0.0003095829742960632,0.012977555394172668
0.01532189641147852,-0.0034554176963865757,-0.01617562398314476,0.019126228988170624,-0.00029740898753516376,0.013121387921273708
0.015719186514616013,-0.003513581119477749,-0.01673278957605362,0.019274845719337463,-0.0002856481878552586,0.01383337564766407
0.015286091715097427,-0.0034535638988018036,-0.016553610563278198,0.018932154402136803,-0.00031128674163483083,0.01376303844153881
0.015592456795275211,-0.003466108115389943,-0.0167757049202919,0.01917494833469391,-0.00030301258084364235,0.014040992595255375
0.015921320766210556,-0.003269641660153866,-0.016743429005146027,0.019138354808092117,-0.00028466590447351336,0.013797441497445107
0.015563216991722584,-0.0034711856860667467,-0.01613646000623703,0.01873559132218361,-0.00026777375023812056,0.013355595991015434
0.015781715512275696,-0.004190245643258095,-0.0166428592056036,0.019115786999464035,-0.0002527314645703882,0.013308915309607983
0.016115613281726837,-0.004089625086635351,-0.016389256343245506,0.018966495990753174,-0.00028384479810483754,0.013881620019674301
0.01649538427591324,-0.0034573671873658895,-0.016919907182455063,0.018284620717167854,-0.000272427307209,0.01349686086177826
0.016141891479492188,-0.0031284105498343706,-0.016631945967674255,0.018531734123826027,-0.000259520165855065,0.013395274989306927
0.016716226935386658,-0.003440148662775755,-0.016645658761262894,0.01854618452489376,-0.0002677933080121875,0.013405457139015198
0.016583595424890518,-0.003706039162352681,-0.016715824604034424,0.018387354910373688,-0.00027485290775075555,0.014084475114941597
0.016583595424890518,-0.003706039162352681,-0.016715824604034424,0.018387354910373688,-0.00027485290775075555,0.014084475114941597
0.01671973615884781,-0.003299193223938346,-0.016409173607826233,0.019173504784703255,-0.00026453545433469117,0.01385821308940649
0.016699135303497314,-0.0032731748651713133,-0.01861405186355114,0.018982479348778725,-0.0002539505949243903,0.014115199446678162
0.016500458121299744,-0.00330105097964406,-0.01597939431667328,0.01864873617887497,-0.00024411366030108184,0.014123974367976189
0.016534071415662766,-0.003494700649753213,-0.016409670934081078,0.018973466008901596,-0.0002663015329744667,0.014183849096298218
0.017101094126701355,-0.0037407956551760435,-0.01695660687983036,0.018783478066325188,-0.0002499201218597591,0.014037578366696835
0.017025453969836235,-0.003354097018018365,-0.017649449408054352,0.01898525282740593,-0.00025734634255059063,0.014030338265001774
0.0172322615981102,-0.003571414155885577,-0.01621309109032154,0.019150592386722565,-0.00025834626285359263,0.014257003553211689
0.017090339213609695,-0.0033638442400842905,-0.01682404614984989,0.01933767832815647,-0.000245292583713308,0.014211345463991165
0.01684620790183544,-0.0034898442681878805,-0.016703272238373756,0.01955784671008587,-0.000272954668616876,0.014531082473695278
0.017744826152920723,-0.003291493281722069,-0.016429422423243523,0.01863023266196251,-0.00026507285656407475,0.01474367082118988
0.017528004944324493,-0.0032647443003952503,-0.016561731696128845,0.01795673556625843,-0.00027361034881323576,0.01455378532409668
0.01745893619954586,-0.0033009450417011976,-0.016533734276890755,0.019055524840950966,-0.0002805844123940915,0.014425036497414112
0.01765008457005024,-0.0033535899128764868,-0.01716659963130951,0.017426496371626854,-0.0002698175376281142,0.014602060429751873
0.01730269007384777,-0.0035680467262864113,-0.016447002068161964,0.018083132803440094,-0.00029085922869853675,0.014636348932981491
0.017780674621462822,-0.0032946879509836435,-0.01656811125576496,0.018106378614902496,-0.00028379628201946616,0.014522134326398373
0.01731756143271923,-0.003526020096614957,-0.016394048929214478,0.01758529804646969,-0.00035493052564561367,0.014412542805075645
0.01700032502412796,-0.003455965779721737,-0.016474947333335876,0.018392439931631088,-0.0004002519999630749,0.014403860084712505
0.01775074191391468,-0.003417063970118761,-0.016906624659895897,0.018604807555675507,-0.0003721772809512913,0.014464739710092545
0.01813885010778904,-0.002936519682407379,-0.016811152920126915,0.019500331953167915,-0.000403411453589797,0.015961945056915283
0.01793466880917549,-0.003002430545166135,-0.01721835881471634,0.019297301769256592,-0.0003829058550763875,0.013960326090455055
0.017687803134322166,-0.0030881331767886877,-0.016409749165177345,0.018643438816070557,-0.0003870333603117615,0.014000165276229382
0.017520274966955185,-0.0035654683597385883,-0.016944175586104393,0.018012482672929764,-0.00038975660572759807,0.014130798168480396
0.01822769269347191,-0.00333367008715868,-0.016831781715154648,0.017390171065926552,-0.0003686853451654315,0.014798249118030071
0.017697980627417564,-0.0030386114958673716,-0.016246352344751358,0.01742471382021904,-0.00039473531069234014,0.014923635870218277
0.017697980627417564,-0.0030386114958673716,-0.016246352344751358,0.01742471382021904,-0.00039473531069234014,0.014923635870218277
0.0180350448936224,-0.0031482535414397717,-0.016289854422211647,0.019129689782857895,-0.0005069653270766139,0.015094580128788948
0.017913077026605606,-0.003272531321272254,-0.016992300748825073,0.019339170306921005,-0.0004834237333852798,0.015084126964211464
0.018499551340937614,-0.0033796222414821386,-0.01653118059039116,0.019724484533071518,-0.0005089557962492108,0.014917741529643536
0.018499551340937614,-0.0033796222414821386,-0.01653118059039116,0.019724484533071518,-0.0005089557962492108,0.014917741529643536
0.018495522439479828,-0.002777945948764682,-0.016378864645957947,0.019732540473341942,-0.0004789161030203104,0.01505278330296278
0.018495522439479828,-0.002777945948764682,-0.016378864645957947,0.019732540473341942,-0.0004789161030203104,0.01505278330296278
0.018361426889896393,-0.0026565263979136944,-0.016671566292643547,0.01894403249025345,-0.0005990717327222228,0.015371033921837807
0.018217355012893677,-0.0027745170518755913,-0.016243478283286095,0.018229633569717407,-0.0005393318133428693,0.015298555605113506
0.01885181851685047,-0.0028575307223945856,-0.016818786039948463,0.018498746678233147,-0.0005651385872624815,0.015103885903954506
0.01841801032423973,-0.0028586871922016144,-0.016614016145467758,0.018071481958031654,-0.0005217629950493574,0.01523345336318016
0.018357649445533752,-0.002731960965320468,-0.016245415434241295,0.018048960715532303,-0.0005346015677787364,0.014992939308285713
0.018688617274165154,-0.002648548921570182,-0.016546476632356644,0.01812308095395565,-0.0005093838553875685,0.015271753072738647
0.018352193757891655,-0.0027712597511708736,-0.016292713582515717,0.017939234152436256,-0.0005306011880747974,0.015278225764632225
0.018762735649943352,-0.0028398213908076286,-0.01681889407336712,0.018362117931246758,-0.0005016309441998601,0.015487798489630222
0.01886126957833767,-0.002512873150408268,-0.01624605618417263,0.01873898133635521,-0.00047210007323883474,0.015402608551084995
0.018776124343276024,-0.0025520259514451027,-0.016513826325535774,0.018254932016134262,-0.0004503584932535887,0.015513798221945763
0.018747901543974876,-0.0026646628975868225,-0.016563458368182182,0.018948161974549294,-0.00045053919893689454,0.01565985009074211
0.018581891432404518,-0.002493923529982567,-0.01656392216682434,0.018884634599089622,-0.0004491015279199928,0.015172082930803299
0.01862979680299759,-0.002657656092196703,-0.01657186821103096,0.01870013400912285,-0.000476743996841833,0.015367531217634678
0.019059907644987106,-0.0020735629368573427,-0.015996409580111504,0.018601061776280403,-0.00048222430632449687,0.01530024316161871
0.019330305978655815,-0.0014275874709710479,-0.016588496044278145,0.0184139646589756,-0.000479320646263659,0.015540040098130703
0.018932299688458443,-0.0010825623758137226,-0.016441334038972855,0.018160715699195862,-0.0006186674581840634,0.015203461982309818
0.019263947382569313,-0.0008721292833797634,-0.016866179183125496,0.01832137443125248,-0.0005670958198606968,0.015588340349495411
0.01929999329149723,-0.0008698246092535555,-0.01647067256271839,0.017858540639281273,-0.0005986817996017635,0.015654485672712326
0.01857823133468628,-0.0008637799182906747,-0.016424011439085007,0.01783757098019123,-0.0006108512752689421,0.0159500353038311
0.01857823133468628,-0.0008637799182906747,-0.016424011439085007,0.01783757098019123,-0.0006108512752689421,0.0159500353038311
0.019044775515794754,-0.0008681081817485392,-0.016761379316449165,0.018057135865092278,-0.0005758115439675748,0.015944696962833405
0.019235996529459953,-0.0006108193192631006,-0.01711532659828663,0.017569640651345253,-0.0005572512745857239,0.016250235959887505
0.020074784755706787,-0.0006471175001934171,-0.016172058880329132,0.017343638464808464,-0.0005211183452047408,0.01639600843191147
0.01987505704164505,-0.0006708910805173218,-0.016294317319989204,0.017752179875969887,-0.0005201278836466372,0.016815800219774246
0.01916196383535862,-0.0010291022481396794,-0.016758417710661888,0.018438072875142097,-0.0005504965083673596,0.015427051112055779
0.01916196383535862,-0.0010291022481396794,-0.016758417710661888,0.018438072875142097,-0.0005504965083673596,0.015427051112055779
0.01905306801199913,-0.0008603681344538927,-0.01727643981575966,0.018685314804315567,-0.0005333666340447962,0.016242235898971558
0.019933653995394707,-0.000742078002076596,-0.016516780480742455,0.01911551132798195,-0.000500151829328388,0.016721468418836594
0.01988053508102894,-0.000652348215226084,-0.017162423580884933,0.018813850358128548,-0.0005125891184434295,0.01696901209652424
0.019589362666010857,-0.0005819947109557688,-0.016477646306157112,0.019427062943577766,-0.0004926787223666906,0.017253464087843895
0.01883002370595932,-0.0006115983705967665,-0.01654139533638954,0.019235603511333466,-0.0005355617613531649,0.0172891765832901
0.02008887380361557,-0.0005585213657468557,-0.017095470800995827,0.018150443211197853,-0.0005753417499363422,0.01710662618279457
0.020183492451906204,-0.0005852554459124804,-0.016797469928860664,0.01775156892836094,-0.0005418160581029952,0.01739206723868847
0.019901154562830925,-0.0005421509849838912,-0.01718597300350666,0.01755455881357193,-0.0005702080670744181,0.01679590716958046
0.019915174692869186,-0.00045170701923780143,-0.01680164970457554,0.018054423853754997,-0.0005828154971823096,0.016355473548173904
0.020074179396033287,-0.0003876191040035337,-0.016893023625016212,0.01901528425514698,-0.0005552992224693298,0.016957664862275124
0.019290970638394356,-0.0004030965792480856,-0.017385482788085938,0.018609432503581047,-0.0006683925166726112,0.017020605504512787
0.019365038722753525,-0.0003961079055443406,-0.01706262119114399,0.017764128744602203,-0.0006032569799572229,0.017162064090371132
0.01997101679444313,-0.0004234860825818032,-0.017770741134881973,0.018298892304301262,-0.0006320055108517408,0.016919398680329323
0.020336003974080086,-0.00040318790706805885,-0.017302921041846275,0.018071481958031654,-0.0005715803126804531,0.01648159697651863
0.020065192133188248,-0.00042669623508118093,-0.01732366345822811,0.018432969227433205,-0.0005971656646579504,0.016813021153211594
0.02041424624621868,-0.0004084948741365224,-0.018044445663690567,0.017874831333756447,-0.0005882111145183444,0.017131924629211426
0.020428897812962532,-0.00038663603481836617,-0.017785176634788513,0.017086215317249298,-0.0005759733612649143,0.017523592337965965
0.020273420959711075,-0.0003669311699923128,-0.016844188794493675,0.017687169834971428,-0.000535986851900816,0.01699630171060562
0.02035740576684475,-0.00034913618583232164,-0.016814401373267174,0.01708127185702324,-0.0005138328997418284,0.017153466120362282
0.020681504160165787,-0.00033298766356892884,-0.017898259684443474,0.017866967245936394,-0.0005431592580862343,0.016755834221839905
0.020681504160165787,-0.00033298766356892884,-0.017898259684443474,0.017866967245936394,-0.0005431592580862343,0.016755834221839905
0.02050868049263954,-0.00031826746999286115,-0.018396254628896713,0.017283719033002853,-0.0005034555797465146,0.01656346209347248
0.020662229508161545,-0.00033799640368670225,-0.017362283542752266,0.017756184563040733,-0.0005325159290805459,0.017245663329958916
0.021120108664035797,-0.0003158625040668994,-0.017850251868367195,0.019043991342186928,-0.0005472953198477626,0.017600925639271736
0.021379098296165466,-0.0002951622591353953,-0.017323467880487442,0.018856193870306015,-0.0005285157822072506,0.01794469729065895
0.02140793949365616,-0.00027698997291736305,-0.01789521612226963,0.01842069812119007,-0.0006498729926533997,0.018164461478590965
0.02144774980843067,-0.0002957079850602895,-0.017598314210772514,0.018612148240208626,-0.0006125892978161573,0.018185585737228394
0.021625297144055367,-0.00028056729934178293,-0.01813485287129879,0.018638327717781067,-0.0005974242812953889,0.017943304032087326
0.02153010107576847,-0.00026671201339922845,-0.01818281039595604,0.01891392283141613,-0.0005823276587761939,0.0180476326495409
0.02135985903441906,-0.00025415769778192043,-0.017430193722248077,0.018549203872680664,-0.0005354298045858741,0.01801651157438755
0.021467475220561028,-0.0002427323197480291,-0.018193604424595833,0.01823684573173523,-0.0005591320223174989,0.017728349193930626
0.02169390395283699,-0.00023229008365888149,-0.018430132418870926,0.01846505142748356,-0.0005227974033914506,0.019054224714636803
0.02160290628671646,-0.00022270921908784658,-0.01846323348581791,0.017824016511440277,-0.000493339030072093,0.017776066437363625
0.021639611572027206,-0.0002138870768249035,-0.018489371985197067,0.01787152700126171,-0.00045047441381029785,0.017595214769244194
0.022050557658076286,-0.00020573785877786577,-0.018082868307828903,0.017683401703834534,-0.00048591173253953457,0.018064841628074646
0.02228037640452385,-0.0001981867098947987,-0.018137162551283836,0.017884835600852966,-0.00045034755021333694,0.017919162288308144
0.0216528307646513,-0.0001911702856887132,-0.01838805340230465,0.01816447079181671,-0.0004803827905561775,0.018024973571300507
0.021545253694057465,-0.00018463379819877446,-0.018328584730625153,0.01778636872768402,-0.0004975612973794341,0.018490983173251152
0.022248081862926483,-0.00017852926976047456,-0.018831541761755943,0.01753457635641098,-0.0004794175911229104,0.01838034950196743
0.02264455333352089,-0.00017281595501117408,-0.018594227731227875,0.01769407093524933,-0.0005952861392870545,0.01838073879480362
0.022225484251976013,-0.0001674567611189559,-0.01825406774878502,0.01769918203353882,-0.0005458587547764182,0.018305407837033272
0.02203625999391079,-0.0001624197029741481,-0.01888784021139145,0.01798723079264164,-0.0005785406101495028,0.0182732455432415
0.022696105763316154,-0.00015767704462632537,-0.018691010773181915,0.0177988950163126,-0.0005279273609630764,0.018635278567671776
0.022696051746606827,-0.0001532035239506513,-0.018975796177983284,0.017397446557879448,-0.0005556743126362562,0.01859910413622856
0.022613581269979477,-0.00014897686196491122,-0.01897900551557541,0.017818812280893326,-0.0005691046826541424,0.01854461245238781
0.022625377401709557,-0.00016816784045659006,-0.018219636753201485,0.017465850338339806,-0.0005432094912976027,0.01863805204629898
0.02200748212635517,-0.00016470467380713671,-0.01851152628660202,0.017835823819041252,-0.0005061200354248285,0.01860511675477028
0.02345001883804798,-7.825716602383181e-05,-0.01882772706449032,0.017751485109329224,-0.0005028683226555586,0.018956508487462997
0.023579329252243042,-6.502062024082989e-05,-0.018406985327601433,0.01732015050947666,-0.00046288370504043996,0.018907850608229637
0.023579329252243042,-6.502062024082989e-05,-0.018406985327601433,0.01732015050947666,-0.00046288370504043996,0.018907850608229637
0.02371329441666603,-6.261861562961712e-05,-0.01893491856753826,0.017545334994792938,-0.00048190332017838955,0.018611188977956772
0.02321719564497471,-6.0511698393383995e-05,-0.019087916240096092,0.017212072387337685,-0.00045988050987944007,0.01903516612946987
0.02291806787252426,-5.8543417253531516e-05,-0.018201380968093872,0.01761051081120968,-0.00045921365381218493,0.01961970143020153
0.022600041702389717,-5.669933307217434e-05,-0.018335679545998573,0.018034424632787704,-0.0004572468460537493,0.019333219155669212
0.022581642493605614,-5.496784797287546e-05,-0.018487658351659775,0.017704714089632034,-0.00048107211478054523,0.01926468126475811
0.023362616077065468,-5.333897934178822e-05,-0.017863262444734573,0.017627736553549767,-0.00045781952212564647,0.0186148751527071
0.02261323481798172,-5.0354596169199795e-05,-0.018474487587809563,0.01756366901099682,-0.000469470105599612,0.019138924777507782
0.0233337190002203,-4.898431143374182e-05,-0.01804221421480179,0.017886534333229065,-0.0004928674316033721,0.019924385473132133
0.024503231048583984,-4.7686549805803224e-05,-0.018499013036489487,0.017213918268680573,-0.00046973017742857337,0.020399056375026703
0.023983312770724297,-4.645585795515217e-05,-0.01818089745938778,0.017763039097189903,-0.0005004079430364072,0.019753603264689445
0.023361120373010635,-4.52870262961369e-05,-0.018170543015003204,0.01791355572640896,-0.0005254119751043618,0.01952548511326313
0.023486630991101265,-4.417560194269754e-05,-0.018286798149347305,0.017588214948773384,-0.000613807758782059,0.01960952766239643
0.02325364574790001,-4.311737575335428e-05,-0.0176573246717453,0.017421044409275055,-0.0006376858218573034,0.02033032476902008
0.023403512313961983,-4.210870974930003e-05,-0.01807466894388199,0.017058636993169785,-0.0006694723851978779,0.02036178670823574
0.02422121725976467,-4.11461696785409e-05,-0.01825074665248394,0.01745443046092987,-0.0006020452128723264,0.01999789848923683
0.02469358779489994,-4.0226601413451135e-05,-0.018159152939915657,0.018112093210220337,-0.000625782588031143,0.019560344517230988
0.02424439787864685,-3.934727283194661e-05,-0.018309028819203377,0.017679067328572273,-0.0005741899367421865,0.020183265209197998
0.02420184202492237,-2.1506897610379383e-05,-0.018333155661821365,0.017782146111130714,-0.0005913650384172797,0.019266683608293533
0.024247245863080025,-1.8879782146541402e-05,-0.018881937488913536,0.01702330820262432,-0.000554628495592624,0.01886919140815735
0.02440740540623665,-1.8463275409885682e-05,-0.01947716996073723,0.01684705540537834,-0.0005454606143757701,0.019870728254318237
0.024377072229981422,-1.8091734091285616e-05,-0.018709227442741394,0.016858002170920372,-0.0005641361931338906,0.020493071526288986
0.024584993720054626,-1.7735221263137646e-05,-0.01855434849858284,0.016923729330301285,-0.000531089783180505,0.020304474979639053
0.024715783074498177,-1.7392498193657957e-05,-0.018635621294379234,0.017550762742757797,-0.0005440271343104541,0.0201409924775362
0.024284671992063522,-1.706275907054078e-05,-0.017853252589702606,0.018617963418364525,-0.000517682172358036,0.020069263875484467
0.023766309022903442,-1.6745299944886938e-05,-0.018866630271077156,0.01711198315024376,-0.000543123809620738,0.01972212828695774
0.023766309022903442,-1.6745299944886938e-05,-0.018866630271077156,0.01711198315024376,-0.000543123809620738,0.01972212828695774
0.024638893082737923,-1.6439429600723088e-05,-0.019789008423686028,0.016551386564970016,-0.0005089433980174363,0.020121820271015167
0.024603145197033882,-1.6144535038620234e-05,-0.01789581961929798,0.016596632078289986,-0.0005259366589598358,0.020395217463374138
0.02456652745604515,-1.5860043276916258e-05,-0.018717840313911438,0.01727157272398472,-0.0005163495661690831,0.020603718236088753
0.023027028888463974,-1.5320087186410092e-05,-0.018963871523737907,0.017813226208090782,-0.000503877701703459,0.020671697333455086
0.025469619780778885,-1.5063682440086268e-05,-0.019380072131752968,0.017501942813396454,-0.0005298551404848695,0.021041642874479294
0.025362396612763405,-1.481569870520616e-05,-0.01919606700539589,0.01711706630885601,-0.0004972390597686172,0.02084045112133026
0.025364940986037254,-4.980984613212058e-06,-0.018853692337870598,0.016821833327412605,-0.0005183081375434995,0.021030157804489136
0.025094423443078995,-6.682626718657048e-08,-0.01940002851188183,0.01621873863041401,-0.000493528030347079,0.02098115161061287
0.025249967351555824,-8.96559604335323e-10,-0.01917521096765995,0.016783546656370163,-0.000549952092114836,0.02092311903834343
0.02495536394417286,-1.2028490183058071e-11,-0.01834476925432682,0.016857454553246498,-0.0005890452885068953,0.021145522594451904
0.025651663541793823,-1.6137754381504582e-13,-0.018550485372543335,0.017490800470113754,-0.0005800630315206945,0.021567095071077347
0.02669544890522957,-2.1650856698836665e-15,-0.019212428480386734,0.017506390810012817,-0.0005671352264471352,0.02115819789469242
0.025783857330679893,-2.904739019569788e-17,-0.018855303525924683,0.017082108184695244,-0.0005226298235356808,0.021235432475805283
0.02573903650045395,-3.897078183839121e-19,-0.019314326345920563,0.017557106912136078,-0.0005468044546432793,0.021020356565713882
0.02420944720506668,-5.2284273022919085e-21,-0.018696254119277,0.0170779787003994,-0.0005125718307681382,0.02089872397482395
0.02551227994263172,-7.01460291850062e-23,-0.018760766834020615,0.016972074285149574,-0.0005607798811979592,0.02115078642964363
0.02623628079891205,-9.410983395465704e-25,-0.01932377740740776,0.017062868922948837,-0.0005051420303061604,0.02142568677663803
0.025959236547350883,-1.2626036951689107e-26,-0.01894284039735794,0.016683943569660187,-0.0005327268736436963,0.021363012492656708
0.025756288319826126,-1.6939440992366373e-28,-0.01879197545349598,0.01682804897427559,-0.0004945344408042729,0.021491635590791702
0.026310529559850693,-2.2726420972018176e-30,-0.019201267510652542,0.016759146004915237,-0.0005188346840441227,0.02155332826077938
0.026791563257575035,-3.049039271085891e-32,-0.018920190632343292,0.01707823947072029,-0.0005213569384068251,0.021391797810792923
0.026032645255327225,-4.090675341468443e-34,-0.018813511356711388,0.016977835446596146,-0.0005166708724573255,0.021454235538840294
0.02577637881040573,-5.488163508009776e-36,-0.018997913226485252,0.01675453968346119,-0.0005706711672246456,0.02177397534251213
0.025837117806077003,-7.363071213011264e-38,-0.018506286665797234,0.0173744335770607,-0.0006085907225497067,0.021776102483272552
0.025837117806077003,-7.363071213011264e-38,-0.018506286665797234,0.0173744335770607,-0.0006085907225497067,0.021776102483272552
0.02577199414372444,-9.878495563211728e-40,-0.018482692539691925,0.016578076407313347,-0.0006384720327332616,0.0216494370251894
0.026856467127799988,-1.325348087558412e-41,-0.019108418375253677,0.016854440793395042,-0.0006571788107976317,0.02162688598036766
0.02647084929049015,8.562448783777654e-05,-0.018484575673937798,0.0166127048432827,-0.000614567135926336,0.021775608882308006
0.02654101513326168,0.0003651002189144492,-0.01864047721028328,0.01686295121908188,-0.0007564816623926163,0.02224818244576454
0.02669457159936428,0.0003172557626385242,-0.01822127215564251,0.016352152451872826,-0.0007755330880172551,0.02198493294417858
0.027060827240347862,0.0003531707334332168,-0.01848088577389717,0.016787173226475716,-0.0007141520036384463,0.022125665098428726
0.027176842093467712,0.0003336195077281445,-0.018748193979263306,0.016665875911712646,-0.0006429153145290911,0.022307081148028374
0.02634277381002903,0.0003142337081953883,-0.01821027137339115,0.016890056431293488,-0.0005834081093780696,0.021418940275907516
0.02729537896811962,0.0002969508059322834,-0.018443869426846504,0.016881341114640236,-0.000604748260229826,0.021502453833818436
0.027260633185505867,0.00031220109667629004,-0.018573947250843048,0.017018260434269905,-0.0005621218006126583,0.022538723424077034
0.027309725061058998,0.0003118957974947989,-0.018499750643968582,0.017105992883443832,-0.000509838864672929,0.02315584011375904
0.027033619582653046,0.0002973754017148167,-0.01931915245950222,0.016627734526991844,-0.0004568619769997895,0.022314628586173058
0.02705965004861355,0.0003228848217986524,-0.01898225024342537,0.01735440269112587,-0.00047533996985293925,0.02136383019387722
0.02724449895322323,0.00031051988480612636,-0.018626779317855835,0.017169132828712463,-0.00045408125151880085,0.021949032321572304
0.02747419849038124,0.00032667763298377395,-0.018490854650735855,0.01686958596110344,-0.0004803712363354862,0.022949092090129852
0.02777690254151821,0.0003186961112078279,-0.018377922475337982,0.01657267101109028,-0.0004540425434242934,0.022964581847190857
0.027519356459379196,0.000354894989868626,-0.018888060003519058,0.016370678320527077,-0.0004803471965715289,0.02235591970384121
0.028124984353780746,0.00037169482675381005,-0.019089018926024437,0.016702380031347275,-0.00045377007336355746,0.022118762135505676
0.02828086167573929,0.00036792928585782647,-0.018809448927640915,0.017135081812739372,-0.0005185676272958517,0.02399616874754429
0.0280064158141613,0.000391626002965495,-0.018709836527705193,0.017285848036408424,-0.0005482456763274968,0.02380121313035488
0.02843918651342392,0.0003769206232391298,-0.019294025376439095,0.01693461835384369,-0.000518079090397805,0.02283121831715107
0.028669947758316994,0.0006228162092156708,-0.01903008483350277,0.016507746651768684,-0.0005421214154921472,0.022488905116915703
0.028544684872031212,0.0006559683242812753,-0.01957070641219616,0.01684006117284298,-0.000542909256182611,0.022761043161153793
0.028889041393995285,0.0006524247583001852,-0.019132234156131744,0.015714161098003387,-0.0005351865547709167,0.023657293990254402
0.02872607298195362,0.0006188219995237887,-0.018901823088526726,0.01660752482712269,-0.0005041018011979759,0.023941729217767715
0.02872607298195362,0.0006188219995237887,-0.018901823088526726,0.01660752482712269,-0.0005041018011979759,0.023941729217767715
0.02903681993484497,0.0006409710622392595,-0.019425228238105774,0.016894172877073288,-0.0005775931640528142,0.02382790669798851
0.029017604887485504,0.0005980409332551062,-0.019005732610821724,0.017208389937877655,-0.0006092923576943576,0.02366156317293644
0.028996115550398827,0.0007362058968283236,-0.01829424686729908,0.016920000314712524,-0.0006270200829021633,0.02341863140463829
0.02911178208887577,0.0007583902915939689,-0.020148655399680138,0.016030291095376015,-0.0005900338874198496,0.023434950038790703
0.03057771548628807,0.0010497006587684155,-0.01833498105406761,0.017097873613238335,-0.0006519611342810094,0.023782040923833847
0.02953372336924076,0.001056578359566629,-0.019548265263438225,0.018018897622823715,-0.0006399880512617528,0.023952560499310493
0.02803201973438263,0.001019108109176159,-0.019494548439979553,0.01764817349612713,-0.0006694547482766211,0.0237958412617445
0.030034111812710762,0.001002118457108736,-0.018693361431360245,0.016748612746596336,-0.0006500886520370841,0.02380881831049919
0.03051898069679737,0.0009745618444867432,-0.019266577437520027,0.017147870734333992,-0.0006287939613685012,0.024187715724110603
0.029790690168738365,0.0009934257250279188,-0.019434012472629547,0.016298366710543633,-0.0006138881435617805,0.024410266429185867
0.030370362102985382,0.001106318086385727,-0.018697243183851242,0.01643245853483677,-0.0005994794773869216,0.0242315661162138
0.031381718814373016,0.0014555322704836726,-0.019152145832777023,0.01653306931257248,-0.0006787229795008898,0.024546386674046516
0.03106023743748665,0.0014371862635016441,-0.01934911124408245,0.01649448089301586,-0.000655763316899538,0.0248138178139925
0.029831092804670334,0.0013803687179461122,-0.01865086704492569,0.01683737151324749,-0.0006790404440835118,0.024801919236779213
0.030152108520269394,0.0015102617908269167,-0.019313016906380653,0.016533955931663513,-0.0007005137740634382,0.02429826743900776
0.031473640352487564,0.001511656679213047,-0.01964966207742691,0.016651427373290062,-0.0008930107578635216,0.024114513769745827
0.030970439314842224,0.0013851732946932316,-0.018833916634321213,0.01641705073416233,-0.0009133474668487906,0.023953696712851524
0.031346384435892105,0.0012920578010380268,-0.019415944814682007,0.016527514904737473,-0.0007986188866198063,0.024348566308617592
0.031206835061311722,0.0013892510905861855,-0.019782422110438347,0.01607670448720455,-0.0007961756782606244,0.02394532971084118
0.030933160334825516,0.0015596433077007532,-0.019375959411263466,0.01638796739280224,-0.00076801743125543,0.024106914177536964
0.030826786532998085,0.0016874991124495864,-0.019356833770871162,0.016628732904791832,-0.0007365416968241334,0.024981504306197166
0.030953098088502884,0.002240121364593506,-0.019350403919816017,0.016338247805833817,-0.0006869349163025618,0.025180501863360405
0.030897749587893486,0.0020602717995643616,-0.01913062110543251,0.01660142093896866,-0.0007102781673893332,0.025008348748087883
0.03028281219303608,0.0021939557045698166,-0.019426684826612473,0.016036415472626686,-0.0007250497583299875,0.024300239980220795
0.03028281219303608,0.0021939557045698166,-0.019426684826612473,0.016036415472626686,-0.0007250497583299875,0.024300239980220795
0.030810100957751274,0.0019995239563286304,-0.019509874284267426,0.016298264265060425,-0.0007307126652449369,0.023798685520887375
0.03138263523578644,0.001958403503522277,-0.01884743757545948,0.015985677018761635,-0.0006833680090494454,0.024489199742674828
0.03115181438624859,0.0019970363937318325,-0.019340183585882187,0.016162075102329254,-0.0007297350093722343,0.025383345782756805
0.031641118228435516,0.002210435923188925,-0.01944318786263466,0.016590619459748268,-0.0007239087135531008,0.02507377788424492
0.03144172579050064,0.002405261853709817,-0.01921416074037552,0.01617325097322464,-0.000689387961756438,0.025257054716348648
0.03117050975561142,0.002337668091058731,-0.019204510375857353,0.015873746946454048,-0.000686369021423161,0.025461284443736076
0.032217107713222504,0.002233818406239152,-0.019163068383932114,0.01661493442952633,-0.000664370774757117,0.02520952746272087
0.03285132721066475,0.0023875944316387177,-0.01938493363559246,0.016308004036545753,-0.000651199312414974,0.024477042257785797
0.03160296380519867,0.0026449679862707853,-0.019535303115844727,0.01647152379155159,-0.0006623402587138116,0.02494978718459606
0.03070853278040886,0.0025175244081765413,-0.019280364736914635,0.016321402043104172,-0.0006379903643392026,0.025918086990714073
0.03181414678692818,0.002711675828322768,-0.01922704465687275,0.015977345407009125,-0.000655894516967237,0.02638685144484043
0.032650794833898544,0.0030807014554739,-0.019823869690299034,0.016325056552886963,-0.0006675361655652523,0.026162639260292053
0.03256872296333313,0.003096699481830001,-0.019157947972416878,0.016308659687638283,-0.0006293852347880602,0.025663502514362335
0.03313424438238144,0.003039246192201972,-0.019411418586969376,0.016890089958906174,-0.0007008662214502692,0.025814950466156006
0.032669927924871445,0.003252454334869981,-0.019645556807518005,0.01632036454975605,-0.0007151988102123141,0.02589007094502449
0.032133471220731735,0.0029878050554543734,-0.019352968782186508,0.016717953607439995,-0.000657003722153604,0.026175692677497864
0.03232381492853165,0.00322773982770741,-0.019367864355444908,0.016482165083289146,-0.0006780599360354245,0.02645343355834484
0.03281558305025101,0.003378054825589061,-0.019822271540760994,0.016772201284766197,-0.0006175676826387644,0.026210473850369453
0.03255794197320938,0.003537802491337061,-0.0198491383343935,0.01666603609919548,-0.0006373617798089981,0.02627311833202839
0.03327501565217972,0.0032437487971037626,-0.019778002053499222,0.01654841937124729,-0.0006294173072092235,0.02629021182656288
0.03318747133016586,0.0035719536244869232,-0.019929997622966766,0.01648006960749626,-0.0005865046987310052,0.026904482394456863
0.03292779624462128,0.004282500594854355,-0.019673645496368408,0.016297930851578712,-0.0005710150580853224,0.02660500258207321
0.03226393461227417,0.004188925959169865,-0.019518554210662842,0.01646880805492401,-0.0005569157074205577,0.026975082233548164
0.032954126596450806,0.003986517898738384,-0.02030961774289608,0.01650347374379635,-0.0005859827506355941,0.02615835890173912
0.033077701926231384,0.0038581679109483957,-0.020003382116556168,0.016078120097517967,-0.0006127550732344389,0.02587568573653698
0.03307722508907318,0.004019386135041714,-0.01981799677014351,0.016349168494343758,-0.0006968742236495018,0.02641444467008114
0.033622853457927704,0.004147462546825409,-0.020517028868198395,0.01612044870853424,-0.0007376083522103727,0.026436060667037964
0.033622853457927704,0.004147462546825409,-0.020517028868198395,0.01612044870853424,-0.0007376083522103727,0.026436060667037964
0.0339779257774353,0.00452505424618721,-0.021139129996299744,0.01670755073428154,-0.0006567459786310792,0.026919804513454437
0.03382371366024017,0.00483506266027689,-0.02008766680955887,0.016430428251624107,-0.0006764490390196443,0.02709563821554184
0.033672403544187546,0.004828040953725576,-0.020326903089880943,0.016370613127946854,-0.0006978731835260987,0.02705950103700161
0.034048546105623245,0.0045147426426410675,-0.02007025107741356,0.016157303005456924,-0.0007439609034918249,0.026916546747088432
0.033855099231004715,0.005005626007914543,-0.020468149334192276,0.015765652060508728,-0.0007575885392725468,0.027173863723874092
0.03404181823134422,0.004942051135003567,-0.02187827043235302,0.015537913888692856,-0.0007224329165183008,0.0271436907351017
0.034152060747146606,0.0056688981130719185,-0.02046673558652401,0.015896376222372055,-0.000737350492272526,0.02711568959057331
0.034207966178655624,0.0053339553996920586,-0.020112287253141403,0.015684233978390694,-0.0007909226696938276,0.02716883085668087
0.034747302532196045,0.005015871487557888,-0.020980820059776306,0.016348708420991898,-0.0008314335718750954,0.027173204347491264
0.034898541867733,0.0051049781031906605,-0.021818848326802254,0.016253773123025894,-0.0008263236959464848,0.027037912979722023
0.03457224741578102,0.005306184757500887,-0.02101835235953331,0.016693221405148506,-0.0007554782787337899,0.02695455029606819
0.03465458005666733,0.005575906485319138,-0.020497743040323257,0.01682969182729721,-0.000765666423831135,0.02745780348777771
0.034989867359399796,0.00555740250274539,-0.021125884726643562,0.01646479032933712,-0.0007544311811216176,0.028335580602288246
0.03490540757775307,0.006029258482158184,-0.021326513960957527,0.01656542904675007,-0.0006992769776843488,0.028182005509734154
0.03474263846874237,0.005644188728183508,-0.020749736577272415,0.015812529250979424,-0.0007128439610823989,0.026822440326213837
0.035655733197927475,0.006012168247252703,-0.02064981311559677,0.016212647780776024,-0.0006935949204489589,0.02710616961121559
0.036530621349811554,0.005931079387664795,-0.02159585990011692,0.01586354710161686,-0.0006668692221865058,0.027852104976773262
0.035745855420827866,0.0063736154697835445,-0.02122279442846775,0.016128379851579666,-0.0006802616408094764,0.02783764712512493
0.03486216440796852,0.006319614127278328,-0.02116655372083187,0.016459263861179352,-0.0006804062868468463,0.028018252924084663
0.036235399544239044,0.0059791742824018,-0.02126297540962696,0.016834091395139694,-0.0006371770286932588,0.029218221083283424
0.03537660464644432,0.005893244408071041,-0.02182239666581154,0.016547363251447678,-0.0006649714196100831,0.02867547608911991
0.036346159875392914,0.00614218320697546,-0.02217981219291687,0.015459188260138035,-0.0006710051675327122,0.027111368253827095
0.03702525049448013,0.007068681996315718,-0.021871361881494522,0.016520634293556213,-0.0006269424338825047,0.02735595405101776
0.0355955995619297,0.006388140842318535,-0.02135826274752617,0.01665215753018856,-0.0006472915410995483,0.028243452310562134
0.03505309671163559,0.006207176484167576,-0.021493736654520035,0.017556076869368553,-0.0006622578366659582,0.02878420427441597
0.036401402205228806,0.005978451110422611,-0.021757127717137337,0.016941161826252937,-0.0006941587780602276,0.028786832466721535
0.03694053366780281,0.006519974675029516,-0.021703951060771942,0.01634974218904972,-0.0006662970408797264,0.02836957387626171
0.03551482781767845,0.006600999739021063,-0.02115321345627308,0.016230573877692223,-0.0005964029696770012,0.02866361103951931
0.037156086415052414,0.006717598531395197,-0.021774573251605034,0.015915662050247192,-0.0006142623606137931,0.028600279241800308
0.03709856793284416,0.006874559912830591,-0.022068852558732033,0.01608947478234768,-0.0005691812257282436,0.028759106993675232
0.03645680844783783,0.0065394677221775055,-0.021721206605434418,0.015725862234830856,-0.0005869826418347657,0.02840821072459221
0.03645680844783783,0.0065394677221775055,-0.021721206605434418,0.015725862234830856,-0.0005869826418347657,0.02840821072459221
0.036336012184619904,0.006723512429744005,-0.021489325910806656,0.016192136332392693,-0.0005406462587416172,0.02872510999441147
0.036528266966342926,0.00674600712954998,-0.021774839609861374,0.01662829890847206,-0.0004935708129778504,0.028855035081505775
0.036691851913928986,0.007187726441770792,-0.02069670520722866,0.01604163832962513,-0.0005453410558402538,0.02918088063597679
0.036691851913928986,0.007187726441770792,-0.02069670520722866,0.01604163832962513,-0.0005453410558402538,0.02918088063597679
0.03653731197118759,0.007388790603727102,-0.021288197487592697,0.016288848593831062,-0.0005190816591493785,0.028850970789790154
0.03658800199627876,0.006449780892580748,-0.021455245092511177,0.016354065388441086,-0.0005444973357953131,0.028784364461898804
0.03800361976027489,0.006341302767395973,-0.020763425156474113,0.016199007630348206,-0.0006476864218711853,0.02914724312722683
0.03699688985943794,0.007152937352657318,-0.02094876393675804,0.016064301133155823,-0.0006086858338676393,0.028934797272086143
0.03615156561136246,0.0070396000519394875,-0.021618012338876724,0.016622914001345634,-0.0006386869354173541,0.029588723555207253
0.03753212094306946,0.007128296419978142,-0.021927110850811005,0.01654100976884365,-0.0006473475368693471,0.029571479186415672
0.03688660264015198,0.0064690872095525265,-0.020644087344408035,0.016628963872790337,-0.000606939778663218,0.029294531792402267
0.03797919303178787,0.006526143290102482,-0.02090436778962612,0.017247507348656654,-0.0006284781848080456,0.028925742954015732
0.038190294057130814,0.007255821954458952,-0.021919161081314087,0.016649657860398293,-0.0006442503654398024,0.029400065541267395
0.037321217358112335,0.00698539474979043,-0.021729417145252228,0.01693444512784481,-0.0007081017247401178,0.030593909323215485
0.036282122135162354,0.0067387912422418594,-0.021280953660607338,0.016443079337477684,-0.0007061475771479309,0.030305659398436546
0.03857066482305527,0.0064381929114460945,-0.021429413929581642,0.016370326280593872,-0.000678732933010906,0.02924901433289051
0.03828942030668259,0.006912578362971544,-0.02137821726500988,0.0164276622235775,-0.0006971468683332205,0.02875896543264389
0.03721584752202034,0.006933870259672403,-0.02174496091902256,0.016577770933508873,-0.0006460201693698764,0.029805220663547516
0.03809728845953941,0.006939613725990057,-0.02143852971494198,0.017193522304296494,-0.0007215344230644405,0.029582086950540543
0.03774288296699524,0.0070751020684838295,-0.021467261016368866,0.016917746514081955,-0.0006921186577528715,0.029765771701931953
0.03769306465983391,0.0074161444790661335,-0.02170085348188877,0.016568712890148163,-0.0006612010183744133,0.030901838093996048
0.038072604686021805,0.0076328469440341,-0.02147488482296467,0.01652408577501774,-0.0006641682703047991,0.030200015753507614
0.038072604686021805,0.0076328469440341,-0.02147488482296467,0.01652408577501774,-0.0006641682703047991,0.030200015753507614
0.03794800862669945,0.006672263611108065,-0.021770169958472252,0.01678379252552986,-0.0006056031561456621,0.029480334371328354
0.03794800862669945,0.006672263611108065,-0.021770169958472252,0.01678379252552986,-0.0006056031561456621,0.029480334371328354
0.03851430118083954,0.004757399670779705,-0.022448251023888588,0.016317255795001984,-0.0005913566565141082,0.030074696987867355
0.03811284154653549,0.004729841835796833,-0.021404214203357697,0.016091657802462578,-0.0005970891797915101,0.03069590963423252
0.03811284154653549,0.004729841835796833,-0.021404214203357697,0.016091657802462578,-0.0005970891797915101,0.03069590963423252
0.037967607378959656,0.005068753845989704,-0.022110354155302048,0.016570933163166046,-0.0009407972102053463,0.030536765232682228
0.03822856768965721,0.005313040688633919,-0.021737821400165558,0.01659158430993557,-0.0011430962476879358,0.03024984523653984
0.039303526282310486,0.0055572339333593845,-0.021506307646632195,0.017010098323225975,-0.0010712709045037627,0.03043486177921295
0.03865278512239456,0.005495160352438688,-0.021762466058135033,0.016469795256853104,-0.0009763099369592965,0.030906034633517265
0.03848579153418541,0.005955915432423353,-0.022524526342749596,0.01695745624601841,-0.0008490892359986901,0.03109077922999859
0.03898105397820473,0.00536506250500679,-0.024093052372336388,0.01619221270084381,-0.0008472735062241554,0.03102192096412182
0.03889348730444908,0.005413580685853958,-0.02083631604909897,0.016306072473526,-0.0007637484231963754,0.030779115855693817
0.039128728210926056,0.005517391487956047,-0.02132442593574524,0.015832148492336273,-0.0006443083402700722,0.03062262013554573
0.03940488398075104,0.00551978312432766,-0.022123027592897415,0.015624171122908592,-0.000560278189368546,0.031040145084261894
0.03876258060336113,0.005446251016110182,-0.022396370768547058,0.015846632421016693,-0.0005901764379814267,0.03138693794608116
