davideferrari95/blind_handover_controller/data/Test 209 - [2024-02-08 -- 12-08-03]/joint_states_data.csv
shoulder_pan_joint,shoulder_lift_joint,elbow_joint,wrist_1_joint,wrist_2_joint,wrist_3_joint
-0.001773119904100895,-0.020235594362020493,-0.009774618782103062,0.019684910774230957,-0.0075241257436573505,-0.0019141781376674771
-0.002296410035341978,-0.0201057568192482,-0.009752190671861172,0.02011929452419281,-0.006714266259223223,-0.002486312761902809
-0.002296410035341978,-0.0201057568192482,-0.009752190671861172,0.02011929452419281,-0.006714266259223223,-0.002486312761902809
-0.0024549190420657396,-0.02023276686668396,-0.010475586168467999,0.02010907046496868,-0.006235381122678518,-0.00283443508669734
-0.0024549190420657396,-0.02023276686668396,-0.010475586168467999,0.02010907046496868,-0.006235381122678518,-0.00283443508669734
-0.002167630009353161,-0.019866131246089935,-0.011590448208153248,0.02011721208691597,-0.0062811169773340225,-0.002218952402472496
-0.002167630009353161,-0.019866131246089935,-0.011590448208153248,0.02011721208691597,-0.0062811169773340225,-0.002218952402472496
-0.0020661894232034683,-0.019727671518921852,-0.010666287504136562,0.02134988270699978,-0.006265527103096247,-0.001912656589411199
-0.0022107292897999287,-0.019790221005678177,-0.009263242594897747,0.020949797704815865,-0.0065452344715595245,-0.00165383773855865
-0.002027771668508649,-0.02027158997952938,-0.00823646504431963,0.020411774516105652,-0.006471855100244284,-0.0016144198598340154
-0.0021170424297451973,-0.02042619325220585,-0.008939367718994617,0.021095773205161095,-0.006986531894654036,-0.0018326020799577236
-0.002349931513890624,-0.022016149014234543,-0.008428049273788929,0.020625431090593338,-0.006729568354785442,-0.0018806232837960124
-0.002325607929378748,-0.019618961960077286,-0.008603761903941631,0.020619751885533333,-0.0062997788190841675,-0.0025131613947451115
-0.0025668356101959944,-0.019798120483756065,-0.009154610335826874,0.02138764224946499,-0.0057514929212629795,-0.002613213611766696
-0.0023067144211381674,-0.02012699842453003,-0.008589648641645908,0.02252182550728321,-0.006306440569460392,-0.002445888938382268
-0.0024629696272313595,-0.02055116929113865,-0.0076302760280668736,0.022417234256863594,-0.006705510895699263,-0.0023257567081600428
-0.00272367219440639,-0.02018290013074875,-0.008510160259902477,0.02267221175134182,-0.0059707933105528355,-0.002077036304399371
-0.002962048165500164,-0.02039084956049919,-0.008560900576412678,0.022149547934532166,-0.00573040870949626,-0.0020318140741437674
-0.002841705223545432,-0.020524870604276657,-0.0076360879465937614,0.021973714232444763,-0.005559068638831377,-0.00232001137919724
-0.0029904558323323727,-0.020247727632522583,-0.007734923157840967,0.022382589057087898,-0.006261013448238373,-0.0024688865523785353
-0.0029316775035113096,-0.01976303942501545,-0.00829110387712717,0.022837450727820396,-0.0066594830714166164,-0.0026627820916473866
-0.0029086600989103317,-0.01974240131676197,-0.007786349859088659,0.022632604464888573,-0.006191547494381666,-0.0025547188706696033
-0.002681405283510685,-0.019607624039053917,-0.009204392321407795,0.022158607840538025,-0.0056647611781954765,-0.0024407694581896067
-0.0032405073288828135,-0.01939309760928154,-0.00792248547077179,0.022000949829816818,-0.0054952967911958694,-0.002428285777568817
-0.0035002101212739944,-0.01969018392264843,-0.00831165723502636,0.02212211862206459,-0.00632436340674758,-0.002510618418455124
-0.002935858676210046,-0.019925052300095558,-0.007992906495928764,0.02238396182656288,-0.0060837483033537865,-0.002468304242938757
-0.0026124571450054646,-0.019219832494854927,-0.007569103501737118,0.021730130538344383,-0.005892616230994463,-0.0025827495846897364
-0.0034822337329387665,-0.01989777199923992,-0.00818687491118908,0.022167246788740158,-0.00522224698215723,-0.0031294638756662607
-0.003369645681232214,-0.019277721643447876,-0.008486234582960606,0.021857837215065956,-0.004998635500669479,-0.002938375808298588
-0.00300647784024477,-0.019690746441483498,-0.007934991270303726,0.02192157320678234,-0.004954860545694828,-0.002860615262761712
-0.00300647784024477,-0.019690746441483498,-0.007934991270303726,0.02192157320678234,-0.004954860545694828,-0.002860615262761712
-0.002872403943911195,-0.02025715447962284,-0.008399805054068565,0.02233309857547283,-0.005503303837031126,-0.0024411622434854507
-0.0029246893245726824,-0.019956376403570175,-0.008232233114540577,0.0224002618342638,-0.005172755569219589,-0.002411185298115015
-0.003004420315846801,-0.019943052902817726,-0.008176606148481369,0.02260485664010048,-0.0046158442273736,-0.002562072593718767
-0.002916351892054081,-0.0202871635556221,-0.007888270542025566,0.02317652851343155,-0.00436440808698535,-0.0032314080744981766
-0.002907105255872011,-0.019878150895237923,-0.008874297142028809,0.02286226861178875,-0.004920584615319967,-0.0036574897821992636
-0.0028394812252372503,-0.020001452416181564,-0.008530938997864723,0.022976351901888847,-0.005526546388864517,-0.0033455498050898314
-0.0032737511210143566,-0.020756453275680542,-0.00834684818983078,0.02347404696047306,-0.005480716936290264,-0.0030512891244143248
-0.0032744791824370623,-0.02149447798728943,-0.008999057114124298,0.02330039069056511,-0.004865929950028658,-0.0029478014912456274
-0.0034582463558763266,-0.02059614472091198,-0.008537892252206802,0.023194488137960434,-0.0047735488042235374,-0.0028548594564199448
-0.003050502622500062,-0.020171988755464554,-0.0081899743527174,0.02303754724562168,-0.00516151450574398,-0.0030802965629845858
-0.0030847766902297735,-0.020120715722441673,-0.007859369739890099,0.022980090230703354,-0.005395194515585899,-0.0032598241232335567
-0.0031370390206575394,-0.020110206678509712,-0.008828546851873398,0.02323472686111927,-0.004805011674761772,-0.0031999556813389063
-0.003307128557935357,-0.02010490372776985,-0.008433658629655838,0.023387478664517403,-0.004994478076696396,-0.0031587439589202404
-0.003167920745909214,-0.02078312262892723,-0.008192802779376507,0.02336142770946026,-0.004999754950404167,-0.0032217141706496477
-0.0029702966567128897,-0.0208120197057724,-0.008591052144765854,0.023349620401859283,-0.005153667647391558,-0.0033861089032143354
-0.0029861032962799072,-0.02017095685005188,-0.008463549427688122,0.02320757322013378,-0.004957476630806923,-0.0032246566843241453
-0.00319497799500823,-0.02025790885090828,-0.007894318550825119,0.02338409423828125,-0.004795548040419817,-0.0034746110904961824
-0.003529419656842947,-0.020984120666980743,-0.007676358334720135,0.023264652118086815,-0.004722996614873409,-0.003715106751769781
-0.0033585629425942898,-0.02071375586092472,-0.008381731808185577,0.02286563813686371,-0.004756703041493893,-0.003376725362613797
-0.0031541408970952034,-0.020267775282263756,-0.008682397194206715,0.022682078182697296,-0.0049921488389372826,-0.0029618917033076286
-0.0032785094808787107,-0.020498240366578102,-0.007999238558113575,0.02356361597776413,-0.004728543572127819,-0.002769744722172618
-0.003245782107114792,-0.019922954961657524,-0.008120641112327576,0.02442110702395439,-0.0043167113326489925,-0.0030685982201248407
-0.0032135476358234882,-0.019937172532081604,-0.008494761772453785,0.02443099208176136,-0.0038881751243025064,-0.0031123526860028505
-0.003169980365782976,-0.020345546305179596,-0.008194644004106522,0.02349584922194481,-0.003708795178681612,-0.0034478772431612015
-0.003404316958039999,-0.02082930877804756,-0.008262740448117256,0.022518280893564224,-0.003793305717408657,-0.003158368170261383
-0.0038046627305448055,-0.020522547885775566,-0.008196610026061535,0.023483818396925926,-0.003917546942830086,-0.003382363822311163
-0.0034594638273119926,-0.02112429030239582,-0.007822701707482338,0.023295799270272255,-0.0039427136071026325,-0.003311184933409095
-0.0034594638273119926,-0.02112429030239582,-0.007822701707482338,0.023295799270272255,-0.0039427136071026325,-0.003311184933409095
-0.0031562920194119215,-0.02235298790037632,-0.007681296672672033,0.023194974288344383,-0.0040397923439741135,-0.003429470583796501
-0.0031507895328104496,-0.019787386059761047,-0.008827117271721363,0.023501088842749596,-0.00442182831466198,-0.0036429509054869413
-0.0033561685122549534,-0.020177671685814857,-0.008663639426231384,0.02374553121626377,-0.004246067255735397,-0.0037464045453816652
-0.0035058471839874983,-0.020814895629882812,-0.00782288983464241,0.02345304936170578,-0.003532962640747428,-0.0034360301215201616
-0.0034087125677615404,-0.020552217960357666,-0.00824735313653946,0.02397647313773632,-0.0028093503788113594,-0.0034647141583263874
-0.0031242878176271915,-0.020575489848852158,-0.008456049486994743,0.02283933386206627,-0.0027482397854328156,-0.003585970727726817
-0.0035853462759405375,-0.020763320848345757,-0.008015560917556286,0.02213958650827408,-0.0031093743164092302,-0.003726462833583355
-0.003909803461283445,-0.020584968850016594,-0.007759069092571735,0.02330349013209343,-0.003725414164364338,-0.004042267333716154
-0.0034788441844284534,-0.020595869049429893,-0.008529972285032272,0.023587631061673164,-0.003860877361148596,-0.004210655111819506
-0.0035366294905543327,-0.02021060511469841,-0.008388957940042019,0.024310410022735596,-0.003532063914462924,-0.003644921351224184
-0.0032721981406211853,-0.02007264271378517,-0.007998473942279816,0.024192016571760178,-0.003177161794155836,-0.003543598111718893
-0.0032977217342704535,-0.01955767162144184,-0.008071551099419594,0.024113480001688004,-0.002741870004683733,-0.0036520049907267094
-0.003433316247537732,-0.019536230713129044,-0.00865179579705,0.02381020411849022,-0.0026232346426695585,-0.004063074477016926
-0.003325704950839281,-0.02009490132331848,-0.008410482667386532,0.023680852726101875,-0.0023781671188771725,-0.004221907816827297
-0.0029943694826215506,-0.020018596202135086,-0.008177414536476135,0.023541025817394257,-0.0023065642453730106,-0.004063116852194071
-0.0029797088354825974,-0.019934160634875298,-0.00868436973541975,0.02436748333275318,-0.002634062897413969,-0.003826680826023221
-0.003252638503909111,-0.020232276991009712,-0.008686885237693787,0.0246806088835001,-0.003209618618711829,-0.003816852578893304
-0.0036307345144450665,-0.019729461520910263,-0.008057648316025734,0.02452310547232628,-0.0033282910007983446,-0.0034476653672754765
-0.003842667443677783,-0.01977517083287239,-0.008464807644486427,0.024414964020252228,-0.0031597837805747986,-0.0038726222701370716
-0.0032986921723932028,-0.020108988508582115,-0.008430237881839275,0.02429281920194626,-0.002858090912923217,-0.004496305715292692
-0.0031555111054331064,-0.01957022398710251,-0.008263243362307549,0.024008456617593765,-0.0027178414165973663,-0.004435867536813021
-0.0032408887054771185,-0.019872702658176422,-0.008212669752538204,0.024532003328204155,-0.0023157885298132896,-0.004202481359243393
-0.0030665076337754726,-0.020138220861554146,-0.008301331661641598,0.024436024948954582,-0.0023991004563868046,-0.0042778365314006805
-0.0034008664079010487,-0.019627489149570465,-0.008620567619800568,0.0247979536652565,-0.002290086355060339,-0.00404513580724597
-0.0034008664079010487,-0.019627489149570465,-0.008620567619800568,0.0247979536652565,-0.002290086355060339,-0.00404513580724597
-0.0031621987000107765,-0.019457856193184853,-0.00805436447262764,0.024692123755812645,-0.0021987492218613625,-0.003840414574369788
-0.0032553242053836584,-0.02015155553817749,-0.008236881345510483,0.024745479226112366,-0.0022199300583451986,-0.004084861371666193
-0.003260717261582613,-0.019631944596767426,-0.008048244751989841,0.02438548021018505,-0.0023306163493543863,-0.0042687756940722466
-0.003208463778719306,-0.019467374309897423,-0.007777547929435968,0.024440420791506767,-0.002885716501623392,-0.004512629937380552
-0.0033256805036216974,-0.019791001453995705,-0.008898351341485977,0.024726636707782745,-0.0028562191873788834,-0.004291611723601818
-0.003186021465808153,-0.01951676979660988,-0.008217127993702888,0.02542208507657051,-0.002750214422121644,-0.004061381798237562
-0.0030164995696395636,-0.0191661324352026,-0.008115271106362343,0.025240939110517502,-0.0025482887867838144,-0.004136109724640846
-0.0029852569568902254,-0.019573574885725975,-0.00799507461488247,0.02419244684278965,-0.0027924911119043827,-0.0039724125526845455
-0.0028582692611962557,-0.019535593688488007,-0.008865698240697384,0.023506078869104385,-0.0027828526217490435,-0.0038208269979804754
-0.002944069914519787,-0.019198181107640266,-0.00801860075443983,0.02390466071665287,-0.002670051995664835,-0.004288014490157366
-0.003213261952623725,-0.01927914284169674,-0.007507772650569677,0.02462555095553398,-0.0024686562828719616,-0.004165553953498602
-0.003199824597686529,-0.018540574237704277,-0.007987097837030888,0.024413958191871643,-0.0021314884070307016,-0.004327744711190462
-0.003220215905457735,-0.018524596467614174,-0.008387886919081211,0.023965759202837944,-0.0017807477852329612,-0.004616851452738047
-0.003182512940838933,-0.01959805376827717,-0.008345214650034904,0.024271922186017036,-0.001679838402196765,-0.004459391813725233
-0.00296783703379333,-0.019249022006988525,-0.007934990338981152,0.024984603747725487,-0.0014497103402391076,-0.0040520429611206055
-0.0033081816509366035,-0.018584761768579483,-0.008477049879729748,0.024395428597927094,-0.0014224025653675199,-0.0038340629544109106
-0.003227845299988985,-0.01911676675081253,-0.00810156762599945,0.023934420198202133,-0.0013937337789684534,-0.0042747193947434425
-0.0029378212057054043,-0.0189521387219429,-0.007950392551720142,0.023567242547869682,-0.0015662912046536803,-0.004916319623589516
-0.003010262968018651,-0.017612038180232048,-0.007963938638567924,0.02414899319410324,-0.001642580726183951,-0.00509121036157012
-0.003400703426450491,-0.01854667067527771,-0.00903837289661169,0.02505691535770893,-0.0017759667243808508,-0.004549883771687746
-0.00345911574549973,-0.01795622892677784,-0.007931847125291824,0.025230269879102707,-0.0018739959923550487,-0.004393197130411863
-0.003485532943159342,-0.018541669473052025,-0.0074498699977993965,0.025009334087371826,-0.00213810196146369,-0.00447060214355588
-0.0031647991854697466,-0.018306424841284752,-0.008199955336749554,0.025021517649292946,-0.0020472463220357895,-0.004597479943186045
-0.002862082328647375,-0.018053775653243065,-0.008673194795846939,0.025126075372099876,-0.0021374698262661695,-0.004685337655246258
-0.0033387672156095505,-0.01810334250330925,-0.007848181761801243,0.025232864543795586,-0.001678716973401606,-0.00457244087010622
-0.003270172281190753,-0.018498187884688377,-0.00826227106153965,0.02512573078274727,-0.0015421770513057709,-0.004521440248936415
-0.0027314333710819483,-0.01889643445611,-0.008246994577348232,0.025096992030739784,-0.0014431384624913335,-0.0045410203747451305
-0.0027501359581947327,-0.018333524465560913,-0.008427285589277744,0.02452363632619381,-0.0014013367472216487,-0.004129230510443449
-0.0027501359581947327,-0.018333524465560913,-0.008427285589277744,0.02452363632619381,-0.0014013367472216487,-0.004129230510443449
-0.00277103204280138,-0.018520552664995193,-0.008575072512030602,0.024465391412377357,-0.0014781426871195436,-0.0044181812554597855
-0.0027297413907945156,-0.018582148477435112,-0.008694441057741642,0.024462416768074036,-0.001697942498140037,-0.004283594433218241
-0.0026880118530243635,-0.018143387511372566,-0.008191151544451714,0.024498939514160156,-0.001598471193574369,-0.004470153711736202
-0.002887503709644079,-0.018487710505723953,-0.008021759800612926,0.02488621696829796,-0.0014110251795500517,-0.004994057584553957
-0.002812128746882081,-0.020152945071458817,-0.008433959446847439,0.024680476635694504,-0.0012453478993847966,-0.004997805692255497
-0.0027562137693166733,-0.017706185579299927,-0.008163714781403542,0.02441524714231491,-0.000993050867691636,-0.004831954836845398
-0.002556753112003207,-0.017918622121214867,-0.008067695423960686,0.024261465296149254,-0.000802274327725172,-0.0045287469401955605
-0.002878898521885276,-0.018252136185765266,-0.007729008793830872,0.024201208725571632,-0.0008051287732087076,-0.004534311592578888
-0.0027390653267502785,-0.0181556548923254,-0.008821647614240646,0.02411281317472458,-0.0008086427696980536,-0.0047569917514920235
-0.0025807241909205914,-0.01847052201628685,-0.009062478318810463,0.02441076748073101,-0.0008186408085748553,-0.005543912760913372
-0.0026517624501138926,-0.01820574328303337,-0.008530938997864723,0.024556899443268776,-0.0008059798856265843,-0.005352317821234465
-0.002822177018970251,-0.017882874235510826,-0.008684799075126648,0.02448141947388649,-0.0009025837061926723,-0.004941057879477739
-0.002884414279833436,-0.018124623224139214,-0.008660245686769485,0.02397983893752098,-0.0009382869466207922,-0.005000485572963953
-0.0025763302110135555,-0.01770743541419506,-0.008439449593424797,0.023876642808318138,-0.0011555145028978586,-0.005086306482553482
-0.0025792873930186033,-0.018143687397241592,-0.008521433919668198,0.023903345689177513,-0.0011774998856708407,-0.004914573393762112
-0.0024095233529806137,-0.017871815711259842,-0.009260380640625954,0.02418113872408867,-0.0011315158335492015,-0.005331503227353096
-0.002486657118424773,-0.017673121765255928,-0.0092227254062891,0.024141136556863785,-0.0010957097401842475,-0.0052447025664150715
-0.0024321104865521193,-0.01821844093501568,-0.008065992966294289,0.023917853832244873,-0.0010050557320937514,-0.004782229196280241
-0.0023776416201144457,-0.017404260113835335,-0.00849893968552351,0.024056637659668922,-0.0009857253171503544,-0.004460094030946493
-0.0026570057962089777,-0.01747741363942623,-0.009166857227683067,0.02380676567554474,-0.0009721029200591147,-0.004396356176584959
-0.00252385507337749,-0.017464548349380493,-0.008751577697694302,0.02360670641064644,-0.0009705906268209219,-0.004773656837642193
-0.0023842700757086277,-0.017356591299176216,-0.008847510442137718,0.023659219965338707,-0.0009858295088633895,-0.005405155010521412
-0.0021603319328278303,-0.017405277118086815,-0.008593869395554066,0.025293869897723198,-0.0009606020175851882,-0.005256765056401491
-0.0022990722209215164,-0.017417415976524353,-0.008897142484784126,0.024364594370126724,-0.0008615931146778166,-0.005049021914601326
-0.0022925848606973886,-0.017788557335734367,-0.008849997073411942,0.023920772597193718,-0.0008600960718467832,-0.004990256857126951
-0.0022391469683498144,-0.017440026625990868,-0.008667866699397564,0.02315778285264969,-0.0007888689287938178,-0.004999397788196802
-0.0022391469683498144,-0.017440026625990868,-0.008667866699397564,0.02315778285264969,-0.0007888689287938178,-0.004999397788196802
-0.0023783037904649973,-0.017583804205060005,-0.009232582524418831,0.02352888695895672,-0.0006930416566319764,-0.00568071473389864
-0.002445948775857687,-0.016979604959487915,-0.008960533887147903,0.024367012083530426,-0.0006591968121938407,-0.005477733910083771
-0.0022927511017769575,-0.01666785217821598,-0.008374524302780628,0.024744322523474693,-0.0006327968440018594,-0.005294675473123789
-0.002484232420101762,-0.017206137999892235,-0.00901410449296236,0.02375304326415062,-0.0005693368730135262,-0.005042387638241053
-0.002410456771031022,-0.017376866191625595,-0.008910469710826874,0.023509502410888672,-0.0005151625955477357,-0.004833287093788385
-0.0026050200685858727,-0.017871633172035217,-0.009643053635954857,0.02472931519150734,-0.0005430281162261963,-0.00500321201980114
-0.002378298668190837,-0.016598381102085114,-0.008571016602218151,0.02477782405912876,-0.0005042781704105437,-0.005159517750144005
-0.002210741862654686,-0.016624635085463524,-0.008157133124768734,0.024624532088637352,-0.0004671666829381138,-0.0056024775840342045
-0.0021815116051584482,-0.017184346914291382,-0.009157790802419186,0.024025166407227516,-0.00043491311953403056,-0.005441840272396803
-0.002175879431888461,-0.016527995467185974,-0.0083408672362566,0.02371324971318245,-0.0004068134003318846,-0.005750651471316814
-0.0023699174635112286,-0.01710548810660839,-0.008456125855445862,0.023904092609882355,-0.00038212505751289427,-0.005360931623727083
-0.002380035351961851,-0.016727877780795097,-0.008552308194339275,0.024487784132361412,-0.000360263220500201,-0.004911407362669706
-0.002225450938567519,-0.016873380169272423,-0.008459966629743576,0.024500204250216484,-0.0003407683107070625,-0.004738981835544109
-0.002225450938567519,-0.016873380169272423,-0.008459966629743576,0.024500204250216484,-0.0003407683107070625,-0.004738981835544109
-0.001890048268251121,-0.016458207741379738,-0.00825339462608099,0.02384725585579872,-0.0002378285862505436,-0.005555759184062481
-0.0018708511488512158,-0.016083667054772377,-0.008315704762935638,0.023396676406264305,-0.00022917566820979118,-0.005361846648156643
-0.0018708511488512158,-0.016083667054772377,-0.008315704762935638,0.023396676406264305,-0.00022917566820979118,-0.005361846648156643
-0.0018708511488512158,-0.016083667054772377,-0.008315704762935638,0.023396676406264305,-0.00022917566820979118,-0.005361846648156643
-0.0018708511488512158,-0.016083667054772377,-0.008315704762935638,0.023396676406264305,-0.00022917566820979118,-0.005361846648156643
-0.0018708511488512158,-0.016083667054772377,-0.008315704762935638,0.023396676406264305,-0.00022917566820979118,-0.005361846648156643
-0.0018708511488512158,-0.016083667054772377,-0.008315704762935638,0.023396676406264305,-0.00022917566820979118,-0.005361846648156643
-0.002020619111135602,-0.01630980148911476,-0.008906901814043522,0.02283366397023201,-0.00019390287343412638,-0.005465686321258545
-0.0019633097108453512,-0.01606850139796734,-0.008813941851258278,0.02273448556661606,-0.00018811257905326784,-0.005746650043874979
-0.001808390486985445,-0.015913309529423714,-0.00800519809126854,0.022649547085165977,-0.00018265817197971046,-0.005297154653817415
-0.001808390486985445,-0.015913309529423714,-0.00800519809126854,0.022649547085165977,-0.00018265817197971046,-0.005297154653817415
-0.0018765820423141122,-0.015819424763321877,-0.008497064933180809,0.022281566634774208,-0.00017264617781620473,-0.005291397217661142
-0.0019375456031411886,-0.01697498746216297,-0.009504970163106918,0.02241993509232998,-0.00015952995454426855,-0.0053608613088727
-0.0019375456031411886,-0.01697498746216297,-0.009504970163106918,0.02241993509232998,-0.00015952995454426855,-0.0053608613088727
-0.0019789652433246374,-0.01661841943860054,-0.008382868021726608,0.02233828976750374,-0.00015558984887320548,-0.005220602732151747
-0.0017104094149544835,-0.016262099146842957,-0.008873498998582363,0.022991878911852837,-0.00014826614642515779,-0.005611064378172159
-0.0016063721850514412,-0.016686609014868736,-0.00851503573358059,0.02283666655421257,-0.00014160085993353277,-0.006116629112511873
-0.0017638223944231868,-0.016224592924118042,-0.009241586551070213,0.022299667820334435,-0.0001384881034027785,-0.005739524960517883
-0.0017638223944231868,-0.016224592924118042,-0.009241586551070213,0.022299667820334435,-0.0001384881034027785,-0.005739524960517883
-0.0016780700534582138,-0.016552777960896492,-0.008228329010307789,0.022026969119906425,-0.00013550918083637953,-0.005713516380637884
-0.001990062650293112,-0.01636873371899128,-0.008023173548281193,0.022764338180422783,-0.0001326557103311643,-0.005268924403935671
-0.0018524021143093705,-0.016148516908288002,-0.008218064904212952,0.023032547906041145,-0.0001299199357163161,-0.005224770866334438
-0.0018524021143093705,-0.016148516908288002,-0.008218064904212952,0.023032547906041145,-0.0001299199357163161,-0.005224770866334438
-0.0017667270731180906,-0.016439376398921013,-0.008465373888611794,0.022550571709871292,-0.00012477365089580417,-0.005335865542292595
-0.0017667270731180906,-0.016439376398921013,-0.008465373888611794,0.022550571709871292,-0.00012477365089580417,-0.005335865542292595
-0.0016942652873694897,-0.01610291376709938,-0.008510363288223743,0.023373844102025032,-0.00012001944560324773,-0.005149911157786846
-0.001845368999056518,-0.01653406396508217,-0.00875649694353342,0.022954685613512993,-0.000117775663966313,-0.005729116499423981
-0.001845368999056518,-0.01653406396508217,-0.00875649694353342,0.022954685613512993,-0.000117775663966313,-0.005729116499423981
-0.0017039768863469362,-0.01681184023618698,-0.008630478754639626,0.022641120478510857,-0.00011561435530893505,-0.005678914487361908
-0.0017368114786222577,-0.016334781423211098,-0.008329433389008045,0.02244170755147934,-0.0001135308193624951,-0.006015143357217312
-0.0017608448397368193,-0.016446243971586227,-0.008457888849079609,0.02240253984928131,-0.0001115210834541358,-0.006200070958584547
-0.0016629807651042938,-0.015833448618650436,-0.008195496164262295,0.022864194586873055,-7.272654329426587e-05,-0.005545143969357014
-0.0016578428912907839,-0.01644141972064972,-0.008098503574728966,0.023028593510389328,-3.645320248324424e-05,-0.0054197488352656364
-0.0016230937326326966,-0.016142794862389565,-0.008854446932673454,0.02283436618745327,-3.3498443372081965e-05,-0.005746999755501747
-0.0014768828405067325,-0.016530534252524376,-0.008691760711371899,0.02237032912671566,-3.27404159179423e-05,-0.005695645231753588
-0.0014951284974813461,-0.016365421935915947,-0.007941550575196743,0.021808581426739693,-3.2145981094799936e-05,-0.005830519367009401
-0.001454660203307867,-0.015792924910783768,-0.008127875626087189,0.02214127779006958,-3.158133040415123e-05,-0.006071890704333782
-0.0017472836188971996,-0.016147518530488014,-0.008853686042129993,0.02200431190431118,-3.103676499449648e-05,-0.005871349014341831
-0.0016314192907884717,-0.01608976721763611,-0.008798904716968536,0.02171015925705433,-3.0510664146277122e-05,-0.005700808484107256
-0.0017654403345659375,-0.016627073287963867,-0.00813736766576767,0.02169155329465866,-3.0002096536918543e-05,-0.00548567296937108
-0.0015188134275376797,-0.016400419175624847,-0.007782263215631247,0.022235950455069542,-1.4643099348177202e-05,-0.005952196661382914
-0.0015379528049379587,-0.015618773177266121,-0.00799634214490652,0.021668611094355583,-1.4294888387667015e-05,-0.006114603485912085
-0.0014575256500393152,-0.01598857156932354,-0.008069930598139763,0.021481575444340706,-7.137540251278551e-06,-0.0057379440404474735
-0.0015297697391360998,-0.016091682016849518,-0.008774328045547009,0.02197406254708767,-4.660303716264025e-07,-0.0056944373063743114
-0.0015297697391360998,-0.016091682016849518,-0.008774328045547009,0.02197406254708767,-4.660303716264025e-07,-0.0056944373063743114
-0.001452032825909555,-0.015890775248408318,-0.00785654503852129,0.02191586047410965,-3.042845619916079e-08,-0.0060525801964104176
-0.0013618823140859604,-0.015792572870850563,-0.007626654580235481,0.022050833329558372,-1.986760533867482e-09,-0.006219423841685057
-0.001242868136614561,-0.015728188678622246,-0.007885167375206947,0.021630099043250084,-1.2972126151034047e-10,-0.006088159512728453
-0.001307460363022983,-0.016089314594864845,-0.008237261325120926,0.021374773234128952,-8.469871505545346e-12,-0.006262262351810932
-0.001236263895407319,-0.015539285726845264,-0.008291623555123806,0.022026699036359787,-5.530220920958728e-13,-0.006097777746617794
-0.0011865256819874048,-0.01580083929002285,-0.007983321323990822,0.021464139223098755,-2.357619646926358e-15,-0.006302875466644764
-0.0011865256819874048,-0.01580083929002285,-0.007983321323990822,0.021464139223098755,-2.357619646926358e-15,-0.006302875466644764
-0.0012447226326912642,-0.016015205532312393,-0.007687884848564863,0.02154049277305603,-1.5393570472282768e-16,-0.006189623847603798
-0.0012530431849882007,-0.015453170984983444,-0.007491063792258501,0.021549753844738007,-1.0050902051106266e-17,-0.006532125174999237
-0.0012239334173500538,-0.01569947600364685,-0.0077640218660235405,0.021088188514113426,-6.562520624738583e-19,-0.006392470560967922
-0.0011775367893278599,-0.015837933868169785,-0.008531948551535606,0.021002132445573807,-4.284857288453198e-20,-0.0061772530898451805
-0.0011408966965973377,-0.015445432625710964,-0.007729336153715849,0.021294428035616875,0.00036559090949594975,-0.005883016157895327
-0.0011502614943310618,-0.015434489585459232,-0.007692855317145586,0.021106116473674774,0.0007562899845652282,-0.006221386604011059
-0.0011502614943310618,-0.015434489585459232,-0.007692855317145586,0.021106116473674774,0.0007562899845652282,-0.006221386604011059
-0.0011432711035013199,-0.015754451975226402,-0.008442934602499008,0.020466743037104607,0.0013025305233895779,-0.006153526715934277
-0.0010930892312899232,-0.015521150082349777,-0.008052424527704716,0.020927391946315765,0.0012855652021244168,-0.005731869488954544
-0.0010805854108184576,-0.016109587624669075,-0.00741821713745594,0.020828651264309883,0.0010532715823501348,-0.005934942979365587
-0.0010627603624016047,-0.015681056305766106,-0.007416557054966688,0.021170733496546745,0.0009877432603389025,-0.006040829233825207
-0.0010593835031613708,-0.01584182307124138,-0.007528046146035194,0.021403992548584938,0.0008811992011032999,-0.006084837950766087
-0.0012494043912738562,-0.01553299743682146,-0.007504703011363745,0.021127240732312202,0.0008696215809322894,-0.006369502749294043
-0.0011997397523373365,-0.01575799100100994,-0.007596523035317659,0.020671410486102104,0.0007398776360787451,-0.0059209405444562435
-0.0011516057420521975,-0.015629395842552185,-0.007961965166032314,0.02084527164697647,0.0006886590272188187,-0.005830701440572739
-0.0010511771542951465,-0.015220031142234802,-0.00756020238623023,0.021477321162819862,0.0010364846093580127,-0.006398780737072229
-0.0010260532144457102,-0.015229742042720318,-0.007440711371600628,0.020523691549897194,0.0013493659207597375,-0.0065096039324998856
-0.0010081339860334992,-0.01549462042748928,-0.008254257962107658,0.01961182989180088,0.0013730907812714577,-0.006352706346660852
-0.00097462726989761,-0.015562843531370163,-0.008197440765798092,0.020539630204439163,0.0018310429295524955,-0.005707992240786552
-0.0009915773989632726,-0.015562460757791996,-0.007899115793406963,0.020566800609230995,0.0017137512331828475,-0.006306982133537531
-0.000977596384473145,-0.014805035665631294,-0.0074760098941624165,0.02087917923927307,0.0017075930954888463,-0.006686520297080278
-0.000977596384473145,-0.014805035665631294,-0.0074760098941624165,0.02087917923927307,0.0017075930954888463,-0.006686520297080278
-0.0009572947164997458,-0.015831295400857925,-0.007628621533513069,0.020573889836668968,0.0014176088152453303,-0.006596785504370928
-0.0008589808130636811,-0.014700044877827168,-0.007545842789113522,0.02051452174782753,0.0013900951016694307,-0.006089125759899616
-0.0008399239159189165,-0.015909552574157715,-0.008052485063672066,0.020535148680210114,0.001257447642274201,-0.005971275735646486
-0.0007092832238413393,-0.015429193153977394,-0.007636863272637129,0.020352892577648163,0.001150406082160771,-0.006099875550717115
-0.0007332516252063215,-0.01516217365860939,-0.008222460746765137,0.020262330770492554,0.0012304417323321104,-0.00648343563079834
-0.0007415101863443851,-0.015010656788945198,-0.007828245870769024,0.020340008661150932,0.0018419083207845688,-0.006627000402659178
-0.0006738430238328874,-0.015284327790141106,-0.007806972600519657,0.019407879561185837,0.0018109448719769716,-0.006140567362308502
-0.0006945285713300109,-0.014627218246459961,-0.007943662814795971,0.019283415749669075,0.002074618823826313,-0.006021938752382994
-0.0006428767228499055,-0.014985468238592148,-0.007836961187422276,0.019500643014907837,0.001927083358168602,-0.006541513372212648
-0.0005694147548638284,-0.014772716909646988,-0.007615387439727783,0.01967676356434822,0.001977630192413926,-0.006742674391716719
-0.0005711885169148445,-0.014843539334833622,-0.0070188879035413265,0.021546175703406334,0.0018300381489098072,-0.006538974121212959
-0.0005448430310934782,-0.015336607582867146,-0.007351808249950409,0.020318280905485153,0.001979835331439972,-0.006171426735818386
-0.000574322824832052,-0.014818566851317883,-0.008466380648314953,0.019578123465180397,0.0018444916931912303,-0.006412808317691088
-0.000578529667109251,-0.015035217627882957,-0.007591837551444769,0.019305726513266563,0.0018572236876934767,-0.006540080066770315
-0.0005576288094744086,-0.014754335395991802,-0.006798123475164175,0.019683875143527985,0.0019142270321026444,-0.006259967107325792
-0.0006182974902912974,-0.0147353895008564,-0.007103976793587208,0.019632618874311447,0.002184590557590127,-0.0062896027229726315
-0.0005558878765441477,-0.014617362059652805,-0.007796288933604956,0.019141150638461113,0.002122290665283799,-0.006049516145139933
-0.0005349891725927591,-0.01431435439735651,-0.008168250322341919,0.018282344564795494,0.0019238232634961605,-0.006775469984859228
-0.0004867622919846326,-0.014881817623972893,-0.008566045202314854,0.018116792663931847,0.001628052443265915,-0.007268842309713364
-0.0005198277649469674,-0.014286248944699764,-0.00790090300142765,0.01816587895154953,0.0014523622812703252,-0.006630252581089735
-0.00048110855277627707,-0.01475489977747202,-0.00753786601126194,0.017689883708953857,0.0013776127016171813,-0.006483384873718023
-0.00048110855277627707,-0.01475489977747202,-0.00753786601126194,0.017689883708953857,0.0013776127016171813,-0.006483384873718023
-0.00044697854900732636,-0.014412217773497105,-0.007746664807200432,0.0177469439804554,0.0013089809799566865,-0.006614102981984615
-0.00041736126877367496,-0.0150480130687356,-0.008825710043311119,0.017957495525479317,0.0013714961241930723,-0.006596043705940247
-0.000446543243015185,-0.014325358904898167,-0.00868230126798153,0.0177218746393919,0.0017392203444615006,-0.006795438006520271
-0.0004211613559164107,-0.014665809459984303,-0.007825799286365509,0.018199320882558823,0.0018587812082841992,-0.006584978196769953
-0.0003978936583735049,-0.014128425158560276,-0.007611563894897699,0.01808593049645424,0.0020968946628272533,-0.006504897028207779
-0.00037705362774431705,-0.01423661783337593,-0.008335957303643227,0.01802561618387699,0.0019646896980702877,-0.006551078055053949
-0.00035828875843435526,-0.014066304080188274,-0.008580689318478107,0.018224211409687996,0.0019749151542782784,-0.006897535640746355
-0.0003413037920836359,-0.014602843672037125,-0.008037575520575047,0.016986150294542313,0.0018364780116826296,-0.006474764086306095
-0.0003258561482653022,-0.014105620793998241,-0.008333560079336166,0.017174264416098595,0.0019335091346874833,-0.006928404327481985
-0.00031174556352198124,-0.014141763560473919,-0.008044358342885971,0.01664499193429947,0.0017699493328109384,-0.006661873776465654
-0.0002988089108839631,-0.013672050088644028,-0.007646192330867052,0.016784586012363434,0.0019524667877703905,-0.006775619927793741
-0.00028690084582194686,-0.014186270534992218,-0.007984226569533348,0.01734788343310356,0.001879069022834301,-0.006833171471953392
-0.0002759057388175279,-0.014038107357919216,-0.00937432236969471,0.01669730246067047,0.002091098576784134,-0.006809486076235771
-0.00026572358910925686,-0.014351645484566689,-0.008563023991882801,0.017132606357336044,0.0020822437945753336,-0.006846464704722166
-0.00025626496062614024,-0.013614291325211525,-0.007735986728221178,0.01683228649199009,0.0020092721097171307,-0.006827084347605705
-0.0002474575594533235,-0.013356468640267849,-0.008104649372398853,0.017502794042229652,0.001756346202455461,-0.006854185834527016
-0.00023923504340928048,-0.013558334670960903,-0.00888889655470848,0.017529433593153954,0.0014732712879776955,-0.006633509416133165
-0.00023154121299739927,-0.013760453090071678,-0.008136401884257793,0.01694522239267826,0.0012916983105242252,-0.0069123138673603535
-0.00022432734840549529,-0.01401224359869957,-0.008070370182394981,0.017654620110988617,0.001376009313389659,-0.007017194759100676
-0.000217549066292122,-0.014033813029527664,-0.008841612376272678,0.01765412464737892,0.0016085387906059623,-0.006731054745614529
-0.00018583619385026395,-0.013892186805605888,-0.007728940341621637,0.017321819439530373,0.0017231133533641696,-0.00707975123077631
-0.00017952229245565832,-0.013425610028207302,-0.008054804988205433,0.016837842762470245,0.0022356323897838593,-0.0075973705388605595
-0.0001745349436532706,-0.013580815866589546,-0.008076408877968788,0.01660100929439068,0.002204002346843481,-0.006996086332947016
-0.00016982978559099138,-0.01337103545665741,-0.008803308941423893,0.01734999381005764,0.002166313584893942,-0.007212106138467789
-0.00016537182091269642,-0.013569137081503868,-0.008832680992782116,0.01732441782951355,0.0019142435630783439,-0.007202316541224718
-0.00015712300955783576,-0.01332275103777647,-0.008332420140504837,0.017153264954686165,0.0017571222269907594,-0.006894247140735388
-0.00015329995949286968,-0.013018677942454815,-0.008236058056354523,0.016397394239902496,0.001962728099897504,-0.006929774768650532
-0.00015329995949286968,-0.013018677942454815,-0.008236058056354523,0.016397394239902496,0.001962728099897504,-0.006929774768650532
-0.000149658095324412,-0.013533560559153557,-0.007841977290809155,0.01595856249332428,0.0020741138141602278,-0.006667378358542919
-0.00014618554268963635,-0.013330290094017982,-0.008049660362303257,0.015242045745253563,0.002312019467353821,-0.0065459515899419785
-0.0001428703690180555,-0.013009949587285519,-0.008289980702102184,0.01575954630970955,0.0021819970570504665,-0.006742728874087334
-0.00013970243162475526,-0.012622613459825516,-0.007751925382763147,0.01549629494547844,0.001959600020200014,-0.006830222904682159
-0.0001366718061035499,-0.012733133509755135,-0.007381189148873091,0.016034984961152077,0.001763798762112856,-0.006978642661124468
-5.362134106690064e-05,-0.012756628915667534,-0.008106310851871967,0.01532706432044506,0.0014275263529270887,-0.00677735498175025
-5.362134106690064e-05,-0.012756628915667534,-0.008106310851871967,0.01532706432044506,0.0014275263529270887,-0.00677735498175025
-4.243740841047838e-05,-0.012928955256938934,-0.007946665398776531,0.014860901050269604,0.0014136908575892448,-0.007074666675180197
-4.1329847590532154e-05,-0.012442429549992085,-0.00741387577727437,0.015399591997265816,0.0016277343966066837,-0.007484654430299997
-4.040044223074801e-05,-0.012534585781395435,-0.008128532208502293,0.015424971468746662,0.002130699809640646,-0.007013633847236633
-3.951351754949428e-05,-0.011991508305072784,-0.008293329738080502,0.01536701899021864,0.0024782640393823385,-0.006834559142589569
-3.866481711156666e-05,-0.011924108490347862,-0.0077714561484754086,0.014995303936302662,0.002613726304844022,-0.007245101500302553
-3.78517470380757e-05,-0.01200510747730732,-0.0077216969802975655,0.014397785998880863,0.0021578010637313128,-0.007385863922536373
-3.70721572835464e-05,-0.011652360670268536,-0.008103097788989544,0.014974513091146946,0.002004381502047181,-0.007204887922853231
-3.632404695963487e-05,-0.012309485115110874,-0.008377846330404282,0.014330587349832058,0.00185666314791888,-0.006902663502842188
-3.5605535231297836e-05,-0.01191573217511177,-0.007745042908936739,0.01438214723020792,0.0020015579648315907,-0.007253642193973064
-1.8155831639887765e-05,-0.011582516133785248,-0.008095108903944492,0.014420837163925171,0.002094685100018978,-0.007341415621340275
-5.865836556040449e-06,-0.011764894239604473,-0.007874992676079273,0.014922031201422215,0.002158754738047719,-0.007264392916113138
-7.869768836599178e-08,-0.011552739888429642,-0.008179951459169388,0.014358926564455032,0.002377558033913374,-0.00703619746491313
-1.0558298679796962e-09,-0.011905298568308353,-0.007699248846620321,0.014695554971694946,0.002286751987412572,-0.007147704251110554
-1.416530608089328e-11,-0.011459342204034328,-0.007972334511578083,0.01431498397141695,0.0021328183356672525,-0.007398821413516998
-1.9004567884672863e-13,-0.011229271069169044,-0.008142523467540741,0.014472213573753834,0.0019287908216938376,-0.00776860723271966
-2.549705331781715e-15,-0.011323509737849236,-0.0075138225220143795,0.013951693661510944,0.001716333208605647,-0.007365585770457983
-4.589380018178959e-19,-0.011564075015485287,-0.008858814835548401,0.013816510327160358,0.002051818184554577,-0.007475483696907759
0.000527317519299686,-0.011096340604126453,-0.008052068762481213,0.014103363268077374,0.0026725749485194683,-0.007424797862768173
0.0005939881084486842,-0.011597505770623684,-0.007779788225889206,0.014024260453879833,0.003079054644331336,-0.007142382673919201
0.0005263164639472961,-0.011646133847534657,-0.007481817156076431,0.014174246229231358,0.002906730631366372,-0.007752776145935059
0.00047119538066908717,-0.01101984828710556,-0.00757952593266964,0.014094171114265919,0.0026862574741244316,-0.007918182760477066
0.00047119538066908717,-0.01101984828710556,-0.00757952593266964,0.014094171114265919,0.0026862574741244316,-0.007918182760477066
0.00042651238618418574,-0.01133029256016016,-0.007501496933400631,0.013905510306358337,0.002358976285904646,-0.007924272678792477
0.0003895740082953125,-0.011196176521480083,-0.00757593521848321,0.013738795183598995,0.0022315767128020525,-0.00756624061614275
0.0004053197044413537,-0.011053625494241714,-0.007803045678883791,0.013829073868691921,0.0020544978324323893,-0.007477263454347849
0.0003981383633799851,-0.011439889669418335,-0.008560804650187492,0.013415412046015263,0.0019457952585071325,-0.0076208352111279964
0.00037107837852090597,-0.010952397249639034,-0.007861560210585594,0.012851966544985771,0.0017883293330669403,-0.007656935602426529
0.0004026900860480964,-0.011459071189165115,-0.0076559544540941715,0.012966361828148365,0.0016622268594801426,-0.008010166697204113
0.0003805776941590011,-0.011121631599962711,-0.007797501981258392,0.012766207568347454,0.0016317202243953943,-0.008251846767961979
0.0003589224361348897,-0.01108286902308464,-0.009461157023906708,0.013112244196236134,0.0014442739775404334,-0.007942535914480686
0.0003395738312974572,-0.011989238671958447,-0.007710077799856663,0.012410699389874935,0.0013662604615092278,-0.007585637737065554
0.0003663472889456898,-0.011562361381947994,-0.0070240190252661705,0.012245651334524155,0.001399089815095067,-0.007690791971981525
0.0003593081491999328,-0.011637368239462376,-0.007687912322580814,0.012382250279188156,0.0015514338156208396,-0.007794125471264124
0.0004502877127379179,-0.011589954607188702,-0.007699399720877409,0.012490103021264076,0.001650747493840754,-0.007704997435212135
0.0017465680139139295,-0.010535920038819313,-0.007340439595282078,0.012160617858171463,0.0020540033001452684,-0.007935837842524052
0.0017263989429920912,-0.012051161378622055,-0.008041474036872387,0.01172608695924282,0.0020371463615447283,-0.007768778596073389
0.0015555013669654727,-0.01135830208659172,-0.007707413285970688,0.01253124512732029,0.002017183694988489,-0.007916610687971115
0.001280981465242803,-0.01130595337599516,-0.0077410610392689705,0.012047302909195423,0.0019708157051354647,-0.008177614770829678
0.001087274868041277,-0.011514488607645035,-0.006971816066652536,0.012266822159290314,0.0018714852631092072,-0.008177859708666801
0.000835973012726754,-0.011110955849289894,-0.007182643748819828,0.012196456082165241,0.0018566244980320334,-0.008014739491045475
0.0009167088428512216,-0.011435248889029026,-0.007502622902393341,0.01139239314943552,0.002077248180285096,-0.007861494086682796
0.0009608003310859203,-0.011435089632868767,-0.007575721945613623,0.011857455596327782,0.002251999219879508,-0.008386454544961452
0.001643380499444902,-0.012129589915275574,-0.007206324487924576,0.011785819195210934,0.002521347254514694,-0.00789194367825985
0.0017195465043187141,-0.01106293685734272,-0.007477462291717529,0.011630289256572723,0.002284018089994788,-0.008528737351298332
0.00157805101480335,-0.01137921866029501,-0.007613981608301401,0.011364046484231949,0.0017933857161551714,-0.008547835052013397
0.0014558912953361869,-0.011464040726423264,-0.007324940990656614,0.011419701389968395,0.0016566935228183866,-0.00833149440586567
0.001358318724669516,-0.011132471263408661,-0.007333004381507635,0.011189250275492668,0.0015710978768765926,-0.00835121888667345
0.001358318724669516,-0.011132471263408661,-0.007333004381507635,0.011189250275492668,0.0015710978768765926,-0.00835121888667345
0.0013072127476334572,-0.011396854184567928,-0.007460054941475391,0.011319051496684551,0.001475512282922864,-0.008489940315485
0.0016946025425568223,-0.010679570958018303,-0.007687078323215246,0.01124749518930912,0.0015403637662529945,-0.007757584564387798
0.0018849266925826669,-0.010929747484624386,-0.007127390243113041,0.01035452913492918,0.0021378721576184034,-0.007849075831472874
0.002562333131209016,-0.011539609171450138,-0.006980602163821459,0.010831338353455067,0.002506495686247945,-0.008372778072953224
0.0027254829183220863,-0.010794701054692268,-0.007432921323925257,0.0107491509988904,0.0024634012952446938,-0.009130812250077724
0.002521930728107691,-0.010507565923035145,-0.007883826270699501,0.00979768019169569,0.0024406351149082184,-0.008410501293838024
0.0021837670356035233,-0.011246607638895512,-0.006999605800956488,0.010135749354958534,0.002222356153652072,-0.008142457343637943
0.0021431015338748693,-0.010573120787739754,-0.006951027549803257,0.010798183269798756,0.002212049439549446,-0.008563620038330555
0.0024641111958771944,-0.010910825803875923,-0.007632966618984938,0.010206828825175762,0.0023233352694660425,-0.00840352289378643
0.0025880830362439156,-0.009266084060072899,-0.007812433876097202,0.010071060620248318,0.00235691643320024,-0.007842451333999634
0.002671403344720602,-0.011678192764520645,-0.007443955633789301,0.009856675751507282,0.0026240202132612467,-0.008053986355662346
0.002827773569151759,-0.011158897541463375,-0.006895187310874462,0.009674065746366978,0.0028232417535036802,-0.008258577436208725
0.003118363907560706,-0.010069000534713268,-0.006423665210604668,0.009827041067183018,0.0025647683069109917,-0.008648746646940708
0.003075431799516082,-0.010705781169235706,-0.007131414953619242,0.00953312311321497,0.0021796103101223707,-0.008685342967510223
0.003336541121825576,-0.010679387487471104,-0.006837581750005484,0.00866821687668562,0.00205720541998744,-0.008825226686894894
0.003830316010862589,-0.010238554328680038,-0.006620629224926233,0.008418414741754532,0.0018138467567041516,-0.00871029868721962
0.00357041391544044,-0.010333431884646416,-0.006618039216846228,0.008219766430556774,0.0019011424155905843,-0.008716071955859661
0.0035907020792365074,-0.010552950203418732,-0.007258168421685696,0.007851430214941502,0.00217177695594728,-0.008981547318398952
0.003596146125346422,-0.010157165117561817,-0.007340113632380962,0.008198589086532593,0.0021478000562638044,-0.008905982598662376
0.003596146125346422,-0.010157165117561817,-0.007340113632380962,0.008198589086532593,0.0021478000562638044,-0.008905982598662376
0.004474853631108999,-0.009997130371630192,-0.007052934262901545,0.007213400211185217,0.0020576822571456432,-0.008821112103760242
0.004228433594107628,-0.009868144057691097,-0.0073722731322050095,0.006859706249088049,0.002143473131582141,-0.009171842597424984
0.00441270787268877,-0.009362583048641682,-0.0070700254291296005,0.007353559136390686,0.0025837181601673365,-0.00896473415195942
0.00441270787268877,-0.009362583048641682,-0.0070700254291296005,0.007353559136390686,0.0025837181601673365,-0.00896473415195942
0.004500063136219978,-0.009438976645469666,-0.006279049441218376,0.007347901351749897,0.0025522562209516764,-0.009494324214756489
0.004593309015035629,-0.009650131687521935,-0.00656231539323926,0.0066434359177947044,0.0024449077900499105,-0.00867726281285286
0.004700998775660992,-0.009407206438481808,-0.007478833198547363,0.006372407078742981,0.002356273354962468,-0.008783807046711445
0.004751204047352076,-0.009602373465895653,-0.0072943950071930885,0.006851499434560537,0.002141699893400073,-0.008945697918534279
0.005170762073248625,-0.009965764358639717,-0.006899394094944,0.007180863060057163,0.0019815927371382713,-0.00889788568019867
0.005176314618438482,-0.00945961568504572,-0.0066738915629684925,0.007232497446238995,0.0018556537106633186,-0.00908747036010027
0.004809554200619459,-0.008983353152871132,-0.007654594723135233,0.007833599112927914,0.0018881008727476,-0.009289130568504333
0.005416980944573879,-0.00965744536370039,-0.007616025395691395,0.0073044453747570515,0.002257341518998146,-0.009151414968073368
0.00538099929690361,-0.008623369969427586,-0.007149129174649715,0.006428208667784929,0.002371198497712612,-0.00926810223609209
0.005808048415929079,-0.008586423471570015,-0.006871883291751146,0.006016240920871496,0.0027647633105516434,-0.0092189135029912
0.005365259479731321,-0.008934508077800274,-0.0068205371499061584,0.006329531781375408,0.002629293594509363,-0.009069972671568394
0.005866596475243568,-0.00865916721522808,-0.007236103061586618,0.006434343755245209,0.002483425196260214,-0.009035401046276093
0.005887042731046677,-0.008098915219306946,-0.00743961101397872,0.006258871406316757,0.002347223926335573,-0.009202280081808567
0.00598800228908658,-0.008221011608839035,-0.007572534494102001,0.005744561553001404,0.0024163362104445696,-0.009238016791641712
0.006491460371762514,-0.008279498666524887,-0.006996545474976301,0.005154531914740801,0.0024765341076999903,-0.008805773220956326
0.00614139111712575,-0.007834470830857754,-0.00725132180377841,0.005207778420299292,0.0027458954136818647,-0.00926778931170702
0.006330478470772505,-0.007499913219362497,-0.007119712885469198,0.005275384988635778,0.002480265451595187,-0.009296595118939877
0.006308328825980425,-0.007526852190494537,-0.007074740715324879,0.005171672906726599,0.0023466129787266254,-0.00933731347322464
0.00636718375608325,-0.007611044682562351,-0.0073800100944936275,0.005264326464384794,0.0020959668327122927,-0.009342688135802746
0.0067431069910526276,-0.007443025708198547,-0.008184338919818401,0.005169699899852276,0.002093429211527109,-0.009681643918156624
0.006642191670835018,-0.007730042561888695,-0.0070502557791769505,0.005880455952137709,0.002477469155564904,-0.009846966713666916
0.006813832558691502,-0.007618618663400412,-0.006924616638571024,0.005545210558921099,0.002865525195375085,-0.009214985184371471
0.007246091961860657,-0.007449961733072996,-0.0075340718030929565,0.005659847985953093,0.003041214309632778,-0.009483115747570992
0.007548045367002487,-0.007245707791298628,-0.008376678451895714,0.005870874971151352,0.002825223607942462,-0.009497474879026413
0.007465016562491655,-0.007091577164828777,-0.0075294445268809795,0.004186352714896202,0.0024111405946314335,-0.009350049309432507
0.007618077099323273,-0.007325225509703159,-0.008259412832558155,0.003779051825404167,0.00224480452015996,-0.009532020427286625
0.007833069190382957,-0.007033813279122114,-0.007984495721757412,0.004429823253303766,0.0022121004294604063,-0.009961508214473724
0.007658775430172682,-0.006881976965814829,-0.007031924556940794,0.0047708782367408276,0.0022168036084622145,-0.00996388215571642
0.007552053779363632,-0.006861467380076647,-0.0071957530453801155,0.004775290843099356,0.0026221268344670534,-0.009975587017834187
0.0076072001829743385,-0.006607322487980127,-0.00768280029296875,0.004589392337948084,0.0028295074589550495,-0.009557272307574749
0.008097781799733639,-0.006687048822641373,-0.008115067146718502,0.004049368668347597,0.002531352685764432,-0.009681177325546741
0.008097781799733639,-0.006687048822641373,-0.008115067146718502,0.004049368668347597,0.002531352685764432,-0.009681177325546741
0.007920184172689915,-0.00636468967422843,-0.007898361422121525,0.0036915759555995464,0.002398493466898799,-0.010529959574341774
0.007537361234426498,-0.0065077790059149265,-0.007757402956485748,0.003610267536714673,0.0023418106138706207,-0.01001147460192442
0.007427809294313192,-0.006428776774555445,-0.007924613542854786,0.003807235509157181,0.002294813748449087,-0.009822646155953407
0.008707718923687935,-0.006691937334835529,-0.0077377199195325375,0.003944270312786102,0.002477809088304639,-0.00979610625654459
0.00839109905064106,-0.006604984402656555,-0.007509160321205854,0.0038181855343282223,0.0026115693617612123,-0.009858525358140469
0.008103440515697002,-0.0063666123896837234,-0.007452608551830053,0.003665071912109852,0.002583402441814542,-0.009670807048678398
0.00913909263908863,-0.006127791944891214,-0.007758569438010454,0.003537756158038974,0.0026655851397663355,-0.009843965992331505
0.008496520109474659,-0.0064494251273572445,-0.007877814583480358,0.0035339375026524067,0.002610408468171954,-0.009872409515082836
0.008448098786175251,-0.006734517402946949,-0.007158927619457245,0.003463003784418106,0.0025100994389504194,-0.009975019842386246
0.009206150658428669,-0.006606942508369684,-0.007036381401121616,0.003585262456908822,0.0027888582553714514,-0.009875841438770294
0.008651159703731537,-0.00628776615485549,-0.007653797976672649,0.0033495440147817135,0.0029580462723970413,-0.010422416031360626
0.008687077090144157,-0.006356543395668268,-0.007770288269966841,0.0030837617814540863,0.00294313533231616,-0.010216822847723961
0.009009812958538532,-0.006324763875454664,-0.006994218099862337,0.0027305714320391417,0.002744830446317792,-0.010126362554728985
0.009405851364135742,-0.005981087684631348,-0.007041253615170717,0.002552686957642436,0.002564005320891738,-0.009965864010155201
0.009328499436378479,-0.006125095300376415,-0.007939659990370274,0.0023184868041425943,0.0024115312844514847,-0.010128130204975605
0.009218940511345863,-0.006055096630007029,-0.007667526137083769,0.002336222445592284,0.0025916213635355234,-0.009829709306359291
0.009277642704546452,-0.005859514232724905,-0.007093869615346193,0.0022752396762371063,0.0026976189110428095,-0.010122515261173248
0.01008186861872673,-0.0061595081351697445,-0.006850802805274725,0.002261179033666849,0.0024629319086670876,-0.010450099594891071
0.008882103487849236,-0.005846277344971895,-0.0077176750637590885,0.0024495876859873533,0.002476344583556056,-0.010095730423927307
0.009390364401042461,-0.005859524477273226,-0.007277136202901602,0.003020012751221657,0.0024791196919977665,-0.010180625133216381
0.009627792052924633,-0.0059857615269720554,-0.006911377422511578,0.0028317668475210667,0.0026784308720380068,-0.010369711555540562
0.010717956349253654,-0.006157758180052042,-0.007865951396524906,0.002693441929295659,0.0029936854261904955,-0.010419401340186596
0.009439844638109207,-0.0056092869490385056,-0.007508719339966774,0.0023424108512699604,0.003086873795837164,-0.010225367732346058
0.008892986923456192,-0.005833315197378397,-0.006861688569188118,0.0021151434630155563,0.002988380379974842,-0.010217537172138691
0.009483721107244492,-0.006036120932549238,-0.007014057599008083,0.0020821846555918455,0.0026314659044146538,-0.010524828918278217
0.010232449509203434,-0.006067436654120684,-0.0078051285818219185,0.002073507523164153,0.0023287564981728792,-0.010754840448498726
0.009735389612615108,-0.006294824182987213,-0.0077272383496165276,0.0018631794955581427,0.0021738396026194096,-0.010275818407535553
0.009513317607343197,-0.005637618713080883,-0.006856211461126804,0.0016633665654808283,0.002375479321926832,-0.010200124233961105
0.010196848772466183,-0.005851407069712877,-0.007097732741385698,0.001629008213058114,0.0025478005409240723,-0.010208625346422195
0.010196848772466183,-0.005851407069712877,-0.007097732741385698,0.001629008213058114,0.0025478005409240723,-0.010208625346422195
0.008125734515488148,-0.006000136490911245,-0.007574919611215591,0.001655877917073667,0.0024629293475300074,-0.01034795306622982
0.007684729527682066,-0.006255107466131449,-0.007185894064605236,0.0016021403716877103,0.0026121458504348993,-0.010659225285053253
0.007924673147499561,-0.006382240913808346,-0.006972268223762512,0.001645731506869197,0.0025709394831210375,-0.010604426264762878
0.008425663225352764,-0.006100994069129229,-0.007242912892252207,0.001772915362380445,0.0024815313518047333,-0.010639158077538013
0.008188815787434578,-0.006222642492502928,-0.007076716516166925,0.0017677407013252378,0.002627704991027713,-0.010948022827506065
0.008745084516704082,-0.006337814033031464,-0.007299346383661032,0.0016369875520467758,0.0026293073315173388,-0.010431906208395958
0.008581890724599361,-0.005770283285528421,-0.006824197247624397,0.0014848310966044664,0.002551527228206396,-0.010642307810485363
0.008278033696115017,-0.006383182480931282,-0.006778995040804148,0.0013867787783965468,0.0026701600290834904,-0.010038120672106743
0.0075096990913152695,-0.0061590964905917645,-0.006838585250079632,0.0012831587810069323,0.002632784890010953,-0.010066244751214981
0.009093481115996838,-0.00587855651974678,-0.007191779091954231,0.0012070623924955726,0.0025181539822369814,-0.009861476719379425
0.008819983340799809,-0.005692105274647474,-0.006960500497370958,0.0010476073948666453,0.0024730702862143517,-0.00973091833293438
0.00826464593410492,-0.006018643733114004,-0.006917585153132677,0.0010189918102696538,0.002464329358190298,-0.010016591288149357
0.008304563350975513,-0.0065462482161819935,-0.006046956870704889,0.0009043660247698426,0.0024331356398761272,-0.010527867823839188
0.008885974995791912,-0.0059666140004992485,-0.006343446206301451,0.0007694404921494424,0.0027393365744501352,-0.01064884103834629
0.009245635941624641,-0.005559607408940792,-0.00654748035594821,0.0006578591419383883,0.002651998307555914,-0.010276814922690392
0.008694715797901154,-0.00576057517901063,-0.006425910163670778,0.0005738117033615708,0.002892160788178444,-0.010568900033831596
0.009099375456571579,-0.006264327093958855,-0.006162093486636877,0.0005087945610284805,0.0027823974378407,-0.010290662758052349
0.009414862841367722,-0.0055612605065107346,-0.006780971307307482,0.00041483910172246397,0.0029756026342511177,-0.01088753528892994
0.009655125439167023,-0.005307081155478954,-0.006393410265445709,0.000379787728888914,0.0030135854613035917,-0.010750573128461838
0.009877345524728298,-0.005627201404422522,-0.006318414118140936,0.00035020304494537413,0.00301396194845438,-0.010935721918940544
0.009650209918618202,-0.006261512171477079,-0.006245751865208149,0.0003248989814892411,0.002983751241117716,-0.011011754162609577
0.010345947928726673,-0.006565312389284372,-0.00701059028506279,0.00030300678918138146,0.0025980074424296618,-0.010762523859739304
0.009920068085193634,-0.0060043735429644585,-0.0064904652535915375,0.0002838822838384658,0.0023448255378752947,-0.01066053006798029
0.009920068085193634,-0.0060043735429644585,-0.0064904652535915375,0.0002838822838384658,0.0023448255378752947,-0.01066053006798029
0.009856652468442917,-0.0056805917993187904,-0.006162987090647221,0.00026702863397076726,0.0021935070399194956,-0.010178065858781338
0.01053672656416893,-0.006041392683982849,-0.006725052371621132,0.00019263917056377977,0.002517599845305085,-0.010728366672992706
0.01053672656416893,-0.006041392683982849,-0.006725052371621132,0.00019263917056377977,0.002517599845305085,-0.010728366672992706
0.010071675293147564,-0.005543812178075314,-0.006959996186196804,0.00018144059868063778,0.0027382574044167995,-0.01092941127717495
0.010347779840230942,-0.005745592527091503,-0.006373297888785601,0.00017263961490243673,0.0027106436900794506,-0.011187579482793808
0.010201174765825272,-0.005367650650441647,-0.006325353402644396,0.00016473123105242848,0.0024758700747042894,-0.010623465292155743
0.010586285032331944,-0.005105156917124987,-0.006382439285516739,0.00015752148465253413,0.002515569794923067,-0.01078617013990879
0.010777739807963371,-0.00552227720618248,-0.006468259263783693,0.00011821875523310155,0.0024323381949216127,-0.011643343605101109
0.010676546953618526,-0.005306405480951071,-0.006371557712554932,0.00010896094318013638,0.002562414389103651,-0.01146666333079338
0.011252276599407196,-0.00573514960706234,-0.006528679747134447,0.00010445162479300052,0.002694489900022745,-0.011398318223655224
0.010773720219731331,-0.005503837484866381,-0.006569388322532177,-3.463625762378797e-05,0.002765274839475751,-0.011372240260243416
0.010634074918925762,-0.005179253406822681,-0.006282763089984655,-0.0001098643770092167,0.002619153121486306,-0.011321678757667542
0.01092601753771305,-0.0050069112330675125,-0.006842379458248615,-0.00011274049029452726,0.0025654935743659735,-0.011298037134110928
0.0110812708735466,-0.005694689229130745,-0.006324012763798237,-0.00014010359882377088,0.002391126239672303,-0.011132587678730488
0.010717779397964478,-0.005538451950997114,-0.006409083493053913,-0.00015609193360432982,0.0024497515987604856,-0.011268830858170986
0.011793076060712337,-0.005792676936835051,-0.006264020223170519,-0.00047895003808662295,0.002606501104310155,-0.012307025492191315
0.011294011026620865,-0.005250102374702692,-0.006631486117839813,-0.0009162431815639138,0.002698217984288931,-0.01123848557472229
0.011522623710334301,-0.0047845663502812386,-0.0069611226208508015,-0.001453353906981647,0.0025130079593509436,-0.010584158822894096
0.011419436894357204,-0.005233542062342167,-0.0063108582980930805,-0.0019109430722892284,0.00229729525744915,-0.01088433712720871
0.010507005266845226,-0.005584886763244867,-0.0060622491873800755,-0.0017343665240332484,0.002246531192213297,-0.011319266632199287
0.011638522148132324,-0.006229542661458254,-0.0062880609184503555,-0.0015591669362038374,0.0025130740832537413,-0.011411959305405617
0.011152850463986397,-0.005609169602394104,-0.007160081062465906,-0.0015938370488584042,0.0025487265083938837,-0.011362962424755096
0.011479639448225498,-0.005010821856558323,-0.0068975468166172504,-0.0032025810796767473,0.0027619965840131044,-0.011599467135965824
0.010712534189224243,-0.005119533743709326,-0.006421212572604418,-0.003799868281930685,0.0028147997800260782,-0.0115776676684618
0.011041354387998581,-0.006026485934853554,-0.0067983996123075485,-0.0034892966505140066,0.0024202195927500725,-0.011549359187483788
0.011041354387998581,-0.006026485934853554,-0.0067983996123075485,-0.0034892966505140066,0.0024202195927500725,-0.011549359187483788
0.011478869244456291,-0.005705517251044512,-0.0070258136838674545,-0.003513688687235117,0.0023928647860884666,-0.011612706817686558
0.01091091614216566,-0.005269187502563,-0.006269202567636967,-0.003984241746366024,0.0022879703901708126,-0.011332948692142963
0.011490878649055958,-0.004921610467135906,-0.005887723062187433,-0.004582013934850693,0.0022814907133579254,-0.011875093914568424
0.011136466637253761,-0.005622990429401398,-0.006283018738031387,-0.005129392724484205,0.0026202243752777576,-0.011754469946026802
0.011042559519410133,-0.00537805026397109,-0.007006128318607807,-0.005835279356688261,0.0027392099145799875,-0.011871010065078735
0.011282616294920444,-0.005445788614451885,-0.006599920801818371,-0.005698187742382288,0.002525367308408022,-0.011449438519775867
0.011552148498594761,-0.005488291382789612,-0.005683870520442724,-0.00602236483246088,0.0026576477102935314,-0.011484052054584026
0.01130168978124857,-0.004931124858558178,-0.0063962009735405445,-0.00628152210265398,0.002727870363742113,-0.011659256182610989
0.011028646491467953,-0.004968034569174051,-0.006868772208690643,-0.006124243140220642,0.0027219518087804317,-0.011515974067151546
0.010934988036751747,-0.005432214587926865,-0.006828946527093649,-0.006080562714487314,0.002570775104686618,-0.011724975891411304
0.011256378144025803,-0.005046543665230274,-0.006429341621696949,-0.005819967482239008,0.002530599944293499,-0.012039498426020145
0.011120413430035114,-0.0052331495098769665,-0.006430376786738634,-0.0066775428131222725,0.002328012138605118,-0.01198229193687439
0.011526282876729965,-0.005152026191353798,-0.006690109148621559,-0.007314546499401331,0.002427114639431238,-0.012094656005501747
0.011518910527229309,-0.004856145475059748,-0.006495577283203602,-0.006806900724768639,0.0029994540382176638,-0.012108495458960533
0.010985782369971275,-0.004743858240544796,-0.006424199789762497,-0.006715559866279364,0.003166995942592621,-0.011986066587269306
0.011085942387580872,-0.005142410285770893,-0.0060177878476679325,-0.006806883029639721,0.0027555336710065603,-0.01160196028649807
0.011998530477285385,-0.004872636403888464,-0.006065009161829948,-0.006572336424142122,0.0026517286896705627,-0.011854353360831738
0.011550180613994598,-0.004833875223994255,-0.006155596114695072,-0.007760829757899046,0.002612234326079488,-0.011952599510550499
0.011466845870018005,-0.005330108571797609,-0.006651624571532011,-0.0068533956073224545,0.002762321848422289,-0.011781561188399792
0.011820536106824875,-0.004323050379753113,-0.00597153976559639,-0.007572765462100506,0.002972204005345702,-0.01174165029078722
0.011146425269544125,-0.004608890973031521,-0.006499473936855793,-0.0076921917498111725,0.002887164941057563,-0.01171046681702137
0.01116923801600933,-0.004296469502151012,-0.006611467804759741,-0.007525942288339138,0.0025505158118903637,-0.012354250065982342
0.011991581879556179,-0.004471970722079277,-0.00637792656198144,-0.007543593179434538,0.002345459535717964,-0.011721172370016575
0.011182465590536594,-0.004222870338708162,-0.006047823466360569,-0.008324239403009415,0.0023000272922217846,-0.012104617431759834
0.011182465590536594,-0.004222870338708162,-0.006047823466360569,-0.008324239403009415,0.0023000272922217846,-0.012104617431759834
0.011551604606211185,-0.004482129123061895,-0.0058155907317996025,-0.008743627928197384,0.0022063120268285275,-0.012526515871286392
0.011613401584327221,-0.004136318806558847,-0.0058971792459487915,-0.007797888480126858,0.00253905076533556,-0.012700862251222134
0.01124238595366478,-0.004111523274332285,-0.006475825794041157,-0.007977217435836792,0.0026741381734609604,-0.012326618656516075
0.011917348019778728,-0.0041550579480826855,-0.006800821982324123,-0.008234437555074692,0.00252067344263196,-0.011854438111186028
0.011587620712816715,-0.00433287164196372,-0.005940908100455999,-0.009358696639537811,0.00254873582161963,-0.011707018129527569
0.011773964390158653,-0.0036130642984062433,-0.006384715437889099,-0.009025809355080128,0.002425948390737176,-0.011905776336789131
0.011489709839224815,-0.003488619113340974,-0.005954456049948931,-0.009396011009812355,0.002533486345782876,-0.012281011790037155
0.011816095560789108,-0.0035831264685839415,-0.006158806383609772,-0.009728386998176575,0.0026696957647800446,-0.012409210205078125
0.01204991340637207,-0.004174545407295227,-0.006651673000305891,-0.009804843924939632,0.0027781417593359947,-0.012225436978042126
0.011741509661078453,-0.0036501483991742134,-0.005953810643404722,-0.010563535615801811,0.0026581676211208105,-0.012282396666705608
0.011971531435847282,-0.003351653926074505,-0.005920499097555876,-0.010508903302252293,0.0026765584480017424,-0.012186064384877682
0.012052296660840511,-0.003345797536894679,-0.00642258208245039,-0.009938091039657593,0.002601092681288719,-0.012395872734487057
0.012408568523824215,-0.003384578973054886,-0.006924045737832785,-0.010778210125863552,0.002507610712200403,-0.012563984841108322
0.012824226170778275,-0.0032999878749251366,-0.006416212767362595,-0.011594432406127453,0.0025801181327551603,-0.012551709078252316
0.01218340639024973,-0.003376493463292718,-0.006245083175599575,-0.011540778912603855,0.0026815454475581646,-0.012470304034650326
0.013076103292405605,-0.003172003896906972,-0.0064910235814750195,-0.01139356940984726,0.0025981629732996225,-0.012503579258918762
0.011783315800130367,-0.0034357798285782337,-0.006236856337636709,-0.011000996455550194,0.002721445169299841,-0.012623353861272335
0.012399241328239441,-0.0033473833464086056,-0.006638266146183014,-0.01124576572328806,0.0025342549197375774,-0.012653223238885403
0.012363816611468792,-0.00333950063213706,-0.006750226486474276,-0.011108769103884697,0.0024272415321320295,-0.012758559547364712
0.01255079172551632,-0.003316297894343734,-0.006077841389924288,-0.010949614457786083,0.002650653012096882,-0.012435157783329487
0.012845303863286972,-0.003318572649732232,-0.006012530531734228,-0.01117710117250681,0.00282937940210104,-0.012687047943472862
0.012696070596575737,-0.0029795789159834385,-0.006557876709848642,-0.011738649569451809,0.002580240834504366,-0.012550899758934975
0.012044055387377739,-0.0028591693844646215,-0.006107325199991465,-0.012364187277853489,0.0023735419381409883,-0.012644135393202305
0.012881111353635788,-0.0029320893809199333,-0.006066847592592239,-0.011589976027607918,0.002327836351469159,-0.012318120338022709
0.01234606932848692,-0.003171096555888653,-0.006866225507110357,-0.011428660713136196,0.002610699273645878,-0.01265108585357666
0.01234606932848692,-0.003171096555888653,-0.006866225507110357,-0.011428660713136196,0.002610699273645878,-0.01265108585357666
0.01270198356360197,-0.0028042674530297518,-0.006977040786296129,-0.01115236897021532,0.002729186322540045,-0.012671295553445816
0.012738524004817009,-0.0027030629571527243,-0.006574332248419523,-0.011215089820325375,0.0025533633306622505,-0.01293315552175045
0.012904269620776176,-0.0026973902713507414,-0.006468755193054676,-0.011372733861207962,0.0026029283180832863,-0.012995526194572449
0.012645394541323185,-0.0027191254775971174,-0.006503681652247906,-0.010421103797852993,0.0026413502637296915,-0.013091363944113255
0.012858186848461628,-0.002864487934857607,-0.006992809474468231,-0.010838662274181843,0.002766559598967433,-0.013141898438334465
0.013527728617191315,-0.0026736280415207148,-0.006990821100771427,-0.010877455584704876,0.0027371349278837442,-0.013468096032738686
0.012775508686900139,-0.0026445447001606226,-0.0065834252163767815,-0.010681775398552418,0.0030386666767299175,-0.013485228642821312
0.013180731795728207,-0.0023911951575428247,-0.006345261819660664,-0.010955996811389923,0.0030467428732663393,-0.013604305684566498
0.012869149446487427,-0.002456635469570756,-0.0068136160261929035,-0.01085157785564661,0.0028701582923531532,-0.013562197797000408
0.013117062859237194,-0.002316884696483612,-0.007103618234395981,-0.01085111778229475,0.002614672528579831,-0.013203179463744164
0.01373192947357893,-0.0023011898156255484,-0.00676719518378377,-0.01120514702051878,0.002520739333704114,-0.013375112786889076
0.01435217633843422,-0.002601068001240492,-0.006293967366218567,-0.011465770192444324,0.0023151927161961794,-0.013722224161028862
0.01421441975980997,-0.0024815374054014683,-0.006459937896579504,-0.012083654291927814,0.0024827350862324238,-0.013638234697282314
0.014214291237294674,-0.0022836336866021156,-0.006817551329731941,-0.01188694592565298,0.0025837463326752186,-0.013452060520648956
0.013947319239377975,-0.0023222086019814014,-0.007022403180599213,-0.011658395640552044,0.0024272676091641188,-0.013564057648181915
0.014224895276129246,-0.002019366482272744,-0.006685251835733652,-0.012214157730340958,0.002493927488103509,-0.013677298091351986
0.014155509881675243,-0.0018677159678190947,-0.006240556947886944,-0.01233128271996975,0.0026085511781275272,-0.013888809829950333
0.014216114766895771,-0.0018936650594696403,-0.006315522827208042,-0.012230378575623035,0.002775883302092552,-0.01380863320082426
0.014404510147869587,-0.002084738342091441,-0.0070131379179656506,-0.012057018466293812,0.0029532741755247116,-0.013718446716666222
0.014404510147869587,-0.002084738342091441,-0.0070131379179656506,-0.012057018466293812,0.0029532741755247116,-0.013718446716666222
0.014507953077554703,-0.0021007144823670387,-0.006461996119469404,-0.012998251244425774,0.003142549889162183,-0.013269530609250069
0.014481750316917896,-0.0019427395891398191,-0.006813520099967718,-0.013089352287352085,0.002616356825456023,-0.013061778619885445
0.014490935951471329,-0.0018037877744063735,-0.007086279336363077,-0.013350609689950943,0.002651384798809886,-0.012935841456055641
0.014692557044327259,-0.0017627824563533068,-0.006651218514889479,-0.014061551541090012,0.0028525125235319138,-0.013229386880993843
0.014692557044327259,-0.0017627824563533068,-0.006651218514889479,-0.014061551541090012,0.0028525125235319138,-0.013229386880993843
0.014864510856568813,-0.001655173720791936,-0.00643566157668829,-0.013687464408576488,0.0029154112562537193,-0.013337815180420876
0.014689171686768532,-0.0016513415612280369,-0.006753620691597462,-0.014261593110859394,0.002892211778089404,-0.0134013332426548
0.014846310950815678,-0.0016672295751050115,-0.007466480135917664,-0.014012669213116169,0.0029023331589996815,-0.013350913301110268
0.014642111957073212,-0.0016888825921341777,-0.006733378395438194,-0.01411463227123022,0.0028321165591478348,-0.013241255655884743
0.01503841020166874,-0.001563707017339766,-0.0066124023869633675,-0.01397299487143755,0.0028889309614896774,-0.013540912419557571
0.01476629450917244,-0.0016169094014912844,-0.006621945649385452,-0.014174539595842361,0.0027281034272164106,-0.013347328640520573
0.015061482787132263,-0.0017202853923663497,-0.007551340851932764,-0.013731643557548523,0.002719329670071602,-0.013591554015874863
0.014888606034219265,-0.0015852551441639662,-0.007583335041999817,-0.014467069879174232,0.002769347745925188,-0.013614892959594727
0.015089073218405247,-0.001559965661726892,-0.006583560723811388,-0.014404716901481152,0.002749218139797449,-0.013991239480674267
0.014840912073850632,-0.0014070778852328658,-0.006442755926400423,-0.014876708388328552,0.0028448256198316813,-0.013995776884257793
0.01510645356029272,-0.0012002865551039577,-0.006803269498050213,-0.014490748755633831,0.0030489640776067972,-0.014090913347899914
0.014925814233720303,-0.0011504144640639424,-0.007227949798107147,-0.015233800746500492,0.0030706548132002354,-0.014054805971682072
0.015463922172784805,-0.0009185724193230271,-0.007266064174473286,-0.015260264277458191,0.0029706733766943216,-0.014166442677378654
0.015084314160048962,-0.0008895394275896251,-0.006931828334927559,-0.015491719357669353,0.002813779516145587,-0.01391932275146246
0.015535002574324608,-0.0008611330995336175,-0.007522209547460079,-0.014847878366708755,0.0030642463825643063,-0.01402757316827774
0.015344682149589062,-0.0007922729128040373,-0.0071055651642382145,-0.014992893673479557,0.003259309334680438,-0.013741206377744675
0.015692532062530518,-0.00037880681338720024,-0.006707549095153809,-0.015415308065712452,0.003258236451074481,-0.014266087673604488
0.01527565997093916,-5.082176357973367e-06,-0.006616927683353424,-0.015702176839113235,0.0031522547360509634,-0.014296311885118484
0.0156847033649683,-6.818388698093258e-08,-0.006987038999795914,-0.016118600964546204,0.002888311864808202,-0.014614637941122055
0.015888584777712822,-9.147738677661721e-10,-0.007503981702029705,-0.015897180885076523,0.0028716863598674536,-0.014269099570810795
0.016093796119093895,-1.646560763169519e-13,-0.005640457384288311,-0.015623703598976135,0.002773329382762313,-0.013927619904279709
0.01580742746591568,0.00036628462839871645,-0.005967849399894476,-0.016215043142437935,0.002607005648314953,-0.01406907755881548
0.015927262604236603,0.0002958541736006737,-0.005884872749447823,-0.015415062196552753,0.0027039051055908203,-0.013446982949972153
0.015265204943716526,0.00021109888621140271,-0.006561383605003357,-0.016085295006632805,0.002899204846471548,-0.013891746290028095
0.015265204943716526,0.00021109888621140271,-0.006561383605003357,-0.016085295006632805,0.002899204846471548,-0.013891746290028095
0.01586250774562359,0.0002940918202511966,-0.00637581804767251,-0.016631899401545525,0.0033171330578625202,-0.01439425814896822
0.016486158594489098,0.00035628085606731474,-0.005845917854458094,-0.01674284227192402,0.003303258679807186,-0.014605537056922913
0.016486158594489098,0.00035628085606731474,-0.005845917854458094,-0.01674284227192402,0.003303258679807186,-0.014605537056922913
0.016139017418026924,0.0003245678963139653,-0.0059828851372003555,-0.01586468517780304,0.002952083246782422,-0.014282514341175556
0.016230812296271324,0.00029772226116620004,-0.006468182895332575,-0.016924217343330383,0.0026880293153226376,-0.013995385728776455
0.016383914276957512,0.00027497418341226876,-0.00603365246206522,-0.017145894467830658,0.0027099570725113153,-0.014132723212242126
0.016167033463716507,0.00025599170476198196,-0.005590058863162994,-0.0177785512059927,0.0026152704376727343,-0.014492586255073547
0.017199959605932236,0.00017002521781250834,-0.005565619096159935,-0.01758614555001259,0.002822471084073186,-0.014649069868028164
0.016967231407761574,0.00022251020709518343,-0.005699519999325275,-0.01752559468150139,0.0029026009142398834,-0.014973780140280724
0.017062362283468246,0.00027597291045822203,-0.006113997660577297,-0.018129633739590645,0.0028703673742711544,-0.014953913167119026
0.0174148790538311,0.0003217201156076044,-0.005616898648440838,-0.017812449485063553,0.0027515951078385115,-0.014364346861839294
0.01717342995107174,0.0006956568686291575,-0.005644875578582287,-0.01807844266295433,0.0029713590629398823,-0.014399632811546326
0.01786128617823124,0.0008571486687287688,-0.006095760967582464,-0.018731992691755295,0.003289967542514205,-0.014270870015025139
0.01731446199119091,0.0007810051902197301,-0.005872830282896757,-0.01934431865811348,0.003309324150905013,-0.01459294743835926
0.01725487969815731,0.0006828081677667797,-0.006185802631080151,-0.019893234595656395,0.003430789103731513,-0.014828367158770561
0.01748967543244362,0.0006061170715838671,-0.005696440581232309,-0.02016809582710266,0.0032334201969206333,-0.014788897708058357
0.017503663897514343,0.0005449169548228383,-0.005891416221857071,-0.019504792988300323,0.003370738821104169,-0.015816014260053635
0.018360506743192673,0.0005739469779655337,-0.005871778819710016,-0.02005450613796711,0.003057891735807061,-0.014622853137552738
0.01805523782968521,0.0006012770463712513,-0.005760594736784697,-0.020797135308384895,0.003071470418944955,-0.01441111322492361
0.01811610907316208,0.0006357935490086675,-0.006151087116450071,-0.020529333502054214,0.003018238814547658,-0.014999101869761944
0.018598215654492378,0.0007370983366854489,-0.0061067561618983746,-0.020516254007816315,0.0033582206815481186,-0.01521974429488182
0.01851799711585045,0.0014285484794527292,-0.0055415029637515545,-0.020794304087758064,0.003470268566161394,-0.015156887471675873
0.018762411549687386,0.0011327110696583986,-0.005867034662514925,-0.021058544516563416,0.0030864854343235493,-0.015215439721941948
0.01875459775328636,0.0010849257232621312,-0.006294243037700653,-0.02118995413184166,0.0028708011377602816,-0.015398464165627956
0.01890820823609829,0.0009303871775045991,-0.005630380939692259,-0.021126922219991684,0.003004559548571706,-0.01575632579624653
0.018946601077914238,0.0008856816566549242,-0.005710670258849859,-0.02098354510962963,0.0030518865678459406,-0.015444830991327763
0.018946601077914238,0.0008856816566549242,-0.005710670258849859,-0.02098354510962963,0.0030518865678459406,-0.015444830991327763
0.01907372660934925,0.0007125280681066215,-0.005686226300895214,-0.020978771150112152,0.003296174807474017,-0.015477664768695831
0.019253810867667198,0.0008415126940235496,-0.0056399013847112656,-0.021373366937041283,0.003313259221613407,-0.01566893234848976
0.019193535670638084,0.001937137683853507,-0.006037177983671427,-0.021316098049283028,0.0032560760155320168,-0.01560735423117876
0.019193535670638084,0.001937137683853507,-0.006037177983671427,-0.021316098049283028,0.0032560760155320168,-0.01560735423117876
0.019349461421370506,0.0018173890421167016,-0.005561825819313526,-0.02128937467932701,0.0034191766753792763,-0.015507048927247524
0.01939263939857483,0.0018095645355060697,-0.005810176022350788,-0.02124529331922531,0.0032921810634434223,-0.015841344371438026
0.01960562914609909,0.001527270651422441,-0.005475692916661501,-0.02190222591161728,0.003065102733671665,-0.0159466415643692
0.019802631810307503,0.0013988800346851349,-0.005814797710627317,-0.021973857656121254,0.0028313640505075455,-0.01585901901125908
0.01983640156686306,0.001151045085862279,-0.006473475135862827,-0.021241584792733192,0.0029531740583479404,-0.015434440225362778
0.0197619441896677,0.001183833577670157,-0.0060251266695559025,-0.021487263962626457,0.00294676935300231,-0.015684824436903
0.0196866262704134,0.0016875197179615498,-0.0056786914356052876,-0.022180410102009773,0.002881170017644763,-0.01588994823396206
0.020084965974092484,0.0021166373044252396,-0.00558024225756526,-0.021958813071250916,0.002885177033022046,-0.016002824530005455
0.020062977448105812,0.0023385200183838606,-0.006149446591734886,-0.02241624891757965,0.002829596633091569,-0.015945080667734146
0.020055199041962624,0.0021886450704187155,-0.006620170548558235,-0.02253560721874237,0.002712397836148739,-0.01599828712642193
0.020492341369390488,0.0019242963753640652,-0.005722690839320421,-0.023334838449954987,0.002754234243184328,-0.016409916803240776
0.02089020609855652,0.0018846850143745542,-0.005876427982002497,-0.022666843608021736,0.003277194919064641,-0.015970779582858086
0.020402371883392334,0.0022120599169284105,-0.005802130326628685,-0.023633576929569244,0.0032413494773209095,-0.0160183347761631
0.020939210429787636,0.0026993826031684875,-0.00620774133130908,-0.024480843916535378,0.0033322833478450775,-0.01594676822423935
0.021007133647799492,0.002736801514402032,-0.00584308709949255,-0.02496478147804737,0.00326471752487123,-0.016260890290141106
0.020440658554434776,0.0029454350005835295,-0.00571224931627512,-0.024388832971453667,0.003186444053426385,-0.016127809882164
0.020874127745628357,0.002876975806429982,-0.0057966383174061775,-0.02417672984302044,0.0030153938569128513,-0.016044940799474716
0.021734274923801422,0.002551381941884756,-0.006105945911258459,-0.02480349875986576,0.003508486319333315,-0.016066333279013634
0.02137293480336666,0.002658059122040868,-0.006263048388063908,-0.025631316006183624,0.003817684017121792,-0.016427382826805115
0.021582433953881264,0.003051227889955044,-0.0060616605915129185,-0.025007952004671097,0.0034914317075163126,-0.016162827610969543
0.02103295922279358,0.0033134871628135443,-0.0055532678961753845,-0.025139978155493736,0.003411925630643964,-0.01627594605088234
0.021169506013393402,0.003071983577683568,-0.005652756430208683,-0.026065288111567497,0.0035133406054228544,-0.016298409551382065
0.022340089082717896,0.003150518052279949,-0.006262128707021475,-0.026425829157233238,0.0036472007632255554,-0.016503045335412025
0.021626444533467293,0.0032777059823274612,-0.006307058036327362,-0.025682920590043068,0.0032629843335598707,-0.016095958650112152
0.021626444533467293,0.0032777059823274612,-0.006307058036327362,-0.025682920590043068,0.0032629843335598707,-0.016095958650112152
0.021471895277500153,0.003528331173583865,-0.006191150285303593,-0.024877939373254776,0.002917194738984108,-0.016089899465441704
0.022066587582230568,0.0037431828677654266,-0.0062926230020821095,-0.025990262627601624,0.0030315034091472626,-0.01610800065100193
0.02173549123108387,0.0035852135624736547,-0.005674650892615318,-0.026565561071038246,0.002943748841062188,-0.01600050739943981
0.02172253653407097,0.003586028702557087,-0.006354485638439655,-0.026273265480995178,0.003145917784422636,-0.0162638109177351
0.02232283167541027,0.003793777897953987,-0.006791051477193832,-0.026478225365281105,0.003358265617862344,-0.016096601262688637
0.0224837027490139,0.0041021485812962055,-0.006118388846516609,-0.026525486260652542,0.0034795545507222414,-0.016446609050035477
0.021364973857998848,0.0035960874520242214,-0.005741424858570099,-0.0265940111130476,0.0032610550988465548,-0.016654741019010544
0.021022126078605652,0.00357973319478333,-0.005693775601685047,-0.026162639260292053,0.0032667689956724644,-0.016553658992052078
0.021989867091178894,0.0036075273528695107,-0.006323068402707577,-0.02602015808224678,0.003341598669067025,-0.016386132687330246
0.02285630628466606,0.004128448199480772,-0.006834200583398342,-0.026419544592499733,0.0035928941797465086,-0.01648634858429432
0.02245919592678547,0.004333958961069584,-0.005777535028755665,-0.026809904724359512,0.003409703727811575,-0.016909945756196976
0.02213156595826149,0.004552117548882961,-0.005902949720621109,-0.026215100660920143,0.003222745144739747,-0.016650188714265823
0.022283336147665977,0.004723940975964069,-0.0056156739592552185,-0.02653961442410946,0.002780183218419552,-0.016690732911229134
0.022589659318327904,0.005121052265167236,-0.006124088075011969,-0.027394264936447144,0.0027550605591386557,-0.017687330022454262
0.02275773324072361,0.00497006718069315,-0.006794680375605822,-0.026866663247346878,0.0027653451543301344,-0.01676342822611332
0.022854752838611603,0.005308001302182674,-0.0059817167930305,-0.02703200653195381,0.0031133403535932302,-0.016874587163329124
0.022675884887576103,0.005088917911052704,-0.00573792913928628,-0.027393242344260216,0.0034922845661640167,-0.017410600557923317
0.022916331887245178,0.0051748426631093025,-0.005875668488442898,-0.027459125965833664,0.003634036285802722,-0.017594827339053154
0.023257846012711525,0.005554682109504938,-0.006488811690360308,-0.027826840057969093,0.0032675075344741344,-0.017253130674362183
0.023257846012711525,0.005554682109504938,-0.006488811690360308,-0.027826840057969093,0.0032675075344741344,-0.017253130674362183
0.02305326610803604,0.005432821344584227,-0.005624001380056143,-0.027721349149942398,0.0030845769215375185,-0.01713322475552559
0.02314629592001438,0.0055739437229931355,-0.0057401517406105995,-0.02738204412162304,0.0034618047066032887,-0.017367122694849968
0.023422617465257645,0.005670993123203516,-0.006449309177696705,-0.028022445738315582,0.0037117658648639917,-0.017714083194732666
0.022886207327246666,0.005764778703451157,-0.006071234587579966,-0.028006713837385178,0.003686730284243822,-0.01704804040491581
0.023126918822526932,0.005487761925905943,-0.005887262523174286,-0.02780478075146675,0.003831214737147093,-0.01746121421456337
0.023126918822526932,0.005487761925905943,-0.005887262523174286,-0.02780478075146675,0.003831214737147093,-0.01746121421456337
0.02317124605178833,0.006535362917929888,-0.005763798486441374,-0.02817212976515293,0.0035329959355294704,-0.01803375966846943
0.02317124605178833,0.006535362917929888,-0.005763798486441374,-0.02817212976515293,0.0035329959355294704,-0.01803375966846943
0.023461855947971344,0.006001386325806379,-0.005782974883913994,-0.027981281280517578,0.003582312725484371,-0.017996734008193016
0.023461924865841866,0.005703310947865248,-0.006230971775949001,-0.0284092016518116,0.003617839654907584,-0.01726554147899151
0.022974470630288124,0.005427758675068617,-0.005555932410061359,-0.028962239623069763,0.0035537451039999723,-0.017335636541247368
0.022822285071015358,0.005814429372549057,-0.005374289583414793,-0.02985020913183689,0.003514820709824562,-0.017140399664640427
0.02308129332959652,0.0065020970068871975,-0.00510507682338357,-0.028990618884563446,0.003422937821596861,-0.01698341779410839
0.023769840598106384,0.006219870410859585,-0.005955712404102087,-0.028872419148683548,0.0031639402732253075,-0.017380554229021072
0.023466119542717934,0.0060883862897753716,-0.006225049030035734,-0.03036429174244404,0.0035560023970901966,-0.018027562648057938
0.023311642929911613,0.006340712774544954,-0.006135398987680674,-0.030429769307374954,0.00339518953114748,-0.018231181427836418
0.023613102734088898,0.006789987441152334,-0.005129351280629635,-0.02982698753476143,0.003172630211338401,-0.01772369258105755
0.023279454559087753,0.006542092654854059,-0.0049912030808627605,-0.031223636120557785,0.0030421868432313204,-0.017865795642137527
0.023243296891450882,0.006965245120227337,-0.005471117328852415,-0.030914124101400375,0.0031880601309239864,-0.018019646406173706
0.023009758442640305,0.006762679200619459,-0.005665905307978392,-0.029790101572871208,0.003527781693264842,-0.018137235194444656
0.023881517350673676,0.006793357897549868,-0.005738276056945324,-0.02972344681620598,0.0033589100930839777,-0.018066011369228363
0.024103891104459763,0.007155959028750658,-0.005363499280065298,-0.03083026595413685,0.0032362937927246094,-0.018049614503979683
0.024124961346387863,0.007665820419788361,-0.005423055030405521,-0.031321655958890915,0.0029438422061502934,-0.017919091507792473
0.02397765778005123,0.007578336168080568,-0.005543655250221491,-0.03125376999378204,0.0029695795383304358,-0.018285254016518593
0.02431819960474968,0.007510365918278694,-0.0057653216645121574,-0.031297460198402405,0.0034056943841278553,-0.018145503476262093
0.023724155500531197,0.007042516488581896,-0.006181502714753151,-0.03101557120680809,0.0037467079237103462,-0.018119219690561295
0.023362133651971817,0.00803085695952177,-0.005421532317996025,-0.03076622262597084,0.0037788529880344868,-0.01851693168282509
0.024216149002313614,0.0074129472486674786,-0.005448223557323217,-0.0313393659889698,0.0036773409228771925,-0.01865711808204651
0.023707913234829903,0.007544320542365313,-0.005470799282193184,-0.03157368674874306,0.00370313273742795,-0.01859690062701702
0.024160295724868774,0.008285592310130596,-0.0059496317990124226,-0.031925830990076065,0.0035386562813073397,-0.01835237443447113
0.02518870122730732,0.007993774488568306,-0.006537618115544319,-0.03167523816227913,0.0036196706350892782,-0.019215289503335953
0.024871382862329483,0.008263209834694862,-0.005754771176725626,-0.0318998284637928,0.003796471282839775,-0.01819797232747078
0.02435719408094883,0.008588222786784172,-0.005290300585329533,-0.03203561156988144,0.003897508140653372,-0.01845916174352169
0.02435092255473137,0.00840157549828291,-0.00537889963015914,-0.03257196396589279,0.004023724235594273,-0.018798112869262695
0.023977912962436676,0.008127984590828419,-0.006409963592886925,-0.03295500576496124,0.0037275180220603943,-0.018594857305288315
0.02421407587826252,0.008276719599962234,-0.00592771265655756,-0.033035457134246826,0.003565368941053748,-0.01871282234787941
0.024845493957400322,0.008633175864815712,-0.005651471670717001,-0.03261110186576843,0.003319749841466546,-0.01878703199326992
0.02481677569448948,0.008168617263436317,-0.005490535404533148,-0.03209524229168892,0.003543579950928688,-0.018306227400898933
0.024802057072520256,0.007871920242905617,-0.005554453004151583,-0.032772429287433624,0.003322480246424675,-0.01877179555594921
0.024802057072520256,0.007871920242905617,-0.005554453004151583,-0.032772429287433624,0.003322480246424675,-0.01877179555594921
0.024729304015636444,0.008472968824207783,-0.006480473093688488,-0.03462439402937889,0.0035387722309678793,-0.01913599856197834
0.024642301723361015,0.008715085685253143,-0.006297992076724768,-0.03429080918431282,0.004005307797342539,-0.018919942900538445
0.02424393594264984,0.008064281195402145,-0.006030879449099302,-0.03321121260523796,0.004218629561364651,-0.018999706953763962
0.025018349289894104,0.008023543283343315,-0.005288088694214821,-0.03301583603024483,0.004361349623650312,-0.018862077966332436
0.02464042231440544,0.008830133825540543,-0.005991050973534584,-0.03433092311024666,0.003822071710601449,-0.018122751265764236
0.024686194956302643,0.008402206003665924,-0.00679024076089263,-0.03417610749602318,0.0035525867715477943,-0.01805487647652626
0.024619705975055695,0.008692938834428787,-0.005687666591256857,-0.03521069511771202,0.0033972044475376606,-0.018346576020121574
0.024619705975055695,0.008692938834428787,-0.005687666591256857,-0.03521069511771202,0.0033972044475376606,-0.018346576020121574
0.02476038970053196,0.009123637340962887,-0.005243869032710791,-0.03367440402507782,0.0035684984177351,-0.01901090517640114
0.024257749319076538,0.009120085276663303,-0.005885320249944925,-0.032968904823064804,0.003662003204226494,-0.01913454942405224
0.024976100772619247,0.008992711082100868,-0.006167267449200153,-0.03431955724954605,0.004232323728501797,-0.01936100795865059
0.024976100772619247,0.008992711082100868,-0.006167267449200153,-0.03431955724954605,0.004232323728501797,-0.01936100795865059
0.02342398278415203,0.00851814541965723,-0.005614792462438345,-0.03396034240722656,0.003559853881597519,-0.019209008663892746
0.025528784841299057,0.008333634585142136,-0.006008456461131573,-0.03372741863131523,0.0034380906727164984,-0.01995980553328991
0.025387665256857872,0.008753852918744087,-0.005659634713083506,-0.03352636843919754,0.0030555683188140392,-0.01967889629304409
0.02494725212454796,0.008692542091012001,-0.006506277713924646,-0.033891092985868454,0.0034399793948978186,-0.018270228058099747
0.025245390832424164,0.008911081589758396,-0.005801790859550238,-0.03399641811847687,0.0035756584256887436,-0.018436389043927193
0.02501373551785946,0.008739607408642769,-0.00581994978711009,-0.03341176360845566,0.0036516792606562376,-0.018338318914175034
0.025986220687627792,0.00760780181735754,-0.005319529213011265,-0.034141238778829575,0.003952141851186752,-0.01874205283820629
0.026926446706056595,0.007262049708515406,-0.00600228738039732,-0.034599557518959045,0.004074391443282366,-0.019091611728072166
0.026596438139677048,0.008523611351847649,-0.0060629406943917274,-0.03482531011104584,0.0038764309138059616,-0.01885390281677246
0.02567235566675663,0.008537854067981243,-0.005781431216746569,-0.03471245989203453,0.0037390997167676687,-0.020177314057946205
0.025243297219276428,0.007920512929558754,-0.005128104705363512,-0.03450265899300575,0.0036632122937589884,-0.01879637874662876
0.025243297219276428,0.007920512929558754,-0.005128104705363512,-0.03450265899300575,0.0036632122937589884,-0.01879637874662876
0.02581617794930935,0.007868477143347263,-0.00527213467285037,-0.034795694053173065,0.0036502911243587732,-0.018138915300369263
0.026396485045552254,0.008309205062687397,-0.0057168444618582726,-0.035610172897577286,0.004199143033474684,-0.018641488626599312
0.025769658386707306,0.007931153289973736,-0.006441317033022642,-0.03631540760397911,0.004065047949552536,-0.01944151520729065
0.02725968323647976,0.00842053908854723,-0.0053251273930072784,-0.03587370738387108,0.0038634557276964188,-0.019231269136071205
0.02725968323647976,0.00842053908854723,-0.0053251273930072784,-0.03587370738387108,0.0038634557276964188,-0.019231269136071205
0.027010584250092506,0.008117963559925556,-0.005772712640464306,-0.03625553101301193,0.0033854939974844456,-0.01934531331062317
0.0267600417137146,0.008091472089290619,-0.005867096595466137,-0.036765068769454956,0.003281217999756336,-0.01913025975227356
0.0262139905244112,0.008658397011458874,-0.006573890335857868,-0.03658602386713028,0.003275343682616949,-0.018828362226486206
0.026730043813586235,0.008730048313736916,-0.006295470986515284,-0.03656574338674545,0.003558632219210267,-0.018977487459778786
0.027243448421359062,0.008163698017597198,-0.00581583846360445,-0.03804880008101463,0.0037505037616938353,-0.01900697872042656
0.027475513517856598,0.008110340684652328,-0.0063395448960363865,-0.037980739027261734,0.003479302627965808,-0.018902281299233437
0.02741893194615841,0.009083537384867668,-0.006674457807093859,-0.03667476773262024,0.0034754571970552206,-0.01900077611207962
0.02736109122633934,0.00886308029294014,-0.006503878626972437,-0.03583671897649765,0.003680743742734194,-0.01895756460726261
0.027431422844529152,0.008752021007239819,-0.005962477531284094,-0.03768588602542877,0.004238896071910858,-0.0195679422467947
0.027547404170036316,0.00876973383128643,-0.005810650065541267,-0.037250205874443054,0.004234709776937962,-0.019756421446800232
0.027592889964580536,0.009286819957196712,-0.005824921187013388,-0.03768454119563103,0.003785164561122656,-0.01908012665808201
0.02858748286962509,0.008296951651573181,-0.006231999024748802,-0.03722468391060829,0.0036319424398243427,-0.01918923109769821
0.028117824345827103,0.009761340916156769,-0.006016031373292208,-0.03650064393877983,0.0038647574838250875,-0.01893097721040249
0.02804091013967991,0.009002155624330044,-0.006206866353750229,-0.03815959766507149,0.0039432295598089695,-0.01909523643553257
0.0283074751496315,0.009091251529753208,-0.005730621516704559,-0.03834671899676323,0.003901555435732007,-0.01947913132607937
0.02840368077158928,0.009090627543628216,-0.005898164119571447,-0.038120415061712265,0.004257573746144772,-0.019503025338053703
0.028363388031721115,0.009338964708149433,-0.006099428981542587,-0.038388874381780624,0.004197379574179649,-0.01950320415198803
0.028385769575834274,0.008805993013083935,-0.006073640659451485,-0.037918511778116226,0.004045173525810242,-0.019621415063738823
0.02898143045604229,0.009050382301211357,-0.005608205683529377,-0.03766082227230072,0.003847884014248848,-0.01948103867471218
0.02898143045604229,0.009050382301211357,-0.005608205683529377,-0.03766082227230072,0.003847884014248848,-0.01948103867471218
0.028510332107543945,0.009802435524761677,-0.005634442903101444,-0.037992823868989944,0.003825900610536337,-0.01954154670238495
0.028645707294344902,0.009549183771014214,-0.006064743734896183,-0.038083042949438095,0.0038362860213965178,-0.02063870243728161
0.02896113693714142,0.00921573955565691,-0.006149597465991974,-0.03751123696565628,0.0034657500218600035,-0.019507313147187233
0.02859758585691452,0.009554317221045494,-0.006280570290982723,-0.0378914438188076,0.0037766306195408106,-0.01860806718468666
0.028776206076145172,0.009207155555486679,-0.0059451875276863575,-0.038084425032138824,0.004221051465719938,-0.01907566376030445
0.029044071212410927,0.009526234120130539,-0.005858968943357468,-0.03767480328679085,0.00407397048547864,-0.01943759247660637
0.028871554881334305,0.009822473861277103,-0.006306501105427742,-0.036858756095170975,0.003854120150208473,-0.01955188810825348
0.029395712539553642,0.00977836363017559,-0.006341246888041496,-0.038460735231637955,0.0037267927546054125,-0.019860809668898582
0.02938588336110115,0.00926958303898573,-0.0064406488090753555,-0.04007256403565407,0.0035362939815968275,-0.019800445064902306
0.02960224635899067,0.009924114681780338,-0.006319547072052956,-0.038453467190265656,0.003396345302462578,-0.019634433090686798
0.029480604454874992,0.009569310583174229,-0.006087006535381079,-0.03694760054349899,0.003600471653044224,-0.01997837983071804
0.029523834586143494,0.009379709139466286,-0.006407022476196289,-0.03769451752305031,0.003576872404664755,-0.020011495798826218
0.0299147330224514,0.010139734484255314,-0.00681560393422842,-0.03792345151305199,0.003483111271634698,-0.02021774649620056
0.030838778242468834,0.00989890843629837,-0.005918450187891722,-0.03797005116939545,0.003904329612851143,-0.020191393792629242
0.03148967772722244,0.009661355055868626,-0.005877485498785973,-0.03870702534914017,0.004165856167674065,-0.019960185512900352
0.030227527022361755,0.01048191450536251,-0.006200920324772596,-0.037495050579309464,0.003978334832936525,-0.01948634907603264
0.0310744009912014,0.009736078791320324,-0.005815680604428053,-0.03756365180015564,0.003637653775513172,-0.020541077479720116
0.03054458275437355,0.0102145466953516,-0.0059774392284452915,-0.0378553569316864,0.0036177930887788534,-0.020684177055954933
0.0308027733117342,0.010212219320237637,-0.006137377582490444,-0.037962768226861954,0.00376512692309916,-0.020139355212450027
0.03161586448550224,0.010322689078748226,-0.006013309117406607,-0.03849116340279579,0.003799137892201543,-0.019941741600632668
0.031297553330659866,0.010341349057853222,-0.005910619627684355,-0.03841424360871315,0.00381137034855783,-0.019928691908717155
0.031297553330659866,0.010341349057853222,-0.005910619627684355,-0.03841424360871315,0.00381137034855783,-0.019928691908717155
0.029543597251176834,0.011554880999028683,-0.006371711380779743,-0.03903632611036301,0.003747788956388831,-0.0198166873306036
0.031162811443209648,0.010632398538291454,-0.005737485829740763,-0.039341364055871964,0.00339389662258327,-0.020173054188489914
0.0309336818754673,0.010401815176010132,-0.006335853133350611,-0.03957601264119148,0.003489773953333497,-0.02069079503417015
0.03082042559981346,0.011285392567515373,-0.006937150377780199,-0.039815545082092285,0.0037411204539239407,-0.02017999440431595
0.03082042559981346,0.011285392567515373,-0.006937150377780199,-0.039815545082092285,0.0037411204539239407,-0.02017999440431595
0.03103587031364441,0.01084075029939413,-0.006228757556527853,-0.03921595588326454,0.0034320401027798653,-0.021189039573073387
0.03120444528758526,0.009319715201854706,-0.005720860790461302,-0.03986777365207672,0.0032939414959400892,-0.020114772021770477
0.031050436198711395,0.011622044257819653,-0.005725301336497068,-0.039981305599212646,0.0032573118805885315,-0.02041817270219326
0.031400058418512344,0.011688029393553734,-0.0064789610914886,-0.040159158408641815,0.003529470646753907,-0.02041132189333439
0.03126903250813484,0.011641197837889194,-0.007043515797704458,-0.04039791226387024,0.004168061539530754,-0.01962263323366642
