davideferrari95/blind_handover_controller/data/Test 77 - [2024-02-07 -- 16-03-14]/joint_states_data.csv
shoulder_pan_joint,shoulder_lift_joint,elbow_joint,wrist_1_joint,wrist_2_joint,wrist_3_joint
0.009821304120123386,0.0002561447909101844,-0.005891148000955582,0.004655790980905294,0.0,0.009632843546569347
0.009821304120123386,0.0002561447909101844,-0.005891148000955582,0.004655790980905294,0.0,0.009632843546569347
0.010187295265495777,-0.00010083527013193816,-0.006301401648670435,0.004611803684383631,0.0,0.009470558725297451
0.009885234758257866,-3.305216523585841e-05,-0.005849112290889025,0.00452317763119936,0.0,0.00944666936993599
0.009385342709720135,-4.4343701688376314e-07,-0.006384213455021381,0.004434015601873398,0.0,0.00891483947634697
0.009423207491636276,-5.949273518268683e-09,-0.006149356719106436,0.004495165776461363,0.0,0.008898342959582806
0.009842446073889732,-7.981709737592269e-11,-0.005814654286950827,0.004578402265906334,0.0,0.009625655598938465
0.009508362971246243,-1.0708481627472177e-12,-0.005513710435479879,0.00460349814966321,0.0,0.009752525947988033
0.009374387562274933,-1.4366795174857415e-14,-0.00559664610773325,0.004624501336365938,0.0,0.009504573419690132
0.01063856016844511,-1.9274891165305726e-16,-0.0055139334872365,0.004795067943632603,0.0,0.009607359766960144
0.00919286347925663,-2.585972356018137e-18,-0.00594969792291522,0.005117523018270731,0.0,0.009491950273513794
0.00919286347925663,-2.585972356018137e-18,-0.00594969792291522,0.005117523018270731,0.0,0.009491950273513794
0.008894573897123337,-3.4694119777233397e-20,-0.005561234429478645,0.004972704686224461,0.0,0.009152630344033241
0.00933334231376648,-6.244818957664477e-24,-0.005567354150116444,0.005380570422858,0.0,0.009569677524268627
0.008864148519933224,-8.378222352308943e-26,-0.005649087484925985,0.0051758019253611565,0.0,0.009255270473659039
0.009257971309125423,-1.1240454193997915e-27,-0.006178407929837704,0.005208995193243027,0.0,0.009190891869366169
0.00978011917322874,-1.508050391924154e-29,-0.005882762372493744,0.00486138416454196,0.0,0.009642789140343666
0.009421213530004025,-2.023241833626838e-31,-0.005579080898314714,0.004718514159321785,0.0,0.008768799714744091
0.009393326938152313,0.0004884832887910306,-0.0051791551522910595,0.004833298269659281,0.0,0.008807703852653503
0.01012854278087616,0.00047625330626033247,-0.005123365670442581,0.00479132030159235,0.0,0.009159509092569351
0.009056895971298218,0.0004311347147449851,-0.005868882872164249,0.004906358662992716,0.0,0.009326223284006119
0.009140999056398869,0.0003934325650334358,-0.006282099522650242,0.004720759578049183,0.0,0.009023470804095268
0.00918820220977068,0.0004330950614530593,-0.005475418176501989,0.004822738002985716,0.0,0.009862390346825123
0.00994543731212616,0.00040181996882893145,-0.004950288217514753,0.004899877589195967,0.0,0.009874696843326092
0.008725726045668125,0.00037399691063910723,-0.00523225637152791,0.00489281490445137,0.0,0.009340272285044193
0.009120332077145576,0.0004010814882349223,-0.0056734331883490086,0.004734455142170191,0.0,0.00947334710508585
0.00927127804607153,0.0003831404319498688,-0.006129909306764603,0.005006702616810799,0.0,0.009584336541593075
0.008969686925411224,0.0004121279052924365,-0.005469607654958963,0.005093742161989212,0.0,0.009097367525100708
0.009171666577458382,0.0004177560331299901,-0.004988004453480244,0.0052657234482467175,0.0,0.009193872101604939
0.009825668297708035,0.00046435900731012225,-0.004795193672180176,0.0053361207246780396,0.0,0.009147953242063522
0.009380471892654896,0.00048312568105757236,-0.00605031056329608,0.004728024825453758,0.0,0.009198595769703388
0.009343714453279972,0.0004701733123511076,-0.006333085708320141,0.004587944597005844,0.0,0.01016133464872837
0.009241215884685516,0.0004994450137019157,-0.005514390766620636,0.0049585988745093346,0.0,0.009505586698651314
0.009232491254806519,0.0007950994768179953,-0.005239695776253939,0.005155232734978199,0.0,0.009405083954334259
0.008979256264865398,0.0007122457609511912,-0.005456861108541489,0.005681747104972601,1.6991009488265263e-06,0.009487150236964226
0.009481444023549557,0.0007364815683104098,-0.005512538366019726,0.005312151275575161,1.1093915475157701e-07,0.009483217261731625
0.00887833721935749,0.0006494855624623597,-0.005699085537344217,0.004942264873534441,7.243533772793853e-09,0.009431423619389534
0.00875463243573904,0.000672206049785018,-0.0060878293588757515,0.0047331093810498714,4.72951011687428e-10,0.009513811208307743
0.009773160330951214,0.0006773904315195978,-0.005482006818056107,0.00553940562531352,2.016264325638284e-12,0.008718963712453842
0.00876618642359972,0.0007162000983953476,-0.005716353189200163,0.005759136285632849,1.316476360433208e-13,0.00901144091039896
0.00876618642359972,0.0007162000983953476,-0.005716353189200163,0.005759136285632849,1.316476360433208e-13,0.00901144091039896
0.008698171935975552,0.0007382926996797323,-0.005299460142850876,0.005980463232845068,8.595650538188119e-15,0.009145872667431831
0.00892683956772089,0.0007337395800277591,-0.005876750219613314,0.005282100290060043,5.61234554669602e-16,0.008949058130383492
0.008608143776655197,0.000698769639711827,-0.005598315969109535,0.004877048544585705,3.664460406191156e-17,0.009242252446711063
0.009363548830151558,0.000979670905508101,-0.005678051151335239,0.005394578445702791,2.3926306751575957e-18,0.009001978673040867
0.00908217765390873,0.0008760254131630063,-0.005623144097626209,0.005428779404610395,1.562216923782828e-19,0.009998082183301449
0.008787593804299831,0.0008780192583799362,-0.0056060380302369595,0.005369344726204872,1.0200160427228152e-20,0.008587837219238281
0.008907928131520748,0.0008775277528911829,-0.005430134013295174,0.00537952920421958,6.659976241465904e-22,0.00877274852246046
0.009978634305298328,0.0008581122965551913,-0.006031440105289221,0.005028183571994305,4.3484887704920796e-23,0.008963105268776417
0.008687654510140419,0.0008816581685096025,-0.005627651233226061,0.004902647342532873,2.8392525900685876e-24,0.009898464195430279
0.008532090112566948,0.0008949314942583442,-0.005606037564575672,0.0051939403638243675,1.853829043726167e-25,0.009992150589823723
0.009193173609673977,0.000886660476680845,-0.005475911777466536,0.00504557928070426,1.2104179270238164e-26,0.009394205175340176
0.00911981612443924,0.0009475719416514039,-0.005757216829806566,0.0049316613003611565,7.903163304799852e-28,0.009057478979229927
0.008800086565315723,0.0010024013463407755,-0.006155509036034346,0.004817967768758535,5.160200674188837e-29,0.009472126141190529
0.009227745234966278,0.001082723494619131,-0.005805375520139933,0.004728455562144518,3.3692421572534126e-30,0.00991293229162693
0.009163420647382736,0.0011991396313533187,-0.005564718972891569,0.004355023615062237,2.1998742008689667e-31,0.009190165437757969
0.009145684540271759,0.0012319630477577448,-0.005626946222037077,0.004455445799976587,1.4363607918407388e-32,0.00962873175740242
0.00907225627452135,0.0011759456247091293,-0.006304123438894749,0.004897029604762793,9.378409844966993e-34,0.009174118749797344
0.00915668997913599,0.0011323197977617383,-0.006225749850273132,0.005438990890979767,6.12343131964028e-35,0.00950018223375082
0.008994083851575851,0.0010669628391042352,-0.005578477401286364,0.005567341577261686,3.9981634338333595e-36,0.009149875491857529
0.009312883019447327,0.001037956913933158,-0.005537442862987518,0.005115272011607885,2.6105150066391427e-37,0.008906630799174309
0.009068966843187809,0.0011092894710600376,-0.005229958798736334,0.004713425412774086,1.7044798968199737e-38,0.008663108572363853
0.009175430983304977,0.0010186752770096064,-0.005961860530078411,0.005349987652152777,1.1129042338744481e-39,0.008810386061668396
0.009240178391337395,0.0011247544316574931,-0.006506489589810371,0.005354833323508501,7.266433186756339e-41,0.009194383397698402
0.009446874260902405,0.001405533985234797,-0.005988677032291889,0.005102265160530806,3.0968696061578457e-43,0.008909767493605614
0.009446874260902405,0.001405533985234797,-0.005988677032291889,0.005102265160530806,3.0968696061578457e-43,0.008909767493605614
0.009359929710626602,0.0014681873144581914,-0.0055374326184391975,0.005020276177674532,1.961817850054744e-44,0.009251391515135765
0.00925640668720007,0.0014141196152195334,-0.006316427141427994,0.005773728247731924,1.401298464324817e-45,0.00909786019474268
0.00925640668720007,0.0014141196152195334,-0.006316427141427994,0.005773728247731924,1.401298464324817e-45,0.00909786019474268
0.009250313974916935,0.0014050010358914733,-0.005883697420358658,0.0053756702691316605,0.0,0.009226510301232338
0.010314421728253365,0.0013257772661745548,-0.006105034612119198,0.005069832783192396,0.0,0.008693380281329155
0.00918063335120678,0.0013724971795454621,-0.005706614349037409,0.004931178409606218,0.0,0.008805502206087112
0.009074060246348381,0.0013380568707361817,-0.005945481359958649,0.005055728368461132,0.0,0.008776148781180382
0.010260872542858124,0.0012995771830901504,-0.0063419952057302,0.005505634006112814,0.0,0.008966995403170586
0.009519822895526886,0.0015682772500440478,-0.00608403654769063,0.005580051336437464,0.0,0.009011208079755306
0.009018396027386189,0.001482890686020255,-0.006457284092903137,0.005539664998650551,0.0,0.008595398627221584
0.009413633495569229,0.0016943722730502486,-0.005894563626497984,0.005430831573903561,0.0,0.009248942136764526
0.010035206563770771,0.0016713475342839956,-0.006122110411524773,0.005405349191278219,0.0,0.008704076521098614
0.009087528102099895,0.0015345013234764338,-0.006771326530724764,0.005383783020079136,0.0,0.00869451742619276
0.009535527788102627,0.0015701772645115852,-0.006158643402159214,0.005921659525483847,0.0,0.008870553225278854
0.009652426466345787,0.0014819890493527055,-0.005798107944428921,0.005724926479160786,0.0,0.008479272946715355
0.009171692654490471,0.0015341445105150342,-0.006076612044125795,0.0053473906591534615,0.0,0.008648679591715336
0.010175514966249466,0.0014608430210500956,-0.006236983463168144,0.005120319779962301,0.0,0.008695933036506176
0.009844889864325523,0.0013852783013135195,-0.006543799303472042,0.0051711141131818295,0.0,0.009047310799360275
0.009176039136946201,0.0014322942588478327,-0.006097652483731508,0.005500068888068199,0.0,0.009134604595601559
0.00957423821091652,0.001509931986220181,-0.005932109896093607,0.005467304494231939,0.0,0.008825112134218216
0.00977460015565157,0.0016445647925138474,-0.006009297911077738,0.005608114879578352,0.0,0.008866934105753899
0.009735289961099625,0.0015597679885104299,-0.0062386589124798775,0.005262202583253384,0.0,0.008550374768674374
0.009866449050605297,0.0014737109886482358,-0.0061555057764053345,0.005211647134274244,0.0,0.008634374476969242
0.010134389623999596,0.001497776829637587,-0.00599988317117095,0.005271558649837971,0.0,0.009137221612036228
0.00984700582921505,0.0016186597058549523,-0.005900218151509762,0.005322659853845835,0.0,0.0086432546377182
0.010397346690297127,0.0015178845496848226,-0.006495259702205658,0.005730081349611282,0.0,0.008723132312297821
0.009465365670621395,0.0014114775694906712,-0.006332987453788519,0.005471112672239542,0.0,0.00872646551579237
0.009465365670621395,0.0014114775694906712,-0.006332987453788519,0.005471112672239542,0.0,0.00872646551579237
0.010402481071650982,0.0014866035198792815,-0.005561621859669685,0.005431286059319973,0.0,0.008405006490647793
0.010128017514944077,0.0013799811713397503,-0.005736345890909433,0.005679225083440542,0.0,0.008108861744403839
0.009557167999446392,0.001470177317969501,-0.006004949565976858,0.006018887273967266,0.0,0.00843450240790844
0.01009554322808981,0.0016132594319060445,-0.0065961964428424835,0.0058219279162585735,0.0,0.008589331060647964
0.010288020595908165,0.0015395393129438162,-0.006323171779513359,0.005626867990940809,0.0,0.00849386490881443
0.0097272340208292,0.0016526360996067524,-0.005896143615245819,0.005593694746494293,0.0,0.00856102630496025
0.010197026655077934,0.0016203424893319607,-0.005867220927029848,0.00601949542760849,0.0,0.008267145603895187
0.010188485495746136,0.0014140390558168292,-0.00615835702046752,0.005819398444145918,0.0,0.008096177130937576
0.00969979539513588,0.0013061431236565113,-0.006159538868814707,0.005743118934333324,0.0,0.008031054399907589
0.010198392905294895,0.0013448187382891774,-0.005892412271350622,0.005392369814217091,0.0,0.008823519572615623
0.01024484634399414,0.0013496149331331253,-0.005827689543366432,0.005356534384191036,0.0,0.008377865888178349
0.009920904412865639,0.0014543968718498945,-0.0060077207162976265,0.005541366990655661,0.0,0.008441824465990067
0.010614747181534767,0.0013929795240983367,-0.006580385845154524,0.006103133782744408,0.0,0.00855491403490305
0.01115870475769043,0.0017403459642082453,-0.006652224343270063,0.0057443310506641865,0.0,0.00857357494533062
0.010010275058448315,0.0016098609194159508,-0.006197055801749229,0.0057371677830815315,0.0,0.008139182813465595
0.009804831817746162,0.0014767752727493644,-0.006063266657292843,0.005461261607706547,0.0,0.007846398279070854
0.010007303208112717,0.0007571400492452085,-0.006297416053712368,0.0053154053166508675,0.0,0.008147028274834156
0.0109530258923769,-0.00022370865917764604,-0.006286807358264923,0.005481069441884756,0.0,0.008596435189247131
0.010321561247110367,-0.00048608623910695314,-0.0063623590394854546,0.006073594093322754,0.0,0.008543995209038258
0.010148664936423302,-7.847838423913345e-05,-0.006198470015078783,0.0060029421001672745,0.0,0.008231552317738533
0.009907430037856102,-1.0528877965043648e-06,-0.006035567726939917,0.005922775249928236,0.0,0.008350128307938576
0.010569741949439049,-1.412583294779779e-08,-0.006345302797853947,0.005348025355488062,0.0,0.008298221975564957
0.010407531633973122,-2.5426000280909244e-12,-0.006636538077145815,0.00598723953589797,0.0,0.008153918199241161
0.010488349944353104,-3.4112222459725325e-14,-0.005936805624514818,0.005930518731474876,0.0,0.008318345993757248
0.009591909125447273,-4.576589953024317e-16,-0.0062081837095320225,0.005913042929023504,0.0,0.008222189731895924
0.010032747872173786,-6.1400793825101754e-18,-0.006592110265046358,0.005413748323917389,0.0,0.00776819558814168
0.010864706709980965,-8.237699788664096e-20,-0.006724902894347906,0.005721111316233873,0.0,0.008122343569993973
0.010864706709980965,-8.237699788664096e-20,-0.006724902894347906,0.005721111316233873,0.0,0.008122343569993973
0.010316540487110615,-1.4827568414053457e-23,-0.005872952286154032,0.00560608459636569,0.0,0.008063936606049538
0.010316540487110615,-1.4827568414053457e-23,-0.005872952286154032,0.00560608459636569,0.0,0.008063936606049538
0.010403062216937542,-1.9893075225507577e-25,-0.0059565166011452675,0.005547569133341312,0.0,0.008051937445998192
0.009945803321897984,-2.668909998322094e-27,-0.00622766837477684,0.005531119182705879,0.0,0.008265973068773746
0.010454549454152584,-3.5806832350002265e-29,-0.0067809284664690495,0.0052206930704414845,0.0,0.008270836435258389
0.010040896013379097,-4.803943544861398e-31,-0.00607853289693594,0.005814515054225922,0.0,0.007943956181406975
0.009997938759624958,0.0003055791894439608,-0.006028803996741772,0.006086620967835188,0.0,0.00762118911370635
0.01067393645644188,0.0002912183408625424,-0.006466899998486042,0.005889623425900936,0.0,0.007726673036813736
0.010624965652823448,0.0002735834859777242,-0.0072715310379862785,0.005502872634679079,0.0,0.007454594597220421
0.01046016812324524,0.00025790222571231425,-0.006963332183659077,0.005884830839931965,0.0,0.0071963598020374775
0.010273129679262638,0.00024392110935878009,-0.006172717083245516,0.00605840003117919,0.0,0.007279399782419205
0.010273129679262638,0.00024392110935878009,-0.006172717083245516,0.00605840003117919,0.0,0.007279399782419205
0.010273129679262638,0.00024392110935878009,-0.006172717083245516,0.00605840003117919,0.0,0.007279399782419205
0.010815858840942383,0.00022086792159825563,-0.006017671898007393,0.006252985913306475,0.0,0.008313212543725967
0.010607828386127949,0.0002368128625676036,-0.00636722007766366,0.005889657884836197,0.0,0.007701965980231762
0.010250560939311981,0.00022949698904994875,-0.006029905751347542,0.005844919942319393,0.0,0.007955905050039291
0.01055869273841381,0.00024221846251748502,-0.006127220578491688,0.005685568321496248,0.0,0.008073344826698303
0.01088360883295536,0.0002443433040753007,-0.006111264228820801,0.0060051665641367435,0.0,0.007877698168158531
0.010895689949393272,0.0002565243048593402,-0.007135535590350628,0.006165467668324709,0.0,0.008223176933825016
0.01116327103227377,0.0002527397882658988,-0.00660063186660409,0.005685065872967243,0.0,0.008212612010538578
0.011275225318968296,0.00028535453020595014,-0.006413751281797886,0.005318771116435528,0.0,0.008413142524659634
0.010129312053322792,0.00027277888148091733,-0.006124475039541721,0.005594554357230663,0.0,0.008082169108092785
0.010134224779903889,0.0003011960943695158,-0.005907093174755573,0.006143109407275915,0.0,0.007447187323123217
0.010498864576220512,0.0002890404430218041,-0.006626905407756567,0.005961576476693153,0.0,0.00777312321588397
0.010151258669793606,0.0003153106081299484,-0.006567218340933323,0.00577195780351758,0.0,0.007678797468543053
0.010580743663012981,0.0003025825135409832,-0.006611717399209738,0.005238328129053116,0.0,0.00805575679987669
0.010725507512688637,0.000520118628628552,-0.006411356385797262,0.005387376062572002,0.0,0.008242720738053322
0.011075879447162151,0.0004927309928461909,-0.006892277393490076,0.00583138782531023,0.0,0.007808237802237272
0.011356458067893982,0.0005023019039072096,-0.006875280290842056,0.006060995627194643,0.0,0.008091552183032036
0.010389036498963833,0.0004849634424317628,-0.006734143942594528,0.005884991027414799,0.0,0.008052274584770203
0.010832756757736206,0.0004937484045512974,-0.005807105917483568,0.005407511722296476,0.0,0.007557918317615986
0.01007828302681446,0.0005617535207420588,-0.005886607803404331,0.0054590110667049885,0.0,0.007197828032076359
0.01007828302681446,0.0005617535207420588,-0.005886607803404331,0.0054590110667049885,0.0,0.007197828032076359
0.010987824760377407,0.0005837494391016662,-0.006019590422511101,0.005884300917387009,0.0,0.007411437574774027
0.010787059552967548,0.0005427252617664635,-0.006609281059354544,0.0062048002146184444,0.0,0.008178862743079662
0.010718333534896374,0.0005681866896338761,-0.006388470530509949,0.006189702544361353,0.0,0.007958567701280117
0.01086196769028902,0.0005344398086890578,-0.005674201063811779,0.005425284616649151,0.0,0.007633030414581299
0.010500897653400898,0.0006092629628255963,-0.006043216213583946,0.005633979570120573,0.0,0.007575454656034708
0.01077598612755537,0.0006443545571528375,-0.0068621523678302765,0.0058505358174443245,0.0,0.008100168779492378
0.010735312476754189,0.0006689749425277114,-0.007395150139927864,0.0060421316884458065,0.0,0.007674870081245899
0.010215872898697853,0.0006646084366366267,-0.006807316094636917,0.0060544745065271854,0.0,0.0077228061854839325
0.010922582820057869,0.0006333764176815748,-0.006014744285494089,0.005921186879277229,0.0,0.007738340646028519
0.01072926726192236,0.0007327108178287745,-0.0061485921032726765,0.005850054789334536,0.0,0.007810238748788834
0.01062700804322958,0.000636440992821008,-0.006895457394421101,0.006357791367918253,0.0,0.007899950258433819
0.011081201955676079,0.000629930233117193,-0.0065642367117106915,0.006331159267574549,0.0,0.007555091287940741
0.01028298120945692,0.0005947822937741876,-0.006429009605199099,0.0062727490440011024,0.0,0.007904480211436749
0.01077571976929903,0.0006217153859324753,-0.0067589422687888145,0.005715995095670223,0.0,0.007817401550710201
0.011003490537405014,0.0006219242350198328,-0.006284363102167845,0.005812824238091707,0.0,0.007634737063199282
0.010232836939394474,0.0005960279377177358,-0.006678272038698196,0.0064020901918411255,0.0,0.006958074402064085
0.01087855827063322,0.0005820555379614234,-0.006507583893835545,0.006371303461492062,0.0,0.007211596705019474
0.011574355885386467,0.0006113214185461402,-0.006086302455514669,0.006244549062103033,0.0,0.00798291340470314
0.01073205191642046,0.0006199657800607383,-0.005812344141304493,0.005958886817097664,0.0,0.0070374696515500546
0.010803718119859695,0.0005909871542826295,-0.006524697411805391,0.00589017802849412,0.0,0.006804607342928648
0.010913684032857418,0.0006167512619867921,-0.006978573277592659,0.006088084541261196,0.0,0.006928774993866682
0.01021405216306448,0.0007274664822034538,-0.006599109154194593,0.0060782828368246555,0.0,0.007350820582360029
0.011117251589894295,0.0006929609226062894,-0.006090730894356966,0.00576474005356431,0.0,0.0075471666641533375
0.011117251589894295,0.0006929609226062894,-0.006090730894356966,0.00576474005356431,0.0,0.0075471666641533375
0.010752243921160698,0.0006640448700636625,-0.006863073445856571,0.006179273594170809,0.0,0.007074744440615177
0.010337157174944878,0.0006854009698145092,-0.006131203379482031,0.005984882824122906,0.0,0.007101492024958134
0.010337157174944878,0.0006854009698145092,-0.006131203379482031,0.005984882824122906,0.0,0.007101492024958134
0.01068107783794403,0.0007031845161691308,-0.006351903546601534,0.006159303244203329,0.0,0.006978302728384733
0.010602221824228764,0.000735930516384542,-0.007079982664436102,0.0058176564052701,0.0,0.006663450971245766
0.01067022979259491,0.0007471161661669612,-0.007144884672015905,0.005994187667965889,0.0,0.007072951644659042
0.01101432554423809,0.0007635080837644637,-0.006604352034628391,0.006186588667333126,0.0,0.007379832211881876
0.010642176494002342,0.0008745529339648783,-0.006178199779242277,0.006249008700251579,0.0,0.007427514065057039
0.010846614837646484,0.0009456938714720309,-0.00652890931814909,0.006348240654915571,0.0,0.0068462141789495945
0.01085255853831768,0.0009397179819643497,-0.006801482290029526,0.0059698945842683315,0.0,0.007066451478749514
0.010866190306842327,0.0009074463159777224,-0.007286397740244865,0.005833934061229229,0.0,0.007404840085655451
0.011036386713385582,0.0008415441261604428,-0.006476203445345163,0.005961181595921516,0.0,0.007382935844361782
0.010886654257774353,0.0008603786118328571,-0.006489885970950127,0.006139735225588083,0.0,0.007123214192688465
0.011018170043826103,0.0008667049696668983,-0.00705404207110405,0.0061296094208955765,0.0,0.007307218853384256
0.01102359127253294,0.0008712253184057772,-0.007067293394356966,0.005710367113351822,0.0,0.006920335348695517
0.010827452875673771,0.0008794519235379994,-0.006726572290062904,0.0058148871175944805,0.0,0.006973342038691044
0.011098530143499374,0.001072175451554358,-0.006523053161799908,0.006453001871705055,0.0,0.007295235525816679
0.01103412825614214,0.0010457191383466125,-0.006377555895596743,0.0066811153665184975,0.0,0.007425506599247456
0.010851415805518627,0.0009949597297236323,-0.007380343973636627,0.00594624038785696,0.0,0.00706865219399333
0.011503984220325947,0.0009161061025224626,-0.007157365791499615,0.005849854554980993,0.0,0.0069369846023619175
0.010213065892457962,0.0010270822094753385,-0.006828613579273224,0.005911590065807104,0.0,0.006555951666086912
0.010459686629474163,0.0010074346791952848,-0.0067383223213255405,0.006570467259734869,-2.0531833797576837e-05,0.006690312176942825
0.010867132805287838,0.001021740143187344,-0.006806441582739353,0.006944678723812103,-0.00010861105693038553,0.006918416358530521
0.010546750389039516,0.0011013343464583158,-0.00672950129956007,0.006490649655461311,-0.000111694163933862,0.006533139385282993
0.010318529792129993,0.0012026323238387704,-0.006351819261908531,0.006224123761057854,-0.00010935726459138095,0.006459381897002459
0.010905902832746506,0.0011539520928636193,-0.006497670896351337,0.006216765847057104,-0.00010678685794118792,0.006608795374631882
0.010392365045845509,0.0010439512552693486,-0.0067323967814445496,0.006698423530906439,-0.00010431282862555236,0.007091543637216091
0.01108543947339058,0.0010779766598716378,-0.007062437012791634,0.006149587221443653,-9.969098027795553e-05,0.006467399187386036
0.010836710222065449,0.0010509202256798744,-0.006704442203044891,0.006128359120339155,-9.753034100867808e-05,0.0064823804423213005
0.010898113250732422,0.000964198843576014,-0.006864587310701609,0.0065679787658154964,-9.546129149384797e-05,0.0069184256717562675
0.010564032010734081,0.00106230063829571,-0.007406642660498619,0.007224731147289276,-9.347817103844136e-05,0.006878245156258345
0.010564032010734081,0.00106230063829571,-0.007406642660498619,0.007224731147289276,-9.347817103844136e-05,0.006878245156258345
0.010466614738106728,0.0010366851929575205,-0.007098974660038948,0.006900491192936897,-9.15758719202131e-05,0.006596993654966354
0.010881265625357628,0.0010275228414684534,-0.00642898166552186,0.006171708460897207,-8.974939555628225e-05,0.0066365269012749195
0.010468627326190472,0.001093439175747335,-0.0066095981746912,0.0060516237281262875,-8.799439819995314e-05,0.0064522381871938705
0.01093524880707264,0.0010740377474576235,-0.007246952038258314,0.006333201192319393,-8.630665979580954e-05,0.006778850220143795
0.011048874817788601,0.0011463228147476912,-0.007336738053709269,0.006744198501110077,-8.468253508908674e-05,0.006589837372303009
0.010769445449113846,0.0010293003870174289,-0.006473229266703129,0.0065363929606974125,-8.311832789331675e-05,0.006582074798643589
0.010906455107033253,0.0009824190055951476,-0.00624650064855814,0.006268919911235571,-8.161089499481022e-05,0.006435294169932604
0.01074125710874796,0.0009699516813270748,-0.005579245742410421,0.005927642807364464,-8.015721687115729e-05,0.006451215595006943
0.010942499153316021,0.001047848490998149,-0.007619135547429323,0.00629678089171648,-7.875436858739704e-05,0.0068766032345592976
0.011461696587502956,0.0009682877571322024,-0.007051629479974508,0.006508935242891312,-7.739972352283075e-05,0.006901921704411507
0.01055852510035038,0.0010911101708188653,-0.006546051241457462,0.006447745952755213,-7.609094609506428e-05,0.0067697977647185326
0.010640810243785381,0.0010728448396548629,-0.006597693543881178,0.006287534721195698,-7.482573710149154e-05,0.0066861617378890514
0.010953093878924847,0.0010583926923573017,-0.007967366836965084,0.006679804064333439,-7.360189192695543e-05,0.006795569323003292
0.010381398722529411,0.0012987692607566714,-0.007086585275828838,0.00729196984320879,-7.241737330332398e-05,0.00631110742688179
0.010947616770863533,0.0012237289920449257,-0.006136319600045681,0.007019017823040485,-7.127044955268502e-05,0.006319805514067411
0.01123572327196598,0.0010403826599940658,-0.006399378180503845,0.006761427037417889,-7.015926530584693e-05,0.006182118318974972
0.01015193946659565,0.0008929945761337876,-0.007283316925168037,0.0062681324779987335,-6.90821761963889e-05,0.006387714296579361
0.010726097971200943,0.000782032439019531,-0.007367625832557678,0.006579709704965353,-6.803774886066094e-05,0.006341141648590565
0.010847537778317928,0.0007601904799230397,-0.006947202142328024,0.007073161657899618,-6.702436076011509e-05,0.006006645038723946
0.010409447364509106,0.000715438334736973,-0.006606203503906727,0.006949031259864569,-7.837354496587068e-05,0.00628218799829483
0.010741638951003551,0.0005770987481810153,-0.007151509169489145,0.0065498314797878265,-7.804550841683522e-05,0.006221547722816467
0.010538684204220772,0.0005921823321841657,-0.007101727649569511,0.0066685983911156654,-7.698541594436392e-05,0.006076267920434475
0.010847174562513828,0.0006547757075168192,-0.006693138740956783,0.006711072288453579,-7.485466630896553e-05,0.005721935071051121
0.010505011305212975,0.000964348844718188,-0.006975261960178614,0.006560091860592365,-7.38312301109545e-05,0.005869900807738304
0.010505011305212975,0.000964348844718188,-0.006975261960178614,0.006560091860592365,-7.38312301109545e-05,0.005869900807738304
0.011071677319705486,0.0009667998529039323,-0.007659392897039652,0.006251765880733728,-7.283539162017405e-05,0.005570417735725641
0.010463750921189785,0.0009527407237328589,-0.007299533113837242,0.006529024336487055,-7.186605944298208e-05,0.005846467800438404
0.010507689788937569,0.0008320068009197712,-0.007083554286509752,0.006863020360469818,-8.120053826132789e-05,0.005897961091250181
0.010806712321937084,0.0007349461666308343,-0.007157416082918644,0.006761573255062103,-8.156926924129948e-05,0.005946422461420298
0.010763433761894703,0.0006581185152754188,-0.007490146439522505,0.006350947078317404,-8.061823609750718e-05,0.006413391325622797
0.010431612841784954,0.0006773507338948548,-0.007276512216776609,0.006393136456608772,-7.960558286868036e-05,0.00590530876070261
0.010811369866132736,0.000627345172688365,-0.007127053570002317,0.006731241010129452,-7.86126620369032e-05,0.005936658475548029
0.010578911751508713,0.0005886100116185844,-0.007116714492440224,0.006703746039420366,-7.764381007291377e-05,0.005645319819450378
0.010762946680188179,0.0006200090865604579,-0.007801989559084177,0.006614294368773699,-7.669859769521281e-05,0.00574480788782239
0.010773153975605965,0.0006463510217145085,-0.008288237266242504,0.0066343252547085285,-7.577606447739527e-05,0.006016212981194258
0.010344360955059528,0.0009312616311945021,-0.00742277130484581,0.006794271059334278,-7.487546827178448e-05,0.005917377304285765
0.01086817029863596,0.0010522421216592193,-0.006656867451965809,0.006958935409784317,-7.399605237878859e-05,0.00595821114256978
0.010582688264548779,0.000994433299638331,-0.007468943018466234,0.006747121457010508,-7.313700916711241e-05,0.005950586404651403
0.010432190261781216,0.0008976320968940854,-0.007503671105951071,0.006186299957334995,-7.997153443284333e-05,0.0058817183598876
0.010821170173585415,0.0008589543285779655,-0.007619496434926987,0.0062792315147817135,-8.151519432431087e-05,0.006086501758545637
0.010788515210151672,0.0007981741218827665,-0.00764492666348815,0.006363893859088421,-8.07608084869571e-05,0.005500693805515766
0.01090998388826847,0.0007281788857653737,-0.008481031283736229,0.006269112695008516,-7.987531716935337e-05,0.00527601782232523
0.011000805534422398,0.000622320338152349,-0.007936743088066578,0.006268671713769436,-2.029766983469017e-05,0.005424789153039455
0.01113174483180046,0.0006511617684736848,-0.007805990055203438,0.006745091639459133,-1.3252927146822913e-06,0.005452146753668785
0.011583875864744186,0.0006780428229831159,-0.0069397371262311935,0.0070079960860311985,-8.653215388676472e-08,0.00579330138862133
0.011436030268669128,0.0006997256423346698,-0.008209649473428726,0.006909711752086878,-5.64993074547715e-09,0.005761510692536831
0.011730971746146679,0.0008759969496168196,-0.008408593945205212,0.006474288180470467,-3.689001049078655e-10,0.005500817205756903
0.012167858891189098,0.0008887878502719104,-0.007670158054679632,0.006189070641994476,-3.702204048749991e-05,0.005047885701060295
0.011551991105079651,0.0008903936832211912,-0.007573176175355911,0.006238970439881086,-7.383363845292479e-05,0.004879032261669636
0.011745763011276722,0.0008883712580427527,-0.008340517990291119,0.006961032748222351,-7.504491077270359e-05,0.0049030231311917305
0.011597742326557636,0.0007846007356420159,-0.007274903357028961,0.006827289704233408,-7.278479461092502e-05,0.005121403373777866
0.011980144307017326,0.0008001815876923501,-0.007621415890753269,0.006576425861567259,-7.162694237194955e-05,0.005339008755981922
0.011505973525345325,0.0008130049100145698,-0.008302482776343822,0.006836476270109415,-7.050473504932597e-05,0.005017520394176245
0.011505973525345325,0.0008130049100145698,-0.008302482776343822,0.006836476270109415,-7.050473504932597e-05,0.005017520394176245
0.011458457447588444,0.0008229129598475993,-0.008299964480102062,0.007136382162570953,-6.941715400898829e-05,0.004985544830560684
0.011470485478639603,0.0008534069638699293,-0.007173177786171436,0.007352662738412619,-6.836256943643093e-05,0.004826616495847702
0.011571644805371761,0.0008709175745025277,-0.007983316667377949,0.007445076946169138,-6.733957707183436e-05,0.004720725584775209
0.012038035318255424,0.0008649409282952547,-0.00783095695078373,0.007613133639097214,-7.873672439018264e-05,0.005153280217200518
0.011695120483636856,0.0008439793600700796,-0.007590929977595806,0.007674870081245899,-7.840188482077792e-05,0.005407986231148243
0.012299480848014355,0.0007859416655264795,-0.0074630314484238625,0.007159593049436808,-7.733194070169702e-05,0.005102440714836121
0.011713781394064426,0.0007994617335498333,-0.00819508358836174,0.007115902379155159,-7.624350109836087e-05,0.004648348316550255
0.011514519341289997,0.00090583018027246,-0.008111071772873402,0.007661196403205395,-7.51822444726713e-05,0.004417643416672945
0.01173329632729292,0.000933495641220361,-0.007436898536980152,0.007846596650779247,-7.414988795062527e-05,0.004843420814722776
0.011725653894245625,0.0010603005066514015,-0.00721150916069746,0.0077383206225931644,-8.452945621684194e-05,0.0049476055428385735
0.012133562937378883,0.001124607864767313,-0.00809940230101347,0.006693102419376373,-8.414324838668108e-05,0.005019062198698521
0.011530624702572823,0.0010913544101640582,-0.00816156342625618,0.006987107452005148,-8.308214455610141e-05,0.0048522865399718285
0.011613437905907631,0.0010629573371261358,-0.007971985265612602,0.0075117554515600204,-8.200385491363704e-05,0.004778181202709675
0.012826337479054928,0.0010205761063843966,-0.00794080551713705,0.007004790939390659,-8.095038356259465e-05,0.004634459037333727
0.011929583735764027,0.0010049312841147184,-0.007865256629884243,0.006647903006523848,-7.992341852514073e-05,0.0048506781458854675
0.01199488714337349,0.0009883608436211944,-0.007870198227465153,0.006695657502859831,-7.892220310168341e-05,0.004556579515337944
0.011753004044294357,0.0009762538829818368,-0.007417622022330761,0.007192954421043396,-8.834468462737277e-05,0.0045724594965577126
0.012230374850332737,0.0009620175114832819,-0.007321299985051155,0.006973776500672102,-8.79441067809239e-05,0.004632295574992895
0.012169268913567066,0.0009599642362445593,-0.007648452650755644,0.0068098497577011585,-8.692668052390218e-05,0.005052732769399881
0.012644464150071144,0.0009398327674716711,-0.007815136574208736,0.00649529742076993,-8.58926068758592e-05,0.004991036374121904
0.01215189415961504,0.0009439947316423059,-0.007400627247989178,0.006889296229928732,-8.488020102959126e-05,0.0044132317416369915
0.012332563288509846,0.0010974087053909898,-0.008220762014389038,0.007153866346925497,-0.00014557343092747033,0.004287129268050194
0.012332563288509846,0.0010974087053909898,-0.008220762014389038,0.007153866346925497,-0.00014557343092747033,0.004287129268050194
0.012635805644094944,0.001165074179880321,-0.007390762213617563,0.007178430445492268,-0.00014528422616422176,0.00488416338339448
0.012635805644094944,0.001165074179880321,-0.007390762213617563,0.007178430445492268,-0.00014528422616422176,0.00488416338339448
0.012254568748176098,0.0011274423450231552,-0.007504590786993504,0.007587512955069542,-0.00013650787877850235,0.004470306448638439
0.012254568748176098,0.0011274423450231552,-0.007504590786993504,0.007587512955069542,-0.00013650787877850235,0.004470306448638439
0.012595499865710735,0.001060476410202682,-0.008108558133244514,0.005833959672600031,-0.00013248865434434265,0.004536880645900965
0.012293565087020397,0.0009608547552488744,-0.007855134084820747,0.006702996324747801,-0.0001510411238996312,0.0045821769163012505
0.013072686269879341,0.0008489435422234237,-0.007692727725952864,0.007598355412483215,-0.00014992269279900938,0.004435304086655378
0.012632704339921474,0.0009485925547778606,-0.007705139461904764,0.0071900375187397,-0.00014606806507799774,0.004364648833870888
0.013185505755245686,0.0009714767220430076,-0.007178874220699072,0.007000307086855173,-0.0001422334898961708,0.004388692323118448
0.01209140382707119,0.0011532363714650273,-0.006954367272555828,0.0074388133361935616,-0.000138583971420303,0.004415984731167555
0.012666502967476845,0.00113207648973912,-0.008111376315355301,0.007794045377522707,-0.00013511608995031565,0.004133703652769327
0.012920455075800419,0.0010918625630438328,-0.007766219787299633,0.007137360516935587,-0.0001318177965003997,0.003938807174563408
0.012875551357865334,0.0010219104588031769,-0.007322479039430618,0.00652644969522953,-0.00012867647456005216,0.0042884014546871185
0.013467730022966862,0.0009324279380962253,-0.00699129793792963,0.0065359631553292274,-0.0001359770685667172,0.004341868683695793
0.012551087886095047,0.0008320166380144656,-0.0073957727290689945,0.007061629556119442,-0.0001425978116458282,0.0042505827732384205
0.012712215073406696,0.0009319225791841745,-0.00773582374677062,0.007285223808139563,-0.00014006099081598222,0.004431296605616808
0.01244185958057642,0.0009566877270117402,-0.007146828342229128,0.007064389530569315,-0.000137055161758326,0.004217519890516996
0.012894080020487309,0.001110860495828092,-0.007057810667902231,0.006873403675854206,-0.0001341396855423227,0.003887543687596917
0.012894080020487309,0.001110860495828092,-0.007057810667902231,0.006873403675854206,-0.0001341396855423227,0.003887543687596917
0.012627196498215199,0.001261708210222423,-0.0077145579271018505,0.007167099043726921,-0.00013134318578522652,0.004086460918188095
0.013089319691061974,0.0012575623113662004,-0.007271914277225733,0.007451768033206463,-0.0001437881583115086,0.0038425130769610405
0.013089319691061974,0.0012575623113662004,-0.007271914277225733,0.007451768033206463,-0.0001437881583115086,0.0038425130769610405
0.012758104130625725,0.0012011948274448514,-0.007198905106633902,0.0067246221005916595,-0.00014125031884759665,0.004148548934608698
0.012763360515236855,0.0011079057585448027,-0.00747288390994072,0.007549868896603584,-0.00017614607349969447,0.004448171705007553
0.013083255849778652,0.0010050744749605656,-0.007323867175728083,0.007389539387077093,-0.000175096356542781,0.004093176685273647
0.012652060016989708,0.000987342675216496,-0.007389209233224392,0.007102860603481531,-0.00016890281403902918,0.0038538044318556786
0.01312291994690895,0.0010680877603590488,-0.007719688583165407,0.007083234842866659,-0.00016281576245091856,0.0037918873131275177
0.012920621782541275,0.001200196798890829,-0.007299988996237516,0.007435703184455633,-0.00016671280900482088,0.003803798696026206
0.012920621782541275,0.001200196798890829,-0.007299988996237516,0.007435703184455633,-0.00016671280900482088,0.003803798696026206
0.013330233283340931,0.0011510808253660798,-0.00725933350622654,0.006829438731074333,-0.0001752368116285652,0.004219607915729284
0.012925995513796806,0.0011346412356942892,-0.007589071057736874,0.007162073627114296,-0.0001706105103949085,0.004170078784227371
0.013283229433000088,0.0012568675447255373,-0.007674941327422857,0.007532188203185797,-0.00016544247046113014,0.004189008381217718
0.012592650949954987,0.0012048439821228385,-0.007237751968204975,0.007354013621807098,-0.00017365529492963105,0.003981581889092922
0.013146772980690002,0.0013384977355599403,-0.006980701815336943,0.007063535042107105,-0.0001809856330510229,0.003679626388475299
0.012949646450579166,0.0013187142321839929,-0.008039236068725586,0.0073293764144182205,-0.00017671375826466829,0.003544640028849244
0.013266250491142273,0.0013970577856525779,-0.007694162894040346,0.007503437343984842,-0.0001719429565127939,0.003641949500888586
0.012894823215901852,0.0013909091940149665,-0.007264137268066406,0.00747195677831769,-0.00016737799160182476,0.003756064921617508
0.013048379682004452,0.001441032043658197,-0.0069957757368683815,0.007648867089301348,-0.00018030837236437947,0.003703252412378788
0.013014368712902069,0.001338143483735621,-0.008164714090526104,0.007672072853893042,-0.0001812434638850391,0.003698331769555807
0.01336190477013588,0.0012552480911836028,-0.0077376835979521275,0.007577335461974144,-0.00017714187561068684,0.0037134753074496984
0.013608399778604507,0.0012136001605540514,-0.007611684501171112,0.007898695766925812,-0.0001729108189465478,0.00365330558270216
0.013424004428088665,0.0012676974292844534,-0.007860446348786354,0.007543549872934818,-0.00016885707736946642,0.0035957088693976402
0.013814841397106647,0.001286976970732212,-0.007932314649224281,0.00751055683940649,-0.00021186401136219501,0.003274529241025448
0.013264531269669533,0.0014142354484647512,-0.007587159983813763,0.0076263234950602055,-0.0002170191437471658,0.0034620228689163923
0.013309407979249954,0.0013726173201575875,-0.007405390031635761,0.008087079972028732,-0.00020799199410248548,0.003256270196288824
0.013257080689072609,0.001556463073939085,-0.007554781157523394,0.007794381584972143,-0.00023592100478708744,0.003011991735547781
0.013944975100457668,0.0014632857637479901,-0.007617322728037834,0.008061685599386692,-0.0002283629000885412,0.00319272349588573
0.013944975100457668,0.0014632857637479901,-0.007617322728037834,0.008061685599386692,-0.0002283629000885412,0.00319272349588573
0.013018562458455563,0.0010824010241776705,-0.00687073078006506,0.007461166009306908,-0.0002365066611673683,0.003309449413791299
0.013018562458455563,0.0010824010241776705,-0.00687073078006506,0.007461166009306908,-0.0002365066611673683,0.003309449413791299
0.013782111927866936,0.001050228951498866,-0.008200299926102161,0.007663194555789232,-0.00022801697195973247,0.003257528878748417
0.013665675185620785,0.0010586489224806428,-0.0078918831422925,0.0077254073694348335,-0.00023545966541860253,0.003298503113910556
0.013107052072882652,0.0012695392360910773,-0.00757744163274765,0.007103294599801302,-0.0002419569791527465,0.0032906632404774427
0.013357973657548428,0.0012632411671802402,-0.006705133244395256,0.007795096840709448,-0.000235000581596978,0.003222207073122263
0.01361947599798441,0.001214958494529128,-0.0073228501714766026,0.007981778122484684,-0.00022763176821172237,0.003147273324429989
0.013490075245499611,0.0012183543294668198,-0.007397793233394623,0.007696239277720451,-0.00022065889788791537,0.0030459174886345863
0.013342068530619144,0.001172731164842844,-0.007286871317774057,0.007442711386829615,-0.00029911487945355475,0.0030231280252337456
0.014070656150579453,0.0012274821056053042,-0.007310477085411549,0.007475207559764385,-0.00029209270724095404,0.0030453724320977926
0.013593095354735851,0.0012005348689854145,-0.00806286558508873,0.007686232682317495,-0.00027504537138156593,0.003091441933065653
0.013599713332951069,0.001170290750451386,-0.008156516589224339,0.0076844822615385056,-0.0002592450473457575,0.0031373801175504923
0.013061923906207085,0.0011217909632250667,-0.006964546628296375,0.007813293486833572,-0.00024512226809747517,0.00295978132635355
0.01372857578098774,0.0010989370057359338,-0.007699483539909124,0.0074300928972661495,-0.0002667499065864831,0.0028793062083423138
0.01352859940379858,0.0012089641531929374,-0.008226737380027771,0.007507553324103355,-0.00026444398099556565,0.002888720715418458
0.014714491553604603,0.0011559707345440984,-0.007905540056526661,0.007343267556279898,-0.0002527660399209708,0.0031848945654928684
0.013843350112438202,0.0011480938410386443,-0.007300142198801041,0.0076279425993561745,-0.0002415053895674646,0.003234022995457053
0.013857357203960419,0.0011803435627371073,-0.007507560774683952,0.007110584061592817,-0.00026455248007550836,0.003204245353117585
0.013303539715707302,0.0011449526064097881,-0.009029009379446507,0.007709010969847441,-0.0002582858724053949,0.0032733576372265816
0.013902632519602776,0.0012036081170663238,-0.009159798733890057,0.007686662022024393,-0.0002484005526639521,0.0028603696264326572
0.013577006757259369,0.0010876640444621444,-0.009296925738453865,0.007445669267326593,-0.0002389944129390642,0.0027537145651876926
0.01413537748157978,0.0011749697150662541,-0.009101473726332188,0.00874068308621645,-0.00023026004782877862,0.0026164085138589144
0.013801190070807934,0.0011266679503023624,-0.008980734273791313,0.008322308771312237,-0.00025172572350129485,0.00243573565967381
0.014019262976944447,0.0011029981542378664,-0.008558048866689205,0.007832045666873455,-0.00024508556816726923,0.002502708462998271
0.014030925929546356,0.001097753643989563,-0.009274573996663094,0.007464976981282234,-0.00023713840346317738,0.0025859472807496786
0.01445797085762024,0.0011921747354790568,-0.008856354281306267,0.007343742065131664,-0.00022958440240472555,0.002731549320742488
0.01445797085762024,0.0011921747354790568,-0.008856354281306267,0.007343742065131664,-0.00022958440240472555,0.002731549320742488
0.014025285840034485,0.0011771126883104444,-0.009869910776615143,0.007248743902891874,-0.00021582019689958543,0.0028407101053744555
0.013601657934486866,0.0011698853923007846,-0.009237034246325493,0.007070133462548256,-0.0002147055638488382,0.0026780767366290092
0.014068357646465302,0.0011216733837500215,-0.008925041183829308,0.007250933442264795,-0.00020694216073025018,0.002457892056554556
0.014307407662272453,0.0010560608934611082,-0.009147957898676395,0.007652373518794775,-0.00019797385903075337,0.0024676730390638113
0.014353932812809944,0.0009573876741342247,-0.009793141856789589,0.007877517491579056,-0.00018963796901516616,0.002473152708262205
0.014048636890947819,0.0008662632899358869,-0.008912796154618263,0.007303354796022177,-0.0002158865099772811,0.0024212561547756195
0.014274105429649353,0.0008718608878552914,-0.009535337798297405,0.007719984278082848,-0.00020971243793610483,0.002596394158899784
0.01439942978322506,0.0008756860624998808,-0.00977258663624525,0.007945189252495766,-0.00020201032748445868,0.002832600614055991
0.014732317999005318,0.0008785923710092902,-0.009285164065659046,0.00798429362475872,-0.00019473390420898795,0.0026654074899852276
0.01421601977199316,0.0009467184427194297,-0.008644388988614082,0.007538453210145235,-0.00021113462571520358,0.0024201658088713884
0.014301355928182602,0.0009446972981095314,-0.009694996289908886,0.008059494197368622,-0.0002113731752615422,0.0022362975869327784
0.014681723900139332,0.0009379683178849518,-0.009658385068178177,0.008384826593101025,-0.00020497434888966382,0.0023058908991515636
0.014926664531230927,0.0009329497697763145,-0.009231760166585445,0.008384906686842442,-0.00019854535639751703,0.0025138654746115208
0.014863883145153522,0.0010840714676305652,-0.01029327604919672,0.008204389363527298,-0.00019248001626692712,0.0024315286427736282
0.01479624304920435,0.0010583230759948492,-0.009246116504073143,0.00839264690876007,-0.00018677336629480124,0.002347278641536832
0.014797119423747063,0.0010656776139512658,-0.00961791817098856,0.00826607458293438,-0.000181395371328108,0.0023033935576677322
0.014832275919616222,0.001150498865172267,-0.009948937222361565,0.008012746460735798,-0.0001763179898262024,0.002193451626226306
0.015055684372782707,0.0012470294022932649,-0.009570951573550701,0.007814549840986729,-0.00017151756037492305,0.0019134217873215675
0.015212465077638626,0.0012248704442754388,-0.009056039154529572,0.008611598052084446,-0.00018768066365737468,0.0018579709576442838
0.014962748624384403,0.0012575023574754596,-0.00984064768999815,0.008614138700067997,-0.0001856920716818422,0.00179395847953856
0.015085676684975624,0.0012052867095917463,-0.009903390891849995,0.008314547128975391,-0.00018120501772500575,0.0018396190134808421
0.014744662679731846,0.0012552965199574828,-0.00909394584596157,0.00900755263864994,-0.00017676797870080918,0.001717913430184126
0.015214209444820881,0.0011406547855585814,-0.00946713425219059,0.008578222244977951,-0.00017253281839657575,0.0018242603400722146
0.01501753181219101,0.0011904957937076688,-0.010074861347675323,0.007916470989584923,-0.00016849506937433034,0.0019383534090593457
0.01501753181219101,0.0011904957937076688,-0.010074861347675323,0.007916470989584923,-0.00016849506937433034,0.0019383534090593457
0.015355976298451424,0.001152009004727006,-0.00942570623010397,0.00806913897395134,-0.00016464191139675677,0.0021678144112229347
0.015453383326530457,0.0012244106037542224,-0.00939961988478899,0.008586949668824673,-0.00015744127449579537,0.002233471954241395
0.014933975413441658,0.0012086823116987944,-0.009097660891711712,0.008350173942744732,-0.00016587924619670957,0.0020579376723617315
0.0150786517187953,0.0011874791234731674,-0.009323886595666409,0.008904284797608852,-0.00016395736020058393,0.0018515055999159813
0.014877616427838802,0.0014725844375789165,-0.009458675049245358,0.008502155542373657,-0.00015845308371353894,0.0016847704537212849
0.015831392258405685,0.0015285566914826632,-0.009892608970403671,0.007706595119088888,-0.00015307951252907515,0.001468649017624557
0.015347110107541084,0.0014638033462688327,-0.009772882796823978,0.007766174618154764,-0.0001480441278545186,0.0014754616422578692
0.015533579513430595,0.0013487462420016527,-0.009448259137570858,0.008609278127551079,-0.00014332827413454652,0.0015909268986433744
0.015478611923754215,0.0012586162192746997,-0.00891602598130703,0.008536169305443764,-0.0001389038225170225,0.001672619953751564
0.01536768302321434,0.00119413819629699,-0.009272909723222256,0.00810087937861681,-0.00015813173376955092,0.0016817997675389051
0.015228182077407837,0.000994239584542811,-0.010509517043828964,0.008456195704638958,-0.0001567590661579743,0.001524195191450417
0.015240151435136795,0.0010774672264233232,-0.009123685769736767,0.009098098613321781,-0.00015254091704264283,0.001386594376526773
0.015381093136966228,0.001083314884454012,-0.009005536325275898,0.008431633934378624,-0.0001483634696342051,0.0012748843291774392
0.015339675359427929,0.001465528504922986,-0.009629604406654835,0.008701222948729992,-0.00014439711230807006,0.001080636284314096
0.015473445877432823,0.0014998448314145207,-0.009478695690631866,0.00899477768689394,-0.00014063590788282454,0.0010010391706600785
0.01560639776289463,0.0015208323020488024,-0.009186564944684505,0.008912594988942146,-0.0001482880616094917,0.0010595403145998716
0.016088835895061493,0.0014529596082866192,-0.009504643268883228,0.008644533343613148,-0.00015519312000833452,0.0012730475282296538
0.01584179513156414,0.0013414969434961677,-0.01002288144081831,0.008766906335949898,-0.0001521349186077714,0.001380185247398913
0.016003452241420746,0.0012796305818483233,-0.00902941171079874,0.008817797526717186,-0.00014859157090540975,0.0013435365399345756
0.01577826216816902,0.0012329953024163842,-0.00986119918525219,0.00845626275986433,-0.00016452290583401918,0.0012932794634252787
0.01612388715147972,0.0012939218431711197,-0.009152772836387157,0.008535129949450493,-0.00016208173474296927,0.0012262689415365458
0.016138624399900436,0.0014504165155813098,-0.009397953748703003,0.008595412597060204,-0.0001585938734933734,0.001143172848969698
0.016138624399900436,0.0014504165155813098,-0.009397953748703003,0.008595412597060204,-0.0001585938734933734,0.001143172848969698
0.01592005230486393,0.001552528701722622,-0.009815951809287071,0.008363780565559864,-0.00015518111467827111,0.001067295204848051
0.015902278944849968,0.001762598636560142,-0.009442736394703388,0.008964386768639088,-0.00019475771114230156,0.0008298571920022368
0.015902278944849968,0.001762598636560142,-0.009442736394703388,0.008964386768639088,-0.00019475771114230156,0.0008298571920022368
0.016208689659833908,0.001422783825546503,-0.0092842485755682,0.00863468274474144,-0.0001782123581506312,0.0007287258049473166
0.016525380313396454,0.0016037337481975555,-0.009326822124421597,0.008630143478512764,-0.00019112479640170932,0.0007832029950805008
0.016525380313396454,0.0016037337481975555,-0.009326822124421597,0.008630143478512764,-0.00019112479640170932,0.0007832029950805008
0.016393369063735008,0.0017807637341320515,-0.009946992620825768,0.00921517051756382,-0.00021329471201170236,0.0007402847986668348
0.016246510669589043,0.0016401809407398105,-0.00968523882329464,0.008477241732180119,-0.00020812053116969764,0.0007556712371297181
0.01598981022834778,0.0015983149642124772,-0.009033290669322014,0.008573584258556366,-0.000201582137378864,0.0006807763711549342
0.016901176422834396,0.0016223276033997536,-0.009428871795535088,0.009261679835617542,-0.0001953393657458946,0.0006147013627924025
0.016591118648648262,0.0015310348244383931,-0.00950420368462801,0.00898157712072134,-0.0002147092018276453,0.0005600204458460212
0.017121925950050354,0.0015570040559396148,-0.008938463404774666,0.008250290527939796,-0.00021009017655160278,0.0005142597365193069
0.016620373353362083,0.0016125149559229612,-0.0089811896905303,0.009193324483931065,-0.00020423800742719322,0.0004754190449602902
0.017319468781352043,0.0015319683589041233,-0.00988591555505991,0.009874493815004826,-0.00019861056352965534,0.00044203587458468974
0.01703939586877823,0.0016487499233335257,-0.009364653378725052,0.009300011210143566,-0.00023846174008212984,0.0004130360030103475
0.016162656247615814,0.0017724907957017422,-0.009865378960967064,0.009045839309692383,-0.0002674658317118883,0.00043548308894969523
0.01677018217742443,0.001879615942016244,-0.009913347661495209,0.00917323399335146,-0.0002551244688220322,0.00041680753929540515
0.017295746132731438,0.0017358289333060384,-0.009394407272338867,0.008887489326298237,-0.00024160610337276012,0.00039439427200704813
0.01709115132689476,0.0018753352342173457,-0.009284799918532372,0.009023585356771946,-0.0002293027500854805,0.00037393273669295013
0.017529785633087158,0.0017230156809091568,-0.009675913490355015,0.009194034151732922,-0.00025039096362888813,0.0003554666182026267
0.01691863313317299,0.0017113120993599296,-0.009665812365710735,0.008762034587562084,-0.0002489622274879366,0.00033873881329782307
0.01724603772163391,0.0017321676714345813,-0.009156089276075363,0.008966137655079365,-0.00023862057423684746,0.00032351381378248334
0.016636397689580917,0.0018290176521986723,-0.009668766520917416,0.009143117815256119,-0.0002640581806190312,0.0003095994470641017
0.016986893489956856,0.0018282320816069841,-0.009688857942819595,0.008986666798591614,-0.0002556585823185742,0.00029683325556106865
0.01714644394814968,0.001884504104964435,-0.009394470602273941,0.008541006594896317,-0.0002717992465477437,0.00028507804381661117
0.01714644394814968,0.001884504104964435,-0.009394470602273941,0.008541006594896317,-0.0002717992465477437,0.00028507804381661117
0.01780220866203308,0.0018059132853522897,-0.009602622129023075,0.009318742901086807,-0.0002605844638310373,0.0002641563187353313
0.01780220866203308,0.0018059132853522897,-0.009602622129023075,0.009318742901086807,-0.0002605844638310373,0.0002641563187353313
0.01746809296309948,0.0018730951705947518,-0.009756657294929028,0.009345602244138718,-0.00031482530175708234,0.00024609611136838794
0.01746809296309948,0.0018730951705947518,-0.009756657294929028,0.009345602244138718,-0.00031482530175708234,0.00024609611136838794
0.018038595095276833,0.0019782441668212414,-0.009943622164428234,0.008855313993990421,-0.0003101005859207362,0.00022320568677969277
0.018038595095276833,0.0019782441668212414,-0.009943622164428234,0.008855313993990421,-0.0003101005859207362,0.00022320568677969277
0.0175845455378294,0.002063687425106764,-0.009714873507618904,0.008988304995000362,-0.00029917064239270985,0.0002164933830499649
0.017223041504621506,0.0020134877413511276,-0.008932470344007015,0.008837422356009483,-0.00028384520555846393,0.00018566865765023977
0.017443902790546417,0.0020226750057190657,-0.009714435786008835,0.008797617629170418,-0.00029162707505747676,0.0001788006047718227
0.017234420403838158,0.001976488623768091,-0.009570423513650894,0.00931504089385271,-0.00029816635651513934,0.00017376424511894584
0.017579257488250732,0.002062481828033924,-0.00907208863645792,0.009222917258739471,-0.0002859656815417111,0.00016909332771319896
0.01758134923875332,0.002010475844144821,-0.009661215357482433,0.009014462120831013,-0.00030250533018261194,0.00016467271780129522
0.01706800051033497,0.0022834716364741325,-0.009611517190933228,0.009200122207403183,-0.00029903947142884135,0.00016047766257543117
0.017620114609599113,0.002257624873891473,-0.009497599676251411,0.009249030612409115,-0.00028788321651518345,0.0001564912818139419
0.01727004535496235,0.0022074305452406406,-0.00974952057003975,0.009153339080512524,-0.00034710587351582944,0.0001526979322079569
0.017679579555988312,0.002016557613387704,-0.009176351130008698,0.008950872346758842,-0.0003271951572969556,0.00014908424054738134
0.017716476693749428,0.0019790870137512684,-0.008752457797527313,0.008843332529067993,-0.0003349849721416831,0.00014563777949661016
0.01758453994989395,0.0021566529758274555,-0.009198340587317944,0.00852958858013153,-0.00034107864485122263,5.8633133448893204e-05
0.017929909750819206,0.002113876398652792,-0.00952961202710867,0.009017422795295715,-0.00032248784555122256,4.5654898713110015e-05
0.017384042963385582,0.002216929802671075,-0.009304327890276909,0.009455050341784954,-0.00034830806544050574,4.379293022793718e-05
0.01767086051404476,0.0021483893506228924,-0.0101119764149189,0.009334630332887173,-0.0003357546520419419,4.270476347301155e-05
0.01776270568370819,0.0023059360682964325,-0.009628520347177982,0.009322469122707844,-0.0003413754457142204,3.146026574540883e-05
0.01731017418205738,0.002178868744522333,-0.009248712100088596,0.00985683687031269,-0.00034563825465738773,2.1075873519293964e-05
0.01775502599775791,0.0021086041815578938,-0.01097673736512661,0.009540261700749397,-0.00039193089469335973,1.9977233023382723e-05
0.017649197950959206,0.00196169619448483,-0.00986260175704956,0.009164277464151382,-0.0004135049239266664,2.5633951281633927e-06
0.017649197950959206,0.00196169619448483,-0.00986260175704956,0.009164277464151382,-0.0004135049239266664,2.5633951281633927e-06
0.017959676682949066,0.002286904025822878,-0.010067610070109367,0.00927423220127821,-0.00042257309542037547,1.0928154381417698e-08
0.017959676682949066,0.002286904025822878,-0.010067610070109367,0.00927423220127821,-0.00042257309542037547,1.0928154381417698e-08
0.017583318054676056,0.0024196605663746595,-0.010383865796029568,0.009457891806960106,-0.0004710855719167739,4.6588434499117426e-11
0.017583318054676056,0.0024196605663746595,-0.010383865796029568,0.009457891806960106,-0.0004710855719167739,4.6588434499117426e-11
0.017958367243409157,0.002097703516483307,-0.010655359365046024,0.009189059026539326,-0.000565997208468616,-0.0007063827360980213
0.018456635996699333,0.0019316277466714382,-0.010460225865244865,0.009580819867551327,-0.0005963006406091154,-0.0011079780524596572
0.01772782951593399,0.0019147000275552273,-0.010565959848463535,0.009507902897894382,-0.0005818108911626041,-0.000958766438998282
0.017861725762486458,0.002188451588153839,-0.010280768387019634,0.008894611150026321,-0.0005705180228687823,-0.0009326928993687034
0.01745176501572132,0.0021686179097741842,-0.01083081029355526,0.009102622047066689,-0.0005584347527474165,-0.0008259715395979583
0.017261682078242302,0.002454135101288557,-0.011307663284242153,0.009030147455632687,-0.0005152521771378815,-0.0007309690699912608
0.01815166138112545,0.0022025667130947113,-0.010349131189286709,0.009315039031207561,-0.0005093964282423258,-0.0007416493026539683
0.017921246588230133,0.0021376407239586115,-0.010779478587210178,0.009002837352454662,-0.0005038974341005087,-0.0006999323377385736
0.017921246588230133,0.0021376407239586115,-0.010779478587210178,0.009002837352454662,-0.0005038974341005087,-0.0006999323377385736
0.017903828993439674,0.001637495239265263,-0.010418636724352837,0.008863303810358047,-0.0004437470925040543,-0.0007767646457068622
0.017684906721115112,0.001510107540525496,-0.011471649631857872,0.008772809989750385,-0.0004179808893240988,-0.0015796511434018612
0.0178604144603014,0.0014450951712206006,-0.010535783134400845,0.009348406456410885,-0.0003950379614252597,-0.0015734191983938217
0.018202677369117737,0.0016832954715937376,-0.010310078971087933,0.009853711351752281,-0.0003744858840946108,-0.0016740341670811176
0.01805983856320381,0.002176740439608693,-0.011522146873176098,0.009523334912955761,-0.0003559652832336724,-0.001388155622407794
0.01815377175807953,0.0020310720428824425,-0.011438768357038498,0.009804106317460537,-0.00031596465851180255,-0.0012802709825336933
0.018074920400977135,0.001850360888056457,-0.010874837636947632,0.010008817538619041,-0.0002928462054114789,-0.0012036312837153673
0.017634782940149307,0.0016132696764543653,-0.011044788174331188,0.009717452339828014,-0.00027478771517053246,-0.001047630445100367
0.017905104905366898,0.0016352100064978004,-0.010880292393267155,0.010076195932924747,-0.00025895709404721856,-0.0011452409671619534
0.01786104217171669,0.001572829089127481,-0.011788712814450264,0.01005327794700861,-0.0002448584418743849,-0.0017636370612308383
0.017933683469891548,0.0016272584907710552,-0.011005512438714504,0.010135655291378498,-0.00023221845913212746,-0.0020090348552912474
0.01838591694831848,0.0018976264400407672,-0.011273431591689587,0.01001577079296112,-0.0002208200457971543,-0.0023950582835823298
0.01808016560971737,0.0019064942607656121,-0.0114176319912076,0.009803932160139084,-0.00021048808412160724,-0.0021299822255969048
0.019077321514487267,0.001998255494982004,-0.01102211233228445,0.009746533818542957,-0.00020107983436901122,-0.0019348659552633762
0.018629765138030052,0.0018017229158431292,-0.0112717654556036,0.010684163309633732,-0.0002283460198668763,-0.0017579017439857125
0.018271930515766144,0.0017014426412060857,-0.011303946375846863,0.010214265435934067,-0.00021275649487506598,-0.002364284824579954
0.018504522740840912,0.001639161491766572,-0.011871674098074436,0.010567297227680683,-0.00020469975424930453,-0.0026791503187268972
0.01859644055366516,0.001927181496284902,-0.0119085181504488,0.010560411028563976,-0.00019722332945093513,-0.0031367684714496136
0.01859644055366516,0.001927181496284902,-0.0119085181504488,0.010560411028563976,-0.00019722332945093513,-0.0031367684714496136
0.019212357699871063,0.0023703754413872957,-0.011534973978996277,0.01061880961060524,-0.0001902729709399864,-0.00311089213937521
0.01872994937002659,0.00223849737085402,-0.011681485921144485,0.010301502421498299,-0.00018379566608928144,-0.0025153046008199453
0.018645232543349266,0.00210832548327744,-0.011448442004621029,0.009631467051804066,-0.00020536998636089265,-0.002131965011358261
0.019182473421096802,0.0020274079870432615,-0.012020248919725418,0.009915116243064404,-0.00020063026749994606,-0.0019727954640984535
0.01887582242488861,0.0019793936517089605,-0.011855434626340866,0.010034575127065182,-0.00019455148139968514,-0.0021126517094671726
0.0187793280929327,0.00200633960776031,-0.011759140528738499,0.010225175879895687,-0.00018873039516620338,-0.0026082813274115324
0.01948457397520542,0.0020396746695041656,-0.011718003079295158,0.009923744015395641,-0.0001832412090152502,-0.0028898154851049185
0.019041037186980247,0.0019808236975222826,-0.011453138664364815,0.009661627002060413,-0.0002017900114879012,-0.003064844524487853
0.01917395181953907,0.0019476236775517464,-0.011662377044558525,0.00951069314032793,-0.00019779377907980233,-0.0030781682580709457
0.01937597431242466,0.0019132982706651092,-0.012339490465819836,0.01027366891503334,-0.0001926034310599789,-0.0028139010537415743
0.019084032624959946,0.0021852145437151194,-0.011709121987223625,0.010302335023880005,-0.0001829371612984687,-0.00243588350713253
0.018978865817189217,0.00199954048730433,-0.011630790308117867,0.009945180267095566,-0.0001753899996401742,-0.0024462698493152857
0.019160911440849304,0.002122189849615097,-0.011250865645706654,0.010400422848761082,-0.0002002494438784197,-0.0031240794342011213
0.019436882808804512,0.002096507465466857,-0.01182194147258997,0.009980718605220318,-0.0001950651640072465,-0.004079639911651611
0.019294101744890213,0.002256623702123761,-0.012306050397455692,0.010356858372688293,-0.00020377887994982302,-0.004354021977633238
0.019727103412151337,0.0022365860641002655,-0.011709346435964108,0.011093580164015293,-0.00021134559938218445,-0.003634453983977437
0.019312260672450066,0.0021254883613437414,-0.011577301658689976,0.010345512069761753,-0.0002053958596661687,-0.0032057827338576317
0.01955377496778965,0.0020346292294561863,-0.011156324297189713,0.010117766447365284,-0.00022001426259521395,-0.003009338863193989
0.019636843353509903,0.002045548753812909,-0.012451155111193657,0.010866609402000904,-0.00021995438146404922,-0.003320699790492654
0.019536158069968224,0.0022849387023597956,-0.011662173084914684,0.010436822660267353,-0.00021385611034929752,-0.0037935026921331882
0.019681066274642944,0.0021034942474216223,-0.011701658368110657,0.010581448674201965,-0.0003624139353632927,-0.004298523534089327
0.019972896203398705,0.0022295042872428894,-0.011888994835317135,0.01084505021572113,-0.00038152895285747945,-0.004348813556134701
0.019587824121117592,0.002323902677744627,-0.011767475865781307,0.010848666541278362,-0.0003547069209162146,-0.004037303384393454
0.01988963782787323,0.0022421875037252903,-0.011570867151021957,0.010561359114944935,-0.00036357430508360267,-0.0038556435611099005
0.019841067492961884,0.0021324167028069496,-0.012923959642648697,0.010127794928848743,-0.0003441149019636214,-0.003946751821786165
0.019550029188394547,0.002243403811007738,-0.012043492868542671,0.010537619702517986,-0.00037037633592262864,-0.003906946629285812
0.019550029188394547,0.002243403811007738,-0.012043492868542671,0.010537619702517986,-0.00037037633592262864,-0.003906946629285812
0.019924279302358627,0.002046299399808049,-0.011725005693733692,0.010305735282599926,-0.0003558441821951419,-0.004117260687053204
0.02005259320139885,0.0022091323044151068,-0.012816942296922207,0.010333348996937275,-0.0003727376169990748,-0.0045646256767213345
0.02029009908437729,0.002264356706291437,-0.011870041489601135,0.009977776557207108,-0.000411348941270262,-0.004465180914849043
0.02029009908437729,0.002264356706291437,-0.011870041489601135,0.009977776557207108,-0.000411348941270262,-0.004465180914849043
0.02050136588513851,0.002260930370539427,-0.0119902603328228,0.009862546809017658,-0.00039696606108918786,-0.004045223351567984
0.019759787246584892,0.0021364083513617516,-0.012414340861141682,0.01057243812829256,-0.00036608369555324316,-0.003974107094109058
0.019189458340406418,0.002223935443907976,-0.012287157587707043,0.00990916695445776,-0.0003386084863450378,-0.003954754211008549
0.02041521668434143,0.0020163084845989943,-0.01183442771434784,0.009576245211064816,-0.0003149023687001318,-0.00428724754601717
0.020680764690041542,0.0021356032229959965,-0.012267714366316795,0.01026582159101963,-0.0002942951978184283,-0.004696314223110676
0.020351823419332504,0.0020561618730425835,-0.011925979517400265,0.010579456575214863,-0.0003239826764911413,-0.004723734222352505
0.020207207649946213,0.002243670402094722,-0.012398946098983288,0.010136698372662067,-0.0003117989399470389,-0.004599597305059433
0.020537791773676872,0.002539641223847866,-0.012189649976789951,0.010418531484901905,-0.0002951750939246267,-0.004222176969051361
0.02055571787059307,0.0022789672948420048,-0.012309214100241661,0.010166154243052006,-0.0002798986970447004,-0.004410236142575741
0.02049688994884491,0.0023141808342188597,-0.012591817416250706,0.010586375370621681,-0.000266102550085634,-0.004206277430057526
0.02114967070519924,0.0020663144532591105,-0.01211951021105051,0.010541161522269249,-0.0002536016108933836,-0.004331737756729126
0.020607195794582367,0.0020019032526761293,-0.01258595660328865,0.010343806818127632,-0.00027719762874767184,-0.005035622511059046
0.020026065409183502,0.0022018584422767162,-0.011700763367116451,0.010641631670296192,-0.00027010688791051507,-0.0046570925042033195
0.020187437534332275,0.0021719299256801605,-0.012165600433945656,0.01076689176261425,-0.00025930078118108213,-0.004574950318783522
0.020420489832758904,0.002439782489091158,-0.012427152134478092,0.011111445724964142,-0.0002490679908078164,-0.004670096095651388
0.020999711006879807,0.0023085952270776033,-0.012218691408634186,0.011409570463001728,-0.00025635361089371145,-0.0051432340405881405
0.02092842571437359,0.0024203695356845856,-0.012977732345461845,0.010660863481462002,-0.0002626495552249253,-0.0048790257424116135
0.020762044936418533,0.0023206535261124372,-0.011547376401722431,0.010675434954464436,-0.0002543914597481489,-0.004818438086658716
0.020980292931199074,0.0022524171508848667,-0.012266154401004314,0.011017641983926296,-0.00024577302974648774,-0.005032867658883333
0.020642472431063652,0.002375041600316763,-0.012804609723389149,0.01036506611853838,-0.00023766393132973462,-0.004958938807249069
0.02116050384938717,0.0025699823163449764,-0.012707795016467571,0.010763106867671013,-0.00023039933876134455,-0.005157455336302519
0.021157855167984962,0.0026063222903758287,-0.012401091866195202,0.010285996831953526,-0.00019271555356681347,-0.004968775436282158
0.02108340710401535,0.0023630948271602392,-0.012808469124138355,0.010891031473875046,-0.0002028013695962727,-0.005159731954336166
0.02108340710401535,0.0023630948271602392,-0.012808469124138355,0.010891031473875046,-0.0002028013695962727,-0.005159731954336166
0.021214395761489868,0.002439025091007352,-0.011909499764442444,0.010966768488287926,-0.00021169283718336374,-0.005270873196423054
0.02145290933549404,0.0023348864633589983,-0.012859605252742767,0.010871702805161476,-0.00022148086281958967,-0.005225922912359238
0.020808396860957146,0.00235794298350811,-0.012472251430153847,0.011208034120500088,-0.00024957972345873713,-0.005108545999974012
0.021390719339251518,0.002489360747858882,-0.012311926111578941,0.011545924469828606,-0.0002454320783726871,-0.005754523910582066
0.021390719339251518,0.002489360747858882,-0.012311926111578941,0.011545924469828606,-0.0002454320783726871,-0.005754523910582066
0.02148478291928768,0.0024150987155735493,-0.012239468283951283,0.011206027120351791,-0.0004887106479145586,-0.0056135873310267925
0.021333741024136543,0.002537894994020462,-0.01328427717089653,0.010815014131367207,-0.00045681733172386885,-0.005327437072992325
0.0212568286806345,0.002518969587981701,-0.012377703562378883,0.011224551126360893,-0.00047660700511187315,-0.005222550593316555
0.021786024793982506,0.0023205482866615057,-0.013120612129569054,0.01092615257948637,-0.00045527127804234624,-0.005294982343912125
0.021705452352762222,0.002465051831677556,-0.01239670068025589,0.01095361728221178,-0.0004549817240331322,-0.00567541504278779
0.021510059013962746,0.0027112134266644716,-0.013096097856760025,0.011317486874759197,-0.00045333319576457143,-0.00564569840207696
0.02143571339547634,0.0025121003855019808,-0.012584041804075241,0.011060649529099464,-0.0004542738024611026,-0.005832867231220007
0.02182496339082718,0.002598018851131201,-0.013063344173133373,0.011795613914728165,-0.0004528966383077204,-0.005465672817081213
0.021606892347335815,0.002302802400663495,-0.012839208357036114,0.011417733505368233,-0.00042776050395332277,-0.005368174985051155
0.021662915125489235,0.0022731772623956203,-0.012682480737566948,0.01120836939662695,-0.0004407531814649701,-0.005476854275912046
0.02148827537894249,0.002061869017779827,-0.01314605213701725,0.01143050566315651,-0.00041365076322108507,-0.005563013721257448
0.021831568330526352,0.002199216280132532,-0.012653416953980923,0.011268558911979198,-0.00044506232370622456,-0.005727049894630909
0.021834367886185646,0.002242161426693201,-0.013339374214410782,0.011418460868299007,-0.00041943902033381164,-0.005436215084046125
0.02123834565281868,0.0022082708310335875,-0.012819686904549599,0.011582096107304096,-0.00044582082773558795,-0.0051667275838553905
0.021397996693849564,0.002399299293756485,-0.013345600105822086,0.011097091250121593,-0.00042352499440312386,-0.005729101598262787
0.021745648235082626,0.0021653613075613976,-0.013344665989279747,0.01154958363622427,-0.00045011250767856836,-0.005765811074525118
0.022616388276219368,0.0024033794179558754,-0.013738423585891724,0.011065416969358921,-0.0004268934135325253,-0.006024619564414024
0.021801743656396866,0.0024590957909822464,-0.012915091589093208,0.011124777607619762,-0.000510646787006408,-0.0055934712290763855
0.02137267030775547,0.0027078744024038315,-0.013339844532310963,0.010630836710333824,-0.0004926773835904896,-0.005778467282652855
0.021392494440078735,0.0024527900386601686,-0.013556227087974548,0.010873393155634403,-0.0005268029635772109,-0.005953887943178415
0.022690773010253906,0.002349480055272579,-0.01362231932580471,0.010888800956308842,-0.0005386529373936355,-0.006414238829165697
0.022690773010253906,0.002349480055272579,-0.01362231932580471,0.010888800956308842,-0.0005386529373936355,-0.006414238829165697
0.021686624735593796,0.0025944963563233614,-0.013996990397572517,0.011488637886941433,-0.000501368660479784,-0.00582432746887207
0.021686624735593796,0.0025944963563233614,-0.013996990397572517,0.011488637886941433,-0.000501368660479784,-0.00582432746887207
0.02203371934592724,0.002766016637906432,-0.013722565025091171,0.012262698262929916,-0.0006048415089026093,-0.0061770169995725155
0.02245910093188286,0.002583168912678957,-0.013827687129378319,0.01158636249601841,-0.0006111030234023929,-0.0064634718000888824
0.02245910093188286,0.002583168912678957,-0.013827687129378319,0.01158636249601841,-0.0006111030234023929,-0.0064634718000888824
0.02259424328804016,0.0024627435486763716,-0.01402854174375534,0.010919044725596905,-0.0005957596586085856,-0.006728033069521189
0.022436505183577538,0.0026544223073869944,-0.01329720113426447,0.01149745937436819,-0.0006040604203008115,-0.006485764402896166
0.021678948774933815,0.0025483432691544294,-0.013731875456869602,0.011441309005022049,-0.0005737879546359181,-0.006011837627738714
0.021588116884231567,0.002617406891658902,-0.013237379491329193,0.011917113326489925,-0.0005324926460161805,-0.006095332559198141
0.022299962118268013,0.0027551231905817986,-0.014041534624993801,0.011884178034961224,-0.0005271312547847629,-0.006602778099477291
0.022823870182037354,0.0028731341008096933,-0.013376172631978989,0.01159115694463253,-0.0004992949543520808,-0.006362309679389
0.022714871913194656,0.0027364161796867847,-0.01434177253395319,0.012048544362187386,-0.0004511873994488269,-0.006238535977900028
0.02244790457189083,0.002662470331415534,-0.013431532308459282,0.011872291564941406,-0.00048079827683977783,-0.006297317333519459
0.02208506315946579,0.0027569772209972143,-0.013405849225819111,0.012640287168323994,-0.0004502868396230042,-0.006379628088325262
0.02220614068210125,0.0028118514455854893,-0.013559196144342422,0.01248981710523367,-0.00046711842878721654,-0.006485247518867254
0.022982193157076836,0.0029020209331065416,-0.013965875841677189,0.012428002431988716,-0.0004496221081353724,-0.006598277948796749
0.02282431162893772,0.002680981531739235,-0.014565682969987392,0.01237579621374607,-0.000464834418380633,-0.006650615483522415
0.022417578846216202,0.0026068021543323994,-0.013289408758282661,0.012253735214471817,-0.000449647253844887,-0.006198176648467779
0.02235579676926136,0.0023586859460920095,-0.013285635970532894,0.012376896105706692,-0.00042406050488352776,-0.006448831874877214
0.022669518366456032,0.0024497893173247576,-0.013320498168468475,0.011981276795268059,-0.0004329825169406831,-0.006774059031158686
0.022669518366456032,0.0024497893173247576,-0.013320498168468475,0.011981276795268059,-0.0004329825169406831,-0.006774059031158686
0.022912275046110153,0.0026610828936100006,-0.01397851575165987,0.012420229613780975,-0.000439333583926782,-0.006825906224548817
0.023077048361301422,0.002800723072141409,-0.012989181093871593,0.012530310079455376,-0.00043913486297242343,-0.0060610100626945496
0.023045293986797333,0.002515102969482541,-0.013719074428081512,0.011043921113014221,-0.0006297821528278291,-0.0070982580073177814
0.02292979322373867,0.002423057798296213,-0.013482322916388512,0.012309192679822445,-0.0007473144796676934,-0.007557886652648449
0.02292979322373867,0.002423057798296213,-0.013482322916388512,0.012309192679822445,-0.0007473144796676934,-0.007557886652648449
0.02301866002380848,0.002660855185240507,-0.013454172760248184,0.011571407318115234,-0.0006356857484206557,-0.0070048607885837555
0.02301866002380848,0.002660855185240507,-0.013454172760248184,0.011571407318115234,-0.0006356857484206557,-0.0070048607885837555
0.023140067234635353,0.0024452339857816696,-0.013592667877674103,0.01149781420826912,-0.0005999313434585929,-0.007197814527899027
0.023140067234635353,0.0024452339857816696,-0.013592667877674103,0.01149781420826912,-0.0005999313434585929,-0.007197814527899027
0.023549815639853477,0.002510627033188939,-0.014088344760239124,0.012443863786756992,-0.0005480592953972518,-0.007083872798830271
0.02311212196946144,0.002416356699541211,-0.013667458668351173,0.01203339546918869,-0.0005663014017045498,-0.006932856980711222
0.023049071431159973,0.0026274777483195066,-0.013345622457563877,0.011925132013857365,-0.0005328308325260878,-0.007070697844028473
0.023418745025992393,0.0027619709726423025,-0.013867387548089027,0.012288304977118969,-0.000496608903631568,-0.006996169686317444
0.0239280853420496,0.0027133156545460224,-0.013443006202578545,0.011656912043690681,-0.0004656645469367504,-0.006745093036442995
0.023597905412316322,0.002712428802624345,-0.013601324521005154,0.012137572281062603,-0.0004055218305438757,-0.006691648159176111
0.023482978343963623,0.0024664998054504395,-0.013348544016480446,0.012127293273806572,-0.0003708699077833444,-0.006687129847705364
0.023480689153075218,0.002368110464885831,-0.013608340173959732,0.012381662614643574,-0.000342534389346838,-0.006983946077525616
0.023758096620440483,0.002356219105422497,-0.013092377223074436,0.012230059131979942,-0.00031828353530727327,-0.007090345025062561
0.023565642535686493,0.0024289002176374197,-0.013873497024178505,0.01182777713984251,-0.0003261338861193508,-0.006789937615394592
0.022197742015123367,0.0023558936081826687,-0.013425739482045174,0.012469875626266003,-0.000332586991135031,-0.00703050009906292
0.024045376107096672,0.0025344942696392536,-0.013483562506735325,0.012352284975349903,-0.00031492236303165555,-0.006428291089832783
0.024164648726582527,0.0026947087608277798,-0.012799359858036041,0.012587299570441246,-0.00029766838997602463,-0.006187377497553825
0.02406342513859272,0.002524010604247451,-0.013329625129699707,0.012221922166645527,-0.00032589954207651317,-0.005811430513858795
0.02395203523337841,0.002455448964610696,-0.013401489704847336,0.0123865632340312,-0.0003125813964288682,-0.006012744270265102
0.02395203523337841,0.002455448964610696,-0.013401489704847336,0.0123865632340312,-0.0003125813964288682,-0.006012744270265102
0.023993777111172676,0.002454920206218958,-0.013537919148802757,0.012362843379378319,-0.0003187687834724784,-0.006295483093708754
0.02344358153641224,0.002411461668089032,-0.01352530438452959,0.012089259922504425,-0.000323756190482527,-0.006134223658591509
0.023850521072745323,0.0029619645792990923,-0.013408513739705086,0.011839067563414574,-0.0002982277364935726,-0.006333666853606701
0.02397054061293602,0.002915303921326995,-0.013339466415345669,0.012478656135499477,-0.00029844153323210776,-0.00628792867064476
0.023072510957717896,0.0025846995413303375,-0.013927454128861427,0.011947747319936752,-0.0002842906105797738,-0.006200925912708044
0.023703232407569885,0.0023395121097564697,-0.013305624946951866,0.012078516185283661,-0.0003139800683129579,-0.006580079905688763
0.025182122364640236,0.0022020977921783924,-0.014226065017282963,0.012602752074599266,-0.0003464428591541946,-0.0068746027536690235
0.024045482277870178,0.0023193296510726213,-0.013624384999275208,0.01181620080024004,-0.0003758520761039108,-0.006730910390615463
0.02374153956770897,0.0025559605564922094,-0.014119674451649189,0.012222889810800552,-0.0005773294251412153,-0.006758398376405239
0.02395285665988922,0.002572591882199049,-0.013115870766341686,0.011904624290764332,-0.0006862984737381339,-0.00660612853243947
0.02325698733329773,0.0027790635358542204,-0.014196138828992844,0.012389090843498707,-0.0006066715577617288,-0.006850483361631632
0.02339547500014305,0.0025130994617938995,-0.01368741039186716,0.012538288719952106,-0.0006270817248150706,-0.006880616303533316
0.024414189159870148,0.0023602391593158245,-0.014144651591777802,0.01209233794361353,-0.0005729382392019033,-0.007153694983571768
0.024268221110105515,0.002670483198016882,-0.01358428318053484,0.012356827966868877,-0.0005818938952870667,-0.006774590816348791
0.024268221110105515,0.002670483198016882,-0.01358428318053484,0.012356827966868877,-0.0005818938952870667,-0.006774590816348791
0.02382403239607811,0.002897521248087287,-0.013906032778322697,0.01283586397767067,-0.000569990137591958,-0.006721420679241419
0.023795532062649727,0.002728069433942437,-0.014635399915277958,0.01278139092028141,-0.0005361192161217332,-0.006677384488284588
0.024201426655054092,0.0025429241359233856,-0.014109959825873375,0.013185045681893826,-0.0004994675982743502,-0.007161246612668037
0.024077506735920906,0.0024935579858720303,-0.014262914657592773,0.01315835677087307,-0.00045138271525502205,-0.006928735412657261
0.024077506735920906,0.0024935579858720303,-0.014262914657592773,0.01315835677087307,-0.00045138271525502205,-0.006928735412657261
0.02356535568833351,0.0029176922980695963,-0.014569893479347229,0.012799634598195553,-0.0003973871935158968,-0.007329978514462709
0.02356535568833351,0.0029176922980695963,-0.014569893479347229,0.012799634598195553,-0.0003973871935158968,-0.007329978514462709
0.0233913641422987,0.0026780006010085344,-0.014942459762096405,0.012616792693734169,-0.00038485671393573284,-0.007130867801606655
0.023930387571454048,0.002591945929452777,-0.014333429746329784,0.012793262489140034,-0.0004120848316233605,-0.007339770440012217
0.023791994899511337,0.002899083774536848,-0.013997687958180904,0.012543488293886185,-0.000409814907470718,-0.007634841371327639
0.023791994899511337,0.002899083774536848,-0.013997687958180904,0.012543488293886185,-0.000409814907470718,-0.007634841371327639
0.023713914677500725,0.003025953657925129,-0.014997887425124645,0.012969795614480972,-0.0003993152058683336,-0.007628959137946367
0.02362491562962532,0.0027977970894426107,-0.014242975041270256,0.012498855590820312,-0.0003790865303017199,-0.008078735321760178
0.023802833631634712,0.0027557413559406996,-0.014811084605753422,0.01238657720386982,-0.00041497708298265934,-0.00822991319000721
0.025040190666913986,0.002770627150312066,-0.014155026525259018,0.01254216954112053,-0.00042581072193570435,-0.007945233955979347
0.024270854890346527,0.002925342880189419,-0.014598133973777294,0.0121489642187953,-0.00042687953100539744,-0.007542329840362072
0.023814154788851738,0.002826272277161479,-0.014303913339972496,0.012696844525635242,-0.00044641990098170936,-0.008014156483113766
0.023814154788851738,0.002826272277161479,-0.014303913339972496,0.012696844525635242,-0.00044641990098170936,-0.008014156483113766
0.024179847911000252,0.0029325273353606462,-0.014328733086585999,0.013043051585555077,-0.000458218390122056,-0.007922999560832977
0.02374255284667015,0.002803805051371455,-0.015097348019480705,0.012724432162940502,-0.0005489797913469374,-0.00814936775714159
0.02445773407816887,0.002708365675061941,-0.01413697563111782,0.012969795614480972,-0.000587420305237174,-0.008328944444656372
0.025277482345700264,0.0029940884560346603,-0.014859543181955814,0.012569895014166832,-0.0005259438185021281,-0.00825596135109663
0.025004755705595016,0.0032518217340111732,-0.014297660440206528,0.012953918427228928,-0.0005586263723671436,-0.008425760082900524
0.024532049894332886,0.003161538392305374,-0.01490725390613079,0.012817162089049816,-0.0005114040104672313,-0.008799306116998196
0.023130320012569427,0.00304151582531631,-0.014242464676499367,0.012119990773499012,-0.0005346069228835404,-0.008737072348594666
0.02398841269314289,0.00278583075851202,-0.0147707499563694,0.012785285711288452,-0.000501203176099807,-0.008338067680597305
0.02442997321486473,0.002978160511702299,-0.014562784694135189,0.01284749899059534,-0.0005265204817987978,-0.008837811648845673
0.024424126371741295,0.0029892115853726864,-0.01516042836010456,0.01292337290942669,-0.0004944129032082856,-0.008532696403563023
0.024424126371741295,0.0029892115853726864,-0.01516042836010456,0.01292337290942669,-0.0004944129032082856,-0.008532696403563023
0.024951830506324768,0.0026822807267308235,-0.015000350773334503,0.013080757111310959,-0.00044846200034953654,-0.00869882944971323
0.025292178615927696,0.0026872940361499786,-0.01408648956567049,0.012847935780882835,-0.0004490285646170378,-0.008359601721167564
0.024582454934716225,0.002899197628721595,-0.014662005938589573,0.012671015225350857,-0.0004477331240195781,-0.008743871934711933
0.024347828701138496,0.003230321453884244,-0.014244787395000458,0.013273052871227264,-0.00041560607496649027,-0.008432653732597828
0.024365156888961792,0.003192775882780552,-0.014826214872300625,0.01282934658229351,-0.0004172463377472013,-0.008300562389194965
0.024605324491858482,0.003093116916716099,-0.014091870747506618,0.01293632760643959,-0.0004181512340437621,-0.008711840026080608
0.025745021179318428,0.002773859305307269,-0.015154396183788776,0.012425467371940613,-0.0003938717709388584,-0.009139583446085453
0.025637460872530937,0.0027050143107771873,-0.014455542899668217,0.013002726249396801,-0.00039658890455029905,-0.008343905210494995
0.025644155219197273,0.0026471472810953856,-0.014774568378925323,0.012784590944647789,-0.0003984411887358874,-0.008458473719656467
0.025542471557855606,0.002964043291285634,-0.014216836541891098,0.013278022408485413,-0.0004114223993383348,-0.008527048863470554
0.025150027126073837,0.0032285035122185946,-0.01503862626850605,0.013092541135847569,-0.0004075598844792694,-0.008484076708555222
0.025093281641602516,0.0028186060953885317,-0.01503980252891779,0.013197469525039196,-0.00044551462633535266,-0.008308886550366879
0.025390759110450745,0.002680235542356968,-0.015146004036068916,0.01331739965826273,-0.00044949122820980847,-0.008652612566947937
0.02535611391067505,0.002778845839202404,-0.014537456445395947,0.012276486493647099,-0.0004484803357627243,-0.00900875311344862
0.02568856254220009,0.0030996876303106546,-0.015154428780078888,0.013208932243287563,-0.0004205593140795827,-0.008754201233386993
0.026540007442235947,0.003097167704254389,-0.014663206413388252,0.012768367305397987,-0.00044305124902166426,-0.009063177742064
0.025929231196641922,0.003049010643735528,-0.01533868070691824,0.01261590700596571,-0.0004236366949044168,-0.008898223750293255
0.02596035785973072,0.0028079950716346502,-0.015127632766962051,0.012036295607686043,-0.000400499498937279,-0.008758647367358208
0.025773780420422554,0.002799512818455696,-0.015222020447254181,0.012492607347667217,-0.00037941450136713684,-0.00887193065136671
0.025620371103286743,0.0027683947701007128,-0.015391597524285316,0.013296929188072681,-0.0004239120753481984,-0.008859414607286453
0.025620371103286743,0.0027683947701007128,-0.015391597524285316,0.013296929188072681,-0.0004239120753481984,-0.008859414607286453
0.025869840756058693,0.002644622465595603,-0.0157291442155838,0.013739779591560364,-0.00037516551674343646,-0.008547174744307995
0.025869840756058693,0.002644622465595603,-0.0157291442155838,0.013739779591560364,-0.00037516551674343646,-0.008547174744307995
0.02642081305384636,0.0027729119174182415,-0.015272046439349651,0.013014441356062889,-0.00037992134457454085,-0.00795696396380663
0.026434995234012604,0.0026305702049285173,-0.015084672719240189,0.012457698583602905,-0.00041583244455978274,-0.008395734243094921
0.02687043510377407,0.0027536549605429173,-0.015812888741493225,0.01329389214515686,-0.0004422564816195518,-0.008472191169857979
0.026737723499536514,0.0029122286941856146,-0.015195180661976337,0.013005335815250874,-0.0004231494094710797,-0.008870607241988182
0.02659907378256321,0.002874452853575349,-0.015781333670020103,0.013134276494383812,-0.0005203313776291907,-0.008555356413125992
0.026984022930264473,0.002746985759586096,-0.01540440134704113,0.013127469457685947,-0.0004831714031752199,-0.008570984937250614
0.026971833780407906,0.002864087000489235,-0.015638301149010658,0.012969156727194786,-0.0004795307177118957,-0.008770400658249855
0.027039404958486557,0.0028881020843982697,-0.015226680785417557,0.01300867460668087,-0.0004754365363623947,-0.008933878503739834
0.027104616165161133,0.0028563570231199265,-0.015611620619893074,0.012883619405329227,-0.0004929665010422468,-0.009507903829216957
0.02740621753036976,0.0032844177912920713,-0.016181036829948425,0.013386242091655731,-0.00047277240082621574,-0.008186559192836285
0.027456361800432205,0.0029832287691533566,-0.015892010182142258,0.012293518520891666,-0.00048707897076383233,-0.00870603695511818
0.027528604492545128,0.003078958485275507,-0.015733810141682625,0.012704898603260517,-0.00046977386227808893,-0.008352520875632763
0.0272875614464283,0.003000031691044569,-0.015071308240294456,0.012589596211910248,-0.0004938774509355426,-0.008758718147873878
0.027633676305413246,0.00345980585552752,-0.016042346134781837,0.013458777219057083,-0.00046270855818875134,-0.008996305987238884
0.027982201427221298,0.0037499519530683756,-0.015410293824970722,0.013487441465258598,-0.00042069077608175576,-0.008804721757769585
0.028759682551026344,0.0033686093520373106,-0.01609375886619091,0.01299288496375084,-0.0004562209651339799,-0.008847248740494251
0.02856125496327877,0.003088308498263359,-0.015564500354230404,0.013115507550537586,-0.0004249649355188012,-0.008693277835845947
0.025559308007359505,0.0030017918907105923,-0.0161599013954401,0.013978936709463596,-0.00039421982364729047,-0.008889047428965569
0.02818676084280014,0.0031446937937289476,-0.016224093735218048,0.01388926524668932,-0.00042029854375869036,-0.008773358538746834
0.028927547857165337,0.0031603805255144835,-0.016256416216492653,0.013637717813253403,-0.00040077167795971036,-0.00915530789643526
0.028200531378388405,0.003527634544298053,-0.016549116000533104,0.013696763664484024,-0.0004273874219506979,-0.009279223158955574
0.028718648478388786,0.0032740645110607147,-0.01610848866403103,0.013825997710227966,-0.0004082241212017834,-0.00921100564301014
0.029223043471574783,0.0030840046238154173,-0.016907401382923126,0.013779670931398869,-0.0004341175954323262,-0.009216156788170338
0.029230264946818352,0.0032463083043694496,-0.016510184854269028,0.013842582702636719,-0.00047410131082870066,-0.009387519210577011
0.02838234417140484,0.003507227636873722,-0.016621172428131104,0.013971755281090736,-0.0004944308311678469,-0.009343431331217289
0.029025133699178696,0.003388455370441079,-0.016413483768701553,0.01364076230674982,-0.0004420611949171871,-0.009367482736706734
0.029662184417247772,0.00311898160725832,-0.017128711566329002,0.013508322648704052,-0.00046802349970676005,-0.009504120796918869
0.02937675639986992,0.002938118064776063,-0.017086217179894447,0.013964070938527584,-0.0004428110260050744,-0.009248410351574421
0.02937675639986992,0.002938118064776063,-0.017086217179894447,0.013964070938527584,-0.0004428110260050744,-0.009248410351574421
0.029481763020157814,0.003200770588591695,-0.017566440626978874,0.01363813504576683,-0.00041736633284017444,-0.009478967636823654
0.029424721375107765,0.003714601509273052,-0.016955576837062836,0.014029335230588913,-0.0004887631512247026,-0.009294097311794758
0.02891651540994644,0.0034687831066548824,-0.01701776683330536,0.013700657524168491,-0.0005209001828916371,-0.009206387214362621
0.028833527117967606,0.0034074268769472837,-0.01676343008875847,0.013940341770648956,-0.0005345300887711346,-0.0085895461961627
0.028630875051021576,0.0033942849840968847,-0.016249939799308777,0.013535439036786556,-0.0005273258429951966,-0.009159802459180355
0.02867419645190239,0.003408916527405381,-0.01729164458811283,0.014108292758464813,-0.0005537613178603351,-0.008730309084057808
0.02908170409500599,0.0034813438542187214,-0.016985785216093063,0.013635960407555103,-0.0006440736469812691,-0.008900422602891922
0.02891646698117256,0.0032149634789675474,-0.017493201419711113,0.013982411473989487,-0.000667081621941179,-0.009264090098440647
0.029068510979413986,0.0030205368530005217,-0.01766764186322689,0.014054288156330585,-0.0006964588537812233,-0.00924086943268776
0.028721624985337257,0.0028086532838642597,-0.016612108796834946,0.01503799855709076,-0.0006235436885617673,-0.009269347414374352
0.028958512470126152,0.002925609005615115,-0.016797520220279694,0.01484160590916872,-0.0006457793060690165,-0.008949817158281803
0.029241090640425682,0.002901385072618723,-0.017918983474373817,0.014593773521482944,-0.0006315578939393163,-0.009315111674368382
0.02892111986875534,0.003252724651247263,-0.018224872648715973,0.014042372815310955,-0.0006148170214146376,-0.009641043841838837
0.02750305086374283,0.0032239179126918316,-0.017872946336865425,0.014702758751809597,-0.0005686633521690965,-0.009337284602224827
0.030206868425011635,0.004002757370471954,-0.017410695552825928,0.014855021610856056,-0.0005406737909652293,-0.009484881535172462
0.030536076053977013,0.004262705333530903,-0.018104149028658867,0.015058240853250027,-0.0005612453096546233,-0.009774362668395042
0.030603688210248947,0.0035423976369202137,-0.01760074868798256,0.014009925536811352,-0.0005933690117672086,-0.01037047803401947
0.029210979118943214,0.003135631326586008,-0.017553282901644707,0.014138689264655113,-0.0006006729090586305,-0.010051243007183075
0.028967414051294327,0.0030366035643965006,-0.01800272800028324,0.013895682990550995,-0.000588228227570653,-0.009856527671217918
0.02956349588930607,0.003233987605199218,-0.017383674159646034,0.014248642139136791,-0.0007582904654555023,-0.010427833534777164
0.03036590665578842,0.0035507548600435257,-0.01792275533080101,0.013975678011775017,-0.0007111815502867103,-0.00994028802961111
0.030236035585403442,0.0037005541380494833,-0.01793086715042591,0.014318912290036678,-0.0006180671043694019,-0.00991754699498415
0.031081298366189003,0.0038418699987232685,-0.01745986007153988,0.014540381729602814,-0.0005435426137410104,-0.010066191665828228
0.03105694241821766,0.004003318026661873,-0.01809263415634632,0.015365049242973328,-0.0005556551041081548,-0.010188913904130459
0.029670828953385353,0.0035819783806800842,-0.017864516004920006,0.01607798971235752,-0.0004784621123690158,-0.010092515498399734
0.029590468853712082,0.0034337539691478014,-0.01804351806640625,0.015766821801662445,-0.0004933120799250901,-0.009700566530227661
0.030345728620886803,0.0033137414138764143,-0.01740308292210102,0.015508720651268959,-0.0004729270003736019,-0.009653013199567795
0.030345728620886803,0.0033137414138764143,-0.01740308292210102,0.015508720651268959,-0.0004729270003736019,-0.009653013199567795
0.03030647151172161,0.0033678971230983734,-0.01823747344315052,0.014663073234260082,-0.0004953103489242494,-0.010144427418708801
0.030221080407500267,0.003284586826339364,-0.017848525196313858,0.014717458747327328,-0.0004526359844021499,-0.009726924821734428
0.030315391719341278,0.003351791063323617,-0.017817959189414978,0.014468719251453876,-0.0003992104029748589,-0.009689971804618835
0.029941504821181297,0.0037382047157734632,-0.018167458474636078,0.01499543059617281,-0.00042894374928437173,-0.010162504389882088
0.029600106179714203,0.003933301195502281,-0.01726454310119152,0.015138099901378155,-0.00043805394670926034,-0.010322225280106068
0.030211804434657097,0.0035193548537790775,-0.017924819141626358,0.015519822016358376,-0.0004381184699013829,-0.010073069483041763
0.03033672273159027,0.003232362912967801,-0.018411537632346153,0.01513775996863842,-0.0004114894545637071,-0.01052948273718357
0.0300523079931736,0.00318640167824924,-0.017704740166664124,0.014616892673075199,-0.00038637247052975,-0.01052343100309372
0.030112141743302345,0.0035088735166937113,-0.01793079264461994,0.014802629128098488,-0.00038936964119784534,-0.01008783932775259
0.03043390065431595,0.003338729962706566,-0.01784360408782959,0.01516460906714201,-0.000391570501960814,-0.010212952271103859
0.030792085453867912,0.003457041922956705,-0.01788252219557762,0.015382036566734314,-0.00037281887489371,-0.01047531794756651
0.02949477732181549,0.003227198263630271,-0.018105121329426765,0.015310009010136127,-0.0003545554936863482,-0.010004925541579723
0.031062621623277664,0.0035347002558410168,-0.0173140037804842,0.014872357249259949,-0.0003865690086968243,-0.010210278443992138
0.03108634054660797,0.0037741062697023153,-0.018172038719058037,0.014171881601214409,-0.00037165347021073103,-0.010481700301170349
0.03048836439847946,0.0037654784973710775,-0.018511801958084106,0.014434296637773514,-0.00039488880429416895,-0.010341356508433819
0.03019130602478981,0.003683108603581786,-0.01854969933629036,0.014262029901146889,-0.00038267343188636005,-0.010348943062126637
0.03086441569030285,0.0032678397838026285,-0.018982091918587685,0.014446012675762177,-0.00041385783697478473,-0.010712354443967342
0.030945276841521263,0.003008480416610837,-0.018194355070590973,0.014626323245465755,-0.00043303327402099967,-0.01038198173046112
0.030700810253620148,0.00287138600833714,-0.017400512471795082,0.015122408978641033,-0.00042084057349711657,-0.010451378300786018
0.030997101217508316,0.0029622679576277733,-0.01825612783432007,0.015102501958608627,-0.0005489230970852077,-0.010206888429820538
0.031096844002604485,0.0032234133686870337,-0.018107827752828598,0.01563827507197857,-0.0005339351482689381,-0.01040424220263958
0.03069128841161728,0.0032130079343914986,-0.018442565575242043,0.015115070156753063,-0.0005627752398140728,-0.010234643705189228
0.03110678866505623,0.0032629675697535276,-0.019037822261452675,0.01569940149784088,-0.0005199444713070989,-0.010492900386452675
0.031619563698768616,0.003360746195539832,-0.01806022785604,0.01619933731853962,-0.0005079097463749349,-0.010374809615314007
0.03142205625772476,0.003030257998034358,-0.018380118533968925,0.016453152522444725,-0.000533639860805124,-0.010554968379437923
0.031651515513658524,0.003307432634755969,-0.018626665696501732,0.016516471281647682,-0.0005006690043956041,-0.010829365812242031
0.032015860080718994,0.0032394956797361374,-0.019798170775175095,0.016405081376433372,-0.0005218822043389082,-0.010534591041505337
0.032015860080718994,0.0032394956797361374,-0.019798170775175095,0.016405081376433372,-0.0005218822043389082,-0.010534591041505337
0.03252453729510307,0.003606844926252961,-0.01920197904109955,0.01541127823293209,-0.000545684655662626,-0.010811579413712025
0.032394759356975555,0.003247826360166073,-0.018629616126418114,0.015469050966203213,-0.0005155490362085402,-0.01079153548926115
0.030644841492176056,0.003309955121949315,-0.019378220662474632,0.015105893835425377,-0.0005295375594869256,-0.010922007262706757
0.03119017370045185,0.0034727093297988176,-0.0186105128377676,0.01559305191040039,-0.0005049898172728717,-0.010843345895409584
0.032187413424253464,0.0034515748266130686,-0.01822328381240368,0.015044926665723324,-0.0005263692000880837,-0.010357595048844814
0.031927913427352905,0.0035547050647437572,-0.019362080842256546,0.015317447483539581,-0.0004979053628630936,-0.010699660517275333
0.032792747020721436,0.003681245492771268,-0.019902152940630913,0.015145344659686089,-0.00046617042971774936,-0.01124386116862297
0.0326479971408844,0.0037532905116677284,-0.019076844677329063,0.01577102020382881,-0.0005027080769650638,-0.011101789772510529
0.03220324590802193,0.003395823063328862,-0.019290581345558167,0.01557207852602005,-0.0005064700380899012,-0.011404075659811497
0.031950000673532486,0.00349269132129848,-0.01935170590877533,0.015703851357102394,-0.0005407942808233202,-0.011499421671032906
0.03184795007109642,0.0033954496029764414,-0.019016660749912262,0.015396002680063248,-0.0005342366639524698,-0.01171075738966465
0.032762300223112106,0.003852409077808261,-0.01953279785811901,0.015323414467275143,-0.000560527783818543,-0.011575927026569843
0.031370796263217926,0.004189848434180021,-0.01962640881538391,0.015257056802511215,-0.0006425415631383657,-0.011394361034035683
0.03257863223552704,0.004110267385840416,-0.019148312509059906,0.01523511204868555,-0.0006619839114136994,-0.011311614885926247
0.033277478069067,0.0035003027878701687,-0.01944221556186676,0.01592555083334446,-0.0006684137042611837,-0.01134050264954567
0.03316992521286011,0.00359629956074059,-0.0193538386374712,0.015736030414700508,-0.0006181439966894686,-0.011564988642930984
0.032951708883047104,0.0037929550744593143,-0.019042063504457474,0.015935856848955154,-0.0006238464848138392,-0.0118646789342165
