davideferrari95/blind_handover_controller/data/Test 180 - [2024-02-08 -- 11-22-37]/joint_states_data.csv
shoulder_pan_joint,shoulder_lift_joint,elbow_joint,wrist_1_joint,wrist_2_joint,wrist_3_joint
-0.00830832403153181,-0.0035377994645386934,-0.004919675178825855,0.009113161824643612,-0.0,-0.008602697402238846
-0.00830832403153181,-0.0035377994645386934,-0.004919675178825855,0.009113161824643612,-0.0,-0.008602697402238846
-0.00830832403153181,-0.0035377994645386934,-0.004919675178825855,0.009113161824643612,-0.0,-0.008602697402238846
-0.008019689470529556,-0.0030445612501353025,-0.004907116759568453,0.00927905086427927,-0.0,-0.008557744324207306
-0.008215469308197498,-0.0029902642127126455,-0.0048306831158697605,0.009127768687903881,-0.0,-0.00887665431946516
-0.008184896782040596,-0.0034321423154324293,-0.005069143604487181,0.009700142778456211,-0.0,-0.00869299191981554
-0.007773497141897678,-0.0042106639593839645,-0.004876954946666956,0.010017173364758492,-0.0,-0.008385606110095978
-0.007726750336587429,-0.0037325690500438213,-0.004903698340058327,0.00951689574867487,-0.0,-0.008868126198649406
-0.008843138813972473,-0.003565534483641386,-0.00527628930285573,0.010409747250378132,-0.0,-0.008424317464232445
-0.008152773603796959,-0.0036864501889795065,-0.0049865227192640305,0.009562951512634754,-0.0,-0.008421048521995544
-0.007898706942796707,-0.0034024661872535944,-0.004789427388459444,0.009418688714504242,-0.0,-0.008486378006637096
-0.008213936351239681,-0.003541301703080535,-0.0046356250531971455,0.010593105107545853,-0.0,-0.008454653434455395
-0.00831805169582367,-0.0037351346109062433,-0.005013381130993366,0.01008631568402052,-0.0,-0.008190704509615898
-0.008274683728814125,-0.0038051328156143427,-0.005119021981954575,0.009535574354231358,-0.0,-0.008161437697708607
-0.00785235408693552,-0.0038371968548744917,-0.004905075300484896,0.009634933434426785,-0.0,-0.008829266764223576
-0.008127137087285519,-0.0038351682014763355,-0.0051119024865329266,0.009377403184771538,-0.0,-0.008387880399823189
-0.00808327179402113,-0.0038567890878766775,-0.004554747603833675,0.00972314178943634,-0.0,-0.008379640989005566
-0.008736935444176197,-0.004223974421620369,-0.004547396209090948,0.009277347475290298,-0.0,-0.008055796846747398
-0.008023339323699474,-0.003938435111194849,-0.005238213576376438,0.00893041305243969,-0.0,-0.00819696020334959
-0.008001300506293774,-0.0038613849319517612,-0.005191938020288944,0.009359126910567284,-0.0,-0.007845745421946049
-0.008083452470600605,-0.0038779545575380325,-0.005170975811779499,0.009344622492790222,-0.0,-0.007922396995127201
-0.008298472501337528,-0.003907192498445511,-0.00485162204131484,0.008984229527413845,-0.0,-0.008069425821304321
-0.008674431592226028,-0.004249313846230507,-0.004753969609737396,0.009378524497151375,-0.0,-0.008114131167531013
-0.008037321269512177,-0.0043228426948189735,-0.005219324491918087,0.00923315342515707,-0.0,-0.008370720781385899
-0.007867732085287571,-0.0042857942171394825,-0.005720878019928932,0.008909950032830238,-0.0,-0.008131084032356739
-0.007867732085287571,-0.0042857942171394825,-0.005720878019928932,0.008909950032830238,-0.0,-0.008131084032356739
-0.008034013211727142,-0.003991014324128628,-0.006095444317907095,0.009114932268857956,-0.0,-0.008194348774850368
-0.008009848184883595,-0.0037576775066554546,-0.0053339553996920586,0.0091724107041955,-0.0,-0.008082155138254166
-0.008189388550817966,-0.0038296752609312534,-0.0052025532349944115,0.009438473731279373,-0.0,-0.00861627422273159
-0.008629316464066505,-0.00445181829854846,-0.004902953281998634,0.009578307159245014,-0.0,-0.008714052848517895
-0.008004388771951199,-0.004600741434842348,-0.004936673678457737,0.009225258603692055,-0.0,-0.00875120796263218
-0.007533427327871323,-0.004856335464864969,-0.0053328583016991615,0.00911649875342846,-0.0,-0.008558344095945358
-0.007632079534232616,-0.004346554167568684,-0.005547058302909136,0.009129757061600685,-0.0,-0.00796709954738617
-0.007688240148127079,-0.004219599533826113,-0.00507117947563529,0.009422960691154003,-0.0,-0.00841409433633089
-0.007405559532344341,-0.004175025969743729,-0.004774266853928566,0.009217515587806702,-0.0,-0.008469930849969387
-0.007319026160985231,-0.004885904956609011,-0.005050485488027334,0.008772593922913074,-0.0,-0.008565295487642288
-0.007371123414486647,-0.004901619162410498,-0.0051361676305532455,0.009432044811546803,-0.0,-0.008028033189475536
-0.007887533865869045,-0.004453157540410757,-0.005266397260129452,0.009390262886881828,-0.0,-0.008054670877754688
-0.0073134200647473335,-0.004502993542701006,-0.004987197928130627,0.00926984567195177,-0.0,-0.008685055188834667
-0.006959360558539629,-0.005119008012115955,-0.005332747474312782,0.009252561256289482,-0.0,-0.008725933730602264
-0.007251315750181675,-0.004505877383053303,-0.0050825257785618305,0.009404347278177738,-0.0,-0.008856432512402534
-0.007981846109032631,-0.004556476604193449,-0.004806198179721832,0.00876906793564558,-0.0,-0.008478393778204918
-0.007509792223572731,-0.004659264348447323,-0.005072319880127907,0.009521122090518475,-0.0,-0.008536648005247116
-0.007146802265197039,-0.004991485271602869,-0.005437385756522417,0.009315538220107555,-0.0,-0.008796741254627705
-0.007460709195584059,-0.0049090818502008915,-0.005053550470620394,0.008745808154344559,-0.0,-0.008590213023126125
-0.008344978094100952,-0.004707399755716324,-0.004999168217182159,0.008757634088397026,-0.0,-0.008465207181870937
-0.008239222690463066,-0.004544808063656092,-0.0048295254819095135,0.009889842942357063,-0.0,-0.008410651236772537
-0.007649318780750036,-0.004656380973756313,-0.004690836183726788,0.008780802600085735,-0.0,-0.008588891476392746
-0.00768529437482357,-0.004690519999712706,-0.005168579518795013,0.008529569022357464,-0.0,-0.008506656624376774
-0.007998059503734112,-0.00471634604036808,-0.005224770400673151,0.009117655456066132,-0.0,-0.008157496340572834
-0.00826844573020935,-0.0047415755689144135,-0.004834536463022232,0.009096031077206135,-0.0,-0.008181854151189327
-0.008673048578202724,-0.004716197028756142,-0.004618810024112463,0.01051313802599907,-0.0,-0.008412308990955353
-0.008038168773055077,-0.004574855789542198,-0.004624346736818552,0.009245328605175018,-0.0,-0.008514274843037128
-0.007876614108681679,-0.004732424858957529,-0.005236906465142965,0.008318956941366196,-0.0,-0.008256008848547935
-0.007674702908843756,-0.005201370920985937,-0.005538051016628742,0.008856582455337048,-0.0,-0.008060500025749207
-0.008002695627510548,-0.0049401517026126385,-0.005027522332966328,0.009272627532482147,-0.0,-0.008592693135142326
-0.007809585426002741,-0.005022699479013681,-0.004868511576205492,0.00888923741877079,-0.0,-0.008547673001885414
-0.008173293434083462,-0.005298652220517397,-0.004921420011669397,0.008770566433668137,-0.0,-0.008455251343548298
-0.007968471385538578,-0.004651705734431744,-0.00481748441234231,0.00936304684728384,-0.0,-0.008164932951331139
-0.007968471385538578,-0.004651705734431744,-0.00481748441234231,0.00936304684728384,-0.0,-0.008164932951331139
-0.008388224057853222,-0.005143433343619108,-0.004832945764064789,0.009148321114480495,-0.0,-0.008366113528609276
-0.007914021611213684,-0.00509596336632967,-0.005177661310881376,0.008769875392317772,-0.0,-0.008052384480834007
-0.007417950313538313,-0.004963550250977278,-0.0050070746801793575,0.009011471644043922,-0.0,-0.008783414028584957
-0.00780223635956645,-0.0050832671113312244,-0.0050811767578125,0.00910409726202488,-0.0,-0.008718924596905708
-0.00755346892401576,-0.004859771579504013,-0.00485669169574976,0.0085769547149539,-0.0,-0.008227068930864334
-0.007423299364745617,-0.0047341519966721535,-0.004374869167804718,0.008536824956536293,-0.0,-0.008323492482304573
-0.007452293764799833,-0.004869969096034765,-0.004563449881970882,0.008875399827957153,-0.0,-0.007912155240774155
-0.007493035402148962,-0.005132054444402456,-0.0051062703132629395,0.008478615432977676,-0.0,-0.007522035855799913
-0.007763875648379326,-0.005208066198974848,-0.0049357363022863865,0.008333435282111168,-0.0,-0.008136873133480549
-0.007323760073632002,-0.005538794677704573,-0.004771791398525238,0.008399322628974915,-0.0,-0.008215226233005524
-0.007325914688408375,-0.005302586127072573,-0.005090202204883099,0.008275552652776241,-0.0,-0.008232220076024532
-0.008270886726677418,-0.00500976899638772,-0.004888809751719236,0.008098047226667404,-0.0,-0.008237111382186413
-0.007556819822639227,-0.0058087934739887714,-0.004890223499387503,0.008292393758893013,-0.0,-0.00824409443885088
-0.007285206113010645,-0.005299643613398075,-0.005313285626471043,0.008297068066895008,-0.0,-0.007744409143924713
-0.007222451735287905,-0.005485443398356438,-0.005341420881450176,0.00819208100438118,-0.0,-0.008062444627285004
-0.008126511238515377,-0.0052297902293503284,-0.0045885611325502396,0.008417711593210697,-0.0,-0.007825277745723724
-0.007096100598573685,-0.005464456044137478,-0.0050515481270849705,0.008346572518348694,-0.0,-0.008347075432538986
-0.007358531933277845,-0.005322818644344807,-0.0051989625208079815,0.008036141283810139,-0.0,-0.008319246582686901
-0.007787394803017378,-0.005770418792963028,-0.005115901120007038,0.008853578008711338,-0.0,-0.008295921608805656
-0.0075131915509700775,-0.005302674602717161,-0.005187390372157097,0.008337222971022129,-0.0,-0.007746403571218252
-0.007387548219412565,-0.005024189595133066,-0.00490582175552845,0.008225741796195507,-0.0,-0.007529271766543388
-0.0074476017616689205,-0.0049990820698440075,-0.004738887306302786,0.00864391215145588,-0.0,-0.007408955134451389
-0.007790151052176952,-0.005051743239164352,-0.004860087763518095,0.008724087849259377,-0.0,-0.008001139387488365
-0.007790151052176952,-0.005051743239164352,-0.004860087763518095,0.008724087849259377,-0.0,-0.008001139387488365
-0.007854832336306572,-0.005123001057654619,-0.004807681310921907,0.008286543190479279,-0.0,-0.007621294818818569
-0.006970833986997604,-0.00526927737519145,-0.004940020851790905,0.00823945365846157,-0.0,-0.007965611293911934
-0.00694860378280282,-0.005153350997716188,-0.005233490839600563,0.008299997076392174,-0.0,-0.008193365298211575
-0.007313122972846031,-0.005259933415800333,-0.0049547734670341015,0.008359729312360287,-0.0,-0.008387723006308079
-0.007264797110110521,-0.005057530011981726,-0.004729006439447403,0.008064302615821362,-0.0,-0.008074772544205189
-0.0067803505808115005,-0.0038414683658629656,-0.00448964536190033,0.007653552573174238,-0.0,-0.007846676744520664
-0.006702597718685865,-0.003136810613796115,-0.004888863302767277,0.007934115827083588,-0.0,-0.007953829132020473
-0.0068226526491343975,-0.0027088390197604895,-0.005432894453406334,0.008312182500958443,-0.0,-0.007498879451304674
-0.00724650826305151,-0.0029506878927350044,-0.00497630937024951,0.008544166572391987,-0.0,-0.007810299750417471
-0.006692258641123772,-0.0034846984781324863,-0.0046265930868685246,0.007925099693238735,-0.0,-0.007731333840638399
-0.006429995410144329,-0.003728411393240094,-0.004645767156034708,0.008178533986210823,-0.0,-0.008096469566226006
-0.006507791578769684,-0.003665915923193097,-0.00460810074582696,0.008238190785050392,-0.0,-0.007741186767816544
-0.007190093398094177,-0.0032355196308344603,-0.004177886992692947,0.008126191794872284,-0.0,-0.008162837475538254
-0.006786995101720095,-0.002915303222835064,-0.0042605833150446415,0.008358790539205074,-0.0,-0.008031192235648632
-0.007138001266866922,-0.002697103191167116,-0.004728499799966812,0.00811256654560566,-0.0,-0.007644001394510269
-0.006408868357539177,-0.0030002871062606573,-0.004280359484255314,0.008042934350669384,-0.0,-0.007489542011171579
-0.0065261078998446465,-0.003306862199679017,-0.004489869344979525,0.007869111374020576,-0.0,-0.007689398713409901
-0.006984859239310026,-0.003201133804395795,-0.004550453741103411,0.008604243397712708,-0.0,-0.008149404078722
-0.0073059857822954655,-0.003061599563807249,-0.0043443613685667515,0.0085399579256773,-0.0,-0.008310756646096706
-0.006160642020404339,-0.0032012101728469133,-0.003994932863861322,0.007911842316389084,-0.0,-0.008023233152925968
-0.006101415492594242,-0.002898063510656357,-0.00414400827139616,0.008072885684669018,-0.0,-0.007620175834745169
-0.0069430312141776085,-0.0030765337869524956,-0.004152094479650259,0.008073119446635246,-0.0,-0.00807163305580616
-0.006563675124198198,-0.002900253050029278,-0.004068464040756226,0.00828377716243267,-0.0,-0.007383458316326141
-0.006190100684762001,-0.0027365069836378098,-0.004022373352199793,0.008309491910040379,-0.0,-0.00764826126396656
-0.0065808105282485485,-0.002936834469437599,-0.004012684337794781,0.008437784388661385,-0.0,-0.007531951647251844
-0.006733321119099855,-0.002909355331212282,-0.003957809880375862,0.008278101682662964,-0.0,-0.007222734857350588
-0.006861599162220955,-0.0029839021153748035,-0.004394359886646271,0.00830099917948246,-0.0,-0.007148043718189001
-0.006691350135952234,-0.0028722102288156748,-0.004794533364474773,0.008404611609876156,-3.197489149897592e-06,-0.007528116926550865
-0.00593750411644578,-0.0028970083221793175,-0.004491840489208698,0.00834083091467619,-2.0877318718248716e-07,-0.007633705157786608
-0.00593750411644578,-0.0028970083221793175,-0.004491840489208698,0.00834083091467619,-2.0877318718248716e-07,-0.007633705157786608
-0.006459320895373821,-0.0031075719743967056,-0.004009739495813847,0.008190962485969067,-1.3631397344227025e-08,-0.0075362129136919975
-0.006711501162499189,-0.0031079130712896585,-0.004072003997862339,0.00789965596050024,-8.900327697070054e-10,-0.007497044280171394
-0.00616967910900712,-0.003049199003726244,-0.0046181390061974525,0.007480510510504246,-5.811277847822538e-11,-0.007142959162592888
-0.0062908572144806385,-0.0028932925779372454,-0.00426456518471241,0.007446438539773226,-3.794349383301476e-12,-0.007906362414360046
-0.00619787722826004,-0.00292087160050869,-0.0044310493394732475,0.007587973959743977,-2.4774390980537853e-13,-0.007967731915414333
-0.0061202445067465305,-0.0029864541720598936,-0.0046624974347651005,0.007664413657039404,-1.6175908472393884e-14,-0.007640652358531952
-0.006572869140654802,-0.0029344847425818443,-0.0045647164806723595,0.008138072676956654,-1.0561712052828995e-15,-0.007719703018665314
-0.006157018709927797,-0.002815309911966324,-0.004435017704963684,0.007825256325304508,-6.896043301199021e-17,-0.00759464455768466
-0.005905593745410442,-0.002886516973376274,-0.0048516178503632545,0.007582566700875759,-4.502623247582866e-18,-0.007188634481281042
-0.006514448206871748,-0.0030773933976888657,-0.004456323105841875,0.007591096684336662,-2.939890886880841e-19,-0.007068045437335968
-0.005985808093100786,-0.0031901586335152388,-0.004511650651693344,0.007884846068918705,-1.919538688943077e-20,-0.007100189104676247
-0.006000221241265535,-0.0033818979281932116,-0.0043829926289618015,0.007735214661806822,-1.2533217084533823e-21,-0.007272663060575724
-0.006194763351231813,-0.0031630839221179485,-0.004399046301841736,0.0074599687941372395,-8.183295300875755e-23,-0.007491217460483313
-0.005795449949800968,-0.002795417094603181,-0.004358779173344374,0.007901372388005257,-5.343107555647073e-24,-0.007329626940190792
-0.006285801995545626,-0.002991826506331563,-0.004499746952205896,0.007914206944406033,-3.4886670954155535e-25,-0.007447985000908375
-0.006082918494939804,-0.0030920226126909256,-0.0046308403834700584,0.00799762737005949,-2.277850500893249e-26,-0.007754129357635975
-0.005991630721837282,-0.0031082069035619497,-0.00470398785546422,0.007622899487614632,-1.4872734957952909e-27,-0.007370540406554937
-0.006399788893759251,-0.003369657788425684,-0.004678029101341963,0.008049242198467255,-9.710832483916962e-29,-0.006564181763678789
-0.005714343395084143,-0.003043609205633402,-0.0050977380014956,0.007737334351986647,-6.340479606753435e-30,-0.006987407803535461
-0.006051073782145977,-0.0030245138332247734,-0.004756110720336437,0.007621385157108307,-4.139880455008429e-31,-0.006854666396975517
-0.0057390183210372925,-0.0029680782463401556,-0.004993923008441925,0.007665958255529404,-2.7030460271063854e-32,-0.00749060558155179
-0.0059942081570625305,-0.0032813039142638445,-0.0047645955346524715,0.0072112297639250755,-1.1523508874355121e-34,-0.0075125740841031075
-0.00536509370431304,-0.0029513880144804716,-0.005064554046839476,0.007081408519297838,-7.52402839036319e-36,-0.007168193813413382
-0.005881554912775755,-0.0030447894241660833,-0.00545019144192338,0.007242688909173012,-4.9126528743630746e-37,-0.006835275329649448
-0.0055136000737547874,-0.003067248035222292,-0.0049358452670276165,0.007831741124391556,-3.2076114211965074e-38,-0.006444895640015602
-0.005823303014039993,-0.0029174634255468845,-0.004891370423138142,0.007491947617381811,-2.0943414484228705e-39,-0.006777353119105101
-0.0054045384749770164,-0.003116841893643141,-0.0054321554489433765,0.007121942471712828,-1.3674571064113727e-40,-0.006959901191294193
-0.0054045384749770164,-0.003116841893643141,-0.0054321554489433765,0.007121942471712828,-1.3674571064113727e-40,-0.006959901191294193
-0.00531561067327857,-0.0031517103780061007,-0.005120931193232536,0.007288583554327488,-8.929073814677734e-42,-0.00742673734202981
-0.005508036818355322,-0.002570296870544553,-0.005437979009002447,0.00772804906591773,7.44984281482175e-05,-0.007091444917023182
-0.005590330343693495,-0.002561586908996105,-0.005300820339471102,0.007321461569517851,0.0001365892094327137,-0.007243195548653603
-0.005720396991819143,-0.0027087253984063864,-0.004980810917913914,0.007018345408141613,0.00013664294965565205,-0.006816901732236147
-0.005189875140786171,-0.003097046632319689,-0.005011710338294506,0.00690561393275857,0.00013288234185893089,-0.006945300381630659
-0.005284295417368412,-0.003087592776864767,-0.0049842726439237595,0.0074388752691447735,0.00014821278455201536,-0.006846178788691759
-0.00538895046338439,-0.0029464317485690117,-0.004973926581442356,0.007567302789539099,0.00015015006647445261,-0.006967672146856785
-0.005437628366053104,-0.003329372266307473,-0.0056075723841786385,0.006751449778676033,0.00014647305943071842,-0.007041337434202433
-0.005436301697045565,-0.0029969578608870506,-0.0051503852009773254,0.006724140606820583,0.0001426298840669915,-0.006820498500019312
-0.005469384137541056,-0.0030854265205562115,-0.004783126525580883,0.007221620995551348,0.00016056891763582826,-0.006557554472237825
-0.005166272167116404,-0.0030156122520565987,-0.004748501814901829,0.007354280911386013,0.00015795249782968313,-0.006205633748322725
-0.004884755704551935,-0.0029344637878239155,-0.004991484340280294,0.007210616022348404,0.00015417874965351075,-0.0062536513432860374
-0.005307434126734734,-0.0028462286572903395,-0.004751847591251135,0.007039827760308981,0.00015050673391669989,-0.006905911024659872
-0.0052518998272717,-0.0030557820573449135,-0.004897011909633875,0.0073874276131391525,0.0001625600561965257,-0.006872850004583597
-0.005223977845162153,-0.003194978926330805,-0.004930335562676191,0.007125466130673885,0.00016380417218897492,-0.006335298530757427
-0.005300883669406176,-0.0030203028582036495,-0.004754946567118168,0.007260079495608807,0.00016047587268985808,-0.006502015050500631
-0.004950122442096472,-0.0029309040401130915,-0.004459637217223644,0.006931377109140158,0.00015699784853495657,-0.006711897440254688
-0.004976452793926001,-0.0027444392908364534,-0.004701170604676008,0.007122039794921875,0.00026306239305995405,-0.006704253610223532
-0.005603875033557415,-0.002916014986112714,-0.004864094778895378,0.007333748508244753,0.0002632484829518944,-0.006887099705636501
-0.005747795570641756,-0.003043807577341795,-0.0048288619145751,0.007324048783630133,0.0002496578963473439,-0.006665412336587906
-0.005600340664386749,-0.0032574471551924944,-0.0051760305650532246,0.0074088480323553085,0.00023659331782255322,-0.006681682076305151
-0.004971428774297237,-0.0031053093262016773,-0.004937068559229374,0.007790828589349985,0.0002666366926860064,-0.006694807671010494
-0.005313817877322435,-0.0029942074324935675,-0.004277285188436508,0.006836579646915197,0.00024521368322893977,-0.006668890826404095
-0.0051018837839365005,-0.0029892446473240852,-0.004396554082632065,0.0066396696493029594,0.00023455604969058186,-0.0064410436898469925
-0.005253111477941275,-0.002944504376500845,-0.004958742763847113,0.006881829351186752,0.00025725900195539,-0.00678121205419302
-0.005253111477941275,-0.002944504376500845,-0.004958742763847113,0.006881829351186752,0.00025725900195539,-0.00678121205419302
-0.005254906136542559,-0.0029428289271891117,-0.004963534884154797,0.0071520558558404446,0.000242088659433648,-0.00731201097369194
-0.0049715726636350155,-0.002734855283051729,-0.0050612157210707664,0.006616982631385326,0.00023314690042752773,-0.006493792869150639
-0.00479393033310771,-0.002683895407244563,-0.004502801224589348,0.006548507604748011,0.00025476652081124485,-0.006369751412421465
-0.004727958235889673,-0.0026925932615995407,-0.004567631520330906,0.0071412343531847,0.00024794827913865447,-0.006037845276296139
-0.00541313923895359,-0.0027739861980080605,-0.004757155664265156,0.0069905733689665794,0.00023981578124221414,-0.006432961672544479
-0.005130303557962179,-0.002461021300405264,-0.0050399526953697205,0.006649273447692394,0.00027199400938116014,-0.006722659338265657
-0.005130303557962179,-0.002461021300405264,-0.0050399526953697205,0.006649273447692394,0.00027199400938116014,-0.006722659338265657
-0.0048155998811125755,-0.002493839943781495,-0.004947998560965061,0.006494532339274883,0.00026908263680525124,-0.006148121319711208
-0.00470160273835063,-0.002565028378739953,-0.004542643669992685,0.007010424509644508,0.00029225164325907826,-0.005813711788505316
-0.004592339973896742,-0.00275557697750628,-0.004124252125620842,0.007327020633965731,0.0002884726563934237,-0.00599589804187417
-0.004702254664152861,-0.002591610187664628,-0.004782551899552345,0.007106732577085495,0.00027457476244308054,-0.006479492411017418
-0.004721321631222963,-0.002587543334811926,-0.00486740143969655,0.006484663113951683,0.0003018963907379657,-0.00635341415181756
-0.004952347371727228,-0.0023485750425606966,-0.00450091203674674,0.006797226145863533,0.0002906201407313347,-0.006162261124700308
-0.004937090445309877,-0.002449627500027418,-0.0045701926574110985,0.006928763817995787,0.0003149606054648757,-0.005765609443187714
-0.0047580827958881855,-0.002670655958354473,-0.005044317338615656,0.007273848634213209,0.00030445909942500293,-0.005807362962514162
-0.0046371896751224995,-0.002837524050846696,-0.004871788434684277,0.006843492388725281,0.0004609804891515523,-0.006412505637854338
-0.004669445101171732,-0.0026426855474710464,-0.004441319033503532,0.006352405529469252,0.00042931115604005754,-0.006239595357328653
-0.004911452066153288,-0.002603121567517519,-0.004490202758461237,0.007037467323243618,0.00046552318963222206,-0.006075316108763218
-0.004890375304967165,-0.002660325961187482,-0.004648364614695311,0.007003232836723328,0.00043299890239723027,-0.0060084243305027485
-0.004614968318492174,-0.0025060190819203854,-0.004783102311193943,0.006699638906866312,0.00040112444548867643,-0.006001209374517202
-0.0045970589853823185,-0.0026996033266186714,-0.004777846857905388,0.006379365921020508,0.0004312429518904537,-0.006099519319832325
-0.004639395512640476,-0.0028450731188058853,-0.004500061739236116,0.006713556591421366,0.0004071467847097665,-0.006171884946525097
-0.004165394697338343,-0.0027647113893181086,-0.004193035885691643,0.006966857705265284,0.00038265198236331344,-0.006090802606195211
-0.0050125401467084885,-0.002741463715210557,-0.00468939496204257,0.006669635884463787,0.0003894924302585423,-0.005691102240234613
-0.004478548653423786,-0.002529254648834467,-0.004715328570455313,0.006466330960392952,0.0003698758373502642,-0.006265928037464619
-0.0044341241009533405,-0.0025989271234720945,-0.0046762204729020596,0.00673616211861372,0.00035182363353669643,-0.006093903444707394
-0.004160606302320957,-0.00271039386279881,-0.004671227652579546,0.006556933280080557,0.0003484685148578137,-0.006068928632885218
-0.0042225997895002365,-0.0023912282194942236,-0.004541413392871618,0.0063375504687428474,0.00032605024171061814,-0.006367027293890715
-0.004609012044966221,-0.0025580250658094883,-0.004248773213475943,0.006188591942191124,0.00035674183163791895,-0.006590424105525017
-0.004739230033010244,-0.0027668254915624857,-0.0044285692274570465,0.0065497527830302715,0.0003413690719753504,-0.006482834927737713
-0.004933884833008051,-0.0025369124487042427,-0.004545262549072504,0.00675901910290122,0.00037137471372261643,-0.006230498198419809
-0.004933884833008051,-0.0025369124487042427,-0.004545262549072504,0.00675901910290122,0.00037137471372261643,-0.006230498198419809
-0.004380907863378525,-0.0025639603845775127,-0.004761064890772104,0.006344745866954327,0.00039107343764044344,-0.006262555718421936
-0.004134975373744965,-0.0023072424810379744,-0.004821318667382002,0.0058625228703022,0.00038219804991967976,-0.005593635141849518
-0.004137159790843725,-0.002231911290436983,-0.004780738148838282,0.006151836831122637,0.0005608117207884789,-0.005099452566355467
-0.00442760344594717,-0.002339004073292017,-0.004492668434977531,0.006261739879846573,0.0006226245313882828,-0.005831803195178509
-0.004200685769319534,-0.002296502934768796,-0.00441761314868927,0.006524499040096998,0.0005656711873598397,-0.006202496588230133
-0.004451076500117779,-0.0024285728577524424,-0.004885808564722538,0.006331622134894133,0.0005917130038142204,-0.005792161449790001
-0.004144692327827215,-0.002444462850689888,-0.004882337059825659,0.005933074746280909,0.0006027962081134319,-0.005798619706183672
-0.004434279166162014,-0.0023001062218099833,-0.004837834741920233,0.00597356678918004,0.0005728351534344256,-0.005420095752924681
-0.004324232693761587,-0.0023173897061496973,-0.005014002788811922,0.006607571616768837,0.0005359211354516447,-0.005763194523751736
-0.004186599515378475,-0.002487818244844675,-0.004753579385578632,0.006809263024479151,0.0005772999138571322,-0.005751000717282295
-0.004387672059237957,-0.00240137055516243,-0.004673143848776817,0.006366122979670763,0.0005936140078119934,-0.006105796433985233
-0.004224286414682865,-0.002260423731058836,-0.004530510865151882,0.006230834871530533,0.0005560414283536375,-0.006559970322996378
-0.004437240771949291,-0.0021578087471425533,-0.0048993974924087524,0.00591863039880991,0.0005836750497110188,-0.005853654816746712
-0.004815632943063974,-0.00219756574369967,-0.004988005850464106,0.006245558615773916,0.0005953850923106074,-0.005904094316065311
-0.004373264033347368,-0.002154082991182804,-0.004904275294393301,0.006503566633909941,0.0005663447664119303,-0.005548367276787758
-0.004159579053521156,-0.002323341555893421,-0.004682381171733141,0.006464946549385786,0.0006093283882364631,-0.005777142941951752
-0.0042192344553768635,-0.0023491978645324707,-0.0044625806622207165,0.0061891814693808556,0.0006178001058287919,-0.005793435964733362
-0.004357866942882538,-0.0021909589413553476,-0.00455852784216404,0.006267397664487362,0.0005993425729684532,-0.005745467729866505
-0.004091336391866207,-0.0022470944095402956,-0.004603492561727762,0.006454098504036665,0.0006084642955102026,-0.005758097395300865
-0.00437379302456975,-0.0021574103739112616,-0.004807017743587494,0.005692089907824993,0.0005821225931867957,-0.006224965211004019
-0.003987014293670654,-0.002303732791915536,-0.005139841232448816,0.00561845488846302,0.0005544542800635099,-0.005720330867916346
-0.004205126781016588,-0.0022160543594509363,-0.0048003410920500755,0.006063604261726141,0.0005988759803585708,-0.0053826309740543365
-0.004172598943114281,-0.002274107653647661,-0.0049325996078550816,0.006143234204500914,0.0005933091160841286,-0.005504076834768057
-0.0040166969411075115,-0.002205169526860118,-0.004954380448907614,0.006038178689777851,0.0005771368741989136,-0.0054948036558926105
-0.0035972334444522858,-0.0022447535302489996,-0.004818870220333338,0.0059944395907223225,0.0005993756931275129,-0.005138856824487448
-0.0035465238615870476,-0.002126776846125722,-0.004807161632925272,0.005745715461671352,0.0005952495848760009,-0.00488734757527709
-0.003964292351156473,-0.0020053095649927855,-0.005157355684787035,0.00605019461363554,0.0005826367414556444,-0.00477254344150424
-0.004233445040881634,-0.0018401986453682184,-0.005019594449549913,0.005950628314167261,0.0006038941792212427,-0.005511336959898472
-0.004054057877510786,-0.0019040398765355349,-0.00446727080270648,0.00584501214325428,0.0006454979884438217,-0.005487784277647734
-0.0034265972208231688,-0.0017892426112666726,-0.004932739771902561,0.005479717161506414,0.0006251779268495739,-0.00534004345536232
-0.00356116215698421,-0.0019923921208828688,-0.004867966286838055,0.005368945188820362,0.0006442246958613396,-0.004647812806069851
-0.00356116215698421,-0.0019923921208828688,-0.004867966286838055,0.005368945188820362,0.0006442246958613396,-0.004647812806069851
-0.0037519067991524935,-0.0018523256294429302,-0.0049860673025250435,0.005071646999567747,0.0006355672958306968,-0.0046507311053574085
-0.003765602596104145,-0.001949031138792634,-0.0049708448350429535,0.00603874446824193,0.0006231320439837873,-0.005111380480229855
-0.0037910030223429203,-0.0018040130380541086,-0.005116407293826342,0.005790970288217068,0.0007311361841857433,-0.005091455299407244
-0.0037671425379812717,-0.0019536891486495733,-0.005052216351032257,0.005713586695492268,0.0007593165501020849,-0.004625091794878244
-0.0038208698388189077,-0.0018168180249631405,-0.0047196582891047,0.005428378004580736,0.0007694516098126769,-0.005631905980408192
-0.0035139555111527443,-0.0019891331903636456,-0.004841117653995752,0.005297667812556028,0.0006976997829042375,-0.005758326966315508
-0.003443068126216531,-0.0018718511564657092,-0.00535397557541728,0.005531148053705692,0.0007121736998669803,-0.005800781771540642
-0.0036550117656588554,-0.001969879725947976,-0.005234783049672842,0.005679114256054163,0.0006996652809903026,-0.005256073083728552
-0.003845471888780594,-0.0018132854020223022,-0.004740194417536259,0.005628359038382769,0.0006487065693363547,-0.005550095811486244
-0.003396879881620407,-0.001726518734358251,-0.004641682840883732,0.005505172535777092,0.0006525826174765825,-0.005467504728585482
-0.0032520198728889227,-0.0017238932196050882,-0.004786670207977295,0.005156089551746845,0.0006048664799891412,-0.0053725047037005424
-0.0033239645417779684,-0.0017759809270501137,-0.00485330680385232,0.005291574168950319,0.0006118141463957727,-0.004939721431583166
-0.0034149412531405687,-0.0017868035938590765,-0.005209671333432198,0.005725674796849489,0.0005763465305790305,-0.00481894426047802
-0.0035970471799373627,-0.0020806908141821623,-0.005058136768639088,0.005345762241631746,0.0005944257718510926,-0.004874043166637421
-0.0037189945578575134,-0.0018669876735657454,-0.005181341897696257,0.005598701070994139,0.000557340623345226,-0.0053085265681147575
-0.0031236475333571434,-0.0016373355174437165,-0.00492134178057313,0.005245248321443796,0.0006398230907507241,-0.004896596074104309
-0.002955340314656496,-0.0015225046081468463,-0.004898981191217899,0.005062413867563009,0.0006644806126132607,-0.004508432932198048
-0.0030716070905327797,-0.0013880085898563266,-0.005015690810978413,0.00563847366720438,0.000646505388431251,-0.004683064296841621
-0.003196566365659237,-0.001428144401870668,-0.005052904598414898,0.005375297274440527,0.0006599390180781484,-0.004615374840795994
-0.0035150328185409307,-0.0016309513011947274,-0.005061374045908451,0.005316753406077623,0.0007682305295020342,-0.005003798753023148
-0.0035150328185409307,-0.0016309513011947274,-0.005061374045908451,0.005316753406077623,0.0007682305295020342,-0.005003798753023148
-0.0032555353827774525,-0.0014707512455061078,-0.004899596329778433,0.0053095147013664246,0.0009177405154332519,-0.005145119968801737
-0.0033620819449424744,-0.001521607395261526,-0.0050885058008134365,0.0053259823471307755,0.0009171576821245253,-0.004894356243312359
-0.0029720126185566187,-0.0015200990019366145,-0.005348397418856621,0.005177607759833336,0.0009457432315684855,-0.004735536407679319
-0.003032126696780324,-0.0013398375594988465,-0.005099744535982609,0.005162336863577366,0.0010027330135926604,-0.004702441859990358
-0.003032126696780324,-0.0013398375594988465,-0.005099744535982609,0.005162336863577366,0.0010027330135926604,-0.004702441859990358
-0.003185685258358717,-0.001292943605221808,-0.004918992519378662,0.005476785358041525,0.000990385771729052,-0.004449095577001572
-0.0033988237846642733,-0.0012313297484070063,-0.0051383329555392265,0.0050782011821866035,0.0009945520432665944,-0.004547283984720707
-0.003145398572087288,-0.0013413942651823163,-0.005000573582947254,0.005268014967441559,0.0010217453818768263,-0.004984401632100344
-0.002810318022966385,-0.0014574492815881968,-0.004841426853090525,0.0052728233858942986,0.0010040595661848783,-0.0050706262700259686
-0.002671557478606701,-0.0014063416747376323,-0.0053484393283724785,0.005365194287151098,0.0009507834911346436,-0.004443199839442968
-0.0025588409043848515,-0.0015709034632891417,-0.005205621011555195,0.005114367697387934,0.0008810485596768558,-0.0043909926898777485
-0.003185971174389124,-0.0014724929351359606,-0.005154137033969164,0.004942821338772774,0.0008791239815764129,-0.004596496932208538
-0.003351752646267414,-0.0013630313333123922,-0.004889394156634808,0.0047584641724824905,0.000915546203032136,-0.005022687371820211
-0.0030031809583306313,-0.0011616217670962214,-0.004600376356393099,0.0049568768590688705,0.0009553572745062411,-0.004656747914850712
-0.002692965092137456,-0.0008772055152803659,-0.005025598686188459,0.00515696220099926,0.0009667566628195345,-0.004512089770287275
-0.002528176410123706,-0.0007684321608394384,-0.005328463856130838,0.005119015462696552,0.0012626895913854241,-0.004478635732084513
-0.0024216612800955772,-0.0007483994122594595,-0.005272335838526487,0.004884486552327871,0.0013035242445766926,-0.0046440972946584225
-0.002751391613855958,-0.0007091357256285846,-0.005211590323597193,0.0048580109141767025,0.0012401834828779101,-0.0047728256322443485
-0.0026609862688928843,-0.0005162280285730958,-0.005019942298531532,0.004811448510736227,0.0011784385424107313,-0.004472027067095041
-0.0025477081071585417,-0.0005526691675186157,-0.0048006814904510975,0.004917633254081011,0.0010640114778652787,-0.004437030293047428
-0.002504068659618497,-0.0005861815297976136,-0.005160247907042503,0.004928467329591513,0.0009465626790188253,-0.004787317011505365
-0.0024159897584468126,-0.0005644381162710488,-0.0051146214827895164,0.004765843972563744,0.0009359848918393254,-0.00482658576220274
-0.002583069261163473,-0.0005236964207142591,-0.004781502299010754,0.004767904989421368,0.0008376036421395838,-0.005051030311733484
-0.002583069261163473,-0.0005236964207142591,-0.004781502299010754,0.004767904989421368,0.0008376036421395838,-0.005051030311733484
-0.0025215018540620804,-0.0006258664070628583,-0.004779069684445858,0.0047636753879487514,0.0008434648043476045,-0.004849715624004602
-0.002383098704740405,-0.0005660391761921346,-0.0048098075203597546,0.0045976764522492886,0.0008508021710440516,-0.00450145173817873
-0.0023634519893676043,-0.0005029829917475581,-0.005265017040073872,0.00448126345872879,0.0008589303470216691,-0.004583581350743771
-0.0024547649081796408,-0.00045239535393193364,-0.00548468017950654,0.0042556594125926495,0.001120908884331584,-0.004549980629235506
-0.002309113508090377,-0.00041105179116129875,-0.005065758712589741,0.00436572078615427,0.001097940606996417,-0.0046726856380701065
-0.002276237588375807,-0.00044879139750264585,-0.004814030136913061,0.0046064904890954494,0.0009682322270236909,-0.004778026137501001
-0.0021410996560007334,-0.0004170038446318358,-0.004761132411658764,0.004488798789680004,0.0009523119661025703,-0.004899532534182072
-0.0022472955752164125,-0.0003612362779676914,-0.0046140835620462894,0.004024931695312262,0.0010022162459790707,-0.0044852811843156815
-0.0022472955752164125,-0.0003612362779676914,-0.0046140835620462894,0.004024931695312262,0.0010022162459790707,-0.0044852811843156815
-0.00244030449539423,-0.00037549325497820973,-0.005031367298215628,0.004152454901486635,0.001021111267618835,-0.004554574843496084
-0.002418775809928775,-0.0003714410704560578,-0.005019739270210266,0.004434655886143446,0.0010573919862508774,-0.004519250709563494
-0.002251151716336608,-0.0003509880625642836,-0.00481925904750824,0.004518846981227398,0.0011279862374067307,-0.004294165410101414
-0.0020783469080924988,-0.0003743080305866897,-0.004714153241366148,0.004322967492043972,0.0011808281997218728,-0.00456582847982645
-0.0020412891171872616,-0.00036083738086745143,-0.004926353693008423,0.0040673729963600636,0.0010873907012864947,-0.004203140735626221
-0.002178642200306058,-0.0003436845145188272,-0.004940647166222334,0.003532345639541745,0.001158646889962256,-0.004173088353127241
-0.0021460489369928837,-0.0002952132490463555,-0.004802042618393898,0.0035145364236086607,0.001035127555951476,-0.003982027061283588
-0.002120921155437827,-0.0002734748995862901,-0.005272604059427977,0.003691986668854952,0.0010078978957608342,-0.003878662595525384
-0.0019940221682190895,-0.00029150425689294934,-0.005142419133335352,0.00418489146977663,0.0009837521938607097,-0.004312810488045216
-0.0019063253421336412,-0.00029230976360850036,-0.004845655057579279,0.004270200151950121,0.0008991120266728103,-0.004118136130273342
-0.0017342806095257401,-0.0002775103785097599,-0.0053022392094135284,0.003979300148785114,0.0008835552143864334,-0.004396532662212849
-0.001552808447740972,-0.0002639468584675342,-0.005258211866021156,0.0040389238856732845,0.0008521112613379955,-0.004180245101451874
-0.0016025740187615156,-0.0002886106085497886,-0.0049002510495483875,0.0042174397967755795,0.0008011013269424438,-0.0035393345169723034
-0.0015187662793323398,-0.00028044727514497936,-0.005264363717287779,0.00361015391536057,0.0008084627916105092,-0.0035008960403501987
-0.0016319176647812128,-0.0002685553045012057,-0.005163234192878008,0.003558308584615588,0.0007933348533697426,-0.003944085445255041
-0.001748348237015307,-0.00025757536059245467,-0.004839015658944845,0.0037016584537923336,0.0008329221163876355,-0.00422749063000083
-0.0009186344104819,-0.00023810521815903485,-0.0051627992652356625,0.004113236907869577,0.0008509728359058499,-0.0038246270269155502
-0.0009186344104819,-0.00023810521815903485,-0.0051627992652356625,0.004113236907869577,0.0008509728359058499,-0.0038246270269155502
0.00041797541780397296,-0.0002492662169970572,-0.005500315222889185,0.003479642327874899,0.0010122586973011494,-0.004143333528190851
0.00018212197755929083,-0.0002443569537717849,-0.005209029186517,0.0036862315610051155,0.0009450909565202892,-0.00417113583534956
2.4433988983219024e-06,-0.0002363822131883353,-0.004929902497678995,0.0037392741069197655,0.000875710102263838,-0.003990034572780132
3.278131543993368e-08,-0.00022886914666742086,-0.004962521139532328,0.003747682087123394,0.0008668987429700792,-0.003780022030696273
4.3980313835234597e-10,-0.00022181766689755023,-0.004954163450747728,0.0038584701251238585,0.0008333647274412215,-0.003709428710862994
5.900520523571817e-12,-0.00021518820722121745,-0.004882691893726587,0.00391692528501153,0.0008476992952637374,-0.00328709720633924
5.900520523571817e-12,-0.00021518820722121745,-0.004882691893726587,0.00391692528501153,0.0008476992952637374,-0.00328709720633924
1.062072695584657e-15,-0.00022028564126230776,-0.005020473152399063,0.0038399018812924623,0.0008771811844781041,-0.004118476063013077
1.062072695584657e-15,-0.00022028564126230776,-0.005020473152399063,0.0038399018812924623,0.0008771811844781041,-0.004118476063013077
1.4249059553952758e-17,-0.00021004003065172583,-0.005194611847400665,0.003382020629942417,0.0011772954603657126,-0.004174367990344763
1.911693236262181e-19,-0.00020067331206519157,-0.005030292551964521,0.0034091342240571976,0.0011447776341810822,-0.003915440756827593
2.5647801179714992e-21,-0.0001921060320455581,-0.004836205393075943,0.0032456431072205305,0.0010711686918511987,-0.003883158788084984
3.4409797141378447e-23,-0.00018424008158035576,-0.004784681368619204,0.0032063592225313187,0.000986300641670823,-0.0039139376021921635
4.616513611042645e-25,-0.00017699363525025547,-0.00561704533174634,0.003274237969890237,0.0008949475013650954,-0.0035984255373477936
6.193641634171655e-27,-0.00017029551963787526,-0.00546959089115262,0.0034859604202210903,0.0007615439244545996,-0.003608670551329851
8.309560763861051e-29,-0.00016408560622949153,-0.005223653744906187,0.0036570075899362564,0.0007724610040895641,-0.003688474651426077
1.1148335761051658e-30,-0.000189534985111095,-0.005011680070310831,0.003977329470217228,0.000780182599555701,-0.003733648918569088
1.495691518209792e-32,-0.00018351318431086838,-0.0051304190419614315,0.003656027838587761,0.0007799834129400551,-0.003762614680454135
2.0066611515272836e-34,-0.00017748697428032756,-0.005430401768535376,0.003533622482791543,0.0008109381305985153,-0.0037884339690208435
2.6921918288163682e-36,-0.00017183867748826742,-0.005519990809261799,0.0033986051566898823,0.0008416450000368059,-0.0034228551667183638
3.611919379057668e-38,-0.0001665392192080617,-0.005478911101818085,0.0034620792139321566,0.0009185175294987857,-0.00311568402685225
4.845844232466293e-40,-0.00016155671619344503,-0.0052747237496078014,0.0036896986421197653,0.0008807284175418317,-0.002797328634187579
6.502024874467151e-42,-0.0001568636071169749,-0.005323163233697414,0.0035792151466012,0.001187632093206048,-0.00266771437600255
8.688050478813866e-44,-0.00015243551752064377,-0.005386440083384514,0.0034727484453469515,0.00117601512465626,-0.002583286492154002
1.401298464324817e-45,-0.00014825083781033754,-0.0057083251886069775,0.0035897535271942616,0.001134323189035058,-0.0027675852179527283
0.0,-0.00014428951544687152,-0.005247293505817652,0.0037108955439180136,0.0010823598131537437,-0.0029616132378578186
0.0,-0.00013696988753508776,-0.005485074128955603,0.0033598383888602257,0.0010143703548237681,-0.003399674315005541
0.0,-0.0001335816050413996,-0.005556965712457895,0.003060821210965514,0.0009960235329344869,-0.003184930421411991
0.0,-0.00013035695883445442,-0.00579086085781455,0.0026624768506735563,0.0009533619740977883,-0.003016487695276737
0.0,-0.00012728446745313704,-0.006203529424965382,0.002484360244125128,0.000976973446086049,-0.002815539250150323
0.0,-0.00012435310054570436,-0.005440027918666601,0.0026024379767477512,0.0010437757009640336,-0.002998528303578496
0.0,-0.00012435310054570436,-0.005440027918666601,0.0026024379767477512,0.0010437757009640336,-0.002998528303578496
0.0,-0.00011887803702848032,-0.00559210404753685,0.0033599885646253824,0.001160266692750156,-0.002853562356904149
0.0,-0.00011887803702848032,-0.00559210404753685,0.0033599885646253824,0.001160266692750156,-0.002853562356904149
0.0,-0.00011631751112872735,-0.006045641843229532,0.0035507050342857838,0.0011237076250836253,-0.002660354133695364
0.0,-0.00011386501137167215,-0.00569535605609417,0.0032412020955234766,0.0010882437927648425,-0.0027463713195174932
0.0,-0.00011151351645821705,-0.005895798094570637,0.0029233223758637905,0.0010026177624240518,-0.0030341213569045067
0.0,-0.00010925724927801639,-0.005476693157106638,0.0028900017496198416,0.0010210585314780474,-0.0030865143053233624
0.0,-0.0001070906437234953,-0.005792057141661644,0.0028816494159400463,0.0010028776014223695,-0.002927528228610754
0.0,-0.00010500822827452794,-0.005326642654836178,0.0028428304940462112,0.0010210826294496655,-0.0029571675695478916
0.0,-0.00010300535359419882,-0.0063718874007463455,0.002698606811463833,0.0011060831602662802,-0.002718196017667651
0.0,-0.00010107720299856737,-0.006236497778445482,0.002953386167064309,0.0012105990899726748,-0.002645655535161495
0.0,-9.922002936946228e-05,-0.005893321707844734,0.003005754202604294,0.0012261617230251431,-0.002669158624485135
0.0,-9.742992551764473e-05,-0.005297312047332525,0.003477554302662611,0.0012633646838366985,-0.00269487826153636
0.0,-9.570333349984139e-05,-0.005848345346748829,0.0033377567306160927,0.0013370498782023787,-0.0025054223369807005
0.000282693566987291,-9.403670992469415e-05,-0.00639278395101428,0.0031242193654179573,0.0013073165901005268,-0.0026453568134456873
0.00032163402647711337,-9.242716623703018e-05,-0.006208194885402918,0.002926137298345566,0.0012023085728287697,-0.0028001912869513035
0.000309404858853668,-9.087183570954949e-05,-0.006000224966555834,0.0027297234628349543,0.0011754105798900127,-0.0031356108374893665
0.00029271451057866216,-8.936803351389244e-05,-0.00570399034768343,0.002537713386118412,0.0012163736391812563,-0.0027925854083150625
0.00027766270795837045,-8.791314758127555e-05,-0.005639281123876572,0.002607770496979356,0.0012300992384552956,-0.0027135894633829594
0.00030629499815404415,-8.650483505334705e-05,-0.0062463232316076756,0.0026602568104863167,0.0012318746885284781,-0.0023320806212723255
0.0002937075914815068,-8.514094952261075e-05,-0.005706405732780695,0.0024691354483366013,0.0012778445379808545,-0.002263000002130866
0.0003069949452765286,-8.253840496763587e-05,-0.005460198502987623,0.0024412255734205246,0.0014389801071956754,-0.0026762885972857475
0.00040131586138159037,-8.129570778692141e-05,-0.0057533918879926205,0.002416436094790697,0.0014116080710664392,-0.002734636887907982
0.0004171576874796301,-8.00900743342936e-05,-0.0058065140619874,0.0027114185504615307,0.0014660939341410995,-0.0027514551766216755
0.00045777991181239486,-7.891959830885753e-05,-0.006024554371833801,0.002920918632298708,0.0014419726794585586,-0.0026548015885055065
0.00045777991181239486,-7.891959830885753e-05,-0.006024554371833801,0.002920918632298708,0.0014419726794585586,-0.0026548015885055065
0.00045726721873506904,-6.407261389540508e-05,-0.005344499833881855,0.0026175854727625847,0.001362648676149547,-0.0025297219399362803
0.0004850093391723931,-6.300640234258026e-05,-0.0055199554190039635,0.0025083133950829506,0.0012692956952378154,-0.002672476228326559
0.0004583618720062077,-6.213416781974956e-05,-0.00613444996997714,0.002541756024584174,0.0012434936361387372,-0.0027729468420147896
0.0006208499544300139,-6.128793029347435e-05,-0.005761001259088516,0.0024732486344873905,0.0012629831908270717,-0.002644179854542017
0.0006208499544300139,-6.128793029347435e-05,-0.005761001259088516,0.0024732486344873905,0.0012629831908270717,-0.002644179854542017
0.0006562077323906124,-6.046444832463749e-05,-0.005658200476318598,0.0025653939228504896,0.0012032178929075599,-0.0025978796184062958
0.0006721687968820333,-5.966279422864318e-05,-0.005479156505316496,0.0025266865268349648,0.0012109200470149517,-0.0026472769677639008
0.0006743365665897727,-5.8882185840047896e-05,-0.005912892520427704,0.002369566122069955,0.0014249071246013045,-0.0025571747682988644
0.0006419125129468739,-5.812168456031941e-05,-0.00561292702332139,0.002149272942915559,0.0013710398925468326,-0.0025891046971082687
0.0008441004902124405,-5.738057370763272e-05,-0.005708659067749977,0.0020473762415349483,0.0013067214749753475,-0.0026284721679985523
0.0008591563091613352,-4.664733205572702e-05,-0.0060462201945483685,0.002060337457805872,0.001321813790127635,-0.00244457321241498
0.0007911477005109191,-3.741043838090263e-05,-0.005535801872611046,0.0020225553307682276,0.0012876164400950074,-0.0019954147282987833
0.0008022704278118908,-3.321138137835078e-05,-0.005793246440589428,0.0020391398575156927,0.001222792430780828,-0.0018891004147008061
0.0009211574797518551,2.122852674801834e-05,-0.005768447183072567,0.0019913087598979473,0.0011393126333132386,-0.0016942385118454695
0.0010243437718600035,2.7823396521853283e-05,-0.006189641542732716,0.0019008386880159378,0.0011873197508975863,-0.0015627907123416662
0.0010378728620707989,2.749135637714062e-05,-0.0058279517106711864,0.001817823387682438,0.001194074866361916,-0.0016073513543233275
0.0011438102228567004,2.707903149712365e-05,-0.005630588158965111,0.001789044588804245,0.0012703841784968972,-0.0019915825687348843
0.0011231962125748396,2.667772423592396e-05,-0.005471402313560247,0.0018072205130010843,0.0013508097035810351,-0.0019320233259350061
0.0010847874218598008,2.6288114895578474e-05,-0.005891444627195597,0.001683250768110156,0.0013187079457566142,-0.002102349419146776
0.001057442743331194,2.5909723262884654e-05,-0.006232923828065395,0.0017640111036598682,0.0012628502445295453,-0.0018887637415900826
0.0010052297729998827,3.780424958677031e-05,-0.005879457574337721,0.0019707216415554285,0.0013116394402459264,-0.0015617691678926349
0.0009887453634291887,3.7770270864712074e-05,-0.005550190806388855,0.0018758343067020178,0.0012438329868018627,-0.0015015506651252508
0.0010649623582139611,4.8225901991827413e-05,-0.005518339574337006,0.0017461124807596207,0.0011900428216904402,-0.0014302792260423303
0.0013306315522640944,4.897892722510733e-05,-0.0057154190726578236,0.0016262433491647243,0.0011815258767455816,-0.001364853698760271
0.0014534625224769115,4.834019273403101e-05,-0.0063082752749323845,0.0015757541405037045,0.0012226542457938194,-0.0014449257869273424
0.0020937537774443626,4.7699959395686164e-05,-0.006069243419915438,0.0014283834025263786,0.001259691547602415,-0.001806690008379519
0.001973389647901058,5.808360583614558e-05,-0.00576185155659914,0.0014164972817525268,0.0013717407127842307,-0.0017980847042053938
0.0019293221412226558,5.740069900639355e-05,-0.006138539407402277,0.0015698322094976902,0.0012883779127150774,-0.0017278480809181929
0.0020704863127321005,0.00027104883338324726,-0.006107946392148733,0.001559079042635858,0.0011939824325963855,-0.0015482482267543674
0.0019080854253843427,0.000258404208580032,-0.005989639088511467,0.001474115764722228,0.0011800620704889297,-0.0013470407575368881
0.002173109445720911,0.0002444082056172192,-0.0058020795695483685,0.0015353483613580465,0.0011563379084691405,-0.0010627384763211012
0.002173109445720911,0.0002444082056172192,-0.0058020795695483685,0.0015353483613580465,0.0011563379084691405,-0.0010627384763211012
0.002533478895202279,0.0002318162878509611,-0.0053734672255814075,0.0014622715534642339,0.001250036177225411,-0.0010825837962329388
0.0024726372212171555,0.00026274489937350154,-0.005889605730772018,0.0016088697593659163,0.001305856043472886,-0.0010926041286438704
0.002720780670642853,0.0002521694405004382,-0.005896181333810091,0.0015018399571999907,0.0016418304294347763,-0.0013665268197655678
0.002844348084181547,0.0002805324038490653,-0.006299521774053574,0.0013994972687214613,0.0017674193950369954,-0.0014797024196013808
0.0029585573356598616,0.0002942969149444252,-0.005595571827143431,0.0013508356641978025,0.0018077411223202944,-0.0016181555110961199
0.0032318884041160345,0.0002947557659354061,-0.005690296180546284,0.001263708807528019,0.0018338571535423398,-0.0015221546636894345
0.0029693441465497017,0.00039097474655136466,-0.005533364601433277,0.001199066755361855,0.0016328543424606323,-0.001388788572512567
0.0032558117527514696,0.00040905518108047545,-0.0061974795535206795,0.0011359148193150759,0.0013572765747085214,-0.0012875922257080674
0.0034551050048321486,0.00042462546844035387,-0.006194902118295431,0.0011181412264704704,0.0013489520642906427,-0.0011205937480553985
0.0035017174668610096,0.000415672839153558,-0.0058567458763718605,0.0010817404836416245,0.0013352115638554096,-0.0008599887369200587
0.003689853474497795,0.00042831210885196924,-0.005957457702606916,0.0010777791030704975,0.0015051992377266288,-0.0008513354114256799
0.0034846910275518894,0.000420246651628986,-0.005550529807806015,0.0012288896832615137,0.00152462103869766,-0.0009159002220258117
0.003486531786620617,0.00043106594239361584,-0.0059366049244999886,0.0012010455830022693,0.0014857419300824404,-0.0009866830660030246
0.0039374795742332935,0.00042374629992991686,-0.00596648408100009,0.0011641639284789562,0.0015617568278685212,-0.0010694379452615976
0.004131176043301821,0.0005316140595823526,-0.005828083027154207,0.001099094282835722,0.0014831831213086843,-0.0011301825288683176
0.004005741328001022,0.0005552626098506153,-0.00604026997461915,0.0010705904569476843,0.001469903625547886,-0.0012159844627603889
0.004061774350702763,0.0005313576548360288,-0.005616398528218269,0.0010423054918646812,0.0014222412137314677,-0.0012561806943267584
0.003869818290695548,0.0005613954272121191,-0.00636640889570117,0.0010046180104836822,0.0013503851369023323,-0.001149177667684853
0.003948969300836325,0.0005833765608258545,-0.006816632114350796,0.0009150576079264283,0.001368490164168179,-0.0010351677192375064
0.0044616167433559895,0.0007276628166437149,-0.005840390454977751,0.0008204434998333454,0.0013505155220627785,-0.0008929691975936294
0.004653198178857565,0.0008260564063675702,-0.005896374117583036,0.0008264346979558468,0.0013289944035932422,-0.0007821390172466636
0.004713983274996281,0.0008370823925361037,-0.005892954766750336,0.0008275191648863256,0.0014931571204215288,-0.0006956132128834724
0.0051739695481956005,0.0007719766581431031,-0.006917805410921574,0.0007595788920298219,0.001588479964993894,-0.00064944161567837
0.005070791579782963,0.0009723964612931013,-0.0060045151039958,0.0007231781492009759,0.0015606759116053581,-0.0005968741024844348
0.005279723554849625,0.0009633582085371017,-0.006037850398570299,0.0006528734229505062,0.001612672465853393,-0.0005512232310138643
0.005364898592233658,0.0009547068038955331,-0.006130896043032408,0.0006700920639559627,0.0016898253234103322,-0.00046015766565687954
0.005135016981512308,0.0010346104390919209,-0.007126313168555498,0.0006079204613342881,0.0016082979273051023,-0.00037559765041805804
0.005135016981512308,0.0010346104390919209,-0.007126313168555498,0.0006079204613342881,0.0016082979273051023,-0.00037559765041805804
0.005320021416991949,0.0010769963264465332,-0.006584199145436287,0.0005471236654557288,0.0016226290026679635,-0.00034383535967208445
0.00550082279369235,0.001149677438661456,-0.0061937966383993626,0.0005736207822337747,0.001662554917857051,-0.0003192272561136633
0.0060371351428329945,0.0012304310221225023,-0.006268402095884085,0.0005303154466673732,0.0018106914358213544,-0.00029805561644025147
0.005586334504187107,0.0012432491639629006,-0.005997035652399063,0.00054973951773718,0.0018350871978327632,-0.00033154376433230937
0.005774646066129208,0.0012935029808431864,-0.006355698686093092,0.0005183756002224982,0.002139064949005842,-0.00035433308221399784
0.006518013775348663,0.0012871543876826763,-0.006207907106727362,0.00048726191744208336,0.002007086295634508,-0.0003471565432846546
0.00626160716637969,0.0013924185186624527,-0.00634228577837348,0.0004399566969368607,0.0021163607016205788,-0.00037057395093142986
0.006337650120258331,0.0013461594935506582,-0.0061222342774271965,0.000400752411223948,0.0018956991843879223,-0.000357790820999071
0.006264131050556898,0.0014838880160823464,-0.006496455520391464,0.00042192605906166136,0.0018422662978991866,-0.0003411993384361267
0.006207753904163837,0.0015729190781712532,-0.006202616263180971,0.0004068603739142418,0.0018371541518718004,-0.0003833311202470213
0.006360246799886227,0.0019071081187576056,-0.006032190285623074,0.0003793569339904934,0.001867648446932435,-0.0003712882462423295
0.00671221362426877,0.00173817144241184,-0.006523955147713423,0.0003545079962350428,0.0018655905732885003,-0.000344158208463341
0.006612896919250488,0.0017518897075206041,-0.006121539976447821,0.00033266289392486215,0.001914761494845152,-0.0003197702462784946
0.00599699979647994,0.0017633901443332434,-0.006363601889461279,0.00031334938830696046,0.001901524607092142,-0.0002985465107485652
0.006459427997469902,0.0016687726601958275,-0.006599795538932085,0.00029615763924084604,0.0017902449471876025,-0.0002799637441057712
0.006807600148022175,0.0018486538901925087,-0.006449087522923946,0.00030358179355971515,0.001636117696762085,-0.00026355902082286775
0.00715284189209342,0.0017634385731071234,-0.006162879057228565,0.00030978978611528873,0.0015408563194796443,-0.00024897046387195587
0.00692455330863595,0.0020500952377915382,-0.006376075092703104,0.00029658505809493363,0.0014407953713089228,-0.00023591311764903367
0.0075262547470629215,0.0022732324432581663,-0.006463918369263411,0.0002833338512573391,0.0014448241563513875,-0.0002241582260467112
0.007724863477051258,0.002210831269621849,-0.006465172860771418,0.0002711429260671139,0.0014605093747377396,-0.00021351892792154104
0.007013934664428234,0.002131418325006962,-0.006505691912025213,0.0002599530853331089,0.0015487095806747675,-0.00020384449453558773
0.0070080324076116085,0.002047612564638257,-0.0063707479275763035,0.0002496497763786465,0.0014913533814251423,-0.00019500820781104267
0.007387313526123762,0.0019825948402285576,-0.006549350917339325,0.00024013269285205752,0.0016066668322309852,-0.00018690766592044383
0.007707318291068077,0.0022789405193179846,-0.0065758246928453445,0.00022312176588457078,0.0016154779586941004,-0.00017256932915188372
0.00745956739410758,0.0027491848450154066,-0.006505122873932123,0.00021548864606302232,0.0016802378231659532,-0.00016619534289930016
0.008035431616008282,0.00347743253223598,-0.005643636919558048,0.00020836066687479615,0.0018995540449395776,-0.00016027496894821525
0.00793038122355938,0.0031248300801962614,-0.00592661090195179,0.00011307305976515636,0.001942044124007225,-0.0001547620922792703
0.007868449203670025,0.0028603968676179647,-0.006472725886851549,8.048462041188031e-05,0.001954552950337529,-0.00014961636043153703
0.007868449203670025,0.0028603968676179647,-0.006472725886851549,8.048462041188031e-05,0.001954552950337529,-0.00014961636043153703
0.0074105276726186275,0.0025886069051921368,-0.007044419180601835,7.531284791184589e-05,0.001945108757354319,-0.00011779480701079592
0.008093908429145813,0.0025420759338885546,-0.006349070928990841,7.217445090645924e-05,0.0019797279965132475,-0.00011235697456868365
0.008250576443970203,0.002866749418899417,-0.0056900642812252045,6.938405567780137e-05,0.0018467378104105592,-0.00010884432413149625
0.008163796737790108,0.0032458414789289236,-0.007006320636719465,6.680808292003348e-05,0.0017464192351326346,-0.00010564292460912839
0.007669278420507908,0.003215692937374115,-0.006642935331910849,6.441671575885266e-05,0.0017174957320094109,-0.00010263018339173868
0.008705328218638897,0.0034223494585603476,-0.006319059059023857,6.219073839019984e-05,0.001608880702406168,-8.75368423294276e-05
0.008600519970059395,0.0037312950007617474,-0.006372515112161636,6.011368168401532e-05,0.0016631392063573003,-7.364957127720118e-05
0.00836323481053114,0.0039961026050150394,-0.005850822664797306,5.817074634251185e-05,0.0016359034925699234,-7.096191984601319e-05
0.008820895105600357,0.003517457749694586,-0.006757825147360563,5.634957051370293e-05,0.0018382469424977899,-6.909678631927818e-05
0.00933787226676941,0.0035884601529687643,-0.006461135111749172,5.4638981964671984e-05,0.0019529230194166303,4.409656685311347e-05
0.00853767991065979,0.004060271196067333,-0.006078815553337336,5.3029147238703445e-05,0.0025555118918418884,5.797249832539819e-05
0.008660206571221352,0.004213232081383467,-0.005924094934016466,5.1511429774109274e-05,0.0024746181443333626,5.713167047360912e-05
0.009351156651973724,0.004032935481518507,-0.0064489226788282394,5.00782516610343e-05,0.0022964878007769585,8.1290774687659e-05
0.009271922521293163,0.0038317320868372917,-0.006694089155644178,3.06716283375863e-05,0.0020222505554556847,8.055564103415236e-05
0.008623206987977028,0.004300406668335199,-0.006392245180904865,2.4131250029313378e-05,0.001816620584577322,0.0001026852842187509
0.00939179491251707,0.004504397511482239,-0.005766317248344421,2.31370868277736e-05,0.0017066599102690816,0.00011384629760868847
0.009432462975382805,0.004669932182878256,-0.005878524389117956,2.2533340597874485e-05,0.0017484385753050447,0.00012254937610123307
0.008835995569825172,0.004637307021766901,-0.006734020076692104,2.1981371901347302e-05,0.0017976132221519947,0.0004074482130818069
0.009342784993350506,0.004730560816824436,-0.0066452003084123135,2.1457201000885107e-05,0.0020712180994451046,0.0005356466281227767
0.009376767091453075,0.004446907434612513,-0.006244570482522249,1.4010020095156506e-06,0.0024804139975458384,0.0005747898831032217
0.009115379303693771,0.004343921784311533,-0.005925749894231558,9.147542812115717e-08,0.002305416390299797,0.0005367094418033957
0.009851820766925812,0.004817219451069832,-0.006219576112926006,5.972691674571706e-09,0.0022327930200845003,0.0005609385552816093
0.00983625277876854,0.004858716391026974,-0.006380714941769838,2.5462520980568115e-11,0.0019360919250175357,0.0007652429630979896
0.00962491612881422,0.005660374648869038,-0.0061181895434856415,1.662520598619266e-12,0.0017941654659807682,0.000729489023797214
0.009608103893697262,0.005414504092186689,-0.00627479050308466,1.0855071453253623e-13,0.001961849629878998,0.0007462662179023027
0.008423826657235622,0.004973679315298796,-0.006164255551993847,7.087585879116511e-15,0.00187024159822613,0.0007687614997848868
0.00836590863764286,0.005283216014504433,-0.0065155294723808765,4.627686686171841e-16,0.0020701263565570116,0.0009894378017634153
0.00836590863764286,0.005283216014504433,-0.0065155294723808765,4.627686686171841e-16,0.0020701263565570116,0.0009894378017634153
0.009039530530571938,0.005471213720738888,-0.006634714547544718,3.021548833463096e-17,0.0020671915262937546,0.0010074671590700746
0.009062442928552628,0.0056063649244606495,-0.006123472936451435,1.972855539441023e-18,0.002239985391497612,0.0012279461370781064
0.009868081659078598,0.005240689497441053,-0.00592511473223567,1.28813385898765e-19,0.002336615463718772,0.0014443531399592757
0.009254710748791695,0.005788069684058428,-0.00609893212094903,-0.00036784601979888976,0.002296354155987501,0.001451220246963203
0.009503201581537724,0.005501285661011934,-0.006237564142793417,-0.0006401762366294861,0.002312577096745372,0.0016339067369699478
0.00910120364278555,0.00584469735622406,-0.00617246562615037,-0.0006578651955351233,0.00235554832033813,0.001523141167126596
0.009444735012948513,0.0053887758404016495,-0.006615181919187307,-0.0007046809769235551,0.0022704049479216337,0.0014339342014864087
0.009726768359541893,0.00589206675067544,-0.006098140962421894,-0.001066712662577629,0.00212666904553771,0.001337496330961585
0.009035756811499596,0.005447499919682741,-0.006287802010774612,-0.0012009531492367387,0.0018864134326577187,0.0013610292226076126
0.010151256807148457,0.005910633597522974,-0.006398509256541729,-0.001465800916776061,0.0018105015624314547,0.0013459788169711828
0.009419752284884453,0.006001724861562252,-0.006573793478310108,-0.0017554733203724027,0.001964034978300333,0.0015008454211056232
0.009451293386518955,0.006062085274606943,-0.0062342858873307705,-0.0017862272216007113,0.0020773534197360277,0.0018411464989185333
0.009816210716962814,0.0058960625901818275,-0.006286659277975559,-0.0018770048627629876,0.002259913831949234,0.0020170744974166155
0.009502282366156578,0.0058982595801353455,-0.007038418669253588,-0.0018566885264590383,0.0028292557690292597,0.0018365893047302961
0.009994631633162498,0.00611868454143405,-0.006899062544107437,-0.0019288149196654558,0.0028076767921447754,0.0018691724399104714
0.009418884292244911,0.007048349361866713,-0.006191021762788296,-0.0021204352378845215,0.002464815741404891,0.0017074748175218701
0.009931202977895737,0.007103209383785725,-0.006221861578524113,-0.0022390151862055063,0.00226030545309186,0.0016289870254695415
0.010302185080945492,0.006416126620024443,-0.006677395664155483,-0.002807401120662689,0.0020493834745138884,0.0016329336212947965
0.009984326548874378,0.005487973801791668,-0.006420086603611708,-0.003502079751342535,0.0021613379940390587,0.0018974377308040857
0.010059365071356297,0.006083032116293907,-0.00626087561249733,-0.0038105074781924486,0.002142105018720031,0.0018326271092519164
0.01051496621221304,0.006353204138576984,-0.0064561557956039906,-0.0035253893584012985,0.0023116907104849815,0.0021091210655868053
0.010404176078736782,0.00622603902593255,-0.006692828610539436,-0.003489323426038027,0.0022556502372026443,0.0024533646646887064
0.010937509126961231,0.006566376890987158,-0.006637010257691145,-0.0034598081838339567,0.0023798265028744936,0.0031102520879358053
0.010540599003434181,0.006682170554995537,-0.006281869951635599,-0.0035809027031064034,0.002208723220974207,0.003415535669773817
0.010365327820181847,0.007115919608622789,-0.006406199187040329,-0.003650585887953639,0.0021029189229011536,0.003173441393300891
0.010304953902959824,0.006526304874569178,-0.006217320915311575,-0.003729701042175293,0.002009826246649027,0.0029777158051729202
0.010739884339272976,0.006539949215948582,-0.00681207375600934,-0.0037639702204614878,0.0020893362816423178,0.0026835747994482517
0.010739884339272976,0.006539949215948582,-0.00681207375600934,-0.0037639702204614878,0.0020893362816423178,0.0026835747994482517
0.010555461049079895,0.006946440786123276,-0.006467659492045641,-0.004242713563144207,0.002680885372683406,0.0026724699418991804
0.011059093289077282,0.007060527801513672,-0.006226257421076298,-0.004160511773079634,0.0029550560284405947,0.002777086105197668
0.011337188072502613,0.006823900155723095,-0.006348136812448502,-0.003947688732296228,0.002615666016936302,0.0030325574334710836
0.010549434460699558,0.0073896367102861404,-0.006939064245671034,-0.004147498402744532,0.0023456222843378782,0.0032062677200883627
0.011060046963393688,0.006838326342403889,-0.007139627821743488,-0.004358586855232716,0.002016184153035283,0.003224737010896206
0.011254488490521908,0.007286685053259134,-0.00646260567009449,-0.0044571165926754475,0.0019135006004944444,0.0031219336669892073
0.0105452174320817,0.007262312341481447,-0.006188095081597567,-0.004112914204597473,0.0020912226755172014,0.002998423995450139
0.010889235883951187,0.007259982638061047,-0.006360836327075958,-0.0037185815162956715,0.002140839584171772,0.0029489947482943535
0.010942062363028526,0.008117414079606533,-0.006951360497623682,-0.003769684350118041,0.002270378405228257,0.003475268604233861
0.011854780837893486,0.007830427028238773,-0.00686646020039916,-0.004038120154291391,0.0022532930597662926,0.0038102080579847097
0.011518388986587524,0.0073660495691001415,-0.0062282453291118145,-0.0047134035266935825,0.002518055494874716,0.0038790504913777113
0.011131813749670982,0.00740261422470212,-0.006438256707042456,-0.00450826296582818,0.002433646935969591,0.0035455881152302027
0.011670432053506374,0.007679515052586794,-0.006895443424582481,-0.004493178334087133,0.002409762004390359,0.0033843417186290026
0.011164132505655289,0.007765394635498524,-0.007149621844291687,-0.004259196110069752,0.0024881591089069843,0.003327435115352273
0.011497771367430687,0.007677288725972176,-0.006875892169773579,-0.003835901850834489,0.0025090291164815426,0.003371009137481451
0.011838104575872421,0.00784812867641449,-0.006840898655354977,-0.003810563823208213,0.0025470773689448833,0.0036597042344510555
0.011493392288684845,0.007829640060663223,-0.007710514590144157,-0.004132600035518408,0.002720172517001629,0.003835718147456646
0.01186414249241352,0.007633002009242773,-0.007177265360951424,-0.004331422038376331,0.0027909998316317797,0.004078165628015995
0.011405019089579582,0.007398437708616257,-0.006274244748055935,-0.004772939719259739,0.0024774535559117794,0.0038755270652472973
0.011914253234863281,0.006058746017515659,-0.006569595076143742,-0.004770051222294569,0.002253664890304208,0.003529480891302228
0.011434321291744709,0.004851100966334343,-0.008340558968484402,-0.004404320381581783,0.002024505753070116,0.0037225838750600815
0.011549591086804867,0.005374661181122065,-0.00770526984706521,-0.004182247444987297,0.002368006156757474,0.003774278797209263
0.011691942811012268,0.005916745867580175,-0.006923418026417494,-0.003978130407631397,0.002507886616513133,0.004086809232831001
0.01254058163613081,0.005883611738681793,-0.007371857762336731,-0.00398098723962903,0.002773068379610777,0.004601367749273777
0.011955149471759796,0.005958882160484791,-0.008289474062621593,-0.004485363140702248,0.0025740156415849924,0.004342610947787762
0.011672127060592175,0.005817301105707884,-0.007983643561601639,-0.0049767810851335526,0.002382377628237009,0.003975689876824617
0.012344413436949253,0.0058579095639288425,-0.007062695920467377,-0.005048069637268782,0.0024191595148295164,0.004144145175814629
0.012344413436949253,0.0058579095639288425,-0.007062695920467377,-0.005048069637268782,0.0024191595148295164,0.004144145175814629
0.011897355318069458,0.006184427998960018,-0.008055332116782665,-0.005431555211544037,0.0026344473008066416,0.004360603168606758
0.01216686237603426,0.005903214681893587,-0.008614976890385151,-0.005205480381846428,0.0026922770775854588,0.004496016073971987
0.011875261552631855,0.0062891640700399876,-0.007845684885978699,-0.0049503822810947895,0.0028234112542122602,0.004469871520996094
0.012348095886409283,0.006186278536915779,-0.00733787938952446,-0.00525920232757926,0.002751218853518367,0.0047720312140882015
0.012769235298037529,0.006027739029377699,-0.007970603182911873,-0.005109509453177452,0.002404945669695735,0.004729343578219414
0.012048454955220222,0.0060156867839396,-0.008455699309706688,-0.0050330255180597305,0.0022403651382774115,0.00438655074685812
0.01253625936806202,0.005819465033710003,-0.008187433704733849,-0.005243326537311077,0.002244088798761368,0.0044802045449614525
0.012712170369923115,0.005682406481355429,-0.007753956597298384,-0.0049020820297300816,0.002275848062708974,0.004654307384043932
0.012758252210915089,0.005671035498380661,-0.008388972841203213,-0.005252484232187271,0.002860079286620021,0.004730517975986004
0.012692672200500965,0.006168252322822809,-0.009207400493323803,-0.005774310324341059,0.0027357309591025114,0.004804869182407856
0.012760003097355366,0.006176305469125509,-0.008047805167734623,-0.005581745877861977,0.0025930232368409634,0.004837161395698786
0.01252581737935543,0.0061325072310864925,-0.007144073490053415,-0.005415631923824549,0.002635679906234145,0.004708623047918081
0.01277044415473938,0.006195778958499432,-0.00886832270771265,-0.004792162217199802,0.0027856200467795134,0.005021700169891119
0.012921342626214027,0.0067759910598397255,-0.008608796633780003,-0.005062865559011698,0.0025661676190793514,0.005026355851441622
0.012353149242699146,0.006866980344057083,-0.007727938704192638,-0.005456114187836647,0.002592002972960472,0.005217825993895531
0.012990204617381096,0.006626529153436422,-0.007658898364752531,-0.005406471900641918,0.0024111308157444,0.0056091961450874805
0.0130012771114707,0.006702204700559378,-0.008116221986711025,-0.005449103657156229,0.0022763467859476805,0.005320191383361816
0.013355815783143044,0.006534062325954437,-0.007931130938231945,-0.005059053190052509,0.0025461416225880384,0.005141478963196278
0.013140419498085976,0.006856831721961498,-0.008293628692626953,-0.004941915161907673,0.0029008539859205484,0.005008632782846689
0.013218535110354424,0.006387873087078333,-0.008203999139368534,-0.005269410088658333,0.0028040551114827394,0.0055607580579817295
0.013397738337516785,0.006459816358983517,-0.007736779283732176,-0.0058494191616773605,0.0025941499043256044,0.005512584466487169
0.013604119420051575,0.007077029440551996,-0.007765635848045349,-0.006251644343137741,0.0025267370510846376,0.005764266010373831
0.01371796429157257,0.007122093345969915,-0.008341331966221333,-0.005703699309378862,0.0030522067099809647,0.005275154951959848
0.014076207764446735,0.006891237571835518,-0.008269740268588066,-0.005833705887198448,0.0031191399320960045,0.005425509996712208
0.014076207764446735,0.006891237571835518,-0.008269740268588066,-0.005833705887198448,0.0031191399320960045,0.005425509996712208
0.013867171481251717,0.007327311206609011,-0.007820529863238335,-0.006140037439763546,0.0033123246394097805,0.005191789008677006
0.013978290371596813,0.0070893471129238605,-0.00832187570631504,-0.00636461703106761,0.0030143153853714466,0.005284883547574282
0.013984309509396553,0.007413126528263092,-0.008345876820385456,-0.006096013821661472,0.0024492130614817142,0.005571906920522451
0.014414487406611443,0.007310992572456598,-0.007998255081474781,-0.0056018042378127575,0.0021748533472418785,0.005467051174491644
0.014142366126179695,0.007278917357325554,-0.007575254421681166,-0.0055809468030929565,0.0022940116468816996,0.005638833157718182
0.013971338979899883,0.00744042731821537,-0.007545648142695427,-0.005742351990193129,0.002910869661718607,0.005570593290030956
0.013715011067688465,0.007485632784664631,-0.007694670464843512,-0.006226513534784317,0.00352877308614552,0.005609002895653248
0.01443683821707964,0.007427961099892855,-0.007483228109776974,-0.006439580582082272,0.0033361301757395267,0.006052731070667505
0.01432461105287075,0.007729439064860344,-0.008043059147894382,-0.0060068052262067795,0.003144351067021489,0.006163819693028927
0.014459489844739437,0.007873333990573883,-0.008528808131814003,-0.005743011366575956,0.0029289238154888153,0.005873680114746094
0.013828309252858162,0.007894286885857582,-0.00807141326367855,-0.005595394875854254,0.0028885004576295614,0.005567407701164484
0.014659502543509007,0.006920849904417992,-0.007834844291210175,-0.005601861514151096,0.003069094615057111,0.005847809370607138
0.014301278628408909,0.007078215479850769,-0.007735799998044968,-0.005301488097757101,0.0029137053061276674,0.006229646038264036
0.01473561953753233,0.007409585174173117,-0.008293152786791325,-0.005304641090333462,0.003084372729063034,0.005740121938288212
0.013929296284914017,0.008169555105268955,-0.00790255144238472,-0.005576703697443008,0.002949812915176153,0.005762893240898848
0.014508009888231754,0.007701260037720203,-0.007377152796834707,-0.005669033154845238,0.0028740132693201303,0.006000492721796036
0.01448900531977415,0.007403611671179533,-0.007114092819392681,-0.005987538956105709,0.0028088169638067484,0.005935120861977339
0.01480129361152649,0.008139209821820259,-0.007995516061782837,-0.006439484190195799,0.0030403309501707554,0.006418005097657442
0.015092986635863781,0.007776391226798296,-0.007557357661426067,-0.005896958522498608,0.0032308094669133425,0.006356124300509691
0.015336520969867706,0.0074434056878089905,-0.007321106269955635,-0.005750556010752916,0.00313125504180789,0.00620505353435874
0.014685649424791336,0.007439602632075548,-0.008073520846664906,-0.006333199329674244,0.0029898067004978657,0.006339656189084053
0.014823838137090206,0.008061770349740982,-0.007798259612172842,-0.006433155387639999,0.0029284737538546324,0.006646185647696257
0.014899933710694313,0.007465860806405544,-0.0076219611801207066,-0.006330636329948902,0.0028268045280128717,0.006408932618796825
0.014285814948379993,0.0072799078188836575,-0.007846374996006489,-0.006093029864132404,0.002544552320614457,0.006354996468871832
0.015808606520295143,0.007640245370566845,-0.007877337746322155,-0.006477877032011747,0.002562857000157237,0.0060035898350179195
0.015459765680134296,0.008241239935159683,-0.007555204909294844,-0.006858096458017826,0.002823309041559696,0.006492321845144033
0.015035338699817657,0.0078922463580966,-0.0075209555216133595,-0.006615812424570322,0.0031583087984472513,0.0064651090651750565
0.015035338699817657,0.0078922463580966,-0.0075209555216133595,-0.006615812424570322,0.0031583087984472513,0.0064651090651750565
0.015270008705556393,0.007681012153625488,-0.007536951918154955,-0.006197633221745491,0.003109766636043787,0.00618811696767807
0.014847231097519398,0.007833762094378471,-0.007971170358359814,-0.0059405057691037655,0.0028589179273694754,0.006376573815941811
0.015570617280900478,0.00756806181743741,-0.007609294727444649,-0.006455876864492893,0.0026635027024894953,0.006629686336964369
0.015482976101338863,0.007511535659432411,-0.00733510497957468,-0.007192007265985012,0.002739421557635069,0.006877546198666096
0.01565452665090561,0.00752559769898653,-0.007820329628884792,-0.006725831422954798,0.0031821185257285833,0.006609247997403145
0.015191392041742802,0.008103111758828163,-0.007761849090456963,-0.006255887448787689,0.0030621651094406843,0.006595675367861986
0.01596914976835251,0.007925095967948437,-0.008021891117095947,-0.006351218558847904,0.0031111754942685366,0.006817411165684462
0.015490947291254997,0.007495764642953873,-0.007083762437105179,-0.0070612672716379166,0.002941771876066923,0.00666404003277421
0.015590084716677666,0.007532333489507437,-0.007138049229979515,-0.007027204614132643,0.002919265301898122,0.0066399588249623775
0.01493055745959282,0.008741410449147224,-0.008197381161153316,-0.006695044692605734,0.003080073045566678,0.006528704892843962
0.015512964688241482,0.007794757839292288,-0.00769496476277709,-0.006636368110775948,0.0032105480786412954,0.006682239938527346
0.015614769421517849,0.00803851243108511,-0.007499804720282555,-0.006977606564760208,0.0033546672202646732,0.0069008818827569485
0.015391558408737183,0.007823511958122253,-0.008277160115540028,-0.007356658577919006,0.0030993344262242317,0.00687939440831542
0.015939848497509956,0.008204708807170391,-0.007962387055158615,-0.006943678017705679,0.002887253649532795,0.007244869135320187
0.015563182532787323,0.007703886367380619,-0.00761448685079813,-0.006410497240722179,0.0026850858703255653,0.00674054492264986
0.015937816351652145,0.007747269701212645,-0.007023591082543135,-0.00683593237772584,0.002753098728135228,0.006553221493959427
0.015791697427630424,0.008633963763713837,-0.008103709667921066,-0.007288294844329357,0.0028456461150199175,0.0069730281829833984
0.015955926850438118,0.008567335084080696,-0.007905183359980583,-0.006992222275584936,0.0029742310289293528,0.006268822122365236
0.015604517422616482,0.007851403206586838,-0.0075695752166211605,-0.006638781633228064,0.0031735149677842855,0.007349393330514431
0.016090864315629005,0.008362879045307636,-0.0079354802146554,-0.007015172857791185,0.0030529513023793697,0.007116080727428198
0.016214866191148758,0.00830137636512518,-0.007802965585142374,-0.0073713636957108974,0.0030270868446677923,0.007278830744326115
0.016370726749300957,0.008382519707083702,-0.0074941120110452175,-0.00687657855451107,0.003309896681457758,0.0074190604500472546
0.01640314795076847,0.008374280296266079,-0.0075604054145514965,-0.006939826533198357,0.003470119321718812,0.007687098812311888
0.016629887744784355,0.009159322828054428,-0.007822857238352299,-0.007451869547367096,0.003414629027247429,0.007759291213005781
0.01625332422554493,0.008553968742489815,-0.007523111999034882,-0.008294067345559597,0.003100498579442501,0.007654911372810602
0.01700182817876339,0.008375627920031548,-0.007255468051880598,-0.00798644870519638,0.0029944435227662325,0.00743975630030036
0.016746679320931435,0.00945390947163105,-0.0072264960035681725,-0.007778482977300882,0.0031037330627441406,0.007328075356781483
0.016746679320931435,0.00945390947163105,-0.0072264960035681725,-0.007778482977300882,0.0031037330627441406,0.007328075356781483
0.01671457476913929,0.008744100108742714,-0.007909232750535011,-0.0078105079010128975,0.0033183819614350796,0.007399214431643486
0.016672557219862938,0.009047840721905231,-0.007292859721928835,-0.007391494698822498,0.0037745998706668615,0.007655785419046879
0.016672557219862938,0.009047840721905231,-0.007292859721928835,-0.007391494698822498,0.0037745998706668615,0.007655785419046879
0.016727861016988754,0.008830834180116653,-0.007229012902826071,-0.00784887745976448,0.0034253173507750034,0.007366346661001444
0.016562065109610558,0.008699054829776287,-0.008150940760970116,-0.007878930307924747,0.0035425713285803795,0.007831219583749771
0.0171215683221817,0.008840416558086872,-0.00817281287163496,-0.007847459055483341,0.0037119220942258835,0.007600393611937761
0.016698282212018967,0.009201678447425365,-0.007672658655792475,-0.007358025759458542,0.0033876346424221992,0.007377265486866236
0.01684042066335678,0.008725229650735855,-0.006758542265743017,-0.007066891994327307,0.0034049591049551964,0.007329973392188549
0.017188269644975662,0.008903839625418186,-0.007536951918154955,-0.007413524203002453,0.0033291552681475878,0.007577545940876007
0.01677751913666725,0.009384346194565296,-0.007966063916683197,-0.007584483362734318,0.0034040226601064205,0.007737814914435148
0.016968432813882828,0.008897146210074425,-0.007591275963932276,-0.007646030280739069,0.0031953954603523016,0.0074019525200128555
0.01679723709821701,0.008701154962182045,-0.006889310199767351,-0.00765098724514246,0.0034233704209327698,0.007108732126653194
0.017277780920267105,0.009571602568030357,-0.008033393882215023,-0.007627986371517181,0.003247519489377737,0.006842202041298151
0.017331590875983238,0.009293255396187305,-0.007788664195686579,-0.007557956501841545,0.0034993712324649096,0.007201795000582933
0.016920071095228195,0.009234053082764149,-0.007637436036020517,-0.007747984025627375,0.0033470268826931715,0.007061490323394537
0.01720336079597473,0.009835944510996342,-0.007786280009895563,-0.00863461010158062,0.0030207261443138123,0.007697282359004021
0.01743832789361477,0.008577179163694382,-0.007499157916754484,-0.008087550289928913,0.002915020566433668,0.007488894741982222
0.017774434760212898,0.00970572791993618,-0.007438155822455883,-0.007800772786140442,0.00312044657766819,0.007453461643308401
0.017358504235744476,0.01067686453461647,-0.007434106897562742,-0.00790594145655632,0.0036074614617973566,0.007629933767020702
0.01776421070098877,0.009404514916241169,-0.00814690999686718,-0.008269288577139378,0.003759396495297551,0.007970266044139862
0.01784422993659973,0.0098100071772933,-0.007771417498588562,-0.008152930065989494,0.003653920255601406,0.007713851984590292
0.017734535038471222,0.009550942108035088,-0.007109005935490131,-0.008222950622439384,0.003629719838500023,0.007572254166007042
0.018109861761331558,0.009249208495020866,-0.00755287567153573,-0.008558068424463272,0.0037664086557924747,0.008165598846971989
0.0181034617125988,0.009837490506470203,-0.008233410306274891,-0.008993634954094887,0.0038013956509530544,0.008445028215646744
0.018122373148798943,0.010022164322435856,-0.0076279593631625175,-0.008585148490965366,0.003764702472835779,0.008525851182639599
0.018122373148798943,0.010022164322435856,-0.0076279593631625175,-0.008585148490965366,0.003764702472835779,0.008525851182639599
0.01852625049650669,0.009716498665511608,-0.007346697151660919,-0.008695910684764385,0.0037240940146148205,0.008551433682441711
0.01831202022731304,0.01013359148055315,-0.007839643396437168,-0.008519872091710567,0.0034170974977314472,0.00845255795866251
0.019732419401407242,0.010154835879802704,-0.00808402057737112,-0.00825509149581194,0.003354175016283989,0.008140304125845432
0.01964140683412552,0.00972880981862545,-0.0076139261946082115,-0.008862094022333622,0.004077535588294268,0.008036984130740166
0.0195471104234457,0.010170348919928074,-0.007514589931815863,-0.009301756508648396,0.0041818879544734955,0.008568906225264072
0.01926601678133011,0.01000806875526905,-0.00835098884999752,-0.008603138849139214,0.0039446731097996235,0.00884909089654684
0.019362641498446465,0.010073961690068245,-0.008325403556227684,-0.008117257617413998,0.0032992493361234665,0.008605671115219593
0.019373873248696327,0.010148666799068451,-0.007852134294807911,-0.008955719880759716,0.003047455567866564,0.008449970744550228
0.01925913617014885,0.010020501911640167,-0.007611047942191362,-0.009051074273884296,0.0034152446314692497,0.008691530674695969
0.019177531823515892,0.009951071813702583,-0.008393569849431515,-0.008397892117500305,0.003848243970423937,0.008798142895102501
0.01944463513791561,0.010226144455373287,-0.009370716288685799,-0.008333413861691952,0.003488484537228942,0.008736146613955498
0.02004897966980934,0.01011209562420845,-0.009046114049851894,-0.008712188340723515,0.003557817777618766,0.008326754905283451
0.019555523991584778,0.010228694416582584,-0.009266757406294346,-0.00878029316663742,0.003703291527926922,0.008899600245058537
0.019310403615236282,0.010312419384717941,-0.009389063343405724,-0.008300041779875755,0.004172109067440033,0.008863446302711964
0.019905604422092438,0.01015698816627264,-0.008832202292978764,-0.008525275625288486,0.00418288866057992,0.008855241350829601
0.020757632330060005,0.010466811247169971,-0.009267706423997879,-0.008945254608988762,0.003479449078440666,0.00923363957554102
0.019595827907323837,0.009998795576393604,-0.009604730643332005,-0.009103192947804928,0.0027036843821406364,0.008516230620443821
0.020515186712145805,0.010788971558213234,-0.009629844687879086,-0.009262379258871078,0.0031043586786836386,0.008922915905714035
0.02012590877711773,0.010316619649529457,-0.009907673113048077,-0.00905365776270628,0.0035345808137208223,0.00895005650818348
0.01947902701795101,0.010260887444019318,-0.009648483246564865,-0.009147144854068756,0.004011502955108881,0.00896837841719389
0.019801415503025055,0.011098615825176239,-0.009620402939617634,-0.00934604275971651,0.004070014227181673,0.008756126277148724
0.020425593480467796,0.01072093565016985,-0.009718929417431355,-0.009333821944892406,0.004352784249931574,0.009087666869163513
0.020268768072128296,0.010190841741859913,-0.009837434627115726,-0.00985200796276331,0.004170636646449566,0.008840855211019516
0.02030760422348976,0.010811708867549896,-0.009305438958108425,-0.009830641560256481,0.003869401291012764,0.00850184727460146
0.02061525732278824,0.01044683437794447,-0.010073074139654636,-0.009337373077869415,0.0034374890383332968,0.009133076295256615
0.02061525732278824,0.01044683437794447,-0.010073074139654636,-0.009337373077869415,0.0034374890383332968,0.009133076295256615
0.02019461989402771,0.010693010874092579,-0.01003312785178423,-0.010269096121191978,0.0032080872915685177,0.008892550133168697
0.020810429006814957,0.01025661826133728,-0.009899904020130634,-0.009482023306190968,0.0038242286536842585,0.008481524884700775
0.020810429006814957,0.01025661826133728,-0.009899904020130634,-0.009482023306190968,0.0038242286536842585,0.008481524884700775
0.02078908495604992,0.010619531385600567,-0.009354219771921635,-0.009673994034528732,0.0045332531444728374,0.008747749961912632
0.02055131271481514,0.010569821111857891,-0.00948458630591631,-0.009676346555352211,0.004312115255743265,0.008759926073253155
0.020303066819906235,0.010040858760476112,-0.009684976190328598,-0.009564707055687904,0.003900670213624835,0.008905722759664059
0.020988676697015762,0.010457942262291908,-0.009334966540336609,-0.009403267875313759,0.003705053823068738,0.009289102628827095
0.020473692566156387,0.010108763352036476,-0.009241512045264244,-0.009532972238957882,0.003710656426846981,0.009122409857809544
0.020084911957383156,0.010797297582030296,-0.010194490663707256,-0.009661845862865448,0.003353624138981104,0.008945371955633163
0.021070852875709534,0.011614905670285225,-0.009261388331651688,-0.009652725420892239,0.00349946366623044,0.009204665198922157
0.021068042144179344,0.010313722304999828,-0.009505851194262505,-0.010143455117940903,0.00413568364456296,0.009278223849833012
0.020399004220962524,0.009804725646972656,-0.009808924980461597,-0.010142591781914234,0.004097606986761093,0.00923062302172184
0.020880868658423424,0.01099356822669506,-0.009555303491652012,-0.010778496041893959,0.003941327799111605,0.008413778617978096
0.02098684012889862,0.010361475870013237,-0.009784402325749397,-0.010657338425517082,0.004146985709667206,0.009326795116066933
0.01962624490261078,0.010347217321395874,-0.00989910401403904,-0.010533426888287067,0.004256000742316246,0.009826571680605412
0.02121456153690815,0.011303821578621864,-0.009414475411176682,-0.010919129475951195,0.003766078734770417,0.01028086431324482
0.02170112356543541,0.010323547758162022,-0.008837823756039143,-0.010421453043818474,0.0034189040306955576,0.009552104398608208
0.021451720967888832,0.01005186140537262,-0.009426826611161232,-0.0098140649497509,0.0030493512749671936,0.00911669246852398
0.021507710218429565,0.010768836364150047,-0.009110960178077221,-0.010376856662333012,0.0034186001867055893,0.009599433280527592
0.021177776157855988,0.00981847569346428,-0.008518594317138195,-0.010855559259653091,0.004264660179615021,0.00970852468162775
0.021694207563996315,0.010671648196876049,-0.009280281141400337,-0.010337629355490208,0.004402818623930216,0.009609026834368706
0.0219016894698143,0.00983950961381197,-0.009342936798930168,-0.010634953156113625,0.0038557937368750572,0.010179991833865643
0.022316358983516693,0.010493816807866096,-0.009253663010895252,-0.010168495588004589,0.003600492374971509,0.009407793171703815
0.022367259487509727,0.010006067343056202,-0.009240170009434223,-0.01017063669860363,0.0032531346660107374,0.009097601287066936
0.023121658712625504,0.01082903053611517,-0.008916021324694157,-0.010448040440678596,0.003425444010645151,0.010081909596920013
0.02218180149793625,0.010534066706895828,-0.010315781459212303,-0.01085764728486538,0.0036985354963690042,0.009855851531028748
0.021225010976195335,0.009854828007519245,-0.009282905608415604,-0.011227277107536793,0.0041382573544979095,0.009550129063427448
0.022531738504767418,0.009887704625725746,-0.0095140989869833,-0.010456814430654049,0.004066018853336573,0.0104139419272542
0.023238496854901314,0.010418939404189587,-0.009060968644917011,-0.010738914832472801,0.00442184042185545,0.010187065228819847
0.023127494379878044,0.010991951450705528,-0.009634210728108883,-0.010861384682357311,0.004659778438508511,0.010018800385296345
0.023127494379878044,0.010991951450705528,-0.009634210728108883,-0.010861384682357311,0.004659778438508511,0.010018800385296345
0.022713933140039444,0.010169204324483871,-0.009401942603290081,-0.010896316729485989,0.004355190321803093,0.010274715721607208
0.023053240031003952,0.010512059554457664,-0.009157009422779083,-0.011194203048944473,0.004207100719213486,0.010065137408673763
0.023583246394991875,0.010455412790179253,-0.009226730093359947,-0.011025544255971909,0.00388878071680665,0.00992773100733757
0.023499269038438797,0.010346680879592896,-0.00904674269258976,-0.010827317833900452,0.003519111080095172,0.0102497898042202
0.023979144170880318,0.010335768572986126,-0.009126758202910423,-0.011488575488328934,0.0035510302986949682,0.010113248601555824
0.023139342665672302,0.010589315555989742,-0.009873444214463234,-0.011178573593497276,0.004027036018669605,0.010550551116466522
0.023028185591101646,0.010345770977437496,-0.009455560706555843,-0.010718551464378834,0.00418538274243474,0.010496378876268864
0.023381199687719345,0.010593784041702747,-0.008836641907691956,-0.0106882955878973,0.004728341940790415,0.010412105359137058
0.024188457056879997,0.010157483629882336,-0.009650273248553276,-0.009908923879265785,0.004463389981538057,0.010308539494872093
0.024318110197782516,0.010607516393065453,-0.009445145726203918,-0.009982802905142307,0.0040435101836919785,0.010822507552802563
0.023937417194247246,0.01030244305729866,-0.00893778819590807,-0.010538413189351559,0.003883803030475974,0.010469052009284496
0.02380198799073696,0.010269521735608578,-0.009506859816610813,-0.009940345771610737,0.003956824541091919,0.010222285985946655
0.023830169811844826,0.010893747210502625,-0.009385407902300358,-0.010059216991066933,0.004002603702247143,0.010488219559192657
0.02380131557583809,0.0107459407299757,-0.009329823777079582,-0.010333511978387833,0.004306758753955364,0.01040545292198658
0.02393457666039467,0.011070485226809978,-0.009304926730692387,-0.010532811284065247,0.004239375237375498,0.010840753093361855
0.02433180809020996,0.01147075928747654,-0.009213512763381004,-0.010767499916255474,0.004206213168799877,0.01084974966943264
0.024363890290260315,0.010200264863669872,-0.008903269656002522,-0.01069479901343584,0.004217016976326704,0.010559669695794582
0.025057164952158928,0.010071316733956337,-0.010145994834601879,-0.011028220877051353,0.004417037591338158,0.01075516827404499
0.02436673827469349,0.010435028001666069,-0.008558662608265877,-0.010394634678959846,0.0041826204396784306,0.010756690055131912
0.024801896885037422,0.010948850773274899,-0.008739104494452477,-0.010478508658707142,0.004208081401884556,0.010480139404535294
0.02481803297996521,0.010744066908955574,-0.009590758010745049,-0.011360645294189453,0.004090402275323868,0.010534679517149925
0.02523580938577652,0.010776921175420284,-0.009052496403455734,-0.011054962873458862,0.00444372184574604,0.01105493400245905
0.024939870461821556,0.011197495274245739,-0.008490103296935558,-0.010550654493272305,0.0041724322363734245,0.01082502119243145
0.025385050103068352,0.010780409909784794,-0.009104395285248756,-0.010768396779894829,0.004117908421903849,0.010703152976930141
0.025265105068683624,0.010888893157243729,-0.009308780543506145,-0.011054960079491138,0.003923235461115837,0.010803135111927986
0.02501055784523487,0.010898575186729431,-0.008898764848709106,-0.011632265523076057,0.0037890493404120207,0.010862062685191631
0.024982351809740067,0.010498513467609882,-0.009371836669743061,-0.011128894053399563,0.0038238076958805323,0.011056192219257355
0.024982351809740067,0.010498513467609882,-0.009371836669743061,-0.011128894053399563,0.0038238076958805323,0.011056192219257355
0.02546572871506214,0.011028101667761803,-0.009322278201580048,-0.011110919527709484,0.003964644856750965,0.010903972201049328
0.025448864325881004,0.011015580035746098,-0.009034278802573681,-0.011771648190915585,0.004442008212208748,0.011185260489583015
0.025678766891360283,0.010880711488425732,-0.009414872154593468,-0.011354207061231136,0.004678011406213045,0.010560623370110989
0.025689054280519485,0.011209548451006413,-0.01001416239887476,-0.011645078659057617,0.004448809660971165,0.010628781281411648
0.025511980056762695,0.010849242098629475,-0.008896758779883385,-0.011236149817705154,0.0042554279789328575,0.010932962410151958
0.025833431631326675,0.010925485752522945,-0.0092282984405756,-0.011610710993409157,0.004220276605337858,0.011162887327373028
0.025553207844495773,0.01082734763622284,-0.00915846973657608,-0.011904900893568993,0.004084120504558086,0.010982048697769642
0.02578633651137352,0.010540742427110672,-0.009005863219499588,-0.012232523411512375,0.004252235405147076,0.011559384874999523
0.025998415425419807,0.01107948087155819,-0.009177862666547298,-0.012788238935172558,0.0046251206658780575,0.011599382385611534
0.026243096217513084,0.01127014309167862,-0.00961457658559084,-0.012132410891354084,0.004719878081232309,0.012107329443097115
0.02626751735806465,0.010875272564589977,-0.00922934990376234,-0.012343949638307095,0.004737772047519684,0.012300508096814156
0.02621711790561676,0.011533590033650398,-0.009357686154544353,-0.012380026280879974,0.004376689437776804,0.012227145954966545
0.02645539678633213,0.011143101379275322,-0.00978542398661375,-0.012149342335760593,0.004353303462266922,0.01233311090618372
0.027216238901019096,0.01128515787422657,-0.009392764419317245,-0.012629133649170399,0.004206015262752771,0.011912272311747074
0.027652081102132797,0.011091557331383228,-0.0089246341958642,-0.01211084146052599,0.0043094889260828495,0.012090705335140228
0.026755316182971,0.011765201576054096,-0.009483739733695984,-0.012478540651500225,0.004540593363344669,0.012263365089893341
0.02627928927540779,0.011352644301950932,-0.009849397465586662,-0.012199826538562775,0.004237395245581865,0.012015094980597496
0.027136802673339844,0.011296956799924374,-0.0095356535166502,-0.01197334285825491,0.004430880770087242,0.011741895228624344
0.026407411321997643,0.012270476669073105,-0.009535674937069416,-0.012234647758305073,0.004170753061771393,0.012001189403235912
0.02713686414062977,0.012808375991880894,-0.00910730380564928,-0.012904788367450237,0.00392899988219142,0.012264756485819817
0.027585668489336967,0.013239323161542416,-0.010288767516613007,-0.012077895924448967,0.004175777547061443,0.012071910314261913
0.027213122695684433,0.012434185482561588,-0.009196838364005089,-0.012638382613658905,0.004137616138905287,0.012264376506209373
0.026560889557003975,0.01328769326210022,-0.009634574875235558,-0.012576041743159294,0.0044639199040830135,0.01231515035033226
0.02622774802148342,0.012466155923902988,-0.00991585198789835,-0.01267423015087843,0.004192928317934275,0.012677961960434914
0.02686670422554016,0.01279250904917717,-0.009231803007423878,-0.012627099640667439,0.003928640857338905,0.012351897545158863
0.02686670422554016,0.01279250904917717,-0.009231803007423878,-0.012627099640667439,0.003928640857338905,0.012351897545158863
0.027473747730255127,0.01254130806773901,-0.009701537899672985,-0.012837329879403114,0.004509772174060345,0.012755772098898888
0.027427751570940018,0.013170817866921425,-0.009684166871011257,-0.012453185394406319,0.00478329649195075,0.012493591755628586
0.027427751570940018,0.013170817866921425,-0.009684166871011257,-0.012453185394406319,0.00478329649195075,0.012493591755628586
0.027319403365254402,0.012597180902957916,-0.008993273600935936,-0.012829188257455826,0.004722844809293747,0.012314071878790855
0.027456184849143028,0.013076115399599075,-0.010151426307857037,-0.012411028146743774,0.004401575308293104,0.01203739270567894
0.027595654129981995,0.012551913037896156,-0.009834838099777699,-0.01264314353466034,0.004078028257936239,0.012422578409314156
0.027551524341106415,0.01310793124139309,-0.009280553087592125,-0.012304005213081837,0.003898847149685025,0.012269584462046623
0.027898645028471947,0.012585573829710484,-0.009018165059387684,-0.012574616819620132,0.004248712211847305,0.012478511780500412
0.027780339121818542,0.013268642127513885,-0.010113874450325966,-0.012863709591329098,0.0041242181323468685,0.01253407821059227
0.027479223906993866,0.013301978819072247,-0.010230258107185364,-0.012861168012022972,0.0042337155900895596,0.01243219617754221
0.027645807713270187,0.013287450186908245,-0.010025964118540287,-0.012751142494380474,0.004302392713725567,0.012250002473592758
0.027807025238871574,0.013587779365479946,-0.010358625091612339,-0.01209403108805418,0.004754294641315937,0.012269159778952599
0.027491120621562004,0.01308397576212883,-0.00972671341150999,-0.012578574940562248,0.0045213717967271805,0.012542113661766052
0.027662217617034912,0.013105609454214573,-0.010287505574524403,-0.012245668098330498,0.0045493715442717075,0.01238541305065155
0.027856528759002686,0.012619771994650364,-0.009935216046869755,-0.012767819687724113,0.004224730655550957,0.012675710022449493
0.027755970135331154,0.013317646458745003,-0.009785186499357224,-0.013077275827527046,0.004289115779101849,0.01273936778306961
0.02616811916232109,0.01311219297349453,-0.01072063110768795,-0.013180450536310673,0.004122504033148289,0.012641113251447678
0.028582507744431496,0.013645883649587631,-0.010378144681453705,-0.013232937082648277,0.004342988133430481,0.012782392092049122
0.02911924570798874,0.013139883056282997,-0.010439172387123108,-0.013026360422372818,0.004272760823369026,0.01319153793156147
0.028468262404203415,0.012512538582086563,-0.010559268295764923,-0.01276438683271408,0.004515879787504673,0.013073833659291267
0.027714762836694717,0.013116255402565002,-0.010728927329182625,-0.013487300835549831,0.005073538515716791,0.013380213640630245
0.027714762836694717,0.013116255402565002,-0.010728927329182625,-0.013487300835549831,0.005073538515716791,0.013380213640630245
0.028273705393075943,0.013124444521963596,-0.011053775437176228,-0.013242972083389759,0.004843243397772312,0.012911180034279823
0.029010072350502014,0.012790693901479244,-0.010388757102191448,-0.013430547900497913,0.004427503328770399,0.013340072706341743
0.02863761968910694,0.014027250930666924,-0.010732910595834255,-0.012980935163795948,0.004561558365821838,0.012395192869007587
0.028841396793723106,0.013212544843554497,-0.010975939221680164,-0.013281296007335186,0.004594058264046907,0.013646002858877182
0.029215849936008453,0.013582357205450535,-0.010502699762582779,-0.013451303355395794,0.0049438984133303165,0.013441980816423893
0.02928151749074459,0.012820671312510967,-0.01120623480528593,-0.013086571358144283,0.004865951370447874,0.013418016955256462
0.028857523575425148,0.013477997854351997,-0.01109162624925375,-0.012927643954753876,0.0047261761501431465,0.013165375217795372
0.02872943878173828,0.013018307276070118,-0.010086793452501297,-0.012774545699357986,0.004572742152959108,0.013050084002315998
