davideferrari95/blind_handover_controller/data/Test 1 - [2024-02-07 -- 12-41-48]/joint_states_data.csv
shoulder_pan_joint,shoulder_lift_joint,elbow_joint,wrist_1_joint,wrist_2_joint,wrist_3_joint
0.007943352684378624,0.004046267829835415,-0.007069328799843788,0.00399580504745245,0.00019618919759523124,0.006219570059329271
0.00706042256206274,0.004380123224109411,-0.007228523027151823,0.0038785054348409176,0.00019026377412956208,0.006765899248421192
0.00706042256206274,0.004380123224109411,-0.007228523027151823,0.0038785054348409176,0.00019026377412956208,0.006765899248421192
0.007306117098778486,0.004477630369365215,-0.00712183304131031,0.0035639877896755934,0.00018468550115358084,0.0070120650343596935
0.007497206795960665,0.004212491679936647,-0.006972926668822765,0.003609339240938425,0.0001794250711100176,0.006951619870960712
0.00744380708783865,0.004398319870233536,-0.0068681370466947556,0.003789289854466915,0.00017445636331103742,0.006842073984444141
0.0072486563585698605,0.004542201291769743,-0.007170264609158039,0.00412220973521471,0.00016975517792161554,0.006661354098469019
0.0072486563585698605,0.004542201291769743,-0.007170264609158039,0.00412220973521471,0.00016975517792161554,0.006661354098469019
0.007898202165961266,0.004485518205910921,-0.006455156020820141,0.004264453891664743,0.00016107416013255715,0.006508611608296633
0.007898202165961266,0.004485518205910921,-0.006455156020820141,0.004264453891664743,0.00016107416013255715,0.006508611608296633
0.007684639189392328,0.004155627451837063,-0.006329051218926907,0.004172534216195345,0.0001570582971908152,0.006960895843803883
0.00758741982281208,0.004242599941790104,-0.007048977073282003,0.003995782695710659,0.00015323786647059023,0.0069619049318134785
0.007719398941844702,0.004511288367211819,-0.007046637125313282,0.003421278903260827,0.00014959894178900868,0.005908280145376921
0.007698135916143656,0.004263340029865503,-0.006654178723692894,0.0033106019254773855,0.00015638962213415653,0.006323434412479401
0.007706566713750362,0.004449054133147001,-0.006528737023472786,0.003382577793672681,0.00016252549539785832,0.006636056583374739
0.007103336974978447,0.004055985249578953,-0.007227354682981968,0.003685536328703165,0.00015955510025378317,0.006379112135618925
0.007271711714565754,0.004256251268088818,-0.006907396949827671,0.0039532361552119255,0.00015613615687470883,0.006506109610199928
0.008015179075300694,0.004149648826569319,-0.006443399004638195,0.0038878079503774643,0.00015282460663001984,0.0068248724564909935
0.007755405735224485,0.00419019116088748,-0.006570032332092524,0.0037369662895798683,0.00014964821457397193,0.006543259602040052
0.007039732299745083,0.00399555591866374,-0.006955279037356377,0.0034488150849938393,0.00014660121814813465,0.00622694194316864
0.007512487005442381,0.0038787880912423134,-0.007008479908108711,0.003530943999066949,0.00014368862321134657,0.006130078807473183
0.007637246046215296,0.004407723434269428,-0.006325025577098131,0.0037627751007676125,0.00011642005847534165,0.0065826671198010445
0.007400123868137598,0.004422272089868784,-0.00658318679779768,0.0041964431293308735,0.00010916605242528021,0.006810612045228481
0.007533231750130653,0.004579294938594103,-0.006846505682915449,0.004045534413307905,0.00010657397069735453,0.00621177488937974
0.007538050878793001,0.004264523275196552,-0.0068108197301626205,0.004254148341715336,0.00010410788672743365,0.006126421969383955
0.007476197089999914,0.004315347410738468,-0.006654568947851658,0.004069045186042786,0.00010175362695008516,0.00594559358432889
0.007324454374611378,0.004612088669091463,-0.006478909403085709,0.0036325082182884216,9.950359526555985e-05,0.006168206688016653
0.008084526285529137,0.004649356007575989,-0.0068164910189807415,0.00342591037042439,9.735077765071765e-05,0.006505989003926516
0.007754725869745016,0.004726714920252562,-0.006838340777903795,0.0035317845176905394,9.528943337500095e-05,0.0061690849252045155
0.007706346921622753,0.004458107985556126,-0.006086934823542833,0.0037143209483474493,9.331335604656488e-05,0.006282318849116564
0.00722193717956543,0.00460051978006959,-0.006421455182135105,0.003771374700590968,9.141759801423177e-05,0.005792367737740278
0.007178180385380983,0.005003087688237429,-0.006732193753123283,0.0041494513861835,8.959740080172196e-05,0.005847156513482332
0.007990815676748753,0.004476634785532951,-0.008073726668953896,0.00406346982344985,8.784823148744181e-05,0.00603405712172389
0.007990815676748753,0.004476634785532951,-0.008073726668953896,0.00406346982344985,8.784823148744181e-05,0.00603405712172389
0.007746464107185602,0.004484272096306086,-0.007776085752993822,0.003916656132787466,0.0001022520664264448,0.0059699127450585365
0.007336192298680544,0.004524866584688425,-0.006814228370785713,0.0034735361114144325,0.00010138173820450902,0.006113830953836441
0.007462664972990751,0.004723389632999897,-0.00694067170843482,0.0034480567555874586,9.958062582882121e-05,0.005742441397160292
0.00747641222551465,0.004769865423440933,-0.007562957238405943,0.004108225926756859,9.778193634701893e-05,0.00588853657245636
0.007502675522118807,0.00478238333016634,-0.007366621401160955,0.0041014025919139385,9.604301885701716e-05,0.005955238360911608
0.007272257469594479,0.0044054328463971615,-0.006886817514896393,0.003954318817704916,9.436467371415347e-05,0.005664955824613571
0.007549540605396032,0.004335933830589056,-0.006993026006966829,0.0038812437560409307,9.274393960367888e-05,0.005954842548817396
0.00813992414623499,0.0042245169170200825,-0.007764684502035379,0.0038747091311961412,9.117803710978478e-05,0.0057555013336241245
0.0077256266959011555,0.004397143144160509,-0.007717710919678211,0.003830597037449479,8.96640558494255e-05,0.0060709211975336075
0.007583681493997574,0.0046256366185843945,-0.0069029745645821095,0.0037883594632148743,8.819949289318174e-05,0.0062559498474001884
0.007806560955941677,0.004753435030579567,-0.006846181116998196,0.003723814385011792,8.678205631440505e-05,0.005709231365472078
0.008357124403119087,0.0048011052422225475,-0.007680025417357683,0.003988727927207947,8.540947601431981e-05,0.0059312996454536915
0.008017566055059433,0.004525166004896164,-0.007427668664604425,0.0042003546841442585,8.407963468926027e-05,0.005513052921742201
0.007681327406316996,0.004568932577967644,-0.0072357854805886745,0.0040946644730865955,8.27906042104587e-05,0.005914430599659681
0.007744535803794861,0.004653346724808216,-0.007033132016658783,0.004062178544700146,8.154039096552879e-05,0.00591134000569582
0.00796498078852892,0.004577840678393841,-0.007363452576100826,0.004011163488030434,8.032745972741395e-05,0.005710276775062084
0.007527253590524197,0.004692981019616127,-0.007701152469962835,0.003950132988393307,7.915004243841395e-05,0.005286519881337881
0.007432147394865751,0.004754359368234873,-0.007466147653758526,0.00394631689414382,7.800670573487878e-05,0.005756575148552656
0.007997050881385803,0.004671019967645407,-0.007280190475285053,0.003944056574255228,7.689582707826048e-05,0.0055155204609036446
0.007601554039865732,0.004085804335772991,-0.0074011897668242455,0.003500748425722122,7.476653991034254e-05,0.0056284088641405106
0.007739449851214886,0.0042929137125611305,-0.007418804802000523,0.003575360169634223,7.374547567451373e-05,0.005117778666317463
0.008275977335870266,0.00443045562133193,-0.007261178456246853,0.004285275470465422,7.275192183442414e-05,0.005234159994870424
0.008008042350411415,0.004522344097495079,-0.0077050128020346165,0.004513237159699202,7.178479427238926e-05,0.005075949244201183
0.007609094493091106,0.004693308845162392,-0.0072954739443957806,0.0044252811931073666,7.084308890625834e-05,0.00535088125616312
0.007525932509452105,0.00444160308688879,-0.006995849777013063,0.004102813545614481,6.992567068664357e-05,0.005321908742189407
0.007775980047881603,0.0032007836271077394,-0.007322082296013832,0.003928415942937136,7.977613859111443e-05,0.005672825966030359
0.007756977807730436,0.002792916027829051,-0.00811886228621006,0.0038872736040502787,7.947088306536898e-05,0.00530625693500042
0.0073598409071564674,0.002604388864710927,-0.007979003712534904,0.003882253309711814,7.852604176150635e-05,0.00511144008487463
0.007345791906118393,0.0032846659887582064,-0.007280365098267794,0.0038448183331638575,7.756229751976207e-05,0.005527638364583254
0.008897323161363602,0.003815294709056616,-0.006838904693722725,0.0042401207610964775,7.661921699764207e-05,0.005443049594759941
0.008897323161363602,0.003815294709056616,-0.006838904693722725,0.0042401207610964775,7.661921699764207e-05,0.005443049594759941
0.008116589859127998,0.0038559064269065857,-0.007883761078119278,0.004497948102653027,7.569862646050751e-05,0.005350104533135891
0.007588905747979879,0.0033778815995901823,-0.007822965271770954,0.0041779703460633755,7.479984924430028e-05,0.005005975253880024
0.0076235998421907425,0.00350553123280406,-0.007287635467946529,0.004285115282982588,7.392220868496224e-05,0.005105806048959494
0.007969791069626808,0.003258221782743931,-0.007056002505123615,0.004164723679423332,7.306491170311347e-05,0.005378211848437786
0.0077718282118439674,0.0034198835492134094,-0.007601452991366386,0.0039918385446071625,7.222722342703491e-05,0.005287603009492159
0.007162926252931356,0.0030955844558775425,-0.008129637688398361,0.0035113489720970392,7.140853995224461e-05,0.005278050899505615
0.0077356924302875996,0.003155953250825405,-0.00764512550085783,0.003831269685178995,7.060825737426057e-05,0.005037812981754541
0.008394485339522362,0.003297861898317933,-0.00812466163188219,0.00419605802744627,6.982566264923662e-05,0.004750639665871859
0.007818353362381458,0.003172169905155897,-0.007906156592071056,0.004261980764567852,8.994331437861547e-06,0.004691558890044689
0.008194169029593468,0.0034820600412786007,-0.007756554055958986,0.0037788625340908766,5.872655606253829e-07,0.005049907136708498
0.008022424764931202,0.00376249011605978,-0.007460964843630791,0.00362796476110816,3.834424333604147e-08,0.004983766470104456
0.007641012314707041,0.0033798483200371265,-0.007887095212936401,0.00405659805983305,2.5036051010118854e-09,0.004936567507684231
0.00746558140963316,0.002982968231663108,-0.008509950712323189,0.004185052588582039,1.634675311779077e-10,0.004748589359223843
0.00798493530601263,0.0029063078109174967,-0.007878025062382221,0.0037120787892490625,1.0673260886218117e-11,0.0046262433752417564
0.007739449385553598,0.0030778171494603157,-0.007662168703973293,0.003565669758245349,6.968876972886229e-13,0.004387690685689449
0.007907235063612461,0.0033482853323221207,-0.008391234092414379,0.004090534057468176,4.5501783222344494e-14,0.004352220334112644
0.0074679236859083176,0.0032198461703956127,-0.00787391047924757,0.00423075444996357,2.970941169198383e-15,0.004797871690243483
0.008121879771351814,0.003401723224669695,-0.00736443605273962,0.004301323089748621,1.9398122547730406e-16,0.005023455712944269
0.008449330925941467,0.0030351642053574324,-0.007329171989113092,0.00404508737847209,1.266558853452311e-17,0.004922221880406141
0.008050204254686832,0.003096307860687375,-0.00809893012046814,0.0037996633909642696,8.26972473231394e-19,0.004707988351583481
0.008022300899028778,0.0036753579042851925,-0.0072890380397439,0.0037993635050952435,3.525514048741328e-21,0.004504689946770668
0.008146874606609344,0.003347227117046714,-0.0072241490706801414,0.00407952256500721,2.301908743209396e-22,0.0044190604239702225
0.007743491791188717,0.003164437133818865,-0.007988730445504189,0.0044501652009785175,1.502981815065583e-23,0.004370458424091339
0.007754059042781591,0.003281866665929556,-0.0077039157040417194,0.00453973887488246,9.813397120437046e-25,0.004506708588451147
0.00794611033052206,0.0030002822168171406,-0.008067573420703411,0.004190461710095406,6.407446898055057e-26,0.004622144158929586
0.00870770588517189,0.003229514230042696,-0.007966282777488232,0.004321390297263861,4.183605173555062e-27,0.004248437006026506
0.007904140278697014,0.0033569822553545237,-0.007584104314446449,0.004239581525325775,2.7315955513379985e-28,0.004239826928824186
0.008944728411734104,0.0035326494835317135,-0.007268949411809444,0.004032929427921772,1.7835366148755194e-29,0.004217253066599369
0.007878662087023258,0.003724141279235482,-0.0074191321618855,0.004254546016454697,1.16452191039352e-30,0.00430702930316329
0.007182127796113491,0.003798368154093623,-0.008088302798569202,0.0045187585055828094,7.603494778209134e-32,0.0043663098476827145
0.007182127796113491,0.003798368154093623,-0.008088302798569202,0.0045187585055828094,7.603494778209134e-32,0.0043663098476827145
0.007570269517600536,0.003347321879118681,-0.00818987749516964,0.004283357877284288,4.964538760224693e-33,0.004404702223837376
0.008744367398321629,0.0035042045637965202,-0.007416539825499058,0.003982162103056908,3.241489038884807e-34,0.004091558046638966
0.008530430495738983,0.0033011380583047867,-0.007589093409478664,0.004222682677209377,2.1164607899788873e-35,0.00367380166426301
0.00789392925798893,0.003187826368957758,-0.007886257953941822,0.004303356632590294,1.3818976776628311e-36,0.0033918642438948154
0.007483281660825014,0.003198485355824232,-0.008685956709086895,0.004033268895000219,9.022803866359493e-38,0.0035310511011630297
0.008017661049962044,0.003312047105282545,-0.007766093127429485,0.004224847536534071,5.89124651801575e-39,0.0039824228733778
0.008037195540964603,0.003368247067555785,-0.007361855357885361,0.004218814428895712,3.846564284571623e-40,0.0039040003903210163
0.0076243700459599495,0.0036221598275005817,-0.007738970685750246,0.004352707881480455,2.5115472376093696e-41,0.0036202238406986
0.007454810664057732,0.003415747545659542,-0.00838991068303585,0.004051391966640949,1.639519203260036e-42,0.0034934566356241703
0.008048237301409245,0.0036161497700959444,-0.00782725214958191,0.004224497824907303,1.064986832886861e-43,0.0036417865194380283
0.008255365304648876,0.003397655673325062,-0.007398124318569899,0.00439094752073288,7.006492321624085e-45,0.0037141211796551943
0.007773900870233774,0.0034985034726560116,-0.008703752420842648,0.0043806042522192,0.0,0.003645230084657669
0.007682206574827433,0.003613408887758851,-0.007953633554279804,0.004621423315256834,0.0,0.003623716300353408
0.008211184293031693,0.0033144408371299505,-0.007445840630680323,0.004619428422302008,0.0,0.0037092487327754498
0.008165756240487099,0.0032351140398532152,-0.00791206955909729,0.004519570153206587,0.0,0.003688663011416793
0.008089577779173851,0.0034244731068611145,-0.0076970746740698814,0.004001210909336805,0.0,0.003728738520294428
0.008283354341983795,0.003651586128398776,-0.007487804163247347,0.003951693419367075,0.0,0.003799256170168519
0.007636232767254114,0.0037570144049823284,-0.009000342339277267,0.003918812610208988,0.0,0.003771835705265403
0.007551196962594986,0.0033734056632965803,-0.008049210533499718,0.0042162733152508736,0.0,0.0037842565216124058
0.008082021959125996,0.0035575581714510918,-0.006946240551769733,0.0046182479709386826,0.0,0.0038206004537642
0.008018774911761284,0.003314449917525053,-0.00785758811980486,0.004525684751570225,0.0,0.0034477447625249624
0.00808279775083065,0.003175735706463456,-0.008317939937114716,0.004368503112345934,0.0,0.003286216175183654
0.008491299115121365,0.003131852252408862,-0.008399429731070995,0.004115541465580463,0.0,0.0032693766988813877
0.008258613757789135,0.0031360466964542866,-0.007589065935462713,0.004429460968822241,0.0,0.002978724893182516
0.00842379778623581,0.0034539676271378994,-0.0071704695001244545,0.0046559968031942844,0.0,0.003023904049769044
0.007713567465543747,0.003289212938398123,-0.00793137215077877,0.004859397187829018,0.0,0.003428638679906726
0.008164318278431892,0.003514608135446906,-0.008680281229317188,0.0048560877330601215,0.0,0.003323068143799901
0.008164318278431892,0.003514608135446906,-0.008680281229317188,0.0048560877330601215,0.0,0.003323068143799901
0.00840164627879858,0.003268538974225521,-0.007742524612694979,0.004779907874763012,0.0,0.0031228542793542147
0.007759690284729004,0.0031531862914562225,-0.007450542878359556,0.004644082393497229,0.0,0.0028589849825948477
0.0076923673041164875,0.0031167331617325544,-0.007978156208992004,0.004131723195314407,0.0,0.0028608019929379225
0.00805674958974123,0.003137622494250536,-0.007829594425857067,0.004367797635495663,0.0,0.0028962206561118364
0.007894349284470081,0.00302510685287416,-0.0075262789614498615,0.004594088532030582,0.0,0.0028988737612962723
0.008120911195874214,0.002968316664919257,-0.008255977183580399,0.005136416759341955,0.0,0.002711906563490629
0.00855623185634613,0.0028917675372213125,-0.008401687256991863,0.005058289971202612,0.0,0.0029051792807877064
0.008041576482355595,0.0032103080302476883,-0.007667187601327896,0.004811881110072136,0.0,0.0030095598194748163
0.00805030856281519,0.0034004314802587032,-0.007561468984931707,0.0043207136914134026,0.0,0.002718202071264386
0.007963941432535648,0.003348548896610737,-0.008588997647166252,0.0043322304263710976,0.0,0.0026931718457490206
0.007861614227294922,0.003043349366635084,-0.008752115070819855,0.004701747093349695,0.0,0.002466953359544277
0.00881862360984087,0.00299598416313529,-0.007997189648449421,0.004842268768697977,0.0,0.002299119718372822
0.00813427846878767,0.0030562919564545155,-0.007051162887364626,0.005134617909789085,0.0,0.002284523332491517
0.007570161484181881,0.0031450577080249786,-0.008110684342682362,0.005015404894948006,0.0,0.0021905743051320314
0.008060370571911335,0.003200119361281395,-0.008138044737279415,0.005123567301779985,0.0,0.0022806888446211815
0.008147962391376495,0.0029703895561397076,-0.007655241526663303,0.004664979875087738,0.0,0.002357528079301119
0.008237156085669994,0.002937708981335163,-0.007767194416373968,0.004432510118931532,0.0,0.002336704172194004
0.008402417413890362,0.0028812200762331486,-0.008296053856611252,0.004550046753138304,1.656106292102777e-07,0.002186317928135395
0.00813310407102108,0.002876115031540394,-0.007614263333380222,0.004867284093052149,1.0813190343128554e-08,0.002085346495732665
0.007729731034487486,0.003155953250825405,-0.0074441987089812756,0.005140278488397598,7.060240170275733e-10,0.0019462937489151955
0.00822520162910223,0.003112346865236759,-0.008362996391952038,0.004921575076878071,4.60983230754497e-11,0.0019398160511627793
0.00832698866724968,0.002992114285007119,-0.007886512205004692,0.004444406367838383,3.009891598113046e-12,0.0018821523990482092
0.007750720251351595,0.003050923580303788,-0.008109848015010357,0.0043165371753275394,1.96524437348633e-13,0.001930796541273594
0.007849610410630703,0.0029362826608121395,-0.008212748914957047,0.004542721901088953,1.2831641131583194e-14,0.0021914539393037558
0.008209631778299809,0.0028256792575120926,-0.007930410094559193,0.00513030868023634,8.37814475931095e-16,0.002150694141164422
0.008278586901724339,0.003139583859592676,-0.007765599992126226,0.0051017445512115955,5.470330017525894e-17,0.002078874036669731
0.00825304165482521,0.0036271438002586365,-0.007594760041683912,0.004820872098207474,3.571734865731003e-18,0.0018598579335957766
0.00832299329340458,0.0033712340518832207,-0.00883211474865675,0.004507777746766806,2.3320876200648263e-19,0.00166851666290313
0.00832299329340458,0.0033712340518832207,-0.00883211474865675,0.004507777746766806,2.3320876200648263e-19,0.00166851666290313
0.00834406167268753,0.0032396335154771805,-0.007979540154337883,0.0044136056676507,1.5226865116085443e-20,0.0014667882351204753
0.008925599977374077,0.0031661291141062975,-0.007472424302250147,0.004395841155201197,9.94205362087229e-22,0.0013378560543060303
0.00810815766453743,0.0034255259670317173,-0.007707513868808746,0.00472306041046977,6.491450560997218e-23,0.0012974577257409692
0.00871632806956768,0.0037118576001375914,-0.008382754400372505,0.005041780415922403,4.238453008291607e-24,0.0012018593261018395
0.008589796721935272,0.0034789354540407658,-0.00899222306907177,0.004805765114724636,2.7674068859103576e-25,0.0011476232903078198
0.008415084332227707,0.003469902789220214,-0.008015894331037998,0.004361688159406185,1.8069188753293754e-26,0.0011908509768545628
0.008505976758897305,0.003227430395781994,-0.007700430229306221,0.004465303849428892,1.1797889579311523e-27,0.0012016885448247194
0.008874093182384968,0.0031644112896174192,-0.008055897429585457,0.004483652766793966,7.703178109752085e-29,0.0012261794181540608
0.00848544854670763,0.003155867336317897,-0.007986171171069145,0.004864426329731941,5.029625106603452e-30,0.0011821913067251444
0.00835062749683857,0.0032167681492865086,-0.007620619144290686,0.004819989670068026,3.2839858559571997e-31,0.001139815547503531
0.009442571550607681,0.003443797118961811,-0.008091793395578861,0.004757404793053865,2.1442082250753957e-32,0.0010849342215806246
0.008699837140738964,0.0032636262476444244,-0.008119253441691399,0.004583158530294895,1.400014690184306e-33,0.0010480176424607635
0.00837660115212202,0.003526867600157857,-0.00764191010966897,0.00421416899189353,9.141095213868984e-35,0.001093191560357809
0.009170477278530598,0.0037245829589664936,-0.00808864925056696,0.004460972733795643,5.968482165733634e-36,0.0010145885171368718
0.008857582695782185,0.0033320097718387842,-0.008369057439267635,0.005008192732930183,3.896992195835956e-37,0.0010268047917634249
0.008801322430372238,0.0031217008363455534,-0.007968183606863022,0.005322452634572983,2.5444575728231166e-38,0.0010072978911921382
0.008884578943252563,0.003337747883051634,-0.008243442513048649,0.00476806191727519,1.0847451412338409e-40,0.000920284423045814
0.008455394767224789,0.0033354582265019417,-0.008217846043407917,0.0046648685820400715,7.082162438697625e-42,0.0008702992927283049
0.00837772712111473,0.0031204097904264927,-0.007897265255451202,0.004707068670541048,4.624284932271896e-43,0.0007734750979579985
0.009018518961966038,0.003425915027037263,-0.007485854905098677,0.004755688365548849,3.0828566215145976e-44,0.0007760194130241871
0.009064492769539356,0.0033014467917382717,-0.008275373838841915,0.00493346294388175,1.401298464324817e-45,0.0006918762810528278
0.008750972338020802,0.0034775929525494576,-0.008516425266861916,0.004939022473990917,0.0,0.0006140595069155097
0.00922500528395176,0.00361671787686646,-0.007996156811714172,0.00507957860827446,0.0,0.0005513210198841989
0.009392574429512024,0.0031045875512063503,-0.008533955551683903,0.0049956426955759525,0.0,0.0005719721084460616
0.008906902745366096,0.0030681181233376265,-0.008371753618121147,0.004772577900439501,0.0,0.0005332716391421854
0.009099536575376987,0.0030335555784404278,-0.008219318464398384,0.004718709271401167,0.0,0.0004922107909806073
0.009309746325016022,0.0034840889275074005,-0.007907395251095295,0.005037734284996986,0.0,0.00045655432040803134
0.009409247897565365,0.0032965103164315224,-0.008612282574176788,0.0049395570531487465,0.0,0.00042568662320263684
0.009409247897565365,0.0032965103164315224,-0.008612282574176788,0.0049395570531487465,0.0,0.00042568662320263684
0.009265966713428497,0.0030861080158501863,-0.007971149869263172,0.004897576291114092,0.0,0.000398728676373139
0.010105517692863941,0.0031004997435957193,-0.008112781681120396,0.005161946173757315,0.0,0.0003749836760107428
0.009151081554591656,0.0032347647938877344,-0.008652367629110813,0.005025798920542002,0.0,0.00035390915581956506
0.009606117382645607,0.0031041407492011786,-0.008421818725764751,0.005421802401542664,-0.000267801369773224,0.00033507836633361876
0.009285049512982368,0.003011080203577876,-0.008301753550767899,0.005324352998286486,-0.0004556342028081417,0.00031815128750167787
0.009528051130473614,0.0030150157399475574,-0.006970657035708427,0.005307464394718409,-0.0004649525217246264,0.0003028523933608085
0.009227725677192211,0.0030711516737937927,-0.0089297816157341,0.004999143071472645,-0.0004837448359467089,0.0002889575553126633
0.009545530192553997,0.003154127625748515,-0.008868123404681683,0.004809616133570671,-0.00046462149475701153,0.0001228883775183931
0.009500755928456783,0.0030263373628258705,-0.008170314133167267,0.004664091859012842,-0.0004792697436641902,9.563491767039523e-05
0.00888107344508171,0.0028956960886716843,-0.0076776305213570595,0.0049375914968550205,-0.0004627224989235401,8.951855852501467e-05
0.009471741504967213,0.0027941418811678886,-0.008736878633499146,0.005071853753179312,-0.0004367194196674973,8.519156108377501e-05
0.009718681685626507,0.003217739285901189,-0.007933986373245716,0.005409933626651764,-0.0005844186525791883,5.879291711607948e-05
0.009803464636206627,0.0031293428037315607,-0.008379231207072735,0.004953385796397924,-0.0006158264586701989,3.8594353100052103e-05
0.009656831622123718,0.003465859917923808,-0.00871350523084402,0.004802525509148836,-0.0006413997616618872,3.5896497138310224e-05
0.009963791817426682,0.003292082343250513,-0.008081482723355293,0.005221555940806866,-0.0008295305306091905,1.758434700604994e-05
0.009948786348104477,0.0030445035081356764,-0.007715667597949505,0.0053512887097895145,-0.0009006677428260446,1.1481322417239426e-06
0.009929316118359566,0.0028965543024241924,-0.008758196607232094,0.005438362248241901,-0.0009045181795954704,7.496483078739402e-08
0.009895304217934608,0.002839695429429412,-0.00881478562951088,0.005065588746219873,-0.0008604407194070518,4.8946673381067285e-09
0.009477530606091022,0.0029783083591610193,-0.008190262131392956,0.005128807388246059,-0.0008131274953484535,3.1958682922272885e-10
0.009932373650372028,0.003349855775013566,-0.007829004898667336,0.005217093043029308,-0.0008144212770275772,2.086673542289752e-11
0.010274502448737621,0.0031544112134724855,-0.00876388419419527,0.005316420458257198,-0.0008342846413142979,1.3624487822661013e-12
0.010043884627521038,0.0031689938623458147,-0.008572643622756004,0.005649644415825605,-0.0008351894211955369,8.895817161245004e-14
0.010089040733873844,0.0032433487940579653,-0.008407758548855782,0.005242327693849802,-0.0008284425712190568,5.808333618218496e-15
0.010258364491164684,0.00317242369055748,-0.008991564624011517,0.005348144564777613,-0.0008602424059063196,-0.00020003241661470383
0.011508770287036896,0.003107629716396332,-0.008629598654806614,0.0052878279238939285,-0.0009436599793843925,-0.0009568059467710555
0.011508770287036896,0.003107629716396332,-0.008629598654806614,0.0052878279238939285,-0.0009436599793843925,-0.0009568059467710555
0.011231692507863045,0.0035062420647591352,-0.008436594158411026,0.005483399145305157,-0.0009420552523806691,-0.0010842554038390517
0.010698557831346989,0.003084371564909816,-0.009019961580634117,0.0057921502739191055,-0.0009490693919360638,-0.002192907501012087
0.010969563387334347,0.0030698853079229593,-0.008974955417215824,0.0061166491359472275,-0.001241260557435453,-0.00236861826851964
0.010726746171712875,0.0030222658533602953,-0.008744947612285614,0.005711326375603676,-0.0013586007989943027,-0.0023617809638381004
0.011656614951789379,0.003054739208891988,-0.008119526319205761,0.005775724537670612,-0.001452831900678575,-0.0023702357430011034
0.011288611218333244,0.003364721778780222,-0.008806352503597736,0.005684420000761747,-0.0013996968045830727,-0.0021612970158457756
0.01087583601474762,0.0030415139626711607,-0.008970219641923904,0.006111666560173035,-0.0013001954648643732,-0.0021789721213281155
0.01157528068870306,0.0030790248420089483,-0.008944973349571228,0.0060208323411643505,-0.0012306924909353256,-0.0023272514808923006
0.010943252593278885,0.002940318314358592,-0.0092548206448555,0.005916381720453501,-0.0010592553298920393,-0.0023224500473588705
0.011224954389035702,0.002908924361690879,-0.008575376123189926,0.005623247474431992,-0.0008850962040014565,-0.0024589765816926956
0.011608829721808434,0.002566741779446602,-0.008397001773118973,0.0057794987224042416,-0.0007208731258288026,-0.0025492871645838022
0.011400937102735043,0.001956535503268242,-0.009199378080666065,0.00619254307821393,-0.0006197530310600996,-0.0026178830303251743
0.011039112694561481,0.0018345698481425643,-0.008709619753062725,0.005750530865043402,-0.0006283383700065315,-0.005119200795888901
0.012168209999799728,0.0020565292797982693,-0.008396344259381294,0.0057832770980894566,-0.0006523738848045468,-0.005040312651544809
0.011438263580203056,0.0023705989588052034,-0.008858108893036842,0.00565054826438427,-0.0006404443993233144,-0.004399883095175028
0.010844637639820576,0.0023036664351820946,-0.009006191976368427,0.005787318106740713,-0.0007281670696102083,-0.004309529438614845
0.011063069105148315,0.0023000678047537804,-0.00900412630289793,0.005426152143627405,-0.0008290605619549751,-0.004425982013344765
0.011288589797914028,0.0020816908217966557,-0.009396901354193687,0.0051484196446835995,-0.0014392805751413107,-0.004379580728709698
0.011058250442147255,0.0020921602845191956,-0.008879956789314747,0.005572735797613859,-0.0015590948751196265,-0.004607555456459522
0.01146557554602623,0.0022869068197906017,-0.008485815487802029,0.0053448607213795185,-0.0014410857111215591,-0.0051148128695786
0.011056704446673393,0.002219506073743105,-0.009609678760170937,0.005377683322876692,-0.0012854441301897168,-0.005639186128973961
0.011657427065074444,0.0021652004215866327,-0.008854634128510952,0.005778334103524685,-0.0011770331766456366,-0.005546627566218376
0.011699098162353039,0.0020762516651302576,-0.008720573969185352,0.00593901751562953,-0.0010032798163592815,-0.005547254346311092
0.011194411665201187,0.002048565074801445,-0.00885608047246933,0.0054679387249052525,-0.0009784854482859373,-0.005255867261439562
0.011194411665201187,0.002048565074801445,-0.00885608047246933,0.0054679387249052525,-0.0009784854482859373,-0.005255867261439562
0.011250033043324947,0.001994908321648836,-0.009107802994549274,0.005695278290659189,-0.0009428370394743979,-0.005348315462470055
0.01125722099095583,0.002037473488599062,-0.009071455337107182,0.005717942025512457,-0.0008651387179270387,-0.005869438871741295
0.011561265215277672,0.0019896544981747866,-0.008990456350147724,0.005624857265502214,-0.0007085142424330115,-0.006092687603086233
0.011772620491683483,0.0019745149184018373,-0.009057504124939442,0.005598300602287054,-0.0007152289035730064,-0.006271115504205227
0.011453288607299328,0.0019400451565161347,-0.008788222447037697,0.006029142998158932,-0.0007360500749200583,-0.006226868834346533
0.011712102219462395,0.0019820411689579487,-0.009249807335436344,0.005927895661443472,-0.0007534677861258388,-0.0063382647931575775
0.011231184005737305,0.0019529256969690323,-0.009638983756303787,0.005873804446309805,-0.0008797574555501342,-0.007021462544798851
0.011501286178827286,0.0020656853448599577,-0.009014123119413853,0.006059395149350166,-0.0009774534264579415,-0.007383949588984251
0.011420823633670807,0.002016949001699686,-0.008238296024501324,0.006028932053595781,-0.0009726533899083734,-0.007015462964773178
0.010958005674183369,0.002131860237568617,-0.009864000603556633,0.00621787179261446,-0.0009156288579106331,-0.006701125297695398
0.011423546820878983,0.0020470027811825275,-0.009633270092308521,0.005875594448298216,-0.0010724959429353476,-0.007262852042913437
0.011368755251169205,0.001999323023483157,-0.00924566201865673,0.005966646131128073,-0.0009751176694408059,-0.007549261208623648
0.011963040567934513,0.0019487888785079122,-0.008660157211124897,0.0061435154639184475,-0.0009588314569555223,-0.008078929968178272
0.011190859600901604,0.002169934567064047,-0.008782687596976757,0.006327984854578972,-0.0008970084600150585,-0.007619993295520544
0.01156298816204071,0.0021653990261256695,-0.009061146527528763,0.006367288995534182,-0.0008802929078228772,-0.008035681210458279
0.011768686585128307,0.0023235552944242954,-0.008967692032456398,0.005731516517698765,-0.0008993105730041862,-0.00805725995451212
0.012386963702738285,0.002186795463785529,-0.008970540948212147,0.006301607005298138,-0.000900454178918153,-0.007768354844301939
0.011550352908670902,0.0020762288477271795,-0.009384635835886002,0.006228483747690916,-0.0010932511650025845,-0.008122647181153297
0.011099855415523052,0.0020731596741825342,-0.009163927286863327,0.005995967425405979,-0.001006067730486393,-0.008294335566461086
0.011427655816078186,0.0020214752294123173,-0.008868208155035973,0.0059654321521520615,-0.0009755602804943919,-0.008122398518025875
0.0118367625400424,0.0019660957623273134,-0.008442114107310772,0.005902930162847042,-0.0008593538077548146,-0.008328907191753387
0.012532059103250504,0.001977534033358097,-0.009137792512774467,0.006203995086252689,-0.0008354520541615784,-0.008897263556718826
0.01203112117946148,0.0019906756933778524,-0.008942456915974617,0.0062215905636549,-0.0007701386930420995,-0.008542141877114773
0.01203112117946148,0.0019906756933778524,-0.008942456915974617,0.0062215905636549,-0.0007701386930420995,-0.008542141877114773
0.0115431547164917,0.0022265224251896143,-0.008476980030536652,0.005853425245732069,-0.0006845195312052965,-0.008419936522841454
0.011907199397683144,0.0021209469996392727,-0.009530234150588512,0.006151976995170116,-0.0006445400649681687,-0.008411245420575142
0.011691291816532612,0.0020834507886320353,-0.009448239579796791,0.005917720962315798,-0.0006696492782793939,-0.008915805257856846
0.011832213960587978,0.00193799810949713,-0.008487887680530548,0.006534563843160868,-0.0006932928808964789,-0.009648652747273445
0.012187409214675426,0.0020970460027456284,-0.008676608093082905,0.006689498201012611,-0.0008583039161749184,-0.009219544008374214
0.012266828678548336,0.0021567530930042267,-0.010085727088153362,0.005828323774039745,-0.0010191063629463315,-0.009641101583838463
0.012020318768918514,0.002140143420547247,-0.00885581411421299,0.005680507980287075,-0.001126762479543686,-0.009471829980611801
0.011814492754638195,0.002419369760900736,-0.008409594185650349,0.006008731201291084,-0.0012824839213863015,-0.009339792653918266
0.0125108752399683,0.0021857076790183783,-0.009260034188628197,0.006326537113636732,-0.0013798808213323355,-0.009929388761520386
0.012149176560342312,0.0021025119349360466,-0.009162208996713161,0.006485812831670046,-0.0013663868885487318,-0.009625851176679134
0.01177782379090786,0.001994200749322772,-0.008917049504816532,0.006419976241886616,-0.0014491559704765677,-0.009314851835370064
0.012290067039430141,0.001983992988243699,-0.009367557242512703,0.006471148692071438,-0.0014037472428753972,-0.009500250220298767
0.01187653373926878,0.0019600028172135353,-0.008763409219682217,0.006460319738835096,-0.0013357539428398013,-0.009571246802806854
0.011930890381336212,0.002186809666454792,-0.008424987085163593,0.007038614712655544,-0.0013356941053643823,-0.009846823289990425
0.012166525237262249,0.0022087255492806435,-0.009564338251948357,0.00675225630402565,-0.0013063393998891115,-0.009901400655508041
0.012006177566945553,0.0021101359743624926,-0.009615913033485413,0.00675878906622529,-0.0012589108664542437,-0.00985635258257389
0.012222465127706528,0.0021186801604926586,-0.009097046218812466,0.006806179415434599,-0.0011782838264480233,-0.010350898839533329
0.01244444865733385,0.00199909252114594,-0.009346608072519302,0.0071761407889425755,-0.0010695499368011951,-0.010396355763077736
0.01241798885166645,0.00196451717056334,-0.009127180092036724,0.0071562305092811584,-0.0010097743943333626,-0.010023809969425201
0.012099133804440498,0.002159585477784276,-0.009300412610173225,0.006757835391908884,-0.0009474499383941293,-0.010683859698474407
0.01201177854090929,0.0021481660660356283,-0.00907225999981165,0.007323523052036762,-0.0009548348607495427,-0.010818387381732464
0.012338496744632721,0.002124641789123416,-0.00883922167122364,0.007173448335379362,-0.0009473972604610026,-0.011082257144153118
0.012459216639399529,0.001980644417926669,-0.008617510087788105,0.007225455716252327,-0.0009570289985276759,-0.011126191355288029
0.012459216639399529,0.001980644417926669,-0.008617510087788105,0.007225455716252327,-0.0009570289985276759,-0.011126191355288029
0.013704467564821243,0.0018456466495990753,-0.009059708565473557,0.007411078549921513,-0.0010698125697672367,-0.011446069926023483
0.01333064865320921,0.0018655115272849798,-0.008613667450845242,0.007464085705578327,-0.0011262069456279278,-0.01166544295847416
0.01333064865320921,0.0018655115272849798,-0.008613667450845242,0.007464085705578327,-0.0011262069456279278,-0.01166544295847416
0.01351312454789877,0.0018679825589060783,-0.009004580788314342,0.007374980486929417,-0.0010448024841025472,-0.011319844983518124
0.01285195630043745,0.0019238940440118313,-0.009131553582847118,0.006539932452142239,-0.0010364362969994545,-0.01130809634923935
0.013558441773056984,0.0019373605027794838,-0.009230897761881351,0.006677779834717512,-0.0010116650955751538,-0.01058890949934721
0.013283289037644863,0.001968639437109232,-0.008927163667976856,0.007024705410003662,-0.0009936126880347729,-0.010816498659551144
0.013239318504929543,0.0018839009571820498,-0.009621340781450272,0.0072047095745801926,-0.0009805356385186315,-0.011605571955442429
0.013423985801637173,0.0018881616415455937,-0.00852761510759592,0.007068285718560219,-0.000895163044333458,-0.011245268397033215
0.01371283084154129,0.0018240169156342745,-0.008560122922062874,0.006829080171883106,-0.0008817914058454335,-0.011553782038390636
0.013783120550215244,0.001849980209954083,-0.009457421489059925,0.007304690312594175,-0.000883600558154285,-0.011408038437366486
0.013632244430482388,0.0020814635790884495,-0.0090760737657547,0.00726060476154089,-0.0008857115753926337,-0.01328418031334877
0.013997724279761314,0.0020703801419585943,-0.008778964169323444,0.007278930861502886,-0.0009833363583311439,-0.011233537457883358
0.013700745068490505,0.002102506347000599,-0.009111938998103142,0.006852328311651945,-0.0010094566969200969,-0.010497281327843666
0.013735112734138966,0.0020973957143723965,-0.008949356153607368,0.006961937062442303,-0.001109530683606863,-0.010501849465072155
0.013468265533447266,0.0020742269698530436,-0.0076906150206923485,0.007378405891358852,-0.0012530735693871975,-0.01089857704937458
0.014257509261369705,0.0020254007540643215,-0.009912476874887943,0.0071288649924099445,-0.0012541511096060276,-0.010985251516103745
0.013825940899550915,0.0019287880277261138,-0.009420311078429222,0.006633548531681299,-0.0012721132952719927,-0.011630910448729992
0.013918985612690449,0.0018373404163867235,-0.008670165203511715,0.007340036798268557,-0.00116288335993886,-0.011258375830948353
0.014261092059314251,0.001600730582140386,-0.009508585557341576,0.007094090338796377,-0.0011388458078727126,-0.011875027790665627
0.01407672744244337,0.001661772490479052,-0.009433542378246784,0.006746768951416016,-0.0011225887574255466,-0.011878731660544872
0.014388509094715118,0.0019188629230484366,-0.009463667869567871,0.007415656000375748,-0.0012873278465121984,-0.012261660769581795
0.013955472968518734,0.0021320872474461794,-0.009530384093523026,0.007518104277551174,-0.001259004115127027,-0.01240104716271162
0.014458231627941132,0.002070484682917595,-0.009114907123148441,0.007465148810297251,-0.0012174267321825027,-0.012800049968063831
0.014256851747632027,0.0017819753848016262,-0.009358215145766735,0.0076643358916044235,-0.0013685871381312609,-0.012466488406062126
0.014742731116712093,0.0018013264052569866,-0.010325993411242962,0.007146802265197039,-0.0012845831224694848,-0.012562636286020279
0.014189627952873707,0.0016767337219789624,-0.009233918972313404,0.007970407605171204,-0.0012386235175654292,-0.01265637669712305
0.014841497875750065,0.001784251187928021,-0.009688368998467922,0.007800103630870581,-0.0011414604960009456,-0.013098999857902527
0.01446146797388792,0.0019319412531331182,-0.010190971195697784,0.0070100827142596245,-0.001098890439607203,-0.013367700390517712
0.015079970471560955,0.002001927699893713,-0.009799366816878319,0.008037879131734371,-0.0011489925673231483,-0.013768691569566727
0.014663033187389374,0.001934354892000556,-0.009759387001395226,0.008480887860059738,-0.0011648415820673108,-0.014461892656981945
0.01507424283772707,0.0018810954643413424,-0.010349828749895096,0.008037405088543892,-0.0011991587234660983,-0.014502654783427715
0.01507424283772707,0.0018810954643413424,-0.010349828749895096,0.008037405088543892,-0.0011991587234660983,-0.014502654783427715
0.014679612591862679,0.0017526866868138313,-0.009533061645925045,0.007706283126026392,-0.0012400989653542638,-0.013874031603336334
0.01496550627052784,0.0018839901313185692,-0.009412971325218678,0.007788554299622774,-0.0014913288177922368,-0.013650709763169289
0.01483557466417551,0.0017090224428102374,-0.011327879503369331,0.00812902208417654,-0.0015197104075923562,-0.01432277075946331
0.015262516215443611,0.001695074955932796,-0.01105720829218626,0.007936401292681694,-0.0015981406904757023,-0.01425940915942192
0.015056132338941097,0.0017201140290126204,-0.011012038215994835,0.007608967367559671,-0.0015522778267040849,-0.01472348254173994
0.01543052401393652,0.0018739994848147035,-0.01087140291929245,0.008751289919018745,-0.0014267865335568786,-0.014694634824991226
0.014928425662219524,0.0019432406406849623,-0.010493297129869461,0.008192609064280987,-0.0013461824273690581,-0.01500760205090046
0.01537056639790535,0.0020640743896365166,-0.011125439777970314,0.008016322739422321,-0.0012541991891339421,-0.01530146598815918
0.015339006669819355,0.0020002764649689198,-0.011266271583735943,0.007951442152261734,-0.0013041440397500992,-0.015536320395767689
0.014934645965695381,0.0019455672008916736,-0.011153001338243484,0.007689806632697582,-0.0013333422830328345,-0.015677418559789658
0.015143937431275845,0.0019105701940134168,-0.011426457203924656,0.007317929528653622,-0.0014724500942975283,-0.015591831877827644
0.015380201861262321,0.0019221854163333774,-0.010794343426823616,0.0073470743373036385,-0.0014176347758620977,-0.01568707451224327
0.015582351014018059,0.0018950706580653787,-0.011244398541748524,0.0076189409010112286,-0.0014687817310914397,-0.015739236027002335
0.015464870259165764,0.001881967531517148,-0.011659400537610054,0.0076991356909275055,-0.001361846923828125,-0.016249671578407288
0.015339291654527187,0.0021246152464300394,-0.011549062095582485,0.007062844932079315,-0.0014682081528007984,-0.016284720972180367
0.015673402696847916,0.0019099815981462598,-0.011150788515806198,0.00703815883025527,-0.0014878836227580905,-0.016600262373685837
0.015359272249042988,0.002086509484797716,-0.011418121866881847,0.008107624016702175,-0.0014523046556860209,-0.01658519357442856
0.016089286655187607,0.0018460768042132258,-0.011293458752334118,0.00827278196811676,-0.0015208898112177849,-0.01681237481534481
0.01578536070883274,0.0017369434935972095,-0.010851708240807056,0.007439556065946817,-0.0014648160431534052,-0.016877073794603348
0.016065040603280067,0.0016023097559809685,-0.011651409789919853,0.0074923038482666016,-0.0013574763434007764,-0.017595479264855385
0.016203317791223526,0.001577451708726585,-0.010849645361304283,0.00877527054399252,-0.0013828548835590482,-0.017373673617839813
0.015934152528643608,0.0016671732300892472,-0.011128248646855354,0.008210823871195316,-0.001341457711532712,-0.01744047738611698
0.016157686710357666,0.0018052189843729138,-0.012273476459085941,0.0075826020911335945,-0.0012320347595959902,-0.017670949921011925
0.016157686710357666,0.0018052189843729138,-0.012273476459085941,0.0075826020911335945,-0.0012320347595959902,-0.017670949921011925
0.015968412160873413,0.0018438734114170074,-0.011500759050250053,0.00813242606818676,-0.001195726916193962,-0.018210140988230705
0.016211263835430145,0.0016918005421757698,-0.011471674777567387,0.008210799656808376,-0.001233285991474986,-0.017862649634480476
0.01621888391673565,0.001655584666877985,-0.011299213394522667,0.007917863316833973,-0.0012330937897786498,-0.017526837065815926
0.016622111201286316,0.001641281065531075,-0.011435658670961857,0.007922079414129257,-0.0013426135992631316,-0.01751534268260002
0.017147358506917953,0.001739434082992375,-0.011481200344860554,0.008711088448762894,-0.0013493695296347141,-0.017871106043457985
0.016742590814828873,0.0017716310685500503,-0.01133064366877079,0.008128209970891476,-0.0015963861951604486,-0.017881833016872406
0.016847630962729454,0.0016532287700101733,-0.011664378456771374,0.008034230209887028,-0.0015995879657566547,-0.01807476580142975
0.0164385624229908,0.0012776220683008432,-0.011519057676196098,0.00897509790956974,-0.001538835815154016,-0.018119875341653824
0.016704903915524483,0.0011849035508930683,-0.011357991024851799,0.00870057474821806,-0.0015375593211501837,-0.01846320740878582
0.016264120116829872,0.0009774727514013648,-0.0116351917386055,0.00820399634540081,-0.0014861270319670439,-0.017929626628756523
0.016728488728404045,0.0009632690344005823,-0.010537240654230118,0.008458361960947514,-0.0013136224588379264,-0.017594285309314728
0.016952509060502052,0.0009634207817725837,-0.010598315857350826,0.00884038582444191,-0.0013338378630578518,-0.018033970147371292
0.016877347603440285,0.0008517075912095606,-0.011042838916182518,0.008374067954719067,-0.0013018980389460921,-0.01872374676167965
0.016942115500569344,0.0009477751445956528,-0.010853957384824753,0.008018291555345058,-0.0013953651068732142,-0.01925082877278328
0.01658567041158676,0.0014174646930769086,-0.010795734822750092,0.008888892829418182,-0.0013620671816170216,-0.018748920410871506
0.017745034769177437,0.001357673667371273,-0.011653626337647438,0.00829402171075344,-0.0013362488243728876,-0.018466811627149582
0.01761028729379177,0.0011998411500826478,-0.011377372778952122,0.007962663657963276,-0.001568482373841107,-0.01858675293624401
0.017641494050621986,0.0010331894736737013,-0.011048170737922192,0.008372009731829166,-0.0019123140955343843,-0.018824249505996704
0.018676359206438065,0.0009034875547513366,-0.010909630917012691,0.00837269239127636,-0.0017659554723650217,-0.019349167123436928
0.017470724880695343,0.0008026870200410485,-0.011276539415121078,0.007781882304698229,-0.0015403624856844544,-0.01941385306417942
0.017279423773288727,0.0006479115108959377,-0.010405017994344234,0.008454980328679085,-0.0015073902904987335,-0.01962590217590332
0.017422253265976906,0.0005380854126997292,-0.010934040881693363,0.009351805783808231,-0.0014666593633592129,-0.019390350207686424
0.017724663019180298,0.0005721091874875128,-0.010925063863396645,0.008201374672353268,-0.0014666628558188677,-0.01937747932970524
0.01790464110672474,0.0005967908655293286,-0.010666574351489544,0.008069997653365135,-0.00153512938413769,-0.019708050414919853
0.018045132979750633,0.0006054189288988709,-0.011125697754323483,0.008411201648414135,-0.0016972520388662815,-0.019390134140849113
0.018045132979750633,0.0006054189288988709,-0.011125697754323483,0.008411201648414135,-0.0016972520388662815,-0.019390134140849113
0.01814248226583004,0.0005828607245348394,-0.010881278663873672,0.0086550023406744,-0.0015943965408951044,-0.0195454154163599
0.017638755962252617,0.0007294822135008872,-0.010976319201290607,0.00841260515153408,-0.0015285414410755038,-0.019785810261964798
0.018353037536144257,0.0007510108989663422,-0.011128676123917103,0.009075150825083256,-0.0016161120729520917,-0.01975821703672409
0.01819450594484806,0.0007352264365181327,-0.010420129634439945,0.008737648837268353,-0.0015653439331799746,-0.02012738212943077
0.017970582470297813,0.0006888580974191427,-0.010878385975956917,0.008817288093268871,-0.0016815137350931764,-0.020360426977276802
0.01857302151620388,0.0006791157647967339,-0.010936472564935684,0.009235700592398643,-0.0016727165784686804,-0.019867410883307457
0.018275732174515724,0.0006459258147515357,-0.01057533547282219,0.00905588548630476,-0.001573872985318303,-0.020122487097978592
0.018176430836319923,0.000642975966911763,-0.010972043499350548,0.00890402588993311,-0.001618667389266193,-0.020632361993193626
0.018461262807250023,0.0006428735214285553,-0.010858474299311638,0.008684154599905014,-0.0015445246826857328,-0.020446645095944405
0.01844904012978077,0.0006057409918867052,-0.010760607197880745,0.008640751242637634,-0.0015761055983603,-0.02040291763842106
0.01879638433456421,0.0006247955607250333,-0.011219612322747707,0.009311129339039326,-0.0015967213548719883,-0.020308267325162888
0.018524613231420517,0.0006311701145023108,-0.01078298781067133,0.008514822460711002,-0.0016399562591686845,-0.020782437175512314
0.018184620887041092,0.0006073519471101463,-0.01086190901696682,0.008760742843151093,-0.0016800417797639966,-0.020960278809070587
0.018724197521805763,0.0007658157264813781,-0.009838458150625229,0.008858644403517246,-0.0015884239692240953,-0.0206981860101223
0.018804281949996948,0.0007851269328966737,-0.011166704818606377,0.008377380669116974,-0.0015018295962363482,-0.02079082652926445
0.01893993839621544,0.0007473894511349499,-0.01074166689068079,0.00892829429358244,-0.001357848639599979,-0.021542318165302277
0.01869906112551689,0.000895206758286804,-0.010755057446658611,0.009267931804060936,-0.001456618425436318,-0.02143644168972969
0.018488306552171707,0.0008997676777653396,-0.011858680285513401,0.008641372434794903,-0.0014073919737711549,-0.02132318541407585
0.019035853445529938,0.0008598150452598929,-0.01126886811107397,0.008655938319861889,-0.0017813786398619413,-0.021584397181868553
0.01867450587451458,0.0007910825661383569,-0.011716049164533615,0.009300772100687027,-0.0016742494190111756,-0.021550102159380913
0.01863224431872368,0.000791382510215044,-0.011636477895081043,0.008571512065827847,-0.0017243354814127088,-0.02171427570283413
0.019179850816726685,0.0007260309066623449,-0.011420449241995811,0.008723923936486244,-0.0017562765860930085,-0.022153018042445183
0.018554439768195152,0.0006694576004520059,-0.011874062940478325,0.008886465802788734,-0.0017718214076012373,-0.021887198090553284
0.018880506977438927,0.000698162941262126,-0.011063260957598686,0.00826936587691307,-0.0016941336216405034,-0.022114871069788933
0.019188227131962776,0.0007212692871689796,-0.012149558402597904,0.008578072302043438,-0.0016436839941889048,-0.02232574298977852
0.019123774021863937,0.0007396357832476497,-0.011750822886824608,0.008910417556762695,-0.001652453443966806,-0.022550059482455254
0.019116204231977463,0.0008779993513599038,-0.011576274409890175,0.008659872226417065,-0.0015893290983512998,-0.022672023624181747
0.01935066655278206,0.0008910312317311764,-0.011994918808341026,0.008805233985185623,-0.0016700251726433635,-0.022559966892004013
0.019200583919882774,0.00077886349754408,-0.011305738240480423,0.008869265206158161,-0.0016443192726001143,-0.023043543100357056
0.019015753641724586,0.0007893177680671215,-0.012109009549021721,0.008901926688849926,-0.0017301655607298017,-0.022775253280997276
0.019015753641724586,0.0007893177680671215,-0.012109009549021721,0.008901926688849926,-0.0017301655607298017,-0.022775253280997276
0.01911698281764984,0.0007706758915446699,-0.011651165783405304,0.00881398655474186,-0.0017824239330366254,-0.023122018203139305
0.01946781575679779,0.0007243704749271274,-0.011665030382573605,0.009188291616737843,-0.0019392491085454822,-0.023628493770956993
0.01983158476650715,0.0006829285994172096,-0.012301995418965816,0.009216929785907269,-0.0018363778945058584,-0.023576822131872177
0.020232582464814186,0.0007018234464339912,-0.011746922507882118,0.009344295598566532,-0.0017155562527477741,-0.023169871419668198
0.01963813416659832,0.0007009387481957674,-0.012252898886799812,0.009903241880238056,-0.0016807473730295897,-0.0228116512298584
0.019128497689962387,0.0006601750501431525,-0.011804408393800259,0.010359362699091434,-0.001646782853640616,-0.022765180096030235
0.019251525402069092,0.0006820840644650161,-0.012451691552996635,0.010182270780205727,-0.001975424587726593,-0.02306295558810234
0.01949438825249672,0.0008099105907604098,-0.012873712927103043,0.010615683160722256,-0.0022768352646380663,-0.023478083312511444
0.01957082748413086,0.0008264489588327706,-0.011981455609202385,0.0107800904661417,-0.0020789001137018204,-0.023791266605257988
0.020213721320033073,0.000721324875485152,-0.012411835603415966,0.010032773949205875,-0.001859156764112413,-0.023607678711414337
0.020048506557941437,0.0006363253924064338,-0.012039056979119778,0.010117214173078537,-0.0017571481876075268,-0.023207277059555054
0.019832197576761246,0.0005994514212943614,-0.012386216782033443,0.00989487860351801,-0.0015921256272122264,-0.024788115173578262
0.02032131887972355,0.0005994674284011126,-0.012404520064592361,0.009704780764877796,-0.0016337800770998001,-0.024634964764118195
0.02032739296555519,0.0005761829670518637,-0.01265993807464838,0.009579703211784363,-0.0018241676734760404,-0.024567311629652977
0.019921764731407166,0.0005120207788422704,-0.012484999373555183,0.00964435562491417,-0.001960615161806345,-0.024012165144085884
0.020331479609012604,0.000538462249096483,-0.01327661331743002,0.009803395718336105,-0.0020813916344195604,-0.02425198443233967
0.019585663452744484,0.0005528357578441501,-0.012366335839033127,0.009792975150048733,-0.0020321649499237537,-0.025168197229504585
0.019595975056290627,0.0005323378136381507,-0.012766316533088684,0.009818218648433685,-0.001930824713781476,-0.02556212618947029
0.02011295035481453,0.0005584082682617009,-0.012635204009711742,0.01053385715931654,-0.0018415504600852728,-0.02561408467590809
0.020339632406830788,0.0005207029171288013,-0.013317056000232697,0.00999883096665144,-0.0018503009341657162,-0.026057224720716476
0.01979626528918743,0.0006629936979152262,-0.012825731188058853,0.009847891516983509,-0.0017131411004811525,-0.026644069701433182
0.021122055128216743,0.0005985719035379589,-0.01313020195811987,0.010151015594601631,-0.0017030874732881784,-0.025778137147426605
0.020629703998565674,0.0005285388906486332,-0.013273955322802067,0.009827138856053352,-0.0019395537674427032,-0.02484619989991188
0.020469708368182182,0.00047314047697000206,-0.012720435857772827,0.009965963661670685,-0.0024445869494229555,-0.025435147807002068
0.020357010886073112,0.00042795846820808947,-0.012995204888284206,0.010513560846447945,-0.0022768103517591953,-0.026392780244350433
0.02081974595785141,0.00044173127389512956,-0.012859377078711987,0.010194103233516216,-0.0022092177532613277,-0.026659654453396797
0.020999521017074585,0.0004310877120587975,-0.013544715009629726,0.010680217295885086,-0.0020045172423124313,-0.02653244137763977
0.02083764225244522,0.00039964087773114443,-0.012828017584979534,0.010901317000389099,-0.001813527662307024,-0.026685284450650215
0.021123141050338745,0.0004265544412191957,-0.013512509874999523,0.010765649378299713,-0.0017686524661257863,-0.02650870755314827
0.021123141050338745,0.0004265544412191957,-0.013512509874999523,0.010765649378299713,-0.0017686524661257863,-0.02650870755314827
0.0214105024933815,0.00040602945955470204,-0.012932591140270233,0.011167056858539581,-0.001783706364221871,-0.026528500020503998
0.021395064890384674,0.00041709752986207604,-0.013626813888549805,0.01050059124827385,-0.0018011651700362563,-0.026879269629716873
0.02122647687792778,0.00041087885620072484,-0.013485411182045937,0.009876190684735775,-0.0021750677842646837,-0.02735326625406742
0.021495649591088295,0.00038961952668614686,-0.013671636581420898,0.010508854873478413,-0.002059569815173745,-0.027623815461993217
0.02158818580210209,0.0003329295723233372,-0.013404732570052147,0.010147474706172943,-0.002178507624194026,-0.027369849383831024
0.021626995876431465,0.0003096392611041665,-0.013408240862190723,0.010500297881662846,-0.0019290733616799116,-0.027658693492412567
0.021402085199952126,0.0003275117778684944,-0.013520054519176483,0.01027961727231741,-0.0017698232550173998,-0.0276354793459177
0.02164214663207531,0.00032633793307468295,-0.013573594391345978,0.009874246083199978,-0.0017372618895024061,-0.027746837586164474
0.021773578599095345,0.0003079744928982109,-0.013852610252797604,0.009869622997939587,-0.0017575075617060065,-0.028796223923563957
0.02205612324178219,0.0003379145637154579,-0.013407163321971893,0.010666707530617714,-0.001794558484107256,-0.028225412592291832
0.021895693615078926,0.0003224894462618977,-0.01379313226789236,0.010113353841006756,-0.00220865267328918,-0.028386494144797325
0.02219393476843834,0.000329396512825042,-0.01355800312012434,0.010289506055414677,-0.0020543003920465708,-0.02733663097023964
0.02234642393887043,0.00031944847432896495,-0.013106237165629864,0.010101433843374252,-0.001890233252197504,-0.02870296686887741
0.021683232858777046,0.00030593739938922226,-0.014048722572624683,0.010271006263792515,-0.0018348334124311805,-0.028097644448280334
0.02226322889328003,0.00037365101161412895,-0.01344394776970148,0.010311540216207504,-0.0021877428516745567,-0.028438076376914978
0.02273499220609665,0.00034829601645469666,-0.013831067830324173,0.010178728960454464,-0.0022680365946143866,-0.029247749596834183
0.022605551406741142,0.0003233151510357857,-0.013734301552176476,0.010278908535838127,-0.0023142765276134014,-0.029202470555901527
0.022458277642726898,0.000301638909149915,-0.014242177829146385,0.010058936662971973,-0.0021894616074860096,-0.028355414047837257
0.022377025336027145,0.00028268745518289506,-0.013422254472970963,0.009671100415289402,-0.0020352203864604235,-0.02816750295460224
0.022506972774863243,0.00031697683152742684,-0.01472124271094799,0.010053381323814392,-0.00205646432004869,-0.028806917369365692
0.022283237427473068,0.00030132700339891016,-0.013808419927954674,0.010496801696717739,-0.0024198212195187807,-0.02923932857811451
0.022916581481695175,0.0002854257181752473,-0.014239921234548092,0.010663176886737347,-0.002394959330558777,-0.029217304661870003
0.023314544931054115,0.0002710960397962481,-0.01423211582005024,0.011173902079463005,-0.0023308657109737396,-0.02933286502957344
0.023090697824954987,0.00029939928208477795,-0.01452407892793417,0.011303180828690529,-0.0021355373319238424,-0.02921190857887268
0.023151950910687447,0.0001825609797379002,-0.01416229922324419,0.01061671320348978,-0.002057849196717143,-0.02950611710548401
0.022737909108400345,0.00015458797861356288,-0.014020711183547974,0.010945417918264866,-0.002223031362518668,-0.02973266690969467
0.02279672957956791,7.21394972060807e-05,-0.01389433816075325,0.010752654634416103,-0.002003076719120145,-0.0300632044672966
0.02279672957956791,7.21394972060807e-05,-0.01389433816075325,0.010752654634416103,-0.002003076719120145,-0.0300632044672966
0.023375239223241806,0.00012191184214316308,-0.014425177127122879,0.010809138417243958,-0.0018207307439297438,-0.030294541269540787
0.023375239223241806,0.00012191184214316308,-0.014425177127122879,0.010809138417243958,-0.0018207307439297438,-0.030294541269540787
0.023090777918696404,0.0001149406234617345,-0.014482554979622364,0.01094994880259037,-0.0020387095864862204,-0.030454885214567184
0.02353159710764885,0.0001080505971913226,-0.014324595220386982,0.011967088095843792,-0.0021497332490980625,-0.030152471736073494
0.024045858532190323,0.00010193176422035322,-0.014564106240868568,0.011526952497661114,-0.0024150286335498095,-0.030821658670902252
0.02366476319730282,9.646804392104968e-05,-0.014450148679316044,0.010700584389269352,-0.002398810116574168,-0.03151819109916687
0.023421401157975197,9.156036685453728e-05,-0.014330822974443436,0.011548646725714207,-0.0022629541344940662,-0.03075902722775936
0.02364177070558071,8.712815906619653e-05,-0.014169047586619854,0.011426842771470547,-0.0020547418389469385,-0.031291116029024124
0.02354416809976101,8.310530392918736e-05,-0.014571509324014187,0.011560475453734398,-0.001992634730413556,-0.031971123069524765
0.02354019321501255,7.943757373141125e-05,-0.014525939710438251,0.011496896855533123,-0.0021206755191087723,-0.032064203172922134
0.024282343685626984,7.299438584595919e-05,-0.014400705695152283,0.011393794789910316,-0.0018257659394294024,-0.03167599439620972
0.023926451802253723,7.014964648988098e-05,-0.014648784883320332,0.011392468586564064,-0.0018964253831654787,-0.03180256858468056
0.02447442337870598,6.751815089955926e-05,-0.014420186169445515,0.01139750611037016,-0.002381155965849757,-0.03181559219956398
0.024728702381253242,6.507699436042458e-05,-0.014719882979989052,0.010779083706438541,-0.0023881748784333467,-0.03246186673641205
0.02479943260550499,6.280627712840214e-05,-0.014352061785757542,0.011291097849607468,-0.002352392766624689,-0.03245776891708374
0.024616004899144173,6.0688838857458904e-05,-0.014777954667806625,0.011969870887696743,-0.002346293069422245,-0.03207993879914284
0.024907508864998817,5.8709174481919035e-05,-0.014815459959208965,0.01187717542052269,-0.0022657664958387613,-0.032455090433359146
0.024463068693876266,5.685483483830467e-05,-0.014953352510929108,0.01174447312951088,-0.0023896486964076757,-0.03231571987271309
0.024366969242691994,5.511394556378946e-05,-0.014636306092143059,0.011844053864479065,-0.002228398807346821,-0.03244335949420929
0.024366969242691994,5.511394556378946e-05,-0.014636306092143059,0.011844053864479065,-0.002228398807346821,-0.03244335949420929
0.025029856711626053,5.193384276935831e-05,-0.014654791913926601,0.011498387902975082,-0.0020265080966055393,-0.033017657697200775
0.025029856711626053,5.193384276935831e-05,-0.014654791913926601,0.011498387902975082,-0.0020265080966055393,-0.033017657697200775
0.02547665871679783,5.047731610829942e-05,-0.014691445045173168,0.011357161216437817,-0.00208595534786582,-0.03257862851023674
0.025515753775835037,4.910045026917942e-05,-0.014435269869863987,0.011032598093152046,-0.0024415820371359587,-0.03359881788492203
0.02544071339070797,4.779663140652701e-05,-0.015053732320666313,0.011161268688738346,-0.0024656462483108044,-0.034532446414232254
0.02526242844760418,4.65602679469157e-05,-0.014708982780575752,0.011265230365097523,-0.0023378608748316765,-0.034417588263750076
0.02523098886013031,4.5386379497358575e-05,-0.015264911577105522,0.011631939560174942,-0.0025069836992770433,-0.034117475152015686
0.02494497038424015,4.427009116625413e-05,-0.014456924051046371,0.012119977734982967,-0.002779929433017969,-0.03205479308962822
0.025275807827711105,4.3207623093621805e-05,-0.015398078598082066,0.011529667302966118,-0.002694816794246435,-0.033034034073352814
0.025175508111715317,4.2194780689897016e-05,-0.01505354605615139,0.01172421034425497,-0.0026171000208705664,-0.03417687863111496
0.02573792263865471,4.1228358895750716e-05,-0.015055600553750992,0.011751721613109112,-0.0025043764617294073,-0.034222934395074844
0.025310978293418884,2.7049558411817998e-05,-0.014624952338635921,0.011930539272725582,-0.002316594123840332,-0.034677278250455856
0.025863248854875565,1.980376327992417e-05,-0.015506328083574772,0.011896751821041107,-0.0022619396913796663,-0.03433173894882202
0.024901004508137703,7.740313776594121e-07,-0.014881998300552368,0.011869239620864391,-0.0022216150537133217,-0.03296179696917534
0.025413479655981064,1.0384618498449072e-08,-0.015319298021495342,0.012307099997997284,-0.0023132245987653732,-0.03311314433813095
0.02586325630545616,1.3932291431650867e-10,-0.01544164214283228,0.011781512759625912,-0.0024350485764443874,-0.03463955968618393
0.025843260809779167,1.8691946861854047e-12,-0.015715431421995163,0.011711548082530499,-0.00241919606924057,-0.035009611397981644
0.026256006211042404,2.5077633519039397e-14,-0.015142950229346752,0.011969518847763538,-0.0025534313172101974,-0.03521747887134552
0.02516658790409565,3.3644847467122294e-16,-0.015356051735579967,0.012668106704950333,-0.0025414119008928537,-0.034679412841796875
0.025728320702910423,4.513885311622776e-18,-0.015777677297592163,0.012758675962686539,-0.0024777206126600504,-0.034510549157857895
0.02682885155081749,6.055952761918666e-20,-0.015673484653234482,0.012953517027199268,-0.0027571895625442266,-0.03472617641091347
0.026044625788927078,1.0900501287588382e-23,-0.015729961916804314,0.012469268403947353,-0.00294183730147779,-0.03510159254074097
0.026083355769515038,1.4624413755385182e-25,-0.016077715903520584,0.012823470868170261,-0.0027673952281475067,-0.035259392112493515
0.026594800874590874,1.9620517234591907e-27,-0.01549216266721487,0.012460782192647457,-0.0026428126730024815,-0.034963857382535934
0.026357877999544144,2.6323426914686915e-29,-0.01595035195350647,0.01224960945546627,-0.0023884109687060118,-0.034749776124954224
0.025640204548835754,3.5316237243618786e-31,-0.015332384034991264,0.012139461934566498,-0.0024646988604217768,-0.03629210963845253
0.025447677820920944,4.7381238545769354e-33,-0.01570696197450161,0.01186453364789486,-0.0026558376848697662,-0.03721151873469353
0.02598860301077366,6.356797942758457e-35,-0.01581704057753086,0.012303019873797894,-0.0027530996594578028,-0.03530203923583031
0.027229100465774536,8.528455811984772e-37,-0.01576077565550804,0.012768454849720001,-0.0026246386114507914,-0.03443949669599533
0.026812100782990456,1.1442011140363714e-38,-0.016581404954195023,0.013596983626484871,-0.002531899604946375,-0.03579013794660568
0.026940936222672462,1.5350944416985506e-40,-0.015609401278197765,0.01348999235779047,-0.0026571578346192837,-0.036348555237054825
0.02679615654051304,2.059908742557481e-42,-0.015951963141560555,0.013572841882705688,-0.0026490676682442427,-0.036905158311128616
0.02679615654051304,2.059908742557481e-42,-0.015951963141560555,0.013572841882705688,-0.0026490676682442427,-0.036905158311128616
0.02691924385726452,2.802596928649634e-44,-0.01534199807792902,0.012918450869619846,-0.0029856173787266016,-0.03732661157846451
0.027336589992046356,0.0,-0.016647888347506523,0.012754088267683983,-0.0029637590050697327,-0.03567153960466385
0.02676541917026043,0.0,-0.01580476574599743,0.012947576120495796,-0.0025726910680532455,-0.035247743129730225
0.026716597378253937,0.0,-0.015766393393278122,0.01236298494040966,-0.00248089455999434,-0.03632383793592453
0.02726536989212036,0.0,-0.015902526676654816,0.013229134492576122,-0.0022885450161993504,-0.03701237961649895
0.02720423974096775,0.0,-0.01610478386282921,0.01275060698390007,-0.0022504497319459915,-0.03722778707742691
0.027471117675304413,0.0,-0.01617301255464554,0.01286611333489418,-0.0023868009448051453,-0.03706596419215202
0.027475474402308464,0.0,-0.01549229770898819,0.012505271472036839,-0.0022705041337758303,-0.03621698543429375
0.026744676753878593,0.0,-0.01597428321838379,0.013082499615848064,-0.0024870247580111027,-0.037800729274749756
0.02745106630027294,0.0,-0.015670381486415863,0.012987577356398106,-0.0029904150869697332,-0.038446176797151566
0.02750387229025364,0.0,-0.016482962295413017,0.012921549379825592,-0.003125694813206792,-0.037849701941013336
0.02762359194457531,0.0,-0.01563486084342003,0.013141046278178692,-0.002764463424682617,-0.03784312307834625
0.02779446914792061,0.0,-0.015705455094575882,0.012929546646773815,-0.002675251802429557,-0.038106683641672134
0.02784149721264839,0.0,-0.01589345373213291,0.013664046302437782,-0.0025937058962881565,-0.038082920014858246
0.02760259248316288,0.0,-0.016230318695306778,0.013607405126094818,-0.002344042295590043,-0.038323529064655304
0.02814512513577938,0.0,-0.01628260873258114,0.013796296902000904,-0.0024902198929339647,-0.03876962885260582
0.02863650768995285,0.0,-0.015917878597974777,0.01317602302879095,-0.0025021068286150694,-0.039119068533182144
0.028337329626083374,0.0,-0.01634352281689644,0.01335230004042387,-0.0023787112440913916,-0.03875194117426872
0.02876652590930462,0.0,-0.015906857326626778,0.013268218375742435,-0.0026289005763828754,-0.03881099075078964
0.028819413855671883,0.0,-0.016196489334106445,0.013679931871592999,-0.0026326337829232216,-0.03908293694257736
0.028341302648186684,-0.0001696322433417663,-0.015361816622316837,0.013150755316019058,-0.0025347110349684954,-0.039348289370536804
0.0292443186044693,-0.00017024175031110644,-0.015936920419335365,0.013373440131545067,-0.002423482947051525,-0.03958413004875183
0.029282990843057632,-0.00016403810877818614,-0.016012409701943398,0.013226223178207874,-0.002379112411290407,-0.039871085435152054
0.0292777381837368,-0.00015826852177269757,-0.01615002378821373,0.013331947848200798,-0.0028396272100508213,-0.03997213393449783
0.029597457498311996,-0.00015289139992091805,-0.015792544931173325,0.013782165944576263,-0.0030155512504279613,-0.04007861018180847
0.02859313227236271,-0.000173958032974042,-0.01614694856107235,0.013780901208519936,-0.0028617223724722862,-0.039594653993844986
0.028502266854047775,-0.0001717491541057825,-0.015736330300569534,0.013381567783653736,-0.002779182279482484,-0.04096457362174988
0.02962133288383484,-0.00016649816825520247,-0.01616278663277626,0.013703806325793266,-0.0028869351372122765,-0.04227326810359955
0.02917020209133625,-0.00016151844465639442,-0.015459883026778698,0.013413873501121998,-0.002865056972950697,-0.04061204567551613
0.02925465814769268,-0.00018260447541251779,-0.016314808279275894,0.013910050503909588,-0.0027587597724050283,-0.03946669399738312
0.03031592071056366,-0.00017779707559384406,-0.016219008713960648,0.013187148608267307,-0.0025851987302303314,-0.03932387754321098
0.03031592071056366,-0.00017779707559384406,-0.016219008713960648,0.013187148608267307,-0.0025851987302303314,-0.03932387754321098
0.029655147343873978,-0.00018915887631010264,-0.01632770709693432,0.013590140268206596,-0.002862385706976056,-0.041684944182634354
0.029241420328617096,-0.00019223194976802915,-0.016981786116957664,0.013608203269541264,-0.0030884731095284224,-0.04350077733397484
0.028862467035651207,-0.0001873392757261172,-0.016084881499409676,0.013997630216181278,-0.0031012350227683783,-0.04136556386947632
0.029030973091721535,-0.0001825898070819676,-0.016478553414344788,0.013497170992195606,-0.0032141138799488544,-0.04016593098640442
0.029749765992164612,-0.00017807383846957237,-0.01599978469312191,0.013616377487778664,-0.002980712568387389,-0.041258737444877625
0.029781604185700417,-0.00025471035041846335,-0.016522830352187157,0.013631674461066723,-0.003003931837156415,-0.041848741471767426
0.029794059693813324,-0.0002442775876261294,-0.016219420358538628,0.01398563478142023,-0.0029529982712119818,-0.042094022035598755
0.029901092872023582,-0.0002621102030389011,-0.016494430601596832,0.013728300109505653,-0.0026866502594202757,-0.04193361848592758
0.029819445684552193,-0.0002642565523274243,-0.016776476055383682,0.013527806848287582,-0.0028204552363604307,-0.042041197419166565
0.02992693893611431,-0.000252119469223544,-0.0167751032859087,0.013924775645136833,-0.0032646541949361563,-0.04231073334813118
0.02992900088429451,-0.00026720380992628634,-0.01647832803428173,0.014170382171869278,-0.0034591248258948326,-0.042239319533109665
0.02987447753548622,-0.0002688349050004035,-0.016075514256954193,0.014169820584356785,-0.0031702122651040554,-0.04227032884955406
0.02996455505490303,-0.0002580004511401057,-0.01717999391257763,0.014040682464838028,-0.0028732873033732176,-0.04279711842536926
0.02994312159717083,-0.00028182100504636765,-0.017475994303822517,0.01397028286010027,-0.0029113790951669216,-0.04272821545600891
0.02992578037083149,-0.0002725179947447032,-0.01754206418991089,0.014439287595450878,-0.003025895217433572,-0.043277557939291
0.03066915087401867,-0.00039714426384307444,-0.017330333590507507,0.014680895023047924,-0.003123178379610181,-0.04497673362493515
0.028708500787615776,-0.00038112964830361307,-0.01680305413901806,0.015012047253549099,-0.0030008230824023485,-0.04400594159960747
0.031238561496138573,-0.0003974851279053837,-0.01759008690714836,0.014868611469864845,-0.0030111451633274555,-0.04228789731860161
0.030905747786164284,-0.0003909918887075037,-0.017085682600736618,0.014525482431054115,-0.002964389743283391,-0.043118227273225784
0.03021206706762314,-0.0003648690180853009,-0.016865162178874016,0.014156544581055641,-0.002989870496094227,-0.044184666126966476
0.030129386112093925,-0.00037423663889057934,-0.017128916457295418,0.01431688480079174,-0.0031975151505321264,-0.04375206306576729
0.03088633343577385,-0.00035392012796364725,-0.01743437349796295,0.014724856242537498,-0.002892811084166169,-0.043306104838848114
0.030946288257837296,-0.0003822956350632012,-0.01778838410973549,0.014342352747917175,-0.0027034017257392406,-0.044635601341724396
0.03118196316063404,-0.00036609426024369895,-0.016970621421933174,0.014383455738425255,-0.0027660911437124014,-0.04502119868993759
0.029302267357707024,-0.00042977018165402114,-0.017477085813879967,0.014735219068825245,-0.0029434897005558014,-0.04462667927145958
0.030248494818806648,-0.00046267861034721136,-0.016931388527154922,0.014998414553701878,-0.003266642102971673,-0.04436787590384483
0.031160617247223854,-0.000434117071563378,-0.017353057861328125,0.014760258607566357,-0.003147980896756053,-0.04513769969344139
0.030766505748033524,-0.0004661042767111212,-0.01731107197701931,0.01482908334583044,-0.0028746312018483877,-0.04541689157485962
0.031170736998319626,-0.0004912394797429442,-0.017406709492206573,0.0148254269734025,-0.0029655087273567915,-0.0451449491083622
0.03185237571597099,-0.0004663416766561568,-0.017992476001381874,0.014731262810528278,-0.0030185296200215816,-0.04590665176510811
0.03211953490972519,-0.0006268398719839752,-0.017605692148208618,0.014872532337903976,-0.003017326118424535,-0.046009790152311325
0.03211953490972519,-0.0006268398719839752,-0.017605692148208618,0.014872532337903976,-0.003017326118424535,-0.046009790152311325
0.030840015038847923,-0.0006642345106229186,-0.0176119152456522,0.015199167653918266,-0.003359269117936492,-0.04605028033256531
0.03110625222325325,-0.0006823757430538535,-0.01798083446919918,0.015032406896352768,-0.0034054797142744064,-0.045587096363306046
0.03207225725054741,-0.0006835990934632719,-0.017555326223373413,0.015376457944512367,-0.003403926268219948,-0.04697347804903984
0.031690988689661026,-0.0006499331793747842,-0.018067771568894386,0.015095160342752934,-0.003448682837188244,-0.0467095747590065
0.031754106283187866,-0.00076140376040712,-0.01755366288125515,0.015577602200210094,-0.0034083412028849125,-0.04684704169631004
0.031673330813646317,-0.0007873729337006807,-0.017930680885910988,0.015001839958131313,-0.0030791449826210737,-0.046911876648664474
0.03184330835938454,-0.0008017554064281285,-0.017977610230445862,0.015547615475952625,-0.0030179517343640327,-0.046972569078207016
0.032246269285678864,-0.0008128344197757542,-0.0173328947275877,0.014974981546401978,-0.002864751499146223,-0.046713631600141525
0.031997669488191605,-0.0010332289384678006,-0.01818467676639557,0.015200062654912472,-0.0029197651892900467,-0.04680854454636574
0.03311573341488838,-0.0010542606469243765,-0.01833241432905197,0.014932769350707531,-0.0031093948055058718,-0.04642574489116669
0.03253699094057083,-0.001032403321005404,-0.017490817233920097,0.015105958096683025,-0.003106355434283614,-0.048315566033124924
0.03261924907565117,-0.001132514327764511,-0.018024180084466934,0.015265432186424732,-0.002880120649933815,-0.04815942794084549
0.032366134226322174,-0.0011134210508316755,-0.017886055633425713,0.015602044761180878,-0.002788827521726489,-0.04548697918653488
0.03273771330714226,-0.0011763285147026181,-0.018435657024383545,0.01478199940174818,-0.003005538135766983,-0.04713869467377663
0.03302398696541786,-0.0012483915779739618,-0.01830851286649704,0.0149481650441885,-0.0032886022236198187,-0.0472586415708065
0.033505894243717194,-0.0013737145345658064,-0.017743704840540886,0.01464475691318512,-0.003425412345677614,-0.04987137019634247
0.03304294869303703,-0.0013273506192490458,-0.01835404708981514,0.014594427309930325,-0.0031876720022410154,-0.04740572348237038
0.03318599984049797,-0.0017394309397786856,-0.018657466396689415,0.014775405637919903,-0.0034675910137593746,-0.04678010568022728
0.03332564979791641,-0.0016268263570964336,-0.01804911531507969,0.015329417772591114,-0.0033001492265611887,-0.047762610018253326
0.03374398872256279,-0.0017605966422706842,-0.018192602321505547,0.015035330317914486,-0.003141817869618535,-0.0489269383251667
0.03421265631914139,-0.0017810545396059752,-0.018546689301729202,0.015392055734992027,-0.0031937891617417336,-0.048834480345249176
0.034296464174985886,-0.0016363068716600537,-0.01894853077828884,0.014701546169817448,-0.003505229251459241,-0.04906130209565163
0.03436528518795967,-0.001534873154014349,-0.017910519614815712,0.015415769070386887,-0.0037694917991757393,-0.04925715923309326
0.0346573069691658,-0.0016120976069942117,-0.018290208652615547,0.015386399812996387,-0.00386013719253242,-0.04941285774111748
0.03419702872633934,-0.0015637698816135526,-0.018902873620390892,0.015801100060343742,-0.0036024863366037607,-0.05009409412741661
0.03419702872633934,-0.0015637698816135526,-0.018902873620390892,0.015801100060343742,-0.0036024863366037607,-0.05009409412741661
0.035747770220041275,-0.002408084226772189,-0.018704475834965706,0.015135080553591251,-0.003573044203221798,-0.050018563866615295
0.03570162504911423,-0.0023384657688438892,-0.018994033336639404,0.014512812718749046,-0.0035095433704555035,-0.05152495577931404
0.03570162504911423,-0.0023384657688438892,-0.018994033336639404,0.014512812718749046,-0.0035095433704555035,-0.05152495577931404
0.032249704003334045,-0.002057752339169383,-0.018088961020112038,0.01577605865895748,-0.0034256011713296175,-0.04982324689626694
0.03491368144750595,-0.001978626474738121,-0.018775660544633865,0.014546893537044525,-0.003237514290958643,-0.04885609447956085
0.03586471080780029,-0.0018841541605070233,-0.019061297178268433,0.014764039777219296,-0.003224215703085065,-0.05009426549077034
0.03531047701835632,-0.0019714466761797667,-0.018540270626544952,0.014640865847468376,-0.00342881609685719,-0.05180806294083595
0.03632905334234238,-0.002639426849782467,-0.01886608824133873,0.015727203339338303,-0.003415338695049286,-0.05158962681889534
0.036221545189619064,-0.0026099891401827335,-0.019018612802028656,0.015828223899006844,-0.003251858754083514,-0.04942754656076431
0.03497181460261345,-0.0024682297371327877,-0.018930137157440186,0.015468551777303219,-0.003281013108789921,-0.05106547847390175
0.03511754423379898,-0.002305250382050872,-0.01929106004536152,0.016577713191509247,-0.0035991626791656017,-0.050741348415613174
0.03601439297199249,-0.002133336616680026,-0.019135279580950737,0.0166531503200531,-0.0033718696795403957,-0.051477380096912384
0.036020416766405106,-0.002246609888970852,-0.019312584772706032,0.01658879965543747,-0.0035009838175028563,-0.05231320112943649
0.03593117743730545,-0.002603448461741209,-0.01968432404100895,0.015854688361287117,-0.003226863918825984,-0.05165799707174301
0.035833410918712616,-0.0028762032743543386,-0.019186202436685562,0.016222601756453514,-0.0032337757293134928,-0.0515068918466568
0.03582239896059036,-0.002702734898775816,-0.019018130376935005,0.01595325395464897,-0.003252620343118906,-0.05199979990720749
0.03595684468746185,-0.0026707760989665985,-0.020018331706523895,0.01609043776988983,-0.003616886679083109,-0.05200821906328201
0.03627080097794533,-0.0026483903639018536,-0.020836329087615013,0.016226865351200104,-0.003584479447454214,-0.05234474316239357
0.0362933985888958,-0.0024746577255427837,-0.019416185095906258,0.016225256025791168,-0.0034440939780324697,-0.052038051187992096
0.03655088320374489,-0.0028911828994750977,-0.020028147846460342,0.016603408381342888,-0.003561201738193631,-0.05314250662922859
0.03708851709961891,-0.0030817105434834957,-0.019307857379317284,0.016516422852873802,-0.00381234148517251,-0.0530666708946228
0.036675676703453064,-0.002897819271311164,-0.01998402737081051,0.016077762469649315,-0.003416085382923484,-0.05334419384598732
0.034885987639427185,-0.0028693799395114183,-0.020395949482917786,0.016243308782577515,-0.003209219081327319,-0.05310754477977753
0.03753342479467392,-0.0028191045857965946,-0.020362818613648415,0.016423169523477554,-0.0032713536638766527,-0.05273514613509178
0.03867549076676369,-0.003042099764570594,-0.019711194559931755,0.016533082351088524,-0.004411979578435421,-0.05480004474520683
0.03787980228662491,-0.0033021015115082264,-0.020159484818577766,0.017187682911753654,-0.00467004906386137,-0.05315003544092178
0.035994771867990494,-0.002932196017354727,-0.02182232029736042,0.016730189323425293,-0.004019278567284346,-0.05317627638578415
0.03721955046057701,-0.0030324391555041075,-0.02062746323645115,0.017144406214356422,-0.0031150367576628923,-0.05422034114599228
0.03721955046057701,-0.0030324391555041075,-0.02062746323645115,0.017144406214356422,-0.0031150367576628923,-0.05422034114599228
0.03778890520334244,-0.003065814496949315,-0.020216474309563637,0.017026294022798538,-0.0029083939734846354,-0.056545190513134
0.03767099976539612,-0.003239272627979517,-0.021097294986248016,0.01703735813498497,-0.0030374072957783937,-0.05383782833814621
0.0385272279381752,-0.0033809554297477007,-0.02032383531332016,0.017452066764235497,-0.0032298187725245953,-0.05521167442202568
0.03842476010322571,-0.0032124731224030256,-0.020021958276629448,0.016838500276207924,-0.003232063027098775,-0.056105878204107285
0.03717565909028053,-0.003190438961610198,-0.021020714193582535,0.016834542155265808,-0.003184328554198146,-0.055737968534231186
0.03825468197464943,-0.0032047992572188377,-0.021379582583904266,0.016635650768876076,-0.0032578122336417437,-0.05587448552250862
0.03869575634598732,-0.0033803859259933233,-0.020404843613505363,0.016975276172161102,-0.003454508725553751,-0.05607680231332779
0.038349609822034836,-0.003288817359134555,-0.020578350871801376,0.017442749813199043,-0.0036536536645144224,-0.056466810405254364
0.03852677717804909,-0.0034539203625172377,-0.021392405033111572,0.017194660380482674,-0.0033293520100414753,-0.056794337928295135
0.038216594606637955,-0.0037996459286659956,-0.021265603601932526,0.01747777685523033,-0.0030403921846300364,-0.056500159204006195
0.03835996240377426,-0.0034659362863749266,-0.02056175470352173,0.017122354358434677,-0.0029506548307836056,-0.05699142441153526
0.03868825361132622,-0.003558560274541378,-0.020779889076948166,0.017166590318083763,-0.0029975208453834057,-0.056657593697309494
0.03878199681639671,-0.003722800873219967,-0.021073313429951668,0.01758667081594467,-0.00315959844738245,-0.05831117928028107
0.038783807307481766,-0.0038856591563671827,-0.0209234356880188,0.017154589295387268,-0.0033882479183375835,-0.05788120999932289
0.039541155099868774,-0.0034968487452715635,-0.021046843379735947,0.017325736582279205,-0.0036827130243182182,-0.05544677749276161
0.038585156202316284,-0.0033193135168403387,-0.021688442677259445,0.016622435301542282,-0.004144186619669199,-0.056650254875421524
0.03927306458353996,-0.003373281564563513,-0.02136770263314247,0.016709819436073303,-0.004144883248955011,-0.059038519859313965
0.03895721957087517,-0.003725087968632579,-0.021156035363674164,0.017070531845092773,-0.003529769368469715,-0.05570727214217186
0.03933821618556976,-0.0035383303184062243,-0.02178261987864971,0.017485391348600388,-0.0034599185455590487,-0.05774317681789398
0.03941947594285011,-0.0035914212930947542,-0.021476734429597855,0.017143718898296356,-0.0036515200044959784,-0.05858924612402916
0.03971664607524872,-0.003979751840233803,-0.020531002432107925,0.016890285536646843,-0.003769132774323225,-0.05806691199541092
0.03975249454379082,-0.00401082169264555,-0.02108769305050373,0.01686020754277706,-0.003712399397045374,-0.057797472923994064
0.039838965982198715,-0.003754714271053672,-0.021667782217264175,0.017178967595100403,-0.0034908303059637547,-0.05805998668074608
0.03993771970272064,-0.0034878908190876245,-0.021701935678720474,0.01761774532496929,-0.0036160184536129236,-0.057168178260326385
0.04034814611077309,-0.003367824014276266,-0.021660592406988144,0.01771906577050686,-0.003878840012475848,-0.05787312984466553
0.04001603648066521,-0.003627512603998184,-0.02177719958126545,0.01761452667415142,-0.003489600494503975,-0.057733286172151566
0.040138114243745804,-0.004054139368236065,-0.022019997239112854,0.017498169094324112,-0.003543379483744502,-0.05698426067829132
0.04154952988028526,-0.004050641320645809,-0.02134728617966175,0.017193231731653214,-0.00373831856995821,-0.05914508178830147
0.04154952988028526,-0.004050641320645809,-0.02134728617966175,0.017193231731653214,-0.00373831856995821,-0.05914508178830147
0.04101138561964035,-0.003841341705992818,-0.021211953833699226,0.017343955114483833,-0.003919761627912521,-0.059074778109788895
0.03923516348004341,-0.0037890286184847355,-0.021936213597655296,0.016975631937384605,-0.0040274388156831264,-0.05859299376606941
0.04084976017475128,-0.00425654137507081,-0.0219773780554533,0.01744978502392769,-0.003548717126250267,-0.058929234743118286
0.04114153981208801,-0.004027355927973986,-0.021870868280529976,0.018194418400526047,-0.003542848164215684,-0.060856714844703674
0.041560012847185135,-0.003908573184162378,-0.021290486678481102,0.01818658970296383,-0.0041618612594902515,-0.058176636695861816
0.040445923805236816,-0.004286462906748056,-0.02240387536585331,0.019092844799160957,-0.004117390140891075,-0.05865394324064255
0.0396558977663517,-0.004359556827694178,-0.0230984129011631,0.01907762698829174,-0.004220906645059586,-0.06007469445466995
0.03971099853515625,-0.0044165365397930145,-0.022158028557896614,0.01878250762820244,-0.004356300923973322,-0.06133229285478592
0.0414077453315258,-0.004325605928897858,-0.0214229803532362,0.019176989793777466,-0.004087110981345177,-0.06019386276602745
0.04005147144198418,-0.004327718168497086,-0.02180187776684761,0.019204156473279,-0.003899645758792758,-0.06031527370214462
0.04136837273836136,-0.003993828780949116,-0.022168999537825584,0.018741309642791748,-0.00390302250161767,-0.06054656207561493
0.04085404798388481,-0.0037857601419091225,-0.022120164707303047,0.01831519417464733,-0.004010350909084082,-0.06089235842227936
0.04047775641083717,-0.004423733800649643,-0.02263542450964451,0.017790960147976875,-0.00407758541405201,-0.06062088534235954
0.041205454617738724,-0.004645980428904295,-0.022231880575418472,0.018186425790190697,-0.004008299671113491,-0.0607353076338768
0.04068406671285629,-0.004353155381977558,-0.022437818348407745,0.01849009282886982,-0.0038569055031985044,-0.06059986352920532
0.04128556326031685,-0.004517415072768927,-0.02231382578611374,0.0180691946297884,-0.00404293742030859,-0.059467654675245285
0.0409235805273056,-0.004242755006998777,-0.022063208743929863,0.01854850724339485,-0.003911527339369059,-0.06195395067334175
0.04096664860844612,-0.00410127779468894,-0.022380784153938293,0.018208863213658333,-0.0037595483008772135,-0.06064275652170181
0.04271749034523964,-0.004410037770867348,-0.022581512108445168,0.018599804490804672,-0.003818203927949071,-0.062366995960474014
0.041266366839408875,-0.004542747978121042,-0.022664709016680717,0.018728947266936302,-0.004334549885243177,-0.06062611564993858
0.04069025069475174,-0.0038734152913093567,-0.02233361266553402,0.018699999898672104,-0.004554491024464369,-0.06074513867497444
0.04223386198282242,-0.0030224816873669624,-0.02166385017335415,0.018847720697522163,-0.0041969274170696735,-0.06289436668157578
0.0421457439661026,-0.002076933393254876,-0.022098777815699577,0.018687395378947258,-0.004276335705071688,-0.06304863840341568
0.0430503711104393,-0.002035974757745862,-0.022676024585962296,0.018567122519016266,-0.00421075988560915,-0.06061318889260292
0.0426664724946022,-0.0024874836672097445,-0.022981252521276474,0.018836451694369316,-0.0036161760799586773,-0.06264803558588028
0.04089169576764107,-0.0036160736344754696,-0.02214188128709793,0.018518634140491486,-0.003997268155217171,-0.06301677227020264
0.04266226291656494,-0.003399785840883851,-0.02201208285987377,0.018668323755264282,-0.0043974448926746845,-0.0629887804389
0.04292011260986328,-0.002998520154505968,-0.023261768743395805,0.01940751262009144,-0.00482065137475729,-0.06289166957139969
0.04225443676114082,-0.0025559617206454277,-0.02328280359506607,0.01915447786450386,-0.004414415452629328,-0.0629485696554184
0.04225443676114082,-0.0025559617206454277,-0.02328280359506607,0.01915447786450386,-0.004414415452629328,-0.0629485696554184
0.042033031582832336,-0.0022737416438758373,-0.022617382928729057,0.019436722621321678,-0.003973114769905806,-0.06291091442108154
0.04239433631300926,-0.002490358194336295,-0.022051211446523666,0.01949552446603775,-0.00378509983420372,-0.06271006166934967
0.04251362010836601,-0.0027348154690116644,-0.022611495107412338,0.019152279943227768,-0.0037805880419909954,-0.06323818117380142
0.04253709316253662,-0.00311665958724916,-0.02304871939122677,0.019241895526647568,-0.003848581574857235,-0.0634661465883255
0.04232882335782051,-0.0030269576236605644,-0.02278743125498295,0.019369784742593765,-0.003926267847418785,-0.06312321126461029
0.043084412813186646,-0.002878922736272216,-0.022036127746105194,0.019117502495646477,-0.00419708713889122,-0.06358379125595093
0.043032947927713394,-0.002622538013383746,-0.022343002259731293,0.019232142716646194,-0.004245946183800697,-0.06573399156332016
0.04327157884836197,-0.0026683220639824867,-0.02247346006333828,0.019689198583364487,-0.004054119810461998,-0.06355985999107361
0.04315675422549248,-0.002604847541078925,-0.02287391573190689,0.019640525802969933,-0.004286333452910185,-0.06291870772838593
0.04198494926095009,-0.002483053132891655,-0.02278715930879116,0.01938946545124054,-0.004227000288665295,-0.06562254577875137
0.043826427310705185,-0.0027852198109030724,-0.022209597751498222,0.01974037103354931,-0.004305357579141855,-0.06442295759916306
0.043625518679618835,-0.002950591966509819,-0.02234344743192196,0.019710442051291466,-0.00404621846973896,-0.06358946114778519
0.04331791773438454,-0.0030743859242647886,-0.022502476349473,0.019637463614344597,-0.004151477012783289,-0.064396932721138
0.043660782277584076,-0.00300113158300519,-0.02258104830980301,0.019737165421247482,-0.00420414051041007,-0.0644020214676857
0.04340793937444687,-0.00301012652926147,-0.022654984146356583,0.019617406651377678,-0.0044904896058142185,-0.06357216089963913
0.04348078370094299,-0.0030732201412320137,-0.023018689826130867,0.02044595591723919,-0.004437475930899382,-0.0653848946094513
0.043616883456707,-0.003070596605539322,-0.02313791587948799,0.02040664665400982,-0.004352773539721966,-0.06552854180335999
0.043187376111745834,-0.002856946550309658,-0.023597802966833115,0.01969147101044655,-0.004363148007541895,-0.06480765342712402
0.04476296901702881,-0.0028744619339704514,-0.022587694227695465,0.019301680848002434,-0.004452958703041077,-0.06469897925853729
0.044193439185619354,-0.003129698568955064,-0.021443285048007965,0.019373038783669472,-0.004410702269524336,-0.06382395327091217
0.04257195442914963,-0.003145375521853566,-0.02370975911617279,0.019516339525580406,-0.004254274535924196,-0.0653916597366333
0.043831486254930496,-0.003459508065134287,-0.024004502221941948,0.02037494070827961,-0.004416731186211109,-0.06613675504922867
0.04422175511717796,-0.003730456344783306,-0.02444315515458584,0.02085011824965477,-0.004235307686030865,-0.06412983685731888
0.04607205465435982,-0.003430259646847844,-0.024301964789628983,0.02065318636596203,-0.0041872719302773476,-0.06469066441059113
0.04607205465435982,-0.003430259646847844,-0.024301964789628983,0.02065318636596203,-0.0041872719302773476,-0.06469066441059113
0.04479090869426727,-0.003514077514410019,-0.023630458861589432,0.020533332601189613,-0.004064390901476145,-0.06756766140460968
0.04287409037351608,-0.0037022195756435394,-0.02330910600721836,0.02158091589808464,-0.00401250971481204,-0.06509147584438324
0.04491746425628662,-0.0033916838001459837,-0.023729315027594566,0.0211916733533144,-0.00435573561117053,-0.06456506252288818
0.045327331870794296,-0.0034221787936985493,-0.024531573057174683,0.020274557173252106,-0.00465494766831398,-0.06751001626253128
0.04476653411984444,-0.003482087980955839,-0.024373725056648254,0.02010156586766243,-0.004632408730685711,-0.06781888008117676
0.04453914612531662,-0.003503518644720316,-0.024116981774568558,0.020397378131747246,-0.0042870622128248215,-0.06727486848831177
0.044706717133522034,-0.0034290452022105455,-0.02378668636083603,0.02084244415163994,-0.0039848824962973595,-0.06745051592588425
0.044891003519296646,-0.0034840861335396767,-0.024554673582315445,0.021071717143058777,-0.0042863707058131695,-0.0676037073135376
0.0449557825922966,-0.0036919103004038334,-0.02473524585366249,0.02170354127883911,-0.0046430970542132854,-0.06822486221790314
0.044798094779253006,-0.0038452751468867064,-0.024455765262246132,0.021563315764069557,-0.004716403316706419,-0.06841515004634857
0.04494669288396835,-0.0037953092250972986,-0.023900315165519714,0.021023141220211983,-0.004771895240992308,-0.06904537975788116
0.04589451849460602,-0.003743512090295553,-0.023845719173550606,0.020537924021482468,-0.004369065165519714,-0.0686507597565651
0.044504035264253616,-0.003547821193933487,-0.024463599547743797,0.021086985245347023,-0.0043280720710754395,-0.06770022958517075
0.04376403987407684,-0.003455404657870531,-0.024396240711212158,0.021125979721546173,-0.004177995957434177,-0.07034508883953094
0.044832494109869,-0.003664411837235093,-0.024133292958140373,0.021001504734158516,-0.00445564417168498,-0.06771856546401978
0.04578981176018715,-0.004170689731836319,-0.024147743359208107,0.02111898548901081,-0.004652046132832766,-0.0683378055691719
0.04637804627418518,-0.004252319689840078,-0.024543674662709236,0.021566117182374,-0.004273647908121347,-0.07090914249420166
0.04431977495551109,-0.0040536848828196526,-0.024926161393523216,0.02151835337281227,-0.004496636800467968,-0.06822823733091354
0.04433789476752281,-0.0034749736078083515,-0.024373304098844528,0.02123938500881195,-0.004598538391292095,-0.06878237426280975
0.04627559334039688,-0.003571685403585434,-0.02447136864066124,0.020874865353107452,-0.004681275226175785,-0.06951543688774109
0.04564330726861954,-0.004259346518665552,-0.024579191580414772,0.020975429564714432,-0.0047534555196762085,-0.06980942189693451
0.04563417658209801,-0.003986269701272249,-0.02476467564702034,0.02067151479423046,-0.0046213846653699875,-0.06983934342861176
0.045790426433086395,-0.003915579058229923,-0.024845868349075317,0.02086823061108589,-0.00469288881868124,-0.06978368014097214
0.045881401747465134,-0.003881764365360141,-0.025189170613884926,0.02081337571144104,-0.004763855133205652,-0.06986233592033386
0.04581914469599724,-0.0039558084681630135,-0.02502850443124771,0.02091868966817856,-0.004983145277947187,-0.06997983902692795
0.04600314795970917,-0.004384899977594614,-0.02450726553797722,0.020861651748418808,-0.0047220513224601746,-0.06948795169591904
0.04661843180656433,-0.004567139782011509,-0.02440725453197956,0.020883727818727493,-0.004859890788793564,-0.07188860327005386
0.04624108970165253,-0.004822231829166412,-0.024806272238492966,0.020989984273910522,-0.004770469851791859,-0.07046215981245041
0.047152869403362274,-0.004361163359135389,-0.025181734934449196,0.020836876705288887,-0.004869363270699978,-0.07147923856973648
0.04676034301519394,-0.004291382152587175,-0.024814648553729057,0.021127497777342796,-0.004468098748475313,-0.0721965804696083
0.04676034301519394,-0.004291382152587175,-0.024814648553729057,0.021127497777342796,-0.004468098748475313,-0.0721965804696083
0.04731255769729614,-0.004687839653342962,-0.026334743946790695,0.02135465480387211,-0.004480034578591585,-0.07147379964590073
0.04731255769729614,-0.004687839653342962,-0.026334743946790695,0.02135465480387211,-0.004480034578591585,-0.07147379964590073
0.047521814703941345,-0.004392555449157953,-0.025559423491358757,0.020783990621566772,-0.00455098319798708,-0.07194791734218597
0.04764169827103615,-0.004108257591724396,-0.02509596385061741,0.021123820915818214,-0.004640973173081875,-0.07192467153072357
0.04815114662051201,-0.004447598941624165,-0.02456505410373211,0.02172456867992878,-0.004617774859070778,-0.07190951704978943
0.04786994680762291,-0.004473498091101646,-0.024907870218157768,0.022542307153344154,-0.00461553642526269,-0.07193554937839508
0.0480816476047039,-0.004228373058140278,-0.02596261166036129,0.021781671792268753,-0.004518204368650913,-0.07204876095056534
0.0483631007373333,-0.004326437599956989,-0.02587219327688217,0.02163943275809288,-0.004665788263082504,-0.07126481831073761
0.048082005232572556,-0.004589932505041361,-0.02602040208876133,0.02112412638962269,-0.004787173587828875,-0.07185579091310501
0.04989427328109741,-0.004163393750786781,-0.026709288358688354,0.020965013653039932,-0.0053428588435053825,-0.07284602522850037
0.04879748821258545,-0.0044336761347949505,-0.02727595716714859,0.022003736346960068,-0.00507600512355566,-0.07267753034830093
0.04708905890583992,-0.004572018049657345,-0.026767225936055183,0.022650737315416336,-0.0045880479738116264,-0.07260873913764954
0.04894509166479111,-0.004590843804180622,-0.025497624650597572,0.022394763305783272,-0.004584707785397768,-0.07377049326896667
0.049377474933862686,-0.004563380032777786,-0.025697819888591766,0.0222771093249321,-0.004880715627223253,-0.07141165435314178
0.050692059099674225,-0.004677909892052412,-0.02643931470811367,0.02201862819492817,-0.004965885542333126,-0.07222697883844376
0.04785604774951935,-0.004417459946125746,-0.026645556092262268,0.02252146229147911,-0.004485446028411388,-0.07311265915632248
0.049025554209947586,-0.004272469785064459,-0.026314416900277138,0.022748848423361778,-0.004461299162358046,-0.07147678732872009
0.04951213672757149,-0.004834625869989395,-0.026794428005814552,0.02151564136147499,-0.0048440503887832165,-0.07273194193840027
0.049123991280794144,-0.004956980235874653,-0.026835553348064423,0.0212156493216753,-0.00446444982662797,-0.07325731217861176
0.04930715262889862,-0.004386149346828461,-0.027007969096302986,0.02161567471921444,-0.004415067844092846,-0.07383260875940323
0.04924257844686508,-0.004254767671227455,-0.026867156848311424,0.022004198282957077,-0.004614525008946657,-0.07383214682340622
0.04906391724944115,-0.004206550773233175,-0.027150139212608337,0.021878797560930252,-0.004804156720638275,-0.07399651408195496
0.05116492882370949,-0.004912977572530508,-0.027760064229369164,0.021846482530236244,-0.004783003591001034,-0.07393094897270203
0.050141479820013046,-0.005070858635008335,-0.02724694088101387,0.02186899073421955,-0.0048072743229568005,-0.07770725339651108
0.048062216490507126,-0.004802269395440817,-0.027227191254496574,0.022083809599280357,-0.005120732821524143,-0.07440587133169174
0.049380429089069366,-0.004742299672216177,-0.0271271001547575,0.021830620244145393,-0.00507199764251709,-0.07483377307653427
0.05080568790435791,-0.004794688895344734,-0.027620185166597366,0.021380363032221794,-0.004916664212942123,-0.0765451192855835
0.05140814557671547,-0.004806912038475275,-0.02709433063864708,0.021465618163347244,-0.005121453199535608,-0.07638783752918243
0.05140814557671547,-0.004806912038475275,-0.02709433063864708,0.021465618163347244,-0.005121453199535608,-0.07638783752918243
0.048530854284763336,-0.0052008312195539474,-0.02697857841849327,0.021965451538562775,-0.005089399870485067,-0.07549161463975906
0.050048988312482834,-0.0050936853513121605,-0.027444150298833847,0.022220619022846222,-0.005060311406850815,-0.07579042762517929
0.05104541778564453,-0.0049816519021987915,-0.027097651734948158,0.021947059780359268,-0.005264342296868563,-0.07572074979543686
0.05044315755367279,-0.005117727909237146,-0.02726501040160656,0.02190902829170227,-0.004975789692252874,-0.076874740421772
0.05033944547176361,-0.004845946561545134,-0.027208631858229637,0.02254226803779602,-0.004593058954924345,-0.0763753354549408
0.05029322952032089,-0.0046797082759439945,-0.027637047693133354,0.022624105215072632,-0.0048477379605174065,-0.0762426108121872
0.05110768601298332,-0.00452782865613699,-0.027257751673460007,0.02263726107776165,-0.005039050243794918,-0.0765163004398346
0.05078651383519173,-0.005212792195379734,-0.02713974006474018,0.022457243874669075,-0.004991515539586544,-0.07651977986097336
0.05082711577415466,-0.005253775976598263,-0.027309169992804527,0.02250204049050808,-0.0051694270223379135,-0.07677047699689865
0.051235634833574295,-0.005878607742488384,-0.027471257373690605,0.023074032738804817,-0.005175305996090174,-0.0769001692533493
0.05144988372921944,-0.005362398456782103,-0.027617568150162697,0.022902628406882286,-0.004588861484080553,-0.0777362659573555
0.051753658801317215,-0.0048815347254276276,-0.027850044891238213,0.022747505456209183,-0.0045400820672512054,-0.07771727442741394
0.051222726702690125,-0.005161386914551258,-0.027641911059617996,0.022834092378616333,-0.0048776958137750626,-0.07625724375247955
