davideferrari95/blind_handover_controller/data/Test 99 - [2024-02-07 -- 16-15-49]/joint_states_data.csv
shoulder_pan_joint,shoulder_lift_joint,elbow_joint,wrist_1_joint,wrist_2_joint,wrist_3_joint
0.0026656738482415676,0.006226659286767244,-0.006422283127903938,-7.691716018598527e-05,0.0002682780323084444,0.0018305208068341017
0.002769399667158723,0.005965724587440491,-0.006263686344027519,-7.598951924592257e-05,0.0002582117449492216,0.002050914568826556
0.002769399667158723,0.005965724587440491,-0.006263686344027519,-7.598951924592257e-05,0.0002582117449492216,0.002050914568826556
0.002663109451532364,0.006218637339770794,-0.006288495380431414,-7.508388080168515e-05,0.0002465973375365138,0.00255740899592638
0.0027856475207954645,0.005577211268246174,-0.0066767469979822636,-7.419965550070629e-05,0.0002358373603783548,0.0024884608574211597
0.002589320531114936,0.005443314556032419,-0.006776845082640648,-7.33359411242418e-05,0.00022596729104407132,0.002374519594013691
0.0024866240564733744,0.005347866099327803,-0.006625928916037083,-7.249206828419119e-05,0.0002505783922970295,0.0020908615551888943
0.0027002946007996798,0.00554616516456008,-0.006398072466254234,-7.166739669628441e-05,0.00024310436856467277,0.002108591143041849
0.0028365650214254856,0.005549226887524128,-0.006516178138554096,-7.086136611178517e-05,0.00023420962679665536,0.0021067701745778322
0.0028473311103880405,0.005662028212100267,-0.005917633417993784,-7.00732198311016e-05,0.00024162631598301232,0.002127016894519329
0.002656061202287674,0.005576513707637787,-0.006167793646454811,-1.7806418327381834e-05,0.00024807671434246004,0.002426561899483204
0.0025275787338614464,0.005417018663138151,-0.006715043913573027,-1.1626318610069575e-06,0.00024074676912277937,0.0026692335959523916
0.0025132002774626017,0.005187938921153545,-0.005837965290993452,-7.591155082309342e-08,0.0002330174029339105,0.0026116622611880302
0.0024784570559859276,0.0056809326633811,-0.005801580846309662,-4.956481447493388e-09,0.00022571635781787336,0.0026205801405012608
0.0027440113481134176,0.005489383824169636,-0.005854980554431677,-3.236228229841487e-10,0.00021885438764002174,0.002267851959913969
0.0025917955208569765,0.005833524279296398,-0.005972757004201412,-2.113025553140968e-11,0.0002125318715116009,0.0021128682419657707
0.002441015327349305,0.005263061728328466,-0.0059881070628762245,-1.3796546370625773e-12,0.00025154658942483366,0.0019489461556077003
0.0026427130214869976,0.005344572477042675,-0.005393059924244881,-9.008158802226163e-14,0.00024138196022249758,0.0019442406482994556
0.002497967565432191,0.0055173346772789955,-0.005736253224313259,-5.881684130351877e-15,0.0002292961726197973,0.0022270854096859694
0.0024389091413468122,0.005303850397467613,-0.005867944564670324,-3.8403192691177255e-16,0.0002503996656741947,0.0022911992855370045
0.002691839821636677,0.005881856195628643,-0.006140073761343956,-2.5074540975279192e-17,0.000248971045948565,0.002517037559300661
0.0029001289512962103,0.005274714436382055,-0.005834746640175581,-1.637188335203995e-18,0.00023862822854425758,0.0025544974487274885
0.0025644910056144,0.00546647934243083,-0.0056429049000144005,-1.0689669273189555e-19,0.00022856939176563174,0.002359677804633975
0.002566168550401926,0.0052589369006454945,-0.00512697733938694,-6.979590065596192e-21,0.00021928796195425093,0.0022165870759636164
0.0026361895725131035,0.004893332254141569,-0.005810554139316082,-4.557173466379394e-22,0.00021072945673950016,0.002105595776811242
0.0026361895725131035,0.004893332254141569,-0.005810554139316082,-4.557173466379394e-22,0.00021072945673950016,0.002105595776811242
0.002730980981141329,0.005235160235315561,-0.0060873012989759445,-1.942794410034277e-24,0.00022692284255754203,0.0019708238542079926
0.00290612131357193,0.005327729973942041,-0.005659518297761679,-1.268505961706238e-25,0.0002200079761678353,0.002129083266481757
0.0028592278249561787,0.0054114763624966145,-0.005535999312996864,-2.5799414288485423e-05,0.0002126470353687182,0.001949267229065299
0.0028416516724973917,0.0050704893656075,-0.005060251802206039,-2.2864251150167547e-05,0.00020570706692524254,0.0018849626649171114
0.0027232335414737463,0.004803176037967205,-0.0054623750038445,-2.2409290977520868e-05,0.00019920244812965393,0.0018273695604875684
0.0027965495828539133,0.005214963108301163,-0.005698661785572767,-2.2122763766674325e-05,0.00019309640629217029,0.0020102481357753277
0.002845475682988763,0.005210114177316427,-0.005742974579334259,-2.185345692851115e-05,0.0001873533328762278,0.0018927280325442553
0.002890369389206171,0.005263683386147022,-0.005410938523709774,-2.1591280528809875e-05,0.00020119476539548486,0.00206334819085896
0.002713203663006425,0.00507867569103837,-0.00556365679949522,-2.1335355995688587e-05,0.00020165690511930734,0.0020580438431352377
0.002983598969876766,0.0049649192951619625,-0.005270062014460564,-2.1085455955471843e-05,0.00019655023061204702,0.0020924052223563194
0.003038177965208888,0.005029304418712854,-0.005963458213955164,-2.0841314835706726e-05,0.0001913523447001353,0.00198145373724401
0.002904688473790884,0.005545981228351593,-0.0055130901746451855,-2.0602763470378704e-05,0.0001864376536104828,0.0019817256834357977
0.0026216318365186453,0.005979971494525671,-0.004948262590914965,-2.0369634512462653e-05,0.00019620849343482405,0.0018930899677798152
0.002542169764637947,0.005410023964941502,-0.005211339797824621,-2.0141696950304322e-05,0.00018913106760010123,0.0019254822982475162
0.002333720913156867,0.005166757386177778,-0.005562996957451105,-1.9918823454645462e-05,0.00018157459271606058,0.0019077555043622851
0.0021894609089940786,0.005025867838412523,-0.005713863763958216,-2.5657777769083623e-06,0.00017453567124903202,0.0019666000735014677
0.0019068438559770584,0.005198586266487837,-0.005625452846288681,-1.6752696296862268e-07,0.00019287099712528288,0.0021560939494520426
0.0018118864390999079,0.005556804593652487,-0.006045911461114883,-1.0938312478003809e-08,0.00019379242439754307,0.002111311536282301
0.0017114487709477544,0.005207938142120838,-0.0051865000277757645,-7.141936486654288e-10,0.00018757296493276954,0.0021753476466983557
0.0022680845577269793,0.005170754157006741,-0.004975005518645048,-4.6631747074865615e-11,0.00018130785610992461,0.002128940774127841
0.0024336569476872683,0.0049510858952999115,-0.005325350910425186,-3.0447196413402322e-12,0.00017541935085318983,0.002380256075412035
0.0023489119485020638,0.005087507423013449,-0.005355496890842915,-1.9879845653773126e-13,0.00019630782480817288,0.0024526261258870363
0.002393802162259817,0.0050369743257761,-0.005958367604762316,-1.2980119230973294e-14,0.00019204520503990352,0.002365427790209651
0.002042175503447652,0.0049888272769749165,-0.0054800380021333694,-8.475090327102165e-16,0.00018647270917426795,0.0019978592172265053
0.0018650951096788049,0.005065913312137127,-0.005014951340854168,-5.5336281941041667e-17,0.00018111887038685381,0.001900924020446837
0.002100861631333828,0.004787332843989134,-0.005635031498968601,-2.3590723195978374e-19,0.00019251189951319247,0.001702860463410616
0.002100861631333828,0.004787332843989134,-0.005635031498968601,-2.3590723195978374e-19,0.00019251189951319247,0.001702860463410616
0.002139540622010827,0.005067478399723768,-0.005411417223513126,-1.5403054586559238e-20,0.00019034661818295717,0.0018341639079153538
0.002334023592993617,0.005460772663354874,-0.0059263212606310844,-1.0057093522225032e-21,0.00018563006597105414,0.0021080852020531893
0.00222271541133523,0.005103008355945349,-0.0054642860777676105,-6.56656400312619e-23,0.00018097633437719196,0.002205110155045986
0.0021112365648150444,0.004954006988555193,-0.005784398876130581,-4.28749688519965e-24,0.00017653944087214768,0.002142940415069461
0.002451416337862611,0.004842691123485565,-0.005733689293265343,-2.7994289687245744e-25,0.00017231462697964162,0.0021557544823735952
0.0024060914292931557,0.005116590298712254,-0.005658371839672327,-1.8278270789544344e-26,0.00016828672960400581,0.0020759780891239643
0.0025776901748031378,0.0055475435219705105,-0.00566645385697484,-1.1934403345629579e-27,0.0001848753890953958,0.002018599770963192
0.002299708779901266,0.00523747643455863,-0.005572166293859482,-7.792314360550079e-29,0.0001963302493095398,0.001977716339752078
0.0019569764845073223,0.0048648519441485405,-0.005238423123955727,-5.0878243021104035e-30,0.00018934436957351863,0.0021520655136555433
0.002267066854983568,0.004722354933619499,-0.005712663754820824,-3.3219853565396213e-31,0.00018177801393903792,0.002394008217379451
0.0022833100520074368,0.00516895018517971,-0.005862358957529068,-2.1690192374014079e-32,0.00019183183030690998,0.002449166728183627
0.002564674476161599,0.005018584430217743,-0.006448633037507534,-1.4162145635420718e-33,0.00020066653087269515,0.002531746169552207
0.0022788476198911667,0.005427589640021324,-0.00635883491486311,-9.246869042456354e-35,0.000194481952348724,0.002266672207042575
0.002213399624451995,0.005303028970956802,-0.005477907136082649,-6.037544611238885e-36,0.00018778661615215242,0.0021636304445564747
0.0023005849216133356,0.004981381352990866,-0.004995819181203842,-3.942084859379157e-37,0.00018147930677514523,0.001978800632059574
0.0022013674024492502,0.005237134173512459,-0.0052488879300653934,-2.5738999745973524e-38,0.0001899266935652122,0.0020238340366631746
0.0025361008010804653,0.005033968482166529,-0.005732928402721882,-1.68057304436936e-39,0.00019741633150260895,0.002069145208224654
0.0024249092675745487,0.004896175116300583,-0.006254121661186218,-1.0973007754741913e-40,0.00019226927543058991,0.002282158238813281
0.002608157694339752,0.005442166235297918,-0.006316553335636854,-7.16483904809279e-42,0.00018663020455278456,0.002556377789005637
0.0026946321595460176,0.005274681840091944,-0.005688697565346956,-4.680336870844889e-43,0.00018126425857190043,0.0023544838186353445
0.002397980773821473,0.005369927734136581,-0.0057296776212751865,-3.0828566215145976e-44,0.0001761944149620831,0.002315754070878029
0.0024719098582863808,0.005097541958093643,-0.005749809090048075,-1.401298464324817e-45,0.0001714003155939281,0.0020910780876874924
0.0026915373746305704,0.004908062517642975,-0.006206361576914787,-0.0,0.0001668605546001345,0.0020229830406606197
0.002854044083505869,0.005384798161685467,-0.005911207292228937,-0.0,0.00018071121303364635,0.002183356089517474
0.0028798477724194527,0.005284413229674101,-0.005752070341259241,-0.0,0.00017663459584582597,0.0024673009756952524
0.0028798477724194527,0.005284413229674101,-0.005752070341259241,-0.0,0.00017663459584582597,0.0024673009756952524
0.0027459950651973486,0.005358746740967035,-0.006118761841207743,-0.0,0.0001724274188745767,0.0023405051324516535
0.0027676066383719444,0.005007300525903702,-0.006198775488883257,-0.0,0.0001683957380009815,0.0021528052166104317
0.002713505644351244,0.004922643303871155,-0.005238204728811979,-0.0,0.0001645475858822465,0.001890491577796638
0.003003189107403159,0.005399137269705534,-0.005259295459836721,-0.0,0.00016087072435766459,0.0014954020734876394
0.0032087494619190693,0.005127517506480217,-0.0055614374577999115,-0.0,0.00015735479246359318,0.0014921221882104874
0.0027212754357606173,0.005006551742553711,-0.005447003990411758,-0.0,0.0001718716521281749,0.001427951967343688
0.0026117651723325253,0.005165898706763983,-0.006114992778748274,-0.0,0.00017134984955191612,0.0016370551893487573
0.0027074527461081743,0.004843253176659346,-0.005649116821587086,-0.0,0.00016544309619348496,0.0020975815132260323
0.003104417584836483,0.0047759306617081165,-0.005550543777644634,-0.0,0.00015960028395056725,0.002325525274500251
0.0032902052626013756,0.005032604094594717,-0.005436204839497805,5.906318619963713e-05,0.00015413457003887743,0.0023033644538372755
0.003356828587129712,0.005352543201297522,-0.005473140627145767,0.0005792840383946896,0.0001490291178924963,0.0022306351456791162
0.003145400434732437,0.005640803370624781,-0.005768959876149893,0.000594594341237098,0.0001692837249720469,0.0020218980498611927
0.002797688590362668,0.005101001355797052,-0.005823049228638411,0.0006238177302293479,0.00016747525660321116,0.001919291098602116
0.0030539531726390123,0.004749078769236803,-0.005619706120342016,0.000643384933937341,0.00016265561862383038,0.0017348011024296284
0.003279599128291011,0.005344843026250601,-0.005568759050220251,0.0007456930470652878,0.00015791320765856653,0.001735360361635685
0.003076140768826008,0.0053298091515898705,-0.005377519875764847,0.0008328070398420095,0.00015342717233579606,0.0019493410363793373
0.0028257803060114384,0.005464946385473013,-0.005760332103818655,0.0007843233761377633,0.0001491880539106205,0.0020533292554318905
0.0028380088042467833,0.0057848477736115456,-0.005811610259115696,0.0007951204315759242,0.00016618329391349107,0.0023960452526807785
0.002865426940843463,0.005081058945506811,-0.005570520181208849,0.000806680356618017,0.00016473048890475184,0.0021311796735972166
0.0031940024346113205,0.004723706282675266,-0.005264825187623501,0.0009434291278012097,0.00016071669233497232,0.001788069144822657
0.0031573064625263214,0.0048435041680932045,-0.0058433739468455315,0.0009919577278196812,0.00015673057350795716,0.0015917111886665225
0.0035113876219838858,0.005152306519448757,-0.006520112976431847,0.0009827069006860256,0.00015292670286726207,0.0014774423325434327
0.003202531486749649,0.005619510542601347,-0.006267240270972252,0.0011053355410695076,0.00014930246106814593,0.0013214311329647899
0.00327384565025568,0.005334459710866213,-0.005633952561765909,0.0011158675188198686,0.00014584582822863013,0.0014116988750174642
0.0033318051137030125,0.00532926432788372,-0.005390095058828592,0.0010923872468993068,0.00014254581765271723,0.0020340136252343655
0.003461057785898447,0.004948893561959267,-0.0055867633782327175,0.0010799705050885677,0.00015797543164808303,0.0023169571068137884
0.003266021842136979,0.004913188982754946,-0.005299555137753487,0.0011723260395228863,0.00015576947771478444,0.002335171215236187
0.003169164527207613,0.004808276891708374,-0.006356334779411554,0.0011525761801749468,0.00015254836762323976,0.0019473014399409294
0.003061123890802264,0.0052543384954333305,-0.005755240563303232,0.0011070240288972855,0.0001463520311517641,0.0017291110707446933
0.0032537279184907675,0.004791172221302986,-0.005397929809987545,0.0011654862901195884,0.00014343639486469328,0.0017021294916048646
0.0032537279184907675,0.004791172221302986,-0.005397929809987545,0.0011654862901195884,0.00014343639486469328,0.0017021294916048646
0.003429776756092906,0.004881674889475107,-0.005742120090872049,0.0011652965331450105,0.00014063461276236922,0.001852541696280241
0.0033840022515505552,0.005316579714417458,-0.005966363474726677,0.0014097077073529363,0.00013794579717796296,0.0020082397386431694
0.0030884004663676023,0.005065315868705511,-0.005838632117956877,0.0014548130566254258,0.00015692449233029038,0.0019652482587844133
0.002937733195722103,0.005506368353962898,-0.005220840685069561,0.0014612884260714054,0.000153138636960648,0.001995990751311183
0.0027689440175890923,0.005388156045228243,-0.0056299264542758465,0.0015721513191238046,0.00014819682110100985,0.0018422784050926566
0.0030931320507079363,0.0049453554674983025,-0.005586429964751005,0.0015185415977612138,0.00014347767864819616,0.0016811070963740349
0.0032863274682313204,0.004716124385595322,-0.0061616175808012486,0.0015110325766727328,0.00013904451043345034,0.0016150299925357103
0.0031426846981048584,0.004741839598864317,-0.006633395794779062,0.0014409819850698113,0.00013487643445841968,0.0014284949284046888
0.0034758758265525103,0.004753079265356064,-0.0057236249558627605,0.0014882428804412484,0.00013095121539663523,0.0013245430309325457
0.003290749154984951,0.0050690933130681515,-0.0059445700608193874,0.0015532035613432527,0.0001272479275939986,0.0013828371884301305
0.003040812909603119,0.004970279056578875,-0.005449176300317049,0.0015354340430349112,0.0001237483520526439,0.0016360132722184062
0.003198280232027173,0.004715601913630962,-0.006060393061488867,0.001855516224168241,0.00012043641618220136,0.001705762348137796
0.003443842986598611,0.004382755607366562,-0.006586971692740917,0.0017249147640541196,0.00011729666584869847,0.0018640125636011362
0.0033916777465492487,0.004122407641261816,-0.005893543362617493,0.0016568574355915189,0.000135648442665115,0.0016812419053167105
0.0035289591178297997,0.004456295631825924,-0.0058226026594638824,0.0015582051128149033,0.0001336814311798662,0.001516986289061606
0.003748167073354125,0.004616179503500462,-0.005558301694691181,0.0015947140054777265,0.00013054058945272118,0.001243777689523995
0.003533813636749983,0.004873019643127918,-0.005549459718167782,0.001662332797423005,0.00012746510037686676,0.001054495107382536
0.0034363954328000546,0.0047729648649692535,-0.00570823485031724,0.0016121449880301952,0.00012452596274670213,0.0010588390287011862
0.0031853176187723875,0.004646054469048977,-0.006070260889828205,0.0018580574542284012,0.00012171897105872631,0.0010548114078119397
0.003474272321909666,0.004248055629432201,-0.005601875949651003,0.0017233927501365542,0.00011903571430593729,0.0012056892737746239
0.0037374200765043497,0.00447741337120533,-0.0060194446705281734,0.0017391408327966928,0.00011646836355794221,0.001275105751119554
0.003745081601664424,0.004605259746313095,-0.006411510054022074,0.0016905529191717505,0.00011400924267945811,0.001855926588177681
0.0037196078337728977,0.00462281284853816,-0.006470924708992243,0.0015693416353315115,0.0001116519415518269,0.0019417928997427225
0.0036726470571011305,0.004702636040747166,-0.005946547724306583,0.00176836212631315,0.0001093902756110765,0.001983469119295478
0.003644412150606513,0.004586131777614355,-0.0054968371987342834,0.0020095244981348515,0.0001072180166374892,0.001752467011101544
0.0036421450786292553,0.004610053263604641,-0.00566924037411809,0.001861719531007111,0.00010513075540075079,0.001580556738190353
0.0036421450786292553,0.004610053263604641,-0.00566924037411809,0.001861719531007111,0.00010513075540075079,0.001580556738190353
0.004133405163884163,0.004286072216928005,-0.006447429768741131,0.0015492427628487349,9.932931425282732e-05,0.0010126623092219234
0.004133405163884163,0.004286072216928005,-0.006447429768741131,0.0015492427628487349,9.932931425282732e-05,0.0010126623092219234
0.0041170003823935986,0.004493881948292255,-0.006158585660159588,0.0015988798113539815,9.753505582921207e-05,0.000931856338866055
0.003965882584452629,0.004434047732502222,-0.005908335093408823,0.0015312869800254703,9.58046002779156e-05,0.000923327577766031
0.0038751191459596157,0.004567011259496212,-0.005971004255115986,0.0017961242701858282,0.00010878102330025285,0.0009287522989325225
0.003804648295044899,0.004406758118420839,-0.006160188000649214,0.0019434024579823017,0.00010787387873278931,0.0009829116752371192
0.0041920943185687065,0.004197936039417982,-0.006005812902003527,0.002065638080239296,0.00010611923789838329,0.0012826846214011312
0.004285716917365789,0.004359327256679535,-0.005594690330326557,0.0019215380307286978,0.00010436539741931483,0.001433960278518498
0.004067949950695038,0.0045703803189098835,-0.005895134061574936,0.0017752806888893247,0.00010266488970955834,0.001348729943856597
0.004462265409529209,0.00470626400783658,-0.006690120790153742,0.0015829402254894376,0.00010101861698785797,0.0012376776430755854
0.004247019067406654,0.004792982246726751,-0.007153898011893034,0.0015390353510156274,9.942440374288708e-05,0.0010859507601708174
0.0043196966871619225,0.004586338996887207,-0.006235215812921524,0.001384273055009544,9.787971794139594e-05,0.0008919396786950529
0.00416998565196991,0.004617242608219385,-0.0059416405856609344,0.0014577313559129834,9.638220217311755e-05,0.0008792909793555737
0.004290271550416946,0.004664634820073843,-0.006053621415048838,0.0019811466336250305,9.492991375736892e-05,0.0009417242254130542
0.004205507226288319,0.004309664946049452,-0.006251535378396511,0.0020484784618020058,9.352081542601809e-05,0.0010292272781953216
0.004430991597473621,0.004413987044245005,-0.006222634110599756,0.002047513611614704,9.215276077156886e-05,0.0012203837977722287
0.0042931148782372475,0.004935258533805609,-0.005888539366424084,0.001845111371949315,9.082427277462557e-05,0.0012182560749351978
0.0042884983122348785,0.00486897025257349,-0.005986644420772791,0.0016587836435064673,8.953349606599659e-05,0.0013021493796259165
0.00426081009209156,0.00464921398088336,-0.006290718913078308,0.0014372066361829638,8.827905548969284e-05,0.0012798618990927935
0.004354209639132023,0.004621361382305622,-0.006783404387533665,0.0013913102447986603,8.705910295248032e-05,0.001210130867548287
0.004167340230196714,0.004638362675905228,-0.006356481928378344,0.0014698198065161705,8.587243064539507e-05,0.0011594414245337248
0.004365801811218262,0.004725235514342785,-0.00586111843585968,0.0016431217081844807,8.471772889606655e-05,0.0010216698283329606
0.004495108965784311,0.004589920397847891,-0.005664926487952471,0.001758194644935429,8.359355706488714e-05,0.0009963666088879108
0.004882992245256901,0.0049562216736376286,-0.005719824228435755,0.0019075305899605155,8.249895472545177e-05,0.0010478771291673183
0.004421006888151169,0.00432214979082346,-0.006332017481327057,0.0018838747637346387,8.143261220538989e-05,0.000976865878328681
0.004393537528812885,0.004422515165060759,-0.006758738309144974,0.0019273161888122559,8.039344538701698e-05,0.001058570109307766
0.0045080664567649364,0.004565251991152763,-0.006699725985527039,0.0017503544222563505,7.938049384392798e-05,0.0010776525596156716
0.004618639592081308,0.00442012632265687,-0.00562756322324276,0.0017861239612102509,7.839273166609928e-05,0.0010533983586356044
0.004457941744476557,0.0047508287243545055,-0.0071056904271245,0.0020685286726802588,7.648921018699184e-05,0.0010716700926423073
0.004457941744476557,0.0047508287243545055,-0.0071056904271245,0.0020685286726802588,7.648921018699184e-05,0.0010716700926423073
0.004920955281704664,0.004797669127583504,-0.006202502641826868,0.0020081200636923313,7.557172648375854e-05,0.0010458797914907336
0.004876297432929277,0.0047429692931473255,-0.005643037147819996,0.0021455397363752127,7.467599061783403e-05,0.0009283721446990967
0.004858396481722593,0.004405627958476543,-0.0057082390412688255,0.0021167267113924026,7.380118768196553e-05,0.0009181772475130856
0.0046373046934604645,0.004447901155799627,-0.007132526487112045,0.0019293003715574741,8.267920929938555e-05,0.0008366366382688284
0.004295083694159985,0.004640641622245312,-0.006755415350198746,0.0017962969141080976,8.236838766606525e-05,0.0007915200549177825
0.004830248653888702,0.0051446883007884026,-0.006251535378396511,0.0018271517474204302,8.147779590217397e-05,0.0007438720786012709
0.005079189781099558,0.004928886890411377,-0.006208404898643494,0.0018496832344681025,8.056885417317972e-05,0.0007586623542010784
0.004682148806750774,0.004880906548351049,-0.006235876120626926,0.0021056649275124073,7.967738201841712e-05,0.0007670397753827274
0.004680575802922249,0.004771523177623749,-0.0067136818543076515,0.00214180164039135,1.0263200238114223e-05,0.0007767780334688723
0.0047606960870325565,0.0049226777628064156,-0.0063412850722670555,0.00209062616340816,6.701137067466334e-07,0.0007255587843246758
0.004782280884683132,0.004634279292076826,-0.005861036479473114,0.002149407286196947,4.3753633605092546e-08,0.0007364062475971878
0.004705662373453379,0.004908659029752016,-0.0062775518745183945,0.002074840012937784,2.8567996857020717e-09,0.0007413213606923819
0.005006643012166023,0.004859446082264185,-0.00687710614874959,0.002003355883061886,1.8652861200063597e-10,0.000757710775360465
0.004824316594749689,0.004882549401372671,-0.007293295115232468,0.001958762761205435,1.2178985250854701e-11,0.0007092215237207711
0.005087732803076506,0.004601608030498028,-0.00697030546143651,0.0019338731653988361,7.95200765044829e-13,0.000725097896065563
0.004989424720406532,0.004845894873142242,-0.006411084905266762,0.0019119473872706294,5.1920927545421117e-14,0.0007485802634619176
0.005202199332416058,0.004853027407079935,-0.006090367678552866,0.0019553748425096273,3.390065353477546e-15,0.0007175388745963573
0.0047784470953047276,0.004798227921128273,-0.007112965919077396,0.0018685288960114121,2.21347033588298e-16,0.0006869523203931749
0.005650825798511505,0.004740337375551462,-0.006782719399780035,0.0016095121391117573,1.4452378894157067e-17,0.0006221660296432674
0.005399573128670454,0.004822597838938236,-0.006471990142017603,0.0014329791301861405,9.43637096247684e-19,0.0006256320630200207
0.005030131433159113,0.004742183722555637,-0.006624805275350809,0.0014700137544423342,6.161276118351394e-20,0.000592440424952656
0.004662062972784042,0.004711502231657505,-0.007942953146994114,0.0014846508856862783,4.0228729518069586e-21,0.0005484753055498004
0.0050061726942658424,0.005050987936556339,-0.007209395058453083,0.0015682644443586469,2.6266483204445465e-22,0.0005087805911898613
0.004923757631331682,0.005386370234191418,-0.0063849580474197865,0.001932437182404101,1.715013742437059e-23,0.00045901743578724563
0.005002441816031933,0.005140109919011593,-0.005872456356883049,0.0019956936594098806,1.119781448251145e-24,0.000456808804301545
0.004693216178566217,0.005122060421854258,-0.006774065550416708,0.001938800560310483,4.773804093896597e-27,0.0004731829685624689
0.00501618254929781,0.004698649048805237,-0.006452219095081091,0.0018097541760653257,3.116953188721739e-28,0.00045515489182434976
0.004989422857761383,0.004983906634151936,-0.006423036567866802,0.001804252970032394,2.03514777643739e-29,0.00048199197044596076
0.004923432599753141,0.0048272558487951756,-0.006610909476876259,0.001930947764776647,1.3288059915989048e-30,0.0004552604223135859
0.005250941496342421,0.004896833561360836,-0.006420552264899015,0.002016249345615506,8.676153356738435e-32,0.0005133760860189795
0.005250941496342421,0.004896833561360836,-0.006420552264899015,0.002016249345615506,8.676153356738435e-32,0.0005133760860189795
0.0052242521196603775,0.005070339422672987,-0.00603553606197238,0.0025390582159161568,3.6987802185836777e-34,0.0005086972378194332
0.0052242521196603775,0.005070339422672987,-0.00603553606197238,0.0025390582159161568,3.6987802185836777e-34,0.0005086972378194332
0.005728542804718018,0.004877437371760607,-0.005810602102428675,0.002436557086184621,2.4150390814540405e-35,0.00046967167872935534
0.005334069952368736,0.004768238868564367,-0.006338668521493673,0.00233328714966774,1.5768479343155306e-36,0.0004672656941693276
0.0054397895000875,0.004911559168249369,-0.006980620324611664,0.0021897286642342806,1.0295690702529898e-37,0.00046460950397886336
0.005559698212891817,0.0053111291490495205,-0.007264873944222927,0.0022228877060115337,6.722349630714478e-39,0.0004346262139733881
0.005425455514341593,0.005193495657294989,-0.006921099964529276,0.002216129098087549,4.389217114881408e-40,0.0004349372466094792
0.005542214959859848,0.0050120060332119465,-0.006819296628236771,0.002661033533513546,1.8707334498736308e-42,0.0004115027259103954
0.005542214959859848,0.0050120060332119465,-0.006819296628236771,0.002661033533513546,1.8707334498736308e-42,0.0004115027259103954
0.005245095584541559,0.004842559807002544,-0.006999160163104534,0.0025121322833001614,1.2191296639625909e-43,0.00038935081101953983
0.005822723265737295,0.004958712961524725,-0.006838921457529068,0.0025396100245416164,8.407790785948902e-45,0.0003693787148222327
0.005797707010060549,0.005315063986927271,-0.006969199515879154,0.0026580444537103176,0.0,0.0003532662522047758
0.006063013803213835,0.005198540166020393,-0.007317854557186365,0.0025363352615386248,0.0,0.0003311377950012684
0.00553843192756176,0.005271063651889563,-0.007964731194078922,0.0026165731251239777,0.0,0.00030866460292600095
0.0058691231533885,0.005065138917416334,-0.007109327707439661,0.0026657232083380222,0.0,0.0002888553717639297
0.006095187272876501,0.004776101093739271,-0.006901094689965248,0.0027379451785236597,0.0,0.0002714251750148833
0.005888195242732763,0.004861505702137947,-0.006818560883402824,0.0026449053548276424,0.0,0.00025597866624593735
0.00612923689186573,0.005320248194038868,-0.007960258983075619,0.002739947522059083,0.0,0.0002421960380161181
0.0055856830440461636,0.004825104493647814,-0.007164060603827238,0.002668805420398712,0.0,0.00022982218069955707
0.005909042898565531,0.004803754389286041,-0.007331795059144497,0.0026687749195843935,0.0,0.00025093049043789506
0.005957698915153742,0.004770932253450155,-0.007560109253972769,0.0028711475897580385,0.0,0.0002494732616469264
0.006133582908660173,0.004876782651990652,-0.007508792448788881,0.00315744592808187,0.0,0.00023908878210932016
0.005803255829960108,0.004796071443706751,-0.007287332322448492,0.003349029691889882,0.0,0.00021967686188872904
0.0064238193444907665,0.004830642137676477,-0.007595346309244633,0.003198323305696249,0.0,0.00021108811779413372
0.00634045572951436,0.004376594442874193,-0.007173368241637945,0.0033598749432712793,0.0,0.00020314562425483018
0.006250592879951,0.004517705645412207,-0.00693200109526515,0.003036817768588662,0.0,0.00019577964849304408
0.006302354857325554,0.004507200326770544,-0.007256035692989826,0.002871905220672488,0.0,0.00018892927619162947
0.006302354857325554,0.004507200326770544,-0.007256035692989826,0.002871905220672488,0.0,0.00018892927619162947
0.006367894820868969,0.00471091503277421,-0.008324472233653069,0.00256863865070045,0.0,0.00017657200805842876
0.006367894820868969,0.00471091503277421,-0.008324472233653069,0.00256863865070045,0.0,0.00017657200805842876
0.006975570693612099,0.004420559853315353,-0.007147414144128561,0.002960796933621168,0.0,0.00017098062380682677
0.006759708281606436,0.004571288358420134,-0.0066979932598769665,0.0032529146410524845,0.0,0.00016573304310441017
0.006366974674165249,0.0045234523713588715,-0.006750168278813362,0.0031580140348523855,0.0,0.00016079697525128722
0.00630653090775013,0.004705499392002821,-0.007517392281442881,0.0030497300904244184,0.0,0.00015614736184943467
0.006749611813575029,0.004693230148404837,-0.007763781119138002,0.0032966502476483583,0.0,0.0001517586933914572
0.006774247158318758,0.004676328506320715,-0.007333097048103809,0.0030725128017365932,0.0,0.00014761007332708687
0.006415695417672396,0.0043844738975167274,-0.006868510972708464,0.003087454242631793,0.0,0.0001436825841665268
0.006154263392090797,0.004432222340255976,-0.0076849739998579025,0.0030181349720805883,0.0,0.0001399587927153334
0.006605605594813824,0.004615986719727516,-0.007577098440378904,0.002928258152678609,0.0,0.00013642240082845092
0.006730399560183287,0.004627764690667391,-0.0068495976738631725,0.0028153087478131056,0.0,0.00013306121400091797
0.007166543044149876,0.0043919887393713,-0.006720671430230141,0.0028345671016722918,0.0,0.00011381493823137134
0.006709624547511339,0.0045180367305874825,-0.007101127412170172,0.002853892045095563,0.0,0.00010604151611914858
0.006484599318355322,0.004389692563563585,-0.007705117110162973,0.0029320386238396168,0.0,0.0001032752261380665
0.006944070570170879,0.004318799823522568,-0.0074563296511769295,0.002941699931398034,0.0,0.0001009370171232149
0.007213323377072811,0.004963303916156292,-0.006933729164302349,0.003097187727689743,0.0,9.872102964436635e-05
0.007091378793120384,0.0044934507459402084,-0.0074148415587842464,0.003985569346696138,0.0,9.66017396422103e-05
0.006697420030832291,0.004530833102762699,-0.007085463963449001,0.004129467066377401,0.0,9.457117994315922e-05
0.007313843816518784,0.004671081900596619,-0.007220669649541378,0.0036126209888607264,0.0,7.653018110431731e-05
0.0075037782080471516,0.004935211036354303,-0.007150747813284397,0.003239815589040518,0.0,6.242642120923847e-05
0.00746141467243433,0.004503263626247644,-0.00799704808741808,0.003143594367429614,0.0,5.293357025948353e-05
0.007676932495087385,0.004481494892388582,-0.007464900612831116,0.0034517592284828424,0.0,5.138587948749773e-05
0.007614284288138151,0.004568588454276323,-0.007363873068243265,0.0036726524122059345,0.0,-1.9514651285135187e-05
0.007614284288138151,0.004568588454276323,-0.007363873068243265,0.0036726524122059345,0.0,-1.9514651285135187e-05
0.007558915298432112,0.004673182964324951,-0.006958221085369587,0.00390215078368783,0.0,-4.123229155084118e-05
0.007516514044255018,0.004946481436491013,-0.007036264985799789,0.004041856620460749,0.0,-6.123877392383292e-05
0.007768169045448303,0.004658023361116648,-0.007049031089991331,0.0034939583856612444,0.0,-7.126560376491398e-05
0.007092545740306377,0.004365936852991581,-0.0072577595710754395,0.002980817575007677,0.0,-9.514109115116298e-05
0.007092545740306377,0.004365936852991581,-0.0072577595710754395,0.002980817575007677,0.0,-9.514109115116298e-05
0.007257934659719467,0.004513487219810486,-0.00789620354771614,0.003346938407048583,0.0,-9.559147292748094e-05
0.007201238535344601,0.004183713812381029,-0.007284215185791254,0.0037284151185303926,0.0,-0.0005788251291960478
0.007989074103534222,0.004420222714543343,-0.006962135899811983,0.003824134822934866,0.0,-0.0006351195042952895
0.007629162631928921,0.00451734010130167,-0.00697286194190383,0.003832784714177251,0.0,-0.0005814419710077345
0.007347522769123316,0.004328347276896238,-0.007285168394446373,0.0034494672436267138,0.0,-0.0006011463701725006
0.007480319123715162,0.004379392135888338,-0.006899650674313307,0.00357121997512877,0.0,-0.0005581398727372289
0.007716123480349779,0.004526884760707617,-0.006851172540336847,0.003356560133397579,0.0,-0.0005814218311570585
0.007706957403570414,0.004322543740272522,-0.007408522069454193,0.003449299605563283,0.0,-0.0005930952029302716
0.007681658957153559,0.004052512347698212,-0.007623789831995964,0.0036501488648355007,0.0,-0.0006265217089094222
0.007792445831000805,0.003937480505555868,-0.007295241579413414,0.0037736366502940655,0.0,-0.00065727619221434
0.0078048864379525185,0.004405668471008539,-0.007289474364370108,0.003733790712431073,0.0,-0.0007049389532767236
0.007596219424158335,0.004610351286828518,-0.00705311493948102,0.003341984236612916,0.0,-0.0008683883352205157
0.007325054612010717,0.004680456593632698,-0.0072770556434988976,0.00333417602814734,0.0,-0.000973958638496697
0.00797152891755104,0.004626600071787834,-0.007185356225818396,0.003565792925655842,0.0,-0.000897267076652497
0.007827342487871647,0.0043374160304665565,-0.007480798289179802,0.0037678976077586412,0.0,-0.0008674823329783976
0.00753407645970583,0.004028858616948128,-0.007804323919117451,0.003750634379684925,0.0,-0.0007875392329879105
0.00753407645970583,0.004028858616948128,-0.007804323919117451,0.003750634379684925,0.0,-0.0007875392329879105
0.007627345621585846,0.004432054702192545,-0.007148208096623421,0.0037011539097875357,0.0,-0.0007971196318976581
0.0075603062286973,0.0045092785730957985,-0.006724241189658642,0.0036969769280403852,5.43670410024788e-07,-0.0010021544294431806
0.0075603062286973,0.0045092785730957985,-0.006724241189658642,0.0036969769280403852,5.43670410024788e-07,-0.0010021544294431806
0.00738503597676754,0.004943928215652704,-0.007012517191469669,0.003503512591123581,3.549779137301812e-08,-0.0022020027972757816
0.00724750105291605,0.004441696684807539,-0.007458918262273073,0.0035617256071418524,2.3177522123773997e-09,-0.002117122756317258
0.0075719780288636684,0.004216304514557123,-0.006763755809515715,0.004176808521151543,6.451549364183684e-13,-0.0012712539173662663
0.0075719780288636684,0.004216304514557123,-0.006763755809515715,0.004176808521151543,6.451549364183684e-13,-0.0012712539173662663
0.007351904641836882,0.004768391139805317,-0.007338210009038448,0.0038876894395798445,4.212400556407453e-14,-0.0011309986002743244
0.008816066198050976,0.00482097128406167,-0.007401144132018089,0.004062180873006582,2.750396871381176e-15,-0.0010476798051968217
0.008079755119979382,0.004837991204112768,-0.007341872435063124,0.004139607772231102,1.7958126832728693e-16,-0.0009094332926906645
0.007923899218440056,0.004512089770287275,-0.006643807515501976,0.0043416558764874935,1.1725372036903485e-17,-0.0009696247288957238
0.007545824162662029,0.0043693892657756805,-0.00706950668245554,0.004337742459028959,7.655830572756179e-19,-0.002077876590192318
0.008153406903147697,0.004075938835740089,-0.007518623024225235,0.004335535690188408,4.9987102796773396e-20,-0.0026813149452209473
0.008892269805073738,0.004300836939364672,-0.007286769337952137,0.004299227148294449,3.263800242160659e-21,-0.002390969078987837
0.008046506904065609,0.0045381588861346245,-0.006920635234564543,0.004078478552401066,2.1310280920575723e-22,-0.002024744637310505
0.008948256261646748,0.00478648766875267,-0.006893925368785858,0.004302589688450098,1.3914091151634682e-23,-0.001884728204458952
0.00850753951817751,0.004541595932096243,-0.007274404633790255,0.004537644330412149,9.084906754216467e-25,-0.001736918929964304
0.008087411522865295,0.004477212205529213,-0.007162462919950485,0.004565402399748564,5.93179520338348e-26,-0.001742865308187902
0.008332495577633381,0.0044461642391979694,-0.007009140215814114,0.004666471853852272,3.8730381848149315e-27,-0.002041483297944069
0.008620760403573513,0.00416664220392704,-0.0070481691509485245,0.004466770216822624,2.528817276388383e-28,-0.0020840363577008247
0.008537063375115395,0.0040010251104831696,-0.0078008114360272884,0.00449347123503685,1.651136905752573e-29,-0.0023774094879627228
0.008210909552872181,0.004345281980931759,-0.007460369262844324,0.004558613523840904,1.0780744571617319e-30,-0.002504640957340598
0.008459975942969322,0.004854552447795868,-0.006960173137485981,0.004640367813408375,7.03905589253327e-32,-0.0021964763291180134
0.009036888368427753,0.004964527674019337,-0.007287087384611368,0.004433987662196159,4.596000342748782e-33,-0.001940263668075204
0.008999783545732498,0.004524216055870056,-0.007678009103983641,0.00409612525254488,3.000859835141715e-34,-0.0016292333602905273
0.008320080116391182,0.004368789028376341,-0.0075235189869999886,0.004397033713757992,1.9593470447292057e-35,-0.0016214345814660192
0.008564885705709457,0.004233823623508215,-0.006966341752558947,0.004567509051412344,1.2793135720809811e-36,-0.0018229467095807195
0.008866933174431324,0.004133288748562336,-0.007534332573413849,0.004628062713891268,8.353003379110116e-38,-0.0023434197064489126
0.00859880167990923,0.004051447380334139,-0.007705699186772108,0.004152812063694,5.453913878986154e-39,-0.002696942538022995
0.0086306007578969,0.004440982360392809,-0.007305827457457781,0.004413227550685406,3.561021696496155e-40,-0.00304427370429039
0.008996406570076942,0.0044454303570091724,-0.007482148241251707,0.004779900424182415,1.517606236863777e-42,-0.0026959723327308893
0.00891059823334217,0.003982351627200842,-0.008159060031175613,0.004784400574862957,9.949219096706201e-44,-0.0025396181736141443
0.009323520585894585,0.0038487992715090513,-0.007537242025136948,0.004657546523958445,7.006492321624085e-45,-0.0027053221128880978
0.009323520585894585,0.0038487992715090513,-0.007537242025136948,0.004657546523958445,7.006492321624085e-45,-0.0027053221128880978
0.008882483467459679,0.004356031771749258,-0.007632875349372625,0.004611669573932886,0.0,-0.002984914230182767
0.00913927797228098,0.004519208800047636,-0.00816999189555645,0.004820753820240498,0.0,-0.0029154070653021336
0.00913927797228098,0.004519208800047636,-0.00816999189555645,0.004820753820240498,0.0,-0.0029154070653021336
0.009230509400367737,0.004559102468192577,-0.007832915522158146,0.004662950523197651,0.0,-0.0029418007470667362
0.008886289782822132,0.004444760270416737,-0.00742265023291111,0.004416424315422773,0.0,-0.0026342987548559904
0.009212436154484749,0.004359472077339888,-0.0076477257534861565,0.004629128146916628,0.0,-0.002419589087367058
0.009371466934680939,0.004425642546266317,-0.008256087079644203,0.005023607984185219,0.0,-0.0026308074593544006
0.009666094556450844,0.004276694729924202,-0.008380466140806675,0.004787304438650608,0.0,-0.002903441432863474
0.009204198606312275,0.004056624136865139,-0.0077407206408679485,0.0043517304584383965,0.0,-0.0033817237708717585
0.009652968496084213,0.004392392002046108,-0.007905904203653336,0.004450871609151363,0.0,-0.0034103540237993
0.009117063134908676,0.004700267221778631,-0.008313840255141258,0.004607900511473417,0.0,-0.003363782772794366
0.009762185625731945,0.004764965269714594,-0.008591920137405396,0.0051103499718010426,0.0,-0.003098775865510106
0.009701069444417953,0.0042215874418616295,-0.008846987970173359,0.005328745115548372,0.0,-0.0030403987038880587
0.009405183605849743,0.0043593295849859715,-0.009282559156417847,0.004914171993732452,0.0,-0.0032586525194346905
0.010106271132826805,0.00427205627784133,-0.008785462938249111,0.004716543946415186,-0.00029358663596212864,-0.0031907670199871063
0.009748741053044796,0.004493390209972858,-0.008422031998634338,0.004756589885801077,-0.00034032604889944196,-0.00323339831084013
0.009295564144849777,0.004405462648719549,-0.009583692997694016,0.004829732701182365,-0.00036776784691028297,-0.00329563207924366
0.010269063524901867,0.004898213315755129,-0.009300409816205502,0.004913161508738995,-0.00035833404399454594,-0.0035639693960547447
0.009945888072252274,0.0048267655074596405,-0.008457769639790058,0.005075582768768072,-0.00037830061046406627,-0.003314116271212697
0.00915158074349165,0.00435589998960495,-0.0088095897808671,0.0046514589339494705,-0.00036910950439050794,-0.003319219220429659
0.009992328472435474,0.004481504671275616,-0.009357457980513573,0.004274752922356129,-0.0003494769334793091,-0.003278981428593397
0.010542146861553192,0.004114184528589249,-0.008676274679601192,0.004124889150261879,-0.0003542315971571952,-0.003500443184748292
0.009914623573422432,0.004063939210027456,-0.009305260144174099,0.004694892559200525,-0.000342350424034521,-0.0031359049025923014
0.010524077340960503,0.004573497921228409,-0.008950140327215195,0.005071396939456463,-0.00037625263212248683,-0.0031170437578111887
0.009701323695480824,0.004646107088774443,-0.009113275445997715,0.004706163890659809,-0.00039094718522392213,-0.002894289093092084
0.010099644772708416,0.004330904223024845,-0.009595716372132301,0.004798516631126404,-0.0004251197387930006,-0.003257078118622303
0.010339455679059029,0.004044561181217432,-0.008964267559349537,0.004972056485712528,-0.00040216537308879197,-0.0036813090555369854
0.01032955851405859,0.0039554014801979065,-0.008779697120189667,0.004714720882475376,-0.00042073967051692307,-0.0036709599662572145
0.010188345797359943,0.0039209588430821896,-0.009294360876083374,0.0046945596113801,-0.0004078393103554845,-0.0035557709634304047
0.010188345797359943,0.0039209588430821896,-0.009294360876083374,0.0046945596113801,-0.0004078393103554845,-0.0035557709634304047
0.010716292075812817,0.004367248620837927,-0.009213754907250404,0.005831709131598473,-0.0003839136625174433,-0.0036225407384335995
0.009927371516823769,0.004121927544474602,-0.008652008138597012,0.0062234969809651375,-0.00040663269464857876,-0.003791302675381303
0.010277471505105495,0.004213281907141209,-0.010486477985978127,0.005543901585042477,-0.00039068335900083184,-0.003703163005411625
0.010115730576217175,0.004136631265282631,-0.0094773443415761,0.004935313947498798,-0.0003717492218129337,-0.0038526749704033136
0.010541382245719433,0.004305419512093067,-0.009425965137779713,0.004596721846610308,-0.0004361837054602802,-0.003943806979805231
0.010086539201438427,0.004048753064125776,-0.00924923736602068,0.004904258530586958,-0.0004036349128000438,-0.0038991435430943966
0.010335361585021019,0.004263368900865316,-0.00941246934235096,0.0055169109255075455,-0.0003707774740178138,-0.003822042141109705
0.010219220072031021,0.004252166952937841,-0.00922386720776558,0.005500525701791048,-0.0003425577888265252,-0.0038169894833117723
0.010311421006917953,0.004141570068895817,-0.009364877827465534,0.005084265489131212,-0.0003774971701204777,-0.0038123608101159334
0.010164251551032066,0.004130239598453045,-0.009423963725566864,0.005115166772156954,-0.0003564302169252187,-0.004234706051647663
0.009877365082502365,0.004142836667597294,-0.009055315516889095,0.005163650494068861,-0.00036171890678815544,-0.003703359980136156
0.010488544590771198,0.004501380026340485,-0.010629751719534397,0.005241671577095985,-0.0003657141060102731,-0.0034179077483713627
0.009827742353081703,0.004244488663971424,-0.00944628193974495,0.005420318804681301,-0.0003471903328318149,-0.003478451631963253
0.009874537587165833,0.0039297351613640785,-0.009535914286971092,0.005319817457348108,-0.0003698522050399333,-0.003797514596953988
0.009916839189827442,0.0037904742639511824,-0.008956155739724636,0.004976653028279543,-0.00035708374343812466,-0.00429065665230155
0.0097256014123559,0.0040593924932181835,-0.009742473252117634,0.004795135464519262,-0.0003405555326025933,-0.004419500939548016
0.010111928917467594,0.004493792541325092,-0.00884871557354927,0.004718266427516937,-0.0003251942980568856,-0.0043374658562242985
0.010286177508533001,0.004233923275023699,-0.008948104456067085,0.005171281285583973,-0.00031246826983988285,-0.004425083752721548
0.009570058435201645,0.004361259285360575,-0.009130863472819328,0.005596463102847338,-0.0003027504135388881,-0.0037844718899577856
0.009853540919721127,0.004268311895430088,-0.009026823565363884,0.005335417576134205,-0.00028435137937776744,-0.0035676369443535805
0.00971337128430605,0.003808514913544059,-0.009089099243283272,0.004705645609647036,-0.0003020544536411762,-0.003719993634149432
0.01002501416951418,0.0042451829649508,-0.009108207188546658,0.005809838883578777,-0.000286812981357798,-0.004244430456310511
0.010019117966294289,0.004110338632017374,-0.008706078864634037,0.005915695335716009,-0.00027239209157414734,-0.004139282740652561
0.010019117966294289,0.004110338632017374,-0.008706078864634037,0.005915695335716009,-0.00027239209157414734,-0.004139282740652561
0.010430151596665382,0.003894656663760543,-0.00898510031402111,0.0058105881325900555,-0.00029121432453393936,-0.00412488030269742
0.010145258158445358,0.00379648944362998,-0.009346980601549149,0.005313565023243427,-0.0002879265521187335,-0.0042485943995416164
0.009828164242208004,0.0038412732537835836,-0.008825729601085186,0.0053498707711696625,-0.0002759668859653175,-0.004043718799948692
0.009981182403862476,0.004085948225110769,-0.008995423093438148,0.005286938976496458,-0.00026442442322149873,-0.004218200221657753
0.010186790488660336,0.004003325942903757,-0.00922816339880228,0.005569824483245611,-0.00028057157760486007,-0.004383259918540716
0.0108846016228199,0.0037913965061306953,-0.008756897412240505,0.00571053521707654,-0.00027817764203064144,-0.004364636726677418
0.010111549869179726,0.0037313883658498526,-0.009581305086612701,0.00599990738555789,-0.000268360017798841,-0.0045652552507817745
0.010703515261411667,0.004233304876834154,-0.009132223203778267,0.005655094049870968,-0.0002587502240203321,-0.004718677140772343
0.010688956826925278,0.004503495059907436,-0.009626162238419056,0.005790193565189838,-0.0002935222873929888,-0.00486830435693264
0.01037398912012577,0.004171338398009539,-0.008953038603067398,0.005626240745186806,-0.00033064570743590593,-0.004782789386808872
0.010876424610614777,0.003930740989744663,-0.009938428178429604,0.005983962211757898,-0.00035740117891691625,-0.004658540710806847
0.009981601499021053,0.004219720605760813,-0.009102760814130306,0.006231977138668299,-0.00038721610326319933,-0.004161607939749956
0.010786065831780434,0.00427217548713088,-0.008991455659270287,0.005695926025509834,-0.00038118576048873365,-0.004212618339806795
0.012306454591453075,0.004209497012197971,-0.00915384478867054,0.005812366958707571,-0.0008301715715788305,-0.004680857062339783
0.012172498740255833,0.004080066457390785,-0.008939421735703945,0.0058732423931360245,-0.0008009677403606474,-0.005113270599395037
0.012325812131166458,0.0038796314038336277,-0.008862283080816269,0.006032186094671488,-0.0008111277711577713,-0.004970381036400795
0.01203001756221056,0.003836636198684573,-0.009093767032027245,0.005878945346921682,-0.0007251040660776198,-0.004870622884482145
0.01220729574561119,0.004347407724708319,-0.009420754387974739,0.0058474973775446415,-0.0007305181352421641,-0.0047882115468382835
0.012164266780018806,0.004504789598286152,-0.00866000447422266,0.005899509415030479,-0.0006730302120558918,-0.004743421915918589
0.012332739308476448,0.0043360088020563126,-0.008939651772379875,0.00601644441485405,-0.0006368336034938693,-0.004389098845422268
0.012035083025693893,0.004016409628093243,-0.009548354893922806,0.0063547356985509396,-0.0005668426165357232,-0.004486973863095045
0.011852581985294819,0.0043573747389018536,-0.008947432972490788,0.006359750870615244,-0.0005039236857555807,-0.004453158471733332
0.012660335749387741,0.004487000405788422,-0.00863445084542036,0.005762056913226843,-0.0005193729884922504,-0.0048743728548288345
0.01260335836559534,0.003930087201297283,-0.009113103151321411,0.006729916203767061,-0.00045241593034006655,-0.004482288379222155
0.012311220169067383,0.004288091789931059,-0.00910250935703516,0.006489201448857784,-0.00041749284719116986,-0.004050044808536768
0.012503359466791153,0.004548972472548485,-0.009631008841097355,0.006445444654673338,-0.0003875145048368722,-0.004629795905202627
0.013177933171391487,0.004575896542519331,-0.009219266474246979,0.006286982912570238,-0.00041361572220921516,-0.005048914812505245
0.013009141199290752,0.004282628186047077,-0.009065317921340466,0.006212280597537756,-0.0003947930526919663,-0.0050619132816791534
0.013009141199290752,0.004282628186047077,-0.009065317921340466,0.006212280597537756,-0.0003947930526919663,-0.0050619132816791534
0.013007694855332375,0.004385929089039564,-0.009402258321642876,0.006653379648923874,-0.0003719395899679512,-0.005243462976068258
0.012344051152467728,0.004485285375267267,-0.009650658816099167,0.006700725760310888,-0.00038821043563075364,-0.004953647032380104
0.012869562022387981,0.00460353959351778,-0.009390776976943016,0.006391127593815327,-0.00037933807470835745,-0.004687783308327198
0.012800155207514763,0.004398175980895758,-0.009879122488200665,0.006230627186596394,-0.0003610670391935855,-0.005054120905697346
0.013188480399549007,0.004557276144623756,-0.009654682129621506,0.0063292840495705605,-0.0003273469628766179,-0.005172431468963623
0.013193470425903797,0.004296980332583189,-0.008998137898743153,0.0068153031170368195,-0.0002922789135482162,-0.005758706945925951
0.013196300715208054,0.004411666188389063,-0.009098413400352001,0.0065019624307751656,-0.0002735945163294673,-0.005810611415654421
0.013172820210456848,0.004855286795645952,-0.009535127319395542,0.006309363059699535,-0.0002958531549666077,-0.0055717830546200275
0.01284650806337595,0.004468834027647972,-0.009400158189237118,0.0063121686689555645,-0.000291755044599995,-0.005112607963383198
0.013499102555215359,0.004058898892253637,-0.008994660340249538,0.006769055966287851,-0.00027753441827371716,-0.005323050078004599
0.013122818432748318,0.003907920327037573,-0.00863230787217617,0.007102954667061567,-0.0002640121092554182,-0.005506841465830803
0.013551861979067326,0.004397288430482149,-0.009402651339769363,0.006880316883325577,-0.00025170575827360153,-0.005711087957024574
0.013243252411484718,0.004142786841839552,-0.009983810596168041,0.006367788650095463,-0.00027521917945705354,-0.005570038687437773
0.01395565178245306,0.00420756172388792,-0.0102153979241848,0.006345422938466072,-0.0002682606573216617,-0.005392271559685469
0.013271529227495193,0.0040610418654978275,-0.009341079741716385,0.006679544225335121,-0.0002576003025751561,-0.005283690989017487
0.01350711565464735,0.004234404768794775,-0.009344672784209251,0.006702335551381111,-0.00027363983099348843,-0.005474095232784748
0.01337887067347765,0.0039975629188120365,-0.009767505340278149,0.006457446608692408,-0.0002715618466027081,-0.0059863799251616
0.013839110732078552,0.004260155837982893,-0.009448457509279251,0.006250760518014431,-0.00026221000007353723,-0.005665592849254608
0.013664484024047852,0.00422802846878767,-0.009506319649517536,0.0066257044672966,-0.00025302948779426515,-0.005302283447235823
0.013702225871384144,0.0044540162198245525,-0.010295739397406578,0.006818738766014576,-0.000283976347418502,-0.004995136056095362
0.014063107781112194,0.00426109554246068,-0.00938632246106863,0.007179458159953356,-0.00027964054606854916,-0.005871239118278027
0.013744677416980267,0.004151687957346439,-0.008977407589554787,0.006764784920960665,-0.00030301755759865046,-0.005642926320433617
0.013567212969064713,0.004057984333485365,-0.009611058980226517,0.006744699086993933,-0.00029849651036784053,-0.005842047277837992
0.0133883161470294,0.003919848240911961,-0.010087969712913036,0.007008302491158247,-0.0002836150233633816,-0.00580360135063529
0.013841281644999981,0.00432676263153553,-0.00974286813288927,0.006534597836434841,-0.000298709433991462,-0.005876097362488508
0.013917559757828712,0.004521546885371208,-0.009886297397315502,0.006979388650506735,-0.0002858346269931644,-0.005708309821784496
0.013917559757828712,0.004521546885371208,-0.009886297397315502,0.006979388650506735,-0.0002858346269931644,-0.005708309821784496
0.014255582354962826,0.0044197458773851395,-0.010066920891404152,0.006939048413187265,-0.00029977833037264645,-0.005340322386473417
0.014255582354962826,0.0044197458773851395,-0.010066920891404152,0.006939048413187265,-0.00029977833037264645,-0.005340322386473417
0.014121612533926964,0.004148975480347872,-0.009603317826986313,0.006826329976320267,-0.0004191389889456332,-0.005171187222003937
0.01448502205312252,0.003956882748752832,-0.009375701658427715,0.007055015303194523,-0.0003922560135833919,-0.0053086853586137295
0.01399522740393877,0.003955473192036152,-0.010821685194969177,0.0074356794357299805,-0.00042851129546761513,-0.00517682172358036
0.014301764778792858,0.004501987714320421,-0.010768423788249493,0.0073676202446222305,-0.0004010882112197578,-0.005148270167410374
0.01422183308750391,0.004739958327263594,-0.01094834879040718,0.0072490377351641655,-0.00037360950955189764,-0.005954993888735771
0.014721767976880074,0.004746526945382357,-0.011597445234656334,0.007563391700387001,-0.0003922942269127816,-0.005621836520731449
0.014392102137207985,0.004219680093228817,-0.010462300851941109,0.007807599380612373,-0.0003818842233158648,-0.005738998297601938
0.014970947988331318,0.004143737256526947,-0.01072206161916256,0.008083375170826912,-0.00036087632179260254,-0.006161953322589397
0.015023314394056797,0.003924277611076832,-0.010889397002756596,0.007749190554022789,-0.0003773300559259951,-0.006088005378842354
0.01502886600792408,0.0038668951019644737,-0.010163513012230396,0.007567940279841423,-0.00036924611777067184,-0.006222856696695089
0.01427453476935625,0.004430512897670269,-0.010556088760495186,0.007537628058344126,-0.00038158398820087314,-0.005663145799189806
0.01508320402354002,0.00473466282710433,-0.010411310940980911,0.007047909777611494,-0.0003790082992054522,-0.006001394707709551
0.015111147426068783,0.004816026426851749,-0.01037757471203804,0.006923513952642679,-0.00035133762867189944,-0.006683665793389082
0.015110434032976627,0.004331051371991634,-0.011071928776800632,0.007255774922668934,-0.0003739063104148954,-0.006463753059506416
0.0156220942735672,0.003984606824815273,-0.01090672891587019,0.007593345362693071,-0.00036363067920319736,-0.0062335641123354435
0.015543011948466301,0.0038852118887007236,-0.0106440344825387,0.007408773526549339,-0.0003415945393498987,-0.006035917904227972
0.015389632433652878,0.004139898344874382,-0.010620573535561562,0.007342991419136524,-0.0003473943506833166,-0.006117432378232479
0.015180670656263828,0.004502993542701006,-0.010706670582294464,0.00742299621924758,-0.00035202407161705196,-0.006212072912603617
0.015044411644339561,0.004166600294411182,-0.011133890599012375,0.0074732620269060135,-0.00033488028566353023,-0.00662414263933897
0.014844427816569805,0.00447794608771801,-0.010955462232232094,0.007071484345942736,-0.0003402436850592494,-0.007061425596475601
0.015402618795633316,0.00457687908783555,-0.010665620677173138,0.007061941083520651,-0.00034452122054062784,-0.006917875725775957
0.015209203585982323,0.00433256383985281,-0.011311818845570087,0.007252298761159182,-0.0003835788229480386,-0.006856176536530256
0.01598186045885086,0.004261016380041838,-0.011470779776573181,0.007565971463918686,-0.0004067445988766849,-0.006417033262550831
0.01581551507115364,0.004048652481287718,-0.010878417640924454,0.007429712917655706,-0.00040986749809235334,-0.006435154005885124
0.015731830149888992,0.003983364440500736,-0.011662566103041172,0.007341321092098951,-0.000438161485362798,-0.006326752714812756
0.015749616548419,0.0048193614929914474,-0.011540528386831284,0.007294533308595419,-0.0004168255836702883,-0.006488340441137552
0.016570566222071648,0.004547762684524059,-0.011253717355430126,0.008290956728160381,-0.0004209369362797588,-0.006665028631687164
0.016656329855322838,0.004222352989017963,-0.01117735356092453,0.00837666168808937,-0.0005816358607262373,-0.006723983678966761
0.016373606398701668,0.0041296212002635,-0.01183690968900919,0.007881917990744114,-0.0005398731445893645,-0.006463849917054176
0.016373606398701668,0.0041296212002635,-0.01183690968900919,0.007881917990744114,-0.0005398731445893645,-0.006463849917054176
0.017672576010227203,0.004511845763772726,-0.010842030867934227,0.008010532706975937,-0.0004836071457248181,-0.006323055364191532
0.017064472660422325,0.004621833097189665,-0.011553794145584106,0.008547232486307621,-0.0005118997651152313,-0.006689088884741068
0.015981916338205338,0.004296112805604935,-0.012044686824083328,0.008750836364924908,-0.0004768668732140213,-0.007118900306522846
0.0166742242872715,0.0044671776704490185,-0.011691225692629814,0.008510018698871136,-0.0004387536901049316,-0.006564286537468433
0.0170841496437788,0.004223762080073357,-0.011874201707541943,0.00869677122682333,-0.0004641743435058743,-0.006105591077357531
0.0168569628149271,0.004322259686887264,-0.011029548943042755,0.008784307166934013,-0.00043971784180030227,-0.006371517200022936
0.01760253868997097,0.004484113305807114,-0.011880295351147652,0.008474573493003845,-0.0004115005722269416,-0.007005119230598211
0.017388001084327698,0.004227026365697384,-0.011701342649757862,0.00868979375809431,-0.0003862909215968102,-0.006562556140124798
0.017713941633701324,0.004525733646005392,-0.01158332359045744,0.008634667843580246,-0.0004123574763070792,-0.0061722975224256516
0.017286043614149094,0.004187087528407574,-0.011781521141529083,0.008182475343346596,-0.00039299813215620816,-0.006443109828978777
0.017292814329266548,0.004435534123331308,-0.011544642969965935,0.008900662884116173,-0.0003581152996048331,-0.006864854600280523
0.01757318153977394,0.003659381065517664,-0.012107247486710548,0.009081087075173855,-0.0003306501021143049,-0.007305252831429243
0.017047857865691185,0.0030112438835203648,-0.011831403709948063,0.008594052866101265,-0.0003652011218946427,-0.006989162880927324
0.017516884952783585,0.0033143493346869946,-0.011773427948355675,0.008950184099376202,-0.00034555222373455763,-0.006772025488317013
0.01765809953212738,0.0037597552873194218,-0.011915457434952259,0.008937709033489227,-0.0003249910078011453,-0.006627850234508514
0.01736140064895153,0.003908660262823105,-0.011525030247867107,0.00863186176866293,-0.0003442029992584139,-0.007891328074038029
0.01775132119655609,0.0037945727817714214,-0.012070941738784313,0.008758358657360077,-0.0003375452070031315,-0.007828843779861927
0.017805511131882668,0.0036592483520507812,-0.0115853575989604,0.008810562081634998,-0.00032110727624967694,-0.007424394134432077
0.017918577417731285,0.003666156204417348,-0.01184608694165945,0.008979889564216137,-0.0003055776469409466,-0.007383738644421101
0.017812484875321388,0.003721327520906925,-0.012236545793712139,0.008405684493482113,-0.00032750313403084874,-0.007609558757394552
0.017325332388281822,0.0037426322232931852,-0.011721760965883732,0.008345919661223888,-0.000317981670377776,-0.006826053839176893
0.017820056527853012,0.0037483780179172754,-0.012456247583031654,0.008383614011108875,-0.00030483867158181965,-0.007426518015563488
0.0175579022616148,0.00380463944748044,-0.011937359347939491,0.008319673128426075,-0.00032155768712982535,-0.006703189108520746
0.018090790137648582,0.0033736464101821184,-0.012233797460794449,0.008669688366353512,-0.00030683199292980134,-0.007346769329160452
0.017683574929833412,0.0033608446829020977,-0.011740299873054028,0.00940898060798645,-0.00034081615740433335,-0.006945865694433451
0.017683574929833412,0.0033608446829020977,-0.011740299873054028,0.00940898060798645,-0.00034081615740433335,-0.006945865694433451
0.017950108274817467,0.0035273213870823383,-0.012161615304648876,0.008654196746647358,-0.0003501576429698616,-0.007024780847132206
0.01783476024866104,0.0037154636811465025,-0.011843416839838028,0.008794226683676243,-0.00035489830770529807,-0.007178673520684242
0.017872653901576996,0.0036046055611222982,-0.01230247225612402,0.00887081865221262,-0.0003730465250555426,-0.007219014689326286
0.018449030816555023,0.0034182812087237835,-0.011687169782817364,0.008516700938344002,-0.00036536561674438417,-0.007245202083140612
0.017917202785611153,0.0035634059458971024,-0.012324465438723564,0.009287449531257153,-0.0005017361836507916,-0.0073860445991158485
0.01788073219358921,0.0038063533138483763,-0.011946073733270168,0.00944304745644331,-0.0004969528526999056,-0.007274131290614605
0.01821667142212391,0.003920000046491623,-0.011448892764747143,0.008635064586997032,-0.0005340836360119283,-0.007048224564641714
0.01829593814909458,0.003489978611469269,-0.0120845977216959,0.00874562282115221,-0.0004911405267193913,-0.007155807223170996
0.01826394535601139,0.0034999120980501175,-0.011669502593576908,0.009430980309844017,-0.0005152355297468603,-0.007486766669899225
0.01841224543750286,0.004006026778370142,-0.012242679484188557,0.00932303722947836,-0.0004844259819947183,-0.0076755136251449585
0.01802809163928032,0.00424836203455925,-0.012263448908925056,0.00962233915925026,-0.0004503516829572618,-0.007508134003728628
0.018301256000995636,0.004048376809805632,-0.012013673782348633,0.009870938956737518,-0.0004722042940557003,-0.00681327236816287
0.018208038061857224,0.0038606554735451937,-0.012612228281795979,0.009251571260392666,-0.00044977900688536465,-0.006919237785041332
0.018138181418180466,0.0039353808388113976,-0.01180143840610981,0.00908281933516264,-0.0004483112716116011,-0.007637693081051111
0.018618794158101082,0.004037388600409031,-0.012386989779770374,0.009157379157841206,-0.0004308622155804187,-0.007834413088858128
0.018602510914206505,0.004057735670357943,-0.01253578718751669,0.009158256463706493,-0.0003947088844142854,-0.007758296560496092
0.0186997652053833,0.004057091195136309,-0.012449274770915508,0.009021472185850143,-0.0003629497950896621,-0.0076435282826423645
0.01897347718477249,0.004012866877019405,-0.012818579562008381,0.009384418837726116,-0.00036841328255832195,-0.00716557027772069
0.018504910171031952,0.003890549996867776,-0.01249832846224308,0.00933489017188549,-0.00037274989881552756,-0.007687288802117109
0.018666278570890427,0.00395813025534153,-0.012812366709113121,0.00932137481868267,-0.0003789033798966557,-0.007632473949342966
0.01797555387020111,0.003928836435079575,-0.012237852439284325,0.009598754346370697,-0.00038215643144212663,-0.008052165620028973
0.017868762835860252,0.0038444381207227707,-0.013449952937662601,0.009271187707781792,-0.0004000257176812738,-0.008386540226638317
0.018818413838744164,0.0037862600293010473,-0.012491424567997456,0.009245718829333782,-0.0003903716860804707,-0.008035451173782349
0.01837337575852871,0.0043104179203510284,-0.013142354786396027,0.00949725229293108,-0.0004337219870649278,-0.007962595671415329
0.018414145335555077,0.004215140827000141,-0.012382508255541325,0.010203302837908268,-0.0004442188946995884,-0.008035164326429367
0.018724557012319565,0.00398247828707099,-0.012294533662497997,0.009843156673014164,-0.00044388649985194206,-0.008378047496080399
0.018724557012319565,0.00398247828707099,-0.012294533662497997,0.009843156673014164,-0.00044388649985194206,-0.008378047496080399
0.01833892986178398,0.004213287029415369,-0.012821219861507416,0.010332876816391945,-0.00044647176400758326,-0.008049320429563522
0.01833892986178398,0.004213287029415369,-0.012821219861507416,0.010332876816391945,-0.00044647176400758326,-0.008049320429563522
0.018922841176390648,0.003957999870181084,-0.012269199825823307,0.009673351421952248,-0.0004435275914147496,-0.008194413036108017
0.018668370321393013,0.004309535957872868,-0.012955441139638424,0.009951057843863964,-0.0004209830949548632,-0.008189798332750797
0.019033703953027725,0.004178756382316351,-0.012754960916936398,0.009550169110298157,-0.00045734160812571645,-0.008237296715378761
0.018543869256973267,0.004273174796253443,-0.012691016308963299,0.009839273057878017,-0.0004681889549829066,-0.00821132492274046
0.01867912895977497,0.004143575206398964,-0.01305630337446928,0.010562023147940636,-0.00042751379078254104,-0.007996001280844212
0.018834466114640236,0.0038666098844259977,-0.01267133466899395,0.009728807024657726,-0.0004579442320391536,-0.0076705170795321465
0.018987495452165604,0.004264825489372015,-0.012921071611344814,0.009574230760335922,-0.0004305777547415346,-0.008088764734566212
0.017263300716876984,0.004198720678687096,-0.01246652938425541,0.009625056758522987,-0.0004315909172873944,-0.008489951491355896
0.019773010164499283,0.004484889563173056,-0.01301987562328577,0.00964847020804882,-0.00043157540494576097,-0.008705985732376575
0.01923982985317707,0.004589131101965904,-0.012972742319107056,0.010236289352178574,-0.00040570730925537646,-0.008301964960992336
0.019074290990829468,0.0043008397333323956,-0.013614851981401443,0.01011721696704626,-0.0004213801585137844,-0.008488115854561329
0.0190443005412817,0.00443620840087533,-0.013078865595161915,0.009620189666748047,-0.0004099313518963754,-0.008443543687462807
0.018796343356370926,0.004607414826750755,-0.013489901088178158,0.00999588891863823,-0.0004168431041762233,-0.008289579302072525
0.01916481740772724,0.004637259524315596,-0.013055398128926754,0.010426083579659462,-0.0004067279223818332,-0.008286542259156704
0.019233331084251404,0.004785590805113316,-0.01350974291563034,0.009945876896381378,-0.00037464717752300203,-0.008370527997612953
0.01910863257944584,0.004600809887051582,-0.013227655552327633,0.00986702274531126,-0.00041023598168976605,-0.008203024044632912
0.01944119669497013,0.0049066063947975636,-0.013093492947518826,0.009859498590230942,-0.0004163380654063076,-0.008253047242760658
0.019796574488282204,0.0050253598019480705,-0.01358878705650568,0.009590993635356426,-0.00041756677092052996,-0.008738823235034943
0.019372716546058655,0.004798839800059795,-0.012948967516422272,0.009885049425065517,-0.00039337066118605435,-0.008575611747801304
0.019400330260396004,0.00449773296713829,-0.01362055353820324,0.009669792838394642,-0.0004195961228106171,-0.008332652971148491
0.01992526464164257,0.004143220838159323,-0.013401790522038937,0.009538859128952026,-0.00039952551014721394,-0.007922044955193996
0.019571341574192047,0.004288698546588421,-0.014067909680306911,0.00968847330659628,-0.0003796804812736809,-0.008456923998892307
0.01948373392224312,0.004571086727082729,-0.013259867206215858,0.009934631176292896,-0.0004342200991231948,-0.008494501933455467
0.01977320946753025,0.004780913237482309,-0.013774756342172623,0.010166743770241737,-0.0004402660997584462,-0.008456467650830746
0.019687261432409286,0.004410762805491686,-0.013395304791629314,0.010533025488257408,-0.00043997043394483626,-0.008612756617367268
0.01971582882106304,0.0044214907102286816,-0.014235775917768478,0.010436679236590862,-0.0004089638823643327,-0.008862285874783993
0.019916623830795288,0.0044839209876954556,-0.013696737587451935,0.009851230308413506,-0.0004392287228256464,-0.008445448242127895
0.020065968856215477,0.004305696580559015,-0.013790345750749111,0.010747392661869526,-0.00042976890108548105,-0.008304868824779987
0.02075708471238613,0.0046661668457090855,-0.014443056657910347,0.010013014078140259,-0.00041762873297557235,-0.008638548664748669
0.02075708471238613,0.0046661668457090855,-0.014443056657910347,0.010013014078140259,-0.00041762873297557235,-0.008638548664748669
0.020823825150728226,0.004779553506523371,-0.014358529821038246,0.009939932264387608,-0.0004912088043056428,-0.008697155863046646
0.02086527831852436,0.0049026175402104855,-0.015236899256706238,0.009882369078695774,-0.0005234449054114521,-0.008558157831430435
0.02050960436463356,0.004763239528983831,-0.014101721346378326,0.010222738608717918,-0.0004968360881321132,-0.008783869445323944
0.020998617634177208,0.004372030030936003,-0.01442583929747343,0.010141606442630291,-0.0005268706008791924,-0.008563018403947353
0.02101738564670086,0.004465177655220032,-0.014010325074195862,0.009808402508497238,-0.0005419980152510107,-0.0087758619338274
0.020908040925860405,0.004433774389326572,-0.014482353813946247,0.00970067735761404,-0.0005191835225559771,-0.008968833833932877
0.020979156717658043,0.004812930710613728,-0.014099371619522572,0.010006101801991463,-0.000645997526589781,-0.008736856281757355
0.021468957886099815,0.0049378229305148125,-0.01451199036091566,0.009860907681286335,-0.0005870105233043432,-0.008655275218188763
0.021306246519088745,0.004768179263919592,-0.014080587774515152,0.01031444314867258,-0.0006170929991640151,-0.008788070641458035
0.02108941227197647,0.004365549888461828,-0.015064407140016556,0.010211714543402195,-0.0005595709080807865,-0.009352454915642738
0.021254930645227432,0.004230800084769726,-0.014384345151484013,0.009800090454518795,-0.0005857405485585332,-0.009344050660729408
0.021612899377942085,0.004001150373369455,-0.015385217033326626,0.010276978835463524,-0.0005780187784694135,-0.009243612177670002
0.022020334377884865,0.004575993400067091,-0.014030412770807743,0.010763718746602535,-0.0005667637451551855,-0.008999789133667946
0.021552421152591705,0.005661994684487581,-0.01424107700586319,0.010312437079846859,-0.0005274643190205097,-0.009016524069011211
0.022046245634555817,0.0045845648273825645,-0.014189097099006176,0.01095672883093357,-0.0004915757454000413,-0.008949216455221176
0.021320216357707977,0.003940141759812832,-0.015543844550848007,0.010504222474992275,-0.00046042707981541753,-0.009781190194189548
0.021442962810397148,0.004733612760901451,-0.014767065644264221,0.009813976474106312,-0.00041987784788943827,-0.00916154682636261
0.021720556542277336,0.0053336648270487785,-0.014291534200310707,0.010629769414663315,-0.00038415275048464537,-0.00951255951076746
0.022532077506184578,0.004940688144415617,-0.014220386743545532,0.010827058926224709,-0.0004150005988776684,-0.00920112431049347
0.02204269729554653,0.004684021696448326,-0.014921109192073345,0.010143645107746124,-0.0003930825332645327,-0.009485995396971703
0.022198518738150597,0.0045973435044288635,-0.014064984396100044,0.010636218823492527,-0.00042377476347610354,-0.009059342555701733
0.022744417190551758,0.004593218211084604,-0.014816372655332088,0.011071601882576942,-0.00045005904394201934,-0.008902626112103462
0.022812942042946815,0.004995021969079971,-0.014297990128397942,0.011534016579389572,-0.0005215859273448586,-0.008892069570720196
0.023062394931912422,0.004637151025235653,-0.014654968865215778,0.011467027477920055,-0.0005462655099108815,-0.009768831543624401
0.023062394931912422,0.004637151025235653,-0.014654968865215778,0.011467027477920055,-0.0005462655099108815,-0.009768831543624401
0.022297479212284088,0.004959287121891975,-0.014292634092271328,0.011644010432064533,-0.0006031544762663543,-0.009509553201496601
0.022297479212284088,0.004959287121891975,-0.014292634092271328,0.011644010432064533,-0.0006031544762663543,-0.009509553201496601
0.022953931242227554,0.004478344228118658,-0.014627324417233467,0.011595572344958782,-0.0005938850808888674,-0.009710979647934437
0.023720165714621544,0.003967616707086563,-0.014258469454944134,0.012453928589820862,-0.0007941646035760641,-0.009893198497593403
0.02327372506260872,0.0037942701019346714,-0.01487004291266203,0.01187833957374096,-0.0007587473373860121,-0.009864049032330513
0.023081064224243164,0.004164592362940311,-0.014022049494087696,0.012039215303957462,-0.0007652708445675671,-0.009730196557939053
0.023310327902436256,0.004588213283568621,-0.014829965308308601,0.011825860477983952,-0.0006941022002138197,-0.009858956560492516
0.023583030328154564,0.004130824934691191,-0.014262676239013672,0.011776008643209934,-0.0007088197744451463,-0.009687147103250027
0.02369602769613266,0.004444735590368509,-0.015021624974906445,0.011591642163693905,-0.0006524373311549425,-0.009670570492744446
0.02370264008641243,0.004180822521448135,-0.014398125931620598,0.011702232994139194,-0.0006475432892329991,-0.01010088250041008
0.023451948538422585,0.004380643367767334,-0.014626619406044483,0.01212591677904129,-0.0005710911354981363,-0.009333536960184574
0.02346097305417061,0.004078741185367107,-0.01424117386341095,0.01206095889210701,-0.0005808183341287076,-0.009513144381344318
0.023408275097608566,0.004128944128751755,-0.01490625087171793,0.012584086507558823,-0.0005449227755889297,-0.009670020081102848
0.023793667554855347,0.003975927829742432,-0.014074754901230335,0.012291669845581055,-0.0005730430129915476,-0.010675848461687565
0.0240591112524271,0.0038151568733155727,-0.014479071833193302,0.011999593116343021,-0.0005952398059889674,-0.00961499847471714
0.024075893685221672,0.004324672278016806,-0.01397287379950285,0.011685574427247047,-0.0005582764279097319,-0.0096320491284132
0.024334007874131203,0.004140671342611313,-0.014872393570840359,0.01123831793665886,-0.0005652568652294576,-0.009770730510354042
0.024131184443831444,0.004471446853131056,-0.014203031547367573,0.012031132355332375,-0.0005847247084602714,-0.01000674907118082
0.02402552030980587,0.004198555834591389,-0.014826430007815361,0.01175859197974205,-0.0005487599410116673,-0.010564984753727913
0.024028567597270012,0.004329667426645756,-0.014183571562170982,0.011538705788552761,-0.0005767431575804949,-0.010289138182997704
0.024446355178952217,0.004252706654369831,-0.014654194936156273,0.012379946187138557,-0.0005699035245925188,-0.009795297868549824
0.024650439620018005,0.004025245551019907,-0.014031022787094116,0.011883685365319252,-0.0005594402900896966,-0.009899990633130074
0.024611879140138626,0.0038628566544502974,-0.01478566974401474,0.011679993942379951,-0.0005211405223235488,-0.010724468156695366
0.0246722511947155,0.004030170384794474,-0.014573490247130394,0.011655494570732117,-0.0005613373359665275,-0.010219460353255272
0.02486068569123745,0.004108882043510675,-0.015048425644636154,0.011671677231788635,-0.0005233215633779764,-0.009912574663758278
0.024739082902669907,0.004298349376767874,-0.015196804888546467,0.011722791008651257,-0.0004992114845663309,-0.010806364938616753
0.02459382824599743,0.004529431462287903,-0.014715366996824741,0.012379047460854053,-0.0005230138194747269,-0.01029761042445898
0.024993520230054855,0.004305550362914801,-0.01529932115226984,0.012534013018012047,-0.0005523310392163694,-0.010436163283884525
0.024993520230054855,0.004305550362914801,-0.01529932115226984,0.012534013018012047,-0.0005523310392163694,-0.010436163283884525
0.02590790204703808,0.00445211585611105,-0.015602019615471363,0.012560755014419556,-0.0006096785655245185,-0.010717391036450863
0.0256915632635355,0.00421001436188817,-0.015088730491697788,0.012434622272849083,-0.000665396626573056,-0.011033699847757816
0.025057226419448853,0.004292449913918972,-0.015294617973268032,0.012346007861196995,-0.0006430794601328671,-0.011220511980354786
0.02266104146838188,0.004544431809335947,-0.015345344319939613,0.012665413320064545,-0.0005779095808975399,-0.010324280709028244
0.025611134245991707,0.004217516630887985,-0.015841905027627945,0.012027823366224766,-0.0005857613869011402,-0.010122631676495075
0.026148760691285133,0.004462418612092733,-0.015583680011332035,0.012579011730849743,-0.0005539244157262146,-0.010726257227361202
0.025230558589100838,0.004503765143454075,-0.015810972079634666,0.012159507721662521,-0.0005103096482343972,-0.010759067721664906
0.026270229369401932,0.004361960105597973,-0.015186803415417671,0.012572488747537136,-0.0005347896367311478,-0.010642833076417446
0.02581334300339222,0.004468373954296112,-0.015911180526018143,0.012461910024285316,-0.0005056951195001602,-0.010465223342180252
0.026090333238244057,0.0045462120324373245,-0.01582653634250164,0.012541348114609718,-0.0004913107841275632,-0.010566804558038712
0.02588498219847679,0.004172937478870153,-0.01647207885980606,0.013063885271549225,-0.0004453175642993301,-0.010961421765387058
0.02484307624399662,0.0044911885634064674,-0.015800563618540764,0.013018966652452946,-0.0004805839853361249,-0.010540789924561977
0.02476707473397255,0.0046974350698292255,-0.015597675926983356,0.013133544474840164,-0.00044580077519640326,-0.01042493712157011
0.025690743699669838,0.004246647469699383,-0.016364753246307373,0.012413558550179005,-0.0004758882860187441,-0.010373655706644058
0.026269180700182915,0.00423056585714221,-0.015847455710172653,0.012456069700419903,-0.00044635229278355837,-0.010734973475337029
0.025958070531487465,0.004037355072796345,-0.016368649899959564,0.012716390192508698,-0.00047246352187357843,-0.010510431602597237
0.026176702231168747,0.0042677451856434345,-0.015605343505740166,0.012543109245598316,-0.0004467754624783993,-0.010560928843915462
0.026121336966753006,0.004031185992062092,-0.016078617423772812,0.012960253283381462,-0.00047738244757056236,-0.010594096966087818
0.02608276531100273,0.0043957894667983055,-0.015699299052357674,0.012712063267827034,-0.00044980659731663764,-0.01069094892591238
0.026603523641824722,0.00412167189642787,-0.015609829686582088,0.013324667699635029,-0.000480756803881377,-0.011189588345587254
0.026333767920732498,0.004357100930064917,-0.016790224239230156,0.012959498912096024,-0.00045032292837277055,-0.011081891134381294
0.0263350922614336,0.004374363459646702,-0.016442544758319855,0.013023770414292812,-0.0004760871233884245,-0.011093267239630222
0.026829542592167854,0.0040793390944600105,-0.016228538006544113,0.012937704101204872,-0.00045024233986623585,-0.011463426053524017
0.026458008214831352,0.0038488456048071384,-0.015628023073077202,0.011902814731001854,-0.0004206951125524938,-0.011629135347902775
0.026700785383582115,0.004301287233829498,-0.015634125098586082,0.013402662239968777,-0.0004222679999656975,-0.011489120312035084
0.0268193781375885,0.004517619498074055,-0.016378315165638924,0.012814451940357685,-0.00040042775799520314,-0.011428790166974068
0.026663893833756447,0.004561590496450663,-0.01618742197751999,0.012949964962899685,-0.00042307929834350944,-0.011456706561148167
0.026663893833756447,0.004561590496450663,-0.01618742197751999,0.012949964962899685,-0.00042307929834350944,-0.011456706561148167
0.027047839015722275,0.004190521780401468,-0.016383079811930656,0.013005724176764488,-0.0004615631769411266,-0.011428956873714924
0.02713523991405964,0.003874304937198758,-0.016743117943406105,0.012859676964581013,-0.0004873500729445368,-0.01167706586420536
0.027351148426532745,0.0036469544284045696,-0.01632871851325035,0.01368219219148159,-0.0005175183760002255,-0.011528870090842247
0.027602238580584526,0.003659673500806093,-0.016892356798052788,0.01289171539247036,-0.0005009593442082405,-0.011743700131773949
0.02735704556107521,0.003935439046472311,-0.016182653605937958,0.01333251129835844,-0.0007794458069838583,-0.011655679903924465
0.027611706405878067,0.004114040173590183,-0.01682978682219982,0.01305406540632248,-0.0008116996032185853,-0.011747744865715504
0.028162909671664238,0.003938224166631699,-0.016341984272003174,0.013651658780872822,-0.0008005776326172054,-0.012154530733823776
0.027573764324188232,0.004200279712677002,-0.01658104918897152,0.013526014983654022,-0.0007845174986869097,-0.011703667230904102
0.027467893436551094,0.004184790886938572,-0.016765644773840904,0.013850212097167969,-0.0008197881979867816,-0.011676580645143986
0.027790706604719162,0.0038954662159085274,-0.01652509905397892,0.013641785830259323,-0.0008680403116159141,-0.012056912295520306
0.027598390355706215,0.0037557955365628004,-0.016828596591949463,0.01359562948346138,-0.0008425798150710762,-0.012109720148146152
0.02802782878279686,0.004201688803732395,-0.016198238357901573,0.013746624812483788,-0.0007934675086289644,-0.01203094981610775
0.02758093550801277,0.004246782045811415,-0.016831746324896812,0.01396191492676735,-0.0007564531406387687,-0.011887753382325172
0.02798221819102764,0.003951903432607651,-0.016625992953777313,0.01393304206430912,-0.0007240282138809562,-0.011839229613542557
0.028611112385988235,0.0037516166921705008,-0.016890745609998703,0.013665692880749702,-0.0007125991978682578,-0.012191700749099255
0.02860383875668049,0.004243673291057348,-0.016915174201130867,0.014027516357600689,-0.0006344521534629166,-0.012307859025895596
0.028398940339684486,0.004207417368888855,-0.01634226366877556,0.014109157957136631,-0.0006603361107409,-0.012379474006593227
0.027023453265428543,0.003937519621104002,-0.017107153311371803,0.014479649253189564,-0.0006667138077318668,-0.011908009648323059
0.027709869667887688,0.003383548930287361,-0.016774989664554596,0.014743351377546787,-0.0006233190651983023,-0.013360858894884586
0.028636222705245018,0.0035848310217261314,-0.01700175367295742,0.014680399559438229,-0.0006384620210155845,-0.012168693356215954
0.027463102713227272,0.003848049324005842,-0.01726892963051796,0.014025663025677204,-0.0005952462670393288,-0.012046088464558125
0.028556786477565765,0.00437374459579587,-0.016931656748056412,0.014147958718240261,-0.000601045205257833,-0.01259937696158886
0.028284290805459023,0.003953288774937391,-0.016814419999718666,0.014185692183673382,-0.0005764830857515335,-0.01233911793678999
0.02805436961352825,0.004025373142212629,-0.01729542203247547,0.014149101451039314,-0.0005972115322947502,-0.011923952959477901
0.02805436961352825,0.004025373142212629,-0.01729542203247547,0.014149101451039314,-0.0005972115322947502,-0.011923952959477901
0.027805745601654053,0.00404541939496994,-0.01753789186477661,0.014619053341448307,-0.000593185075558722,-0.01243654079735279
0.02799782156944275,0.0037773011717945337,-0.017015451565384865,0.0145102022215724,-0.0005865091225132346,-0.012672888115048409
0.028829654678702354,0.0034313106443732977,-0.01736505515873432,0.015321540646255016,-0.0006739128148183227,-0.012394541874527931
0.02868417464196682,0.0034746965393424034,-0.016645539551973343,0.014985308051109314,-0.0006983653292991221,-0.012460744939744473
0.028637871146202087,0.003951446618884802,-0.01699814200401306,0.014617296867072582,-0.0006311804172582924,-0.012070782482624054
0.028536858037114143,0.004068708047270775,-0.016789603978395462,0.014500899240374565,-0.0006112278788350523,-0.012277714908123016
0.028920352458953857,0.003960405942052603,-0.01699777878820896,0.01422917004674673,-0.0005943648866377771,-0.012593887746334076
0.02864682301878929,0.004241013899445534,-0.01738112047314644,0.01432222779840231,-0.0005455296486616135,-0.012759539298713207
0.02864934504032135,0.003681611269712448,-0.016792934387922287,0.015454893931746483,-0.0005640601739287376,-0.012596916407346725
0.028985587880015373,0.0034503645729273558,-0.017516208812594414,0.014735991135239601,-0.0005308830295689404,-0.012667562812566757
0.02850429154932499,0.003469859017059207,-0.01728360541164875,0.014452511444687843,-0.0004970451700501144,-0.012942185625433922
0.02885395474731922,0.003704540431499481,-0.017486896365880966,0.014900644309818745,-0.00045066658640280366,-0.01292383298277855
0.028698083013296127,0.003808962181210518,-0.01792876236140728,0.015396049246191978,-0.0004803963238373399,-0.013074454851448536
0.029156509786844254,0.004263842012733221,-0.017318058758974075,0.014517119154334068,-0.00044994777999818325,-0.012673428282141685
0.02883611060678959,0.004123138263821602,-0.018307877704501152,0.01435310859233141,-0.00048031442565843463,-0.012496618553996086
0.029286667704582214,0.003969869110733271,-0.018389534205198288,0.014715081080794334,-0.0004814426356460899,-0.012409682385623455
0.029973048716783524,0.003958134911954403,-0.017442096024751663,0.014920303598046303,-0.00047833111602813005,-0.012801846489310265
0.029452838003635406,0.003494683187454939,-0.01818222366273403,0.015425426885485649,-0.0005865194252692163,-0.012944386340677738
0.029092708602547646,0.004080059006810188,-0.018461473286151886,0.015010167844593525,-0.0006306146387942135,-0.012961193919181824
0.029271196573972702,0.004161432851105928,-0.018377313390374184,0.015217182226479053,-0.0006599230691790581,-0.013370760716497898
0.029343392699956894,0.004001382738351822,-0.018481535837054253,0.015097013674676418,-0.0006831930368207395,-0.0132697569206357
0.030732814222574234,0.00445654196664691,-0.018746161833405495,0.015177334658801556,-0.0007768612122163177,-0.013067621737718582
0.03095003217458725,0.004602823872119188,-0.01906895637512207,0.014820510521531105,-0.0007807531510479748,-0.013004297390580177
0.03095003217458725,0.004602823872119188,-0.01906895637512207,0.014820510521531105,-0.0007807531510479748,-0.013004297390580177
0.0302321407943964,0.004371616989374161,-0.019260503351688385,0.015431081876158714,-0.0007972808089107275,-0.013071412220597267
0.03007839433848858,0.004086785484105349,-0.018869390711188316,0.01548142358660698,-0.0007728997734375298,-0.013148374855518341
0.030944092199206352,0.004106956999748945,-0.019042761996388435,0.015290597453713417,-0.000739597890060395,-0.013046544045209885
0.030680665746331215,0.004332612734287977,-0.018439797684550285,0.015277999453246593,-0.0007048246916383505,-0.013352098874747753
0.030939918011426926,0.004086067900061607,-0.018912339583039284,0.014896069653332233,-0.0006371058407239616,-0.013052437454462051
0.031199252232909203,0.004513655789196491,-0.019296513870358467,0.015068707056343555,-0.0006558237364515662,-0.012674301862716675
0.03142523393034935,0.004701755940914154,-0.0191842969506979,0.014742537401616573,-0.0006441904697567225,-0.013138087466359138
0.03008074313402176,0.004310630727559328,-0.019024768844246864,0.015402978286147118,-0.000667191983666271,-0.01301152165979147
0.030085908249020576,0.00415919441729784,-0.017601942643523216,0.015323810279369354,-0.0006535619031637907,-0.013157419860363007
0.030976634472608566,0.003944613039493561,-0.019289672374725342,0.01554329227656126,-0.0007797876023687422,-0.013144223019480705
0.03129290044307709,0.0038230838254094124,-0.02016567252576351,0.015183588489890099,-0.0007430182304233313,-0.013242356479167938
0.03126657009124756,0.0038993770722299814,-0.019616270437836647,0.014879927970468998,-0.0007585158455185592,-0.01332774292677641
0.03103526681661606,0.0048814862966537476,-0.01890777237713337,0.015431078150868416,-0.0007670131744816899,-0.013580088503658772
0.030913028866052628,0.004860870540142059,-0.019663775339722633,0.01529496256262064,-0.0007954872562550008,-0.013301265425980091
0.03116369992494583,0.004438946023583412,-0.01970837451517582,0.01545429602265358,-0.0008285903022624552,-0.013571363873779774
0.030866103246808052,0.004029506351798773,-0.01906226947903633,0.01473024021834135,-0.000778085202910006,-0.014695486985147
0.032083660364151,0.0041865333914756775,-0.01951928809285164,0.015434414148330688,-0.0007816380239091814,-0.013316314667463303
0.03186594322323799,0.004560073371976614,-0.020228903740644455,0.01562339998781681,-0.0007810374372638762,-0.012968606315553188
0.03210168704390526,0.004680279642343521,-0.019621407613158226,0.016471078619360924,-0.00072754971915856,-0.013522448018193245
0.03174051269888878,0.004804208874702454,-0.019534749910235405,0.016005557030439377,-0.0007382463081739843,-0.013807608745992184
0.03140024468302727,0.004414875991642475,-0.019711647182703018,0.015908075496554375,-0.0006414001691155136,-0.01371428370475769
0.031959693878889084,0.004297486040741205,-0.019833888858556747,0.015918530523777008,-0.0006656480254605412,-0.014156089164316654
0.032681580632925034,0.00416748970746994,-0.02003415673971176,0.016068946570158005,-0.0005985849420540035,-0.013929834589362144
0.03239686042070389,0.004361207131296396,-0.02046164870262146,0.016415998339653015,-0.0006048618815839291,-0.01375020481646061
0.03214585781097412,0.004469494801014662,-0.02003711462020874,0.015855468809604645,-0.0005703116185031831,-0.013618266209959984
0.03255176171660423,0.004684112034738064,-0.019448598846793175,0.016423726454377174,-0.000560365617275238,-0.013990693725645542
0.032624613493680954,0.004444512538611889,-0.019654851406812668,0.01641927659511566,-0.0005505467997863889,-0.014130097813904285
0.032808512449264526,0.00429597869515419,-0.019847577437758446,0.01690393127501011,-0.0005112559883855283,-0.013887771405279636
0.03235701844096184,0.004083783365786076,-0.01925966702401638,0.016384035348892212,-0.0005042627453804016,-0.013754134066402912
0.03265867754817009,0.004629762377589941,-0.02019386924803257,0.01592797040939331,-0.0005239069578237832,-0.014023849740624428
0.03323591873049736,0.004726921673864126,-0.019984640181064606,0.016067152842879295,-0.0005437610088847578,-0.014084400609135628
0.03323591873049736,0.004726921673864126,-0.019984640181064606,0.016067152842879295,-0.0005437610088847578,-0.014084400609135628
0.03351747244596481,0.004551779944449663,-0.020148880779743195,0.016388922929763794,-0.0005224897176958621,-0.013847166672348976
0.033183373510837555,0.004451341927051544,-0.020031344145536423,0.016267424449324608,-0.0007830805261619389,-0.013848543167114258
0.03344818949699402,0.004431677516549826,-0.019444409757852554,0.01679351180791855,-0.0008130607893690467,-0.01376109104603529
0.033718787133693695,0.004716766998171806,-0.02037651278078556,0.01689745858311653,-0.0009523743647150695,-0.014194759540259838
0.0326681025326252,0.004605480004101992,-0.020721524953842163,0.016417300328612328,-0.0010581202805042267,-0.014482068829238415
0.0326681025326252,0.004605480004101992,-0.020721524953842163,0.016417300328612328,-0.0010581202805042267,-0.014482068829238415
0.03445463255047798,0.004688019398599863,-0.020421400666236877,0.016146564856171608,-0.0010592273902148008,-0.014245167374610901
0.034127458930015564,0.004718962125480175,-0.020565927028656006,0.016545934602618217,-0.0009873365052044392,-0.014413625001907349
0.03383379057049751,0.004698033444583416,-0.020377282053232193,0.01623663492500782,-0.0009179015178233385,-0.014294433407485485
0.034864526242017746,0.004620770458132029,-0.019461430609226227,0.016988150775432587,-0.0008210314554162323,-0.014403617940843105
0.03481714800000191,0.004644875414669514,-0.01974608190357685,0.016156572848558426,-0.0007455180748365819,-0.013879620470106602
0.033236633986234665,0.005069669336080551,-0.02041509747505188,0.015818340703845024,-0.0007359443116001785,-0.014137833379209042
0.03369811177253723,0.0046290187165141106,-0.0206013061106205,0.015797052532434464,-0.0006726214778609574,-0.01413747575134039
0.03497334569692612,0.004488334059715271,-0.020589951425790787,0.01595507189631462,-0.0006922872853465378,-0.01443917490541935
0.0348774753510952,0.004071030765771866,-0.02057565003633499,0.01678367704153061,-0.000694991264026612,-0.014370698481798172
0.03460545465350151,0.004254787229001522,-0.020693844184279442,0.017088109627366066,-0.000652591057587415,-0.014770076610147953
0.034806158393621445,0.004518410656601191,-0.02059228904545307,0.017661428079009056,-0.0006483147735707462,-0.014217669144272804
0.034737132489681244,0.004758335649967194,-0.021255414932966232,0.01665222831070423,-0.0006740535609424114,-0.014365223236382008
0.03498265892267227,0.004450115840882063,-0.020915985107421875,0.016754193231463432,-0.0006860477151349187,-0.014410702511668205
0.034750018268823624,0.0044006905518472195,-0.020846767351031303,0.016487527638673782,-0.0006841233698651195,-0.014849863015115261
0.034505389630794525,0.004671935457736254,-0.020524887368083,0.01552516594529152,-0.000662435544654727,-0.014955384656786919
0.03515370562672615,0.004658759105950594,-0.02083641290664673,0.015771452337503433,-0.0007571254973299801,-0.015059825032949448
0.03519851341843605,0.0043381014838814735,-0.021320130676031113,0.015464338473975658,-0.0008576001855544746,-0.01528707705438137
0.034858338534832,0.004386496264487505,-0.021775836125016212,0.016175804659724236,-0.0008976501412689686,-0.014132162556052208
0.035003773868083954,0.004303077235817909,-0.02099304459989071,0.016266250982880592,-0.001103389193303883,-0.013887119479477406
0.03519747406244278,0.004363051149994135,-0.0212397463619709,0.016801290214061737,-0.0011332985013723373,-0.014745419844985008
0.03450064733624458,0.004186729900538921,-0.02121066115796566,0.017229998484253883,-0.0010354658588767052,-0.01501624658703804
0.0364743210375309,0.004551731515675783,-0.021208206191658974,0.017391754314303398,-0.0008829933358356357,-0.01490795984864235
0.03537444397807121,0.004629979841411114,-0.02161756530404091,0.016656693071126938,-0.000831170822493732,-0.014938300475478172
0.03537444397807121,0.004629979841411114,-0.02161756530404091,0.016656693071126938,-0.000831170822493732,-0.014938300475478172
0.034951772540807724,0.004307469353079796,-0.021830039098858833,0.016631433740258217,-0.0007293351227417588,-0.015040839090943336
0.03649681434035301,0.004396928008645773,-0.021254662424325943,0.016755925491452217,-0.0006172063876874745,-0.01544614601880312
0.03623916208744049,0.004460318945348263,-0.02127962000668049,0.016806576400995255,-0.0006422145524993539,-0.015120607800781727
0.03668281435966492,0.004627465736120939,-0.021243613213300705,0.01652383990585804,-0.0006627844413742423,-0.0153355672955513
0.03681878000497818,0.004725168459117413,-0.021489618346095085,0.01607920415699482,-0.0006740650860592723,-0.015289786271750927
0.03656376898288727,0.004271059297025204,-0.021240828558802605,0.01745889149606228,-0.0007988710422068834,-0.015685612335801125
0.035863809287548065,0.004078690428286791,-0.021553639322519302,0.017924511805176735,-0.0008548613986931741,-0.015497425571084023
0.03646654263138771,0.004077251069247723,-0.02207949198782444,0.0176845770329237,-0.000872474629431963,-0.015450743958353996
0.036579009145498276,0.0040243519470095634,-0.02132471464574337,0.01855272427201271,-0.0008765212842263281,-0.015228879638016224
0.03694814816117287,0.0042862361297011375,-0.02131776511669159,0.018237028270959854,-0.0010064853122457862,-0.015083830803632736
0.036805279552936554,0.004658175632357597,-0.021380409598350525,0.01829492300748825,-0.0009999964386224747,-0.015136388130486012
0.03681902587413788,0.004232016857713461,-0.021583780646324158,0.018066536635160446,-0.0009300953825004399,-0.01535031571984291
0.03698969632387161,0.004360940307378769,-0.021526919677853584,0.017524858936667442,-0.0009224383975379169,-0.015717536211013794
0.03682979568839073,0.0041693649254739285,-0.021048054099082947,0.017873452976346016,-0.0008673992706462741,-0.01578841730952263
0.03726322203874588,0.0039635212160646915,-0.02153668738901615,0.017414545640349388,-0.0007891969871707261,-0.015708107501268387
0.03688918799161911,0.0041426545940339565,-0.021534135565161705,0.01742192730307579,-0.0008021662360988557,-0.015443558804690838
0.037535980343818665,0.004164163488894701,-0.020838765427470207,0.01791086047887802,-0.000814631290268153,-0.015485393814742565
0.036121632903814316,0.004362471867352724,-0.02061324752867222,0.017748840153217316,-0.0008173821261152625,-0.01577433943748474
0.03798796609044075,0.004670253023505211,-0.021666554734110832,0.018150752410292625,-0.0009005494648590684,-0.015458854846656322
0.03804817423224449,0.004242031369358301,-0.021587928757071495,0.017814405262470245,-0.0010215428192168474,-0.015530484728515148
0.037283848971128464,0.004426215309649706,-0.021263377740979195,0.017502089962363243,-0.0010114049073308706,-0.015576545149087906
0.038122158497571945,0.004143583122640848,-0.021165503188967705,0.01830604486167431,-0.0009409553604200482,-0.015733400359749794
0.038350675255060196,0.0039411261677742004,-0.02119411900639534,0.018190018832683563,-0.0009779324755072594,-0.016218429431319237
0.03786800056695938,0.004108383320271969,-0.021325889974832535,0.01832742989063263,-0.0009458743152208626,-0.01609545573592186
0.038073714822530746,0.004160903859883547,-0.020813385024666786,0.018392926082015038,-0.0008364691748283803,-0.015335536561906338
0.03818831965327263,0.004378985613584518,-0.021441133692860603,0.018142499029636383,-0.0008140185964293778,-0.01613449491560459
0.038201652467250824,0.004538869485259056,-0.021417291834950447,0.01851550117135048,-0.0007445295923389494,-0.014952263794839382
0.038677703589200974,0.004411743488162756,-0.021404322236776352,0.01872071623802185,-0.0006879314314574003,-0.01573857292532921
0.038446858525276184,0.004247477278113365,-0.021428847685456276,0.019216489046812057,-0.00060518883401528,-0.0160816702991724
0.038738057017326355,0.004244801588356495,-0.022063175216317177,0.0192793570458889,-0.0006063014734536409,-0.015837615355849266
0.03967645391821861,0.004175689537078142,-0.02225896716117859,0.01877092570066452,-0.0006114310235716403,-0.015727195888757706
0.03967645391821861,0.004175689537078142,-0.02225896716117859,0.01877092570066452,-0.0006114310235716403,-0.015727195888757706
0.039428193122148514,0.004898549988865852,-0.021672019734978676,0.01876731961965561,-0.0006372560746967793,-0.015324200503528118
0.03800562769174576,0.004438016097992659,-0.02047380618751049,0.018389442935585976,-0.0006222562515176833,-0.015676921233534813
0.03915800154209137,0.004281916655600071,-0.02276029624044895,0.019116081297397614,-0.000812518410384655,-0.015794066712260246
0.03915800154209137,0.004281916655600071,-0.02276029624044895,0.019116081297397614,-0.000812518410384655,-0.015794066712260246
0.04059821739792824,0.004177460912615061,-0.022988231852650642,0.019438249990344048,-0.0007219212711788714,-0.01615229621529579
0.03922990709543228,0.0044876886531710625,-0.022465847432613373,0.019176414236426353,-0.0007361008320003748,-0.01595313288271427
0.03822878375649452,0.004654877353459597,-0.021895654499530792,0.019181152805685997,-0.0007465260569006205,-0.015735149383544922
0.03790368512272835,0.0047760591842234135,-0.021810246631503105,0.01853148266673088,-0.0007687470060773194,-0.015573381446301937
0.03942731022834778,0.004445984959602356,-0.021956859156489372,0.018292179331183434,-0.0008022660040296614,-0.015732131898403168
0.03781906142830849,0.004058451391756535,-0.02215759828686714,0.018720682710409164,-0.0008161300793290138,-0.015339476987719536
0.03991025686264038,0.0041940100491046906,-0.02229679748415947,0.018422339111566544,-0.0007860822952352464,-0.01544063352048397
0.039517052471637726,0.0046366434544324875,-0.022038202732801437,0.01899942383170128,-0.0007501422078348696,-0.015846138820052147
0.03924928233027458,0.004654793534427881,-0.022533947601914406,0.0191152635961771,-0.0008129077032208443,-0.015782896429300308
0.0396331362426281,0.0046740430407226086,-0.022089630365371704,0.018438659608364105,-0.0008393137832172215,-0.015760723501443863
0.03927946090698242,0.004558384418487549,-0.022490544244647026,0.019156528636813164,-0.0008483321289531887,-0.015720227733254433
0.03973504900932312,0.004587329458445311,-0.02270635776221752,0.019374273717403412,-0.0008471788023598492,-0.01649918220937252
0.03982441872358322,0.00426463084295392,-0.022723639383912086,0.01882793754339218,-0.000847090792376548,-0.01642511785030365
0.039476312696933746,0.004471407271921635,-0.02214225009083748,0.018345767632126808,-0.000896444427780807,-0.016183719038963318
0.03895281255245209,0.004717119038105011,-0.022007035091519356,0.018370477482676506,-0.0008997665136121213,-0.015751492232084274
0.03989984095096588,0.0044556730426847935,-0.02259182184934616,0.017645271494984627,-0.0009152657585218549,-0.015894301235675812
0.041662439703941345,0.0044105080887675285,-0.023267757147550583,0.018037423491477966,-0.0010208629537373781,-0.015905670821666718
0.03837188705801964,0.004235022701323032,-0.023193901404738426,0.018345754593610764,-0.0010197266237810254,-0.016146861016750336
