davideferrari95/blind_handover_controller/data/Test 154 - [2024-02-08 -- 10-58-43]/joint_states_data.csv
shoulder_pan_joint,shoulder_lift_joint,elbow_joint,wrist_1_joint,wrist_2_joint,wrist_3_joint
-0.0048901173286139965,-0.025243893265724182,-0.008244303055107594,0.02950146608054638,-0.0017034827033057809,-0.005834553390741348
-0.0048901173286139965,-0.025243893265724182,-0.008244303055107594,0.02950146608054638,-0.0017034827033057809,-0.005834553390741348
-0.0048901173286139965,-0.025243893265724182,-0.008244303055107594,0.02950146608054638,-0.0017034827033057809,-0.005834553390741348
-0.005441190209239721,-0.02481280267238617,-0.008454942144453526,0.02909064292907715,-0.001242797588929534,-0.005601887591183186
-0.005293639376759529,-0.025129098445177078,-0.00824911892414093,0.029237298294901848,-0.0011503807036206126,-0.005580419208854437
-0.0053664338774979115,-0.024986399337649345,-0.008547071367502213,0.028973493725061417,-0.0011041117832064629,-0.005529732909053564
-0.005552477668970823,-0.025083772838115692,-0.008472925052046776,0.02908189781010151,-0.0010729394853115082,-0.005938392598181963
-0.005314271431416273,-0.024961018934845924,-0.00859755463898182,0.029101386666297913,-0.0009419554262422025,-0.006231900304555893
-0.00520559586584568,-0.02550606243312359,-0.008722596801817417,0.028938591480255127,-0.0010035160230472684,-0.005751293618232012
-0.005138726904988289,-0.024989137426018715,-0.007878245785832405,0.02901933155953884,-0.0009928462095558643,-0.005687865894287825
-0.0057546766474843025,-0.02590249851346016,-0.006765590514987707,0.028883598744869232,-0.0010592034086585045,-0.005451424513012171
-0.005319211632013321,-0.02608121745288372,-0.00608773622661829,0.02922067977488041,-0.0012351612094789743,-0.005769156385213137
-0.005261251702904701,-0.02621193416416645,-0.006483682431280613,0.028800074011087418,-0.001229634741321206,-0.005432723555713892
-0.00550376670435071,-0.026052016764879227,-0.0070631192065775394,0.02915913052856922,-0.0012219188502058387,-0.005176248960196972
-0.005242601502686739,-0.02474123425781727,-0.006967912428081036,0.029368877410888672,-0.001250184723176062,-0.005421849898993969
-0.005828882101923227,-0.025159835815429688,-0.006250560749322176,0.029820149764418602,-0.0011891858885064721,-0.005207893904298544
-0.005425557028502226,-0.025884896516799927,-0.006027714814990759,0.030101466923952103,-0.0011425329139456153,-0.005251106806099415
-0.005333889741450548,-0.025463731959462166,-0.005925701465457678,0.030639654025435448,-0.0010406087385490537,-0.005232513416558504
-0.005062801297754049,-0.025904938578605652,-0.005823137238621712,0.030210664495825768,-0.0010122702224180102,-0.005589529871940613
-0.005575850605964661,-0.026403455063700676,-0.006463583558797836,0.030093230307102203,-0.0009967520600184798,-0.005040341056883335
-0.0052498276345431805,-0.025759590789675713,-0.0056223454885184765,0.03044658526778221,-0.0011573340743780136,-0.005483750253915787
-0.005260906182229519,-0.024881334975361824,-0.005379293113946915,0.030414458364248276,-0.0010801973985508084,-0.005447102710604668
-0.005364627111703157,-0.024817943572998047,-0.005571403075009584,0.028402242809534073,-0.0009830311173573136,-0.005373422987759113
-0.005364627111703157,-0.024817943572998047,-0.005571403075009584,0.028402242809534073,-0.0009830311173573136,-0.005373422987759113
-0.00543421134352684,-0.024784255772829056,-0.005517058074474335,0.028735561296343803,-0.0009586458327248693,-0.005119202192872763
-0.005160982720553875,-0.02529493346810341,-0.005856350529938936,0.029344379901885986,-0.0008870556484907866,-0.005071613937616348
-0.005000556353479624,-0.025362834334373474,-0.0058774338103830814,0.028872637078166008,-0.0008425949490629137,-0.005626690108329058
-0.005238653626292944,-0.025337569415569305,-0.005321849603205919,0.029003603383898735,-0.0007853965507820249,-0.005927652586251497
-0.0050020962953567505,-0.025061247870326042,-0.005796958692371845,0.029487621039152145,-0.000772792671341449,-0.005914932582527399
-0.005175032187253237,-0.025241879746317863,-0.005809871479868889,0.029088100418448448,-0.0007111757877282798,-0.0052088056690990925
-0.005298182368278503,-0.025059331208467484,-0.006181102711707354,0.02815118245780468,-0.0007191767217591405,-0.005176426377147436
-0.004974099807441235,-0.02529802732169628,-0.005640075542032719,0.026919595897197723,-0.0006913085235282779,-0.005072624888271093
-0.005496208090335131,-0.024883095175027847,-0.0054363408125936985,0.028193483129143715,-0.0006276647909544408,-0.005730693694204092
-0.0052596875466406345,-0.02518981322646141,-0.0055557615123689175,0.028807347640395164,-0.0006549131940118968,-0.0057008094154298306
-0.005298478063195944,-0.02521541155874729,-0.0060213906690478325,0.029432320967316628,-0.000674652517773211,-0.005785768385976553
-0.005395807325839996,-0.025363583117723465,-0.006749636493623257,0.029094357043504715,-0.0006964202038943768,-0.005340265575796366
-0.005184070207178593,-0.02528388984501362,-0.005940216593444347,0.028992658481001854,-0.0007518766215071082,-0.0053938995115458965
-0.005242266226559877,-0.025271635502576828,-0.005795275792479515,0.028930455446243286,-0.0008038677624426782,-0.005645028315484524
-0.00544431759044528,-0.02555702067911625,-0.005565667524933815,0.028948720544576645,-0.000819495995528996,-0.005532412324100733
-0.005423123482614756,-0.025255143642425537,-0.006394991185516119,0.02927079051733017,-0.0008297155145555735,-0.005582478828728199
-0.005097349639981985,-0.024634813889861107,-0.0059705376625061035,0.029094278812408447,-0.0007943369564600289,-0.005475552752614021
-0.005237195640802383,-0.02506224438548088,-0.006017402745783329,0.02877829782664776,-0.0008634946425445378,-0.005765486508607864
-0.005445954389870167,-0.025725997984409332,-0.006077610421925783,0.029116621240973473,-0.0008725626394152641,-0.005330893211066723
-0.005260641686618328,-0.025043347850441933,-0.006057258695363998,0.02935836650431156,-0.0008567681070417166,-0.005464156158268452
-0.005037471652030945,-0.024162055924534798,-0.006511540152132511,0.029239315539598465,-0.0007884800434112549,-0.005512297619134188
-0.005142710171639919,-0.02410372719168663,-0.006258183624595404,0.029407180845737457,-0.0007581717218272388,-0.005517937242984772
-0.00531126419082284,-0.024941297248005867,-0.006015131250023842,0.02964017353951931,-0.0007205219008028507,-0.0056262086145579815
-0.0053003085777163506,-0.024143707007169724,-0.005852328613400459,0.029426123946905136,-0.0006848021293990314,-0.005631975829601288
-0.005756710655987263,-0.024452785030007362,-0.005940383765846491,0.02886061556637287,-0.0006108691450208426,-0.005899426992982626
-0.005756710655987263,-0.024452785030007362,-0.005940383765846491,0.02886061556637287,-0.0006108691450208426,-0.005899426992982626
-0.0054202815517783165,-0.02495248056948185,-0.0066793435253202915,0.029496721923351288,-0.0006337497034110129,-0.005612547043710947
-0.005237539764493704,-0.024459488689899445,-0.005934243090450764,0.030538029968738556,-0.0005808163550682366,-0.005381731782108545
-0.004908701870590448,-0.023679332807660103,-0.005663576535880566,0.030254105105996132,-0.0005878056399524212,-0.005344148725271225
-0.005189558491110802,-0.02339939959347248,-0.006111593917012215,0.029031256213784218,-0.0005593912792392075,-0.0055365124717354774
-0.005072559230029583,-0.022902540862560272,-0.005562739912420511,0.028422215953469276,-0.0005200890591368079,-0.005622836761176586
-0.005140447989106178,-0.02338934876024723,-0.005893601570278406,0.028834711760282516,-0.0004745498299598694,-0.005613455083221197
-0.005030633881688118,-0.02410127781331539,-0.005803572479635477,0.029056966304779053,-0.0004618173115886748,-0.00531995901837945
-0.005312400404363871,-0.023591594770550728,-0.006025333423167467,0.028438398614525795,-0.0004586881259456277,-0.005339372903108597
-0.004791036248207092,-0.023105276748538017,-0.005564683582633734,0.028954628854990005,-0.0004907693946734071,-0.005603910889476538
-0.005046296399086714,-0.02315775491297245,-0.00582612631842494,0.028871795162558556,-0.0005204644985496998,-0.0060166302137076855
-0.005377650260925293,-0.02356058917939663,-0.0056599462404847145,0.028404777869582176,-0.0008017985965125263,-0.005838667042553425
-0.004975722637027502,-0.023816818371415138,-0.006024546921253204,0.027202431112527847,-0.0008554878877475858,-0.005821775645017624
-0.004898427054286003,-0.023387644439935684,-0.00614597462117672,0.027744954451918602,-0.000864079687744379,-0.005579873453825712
-0.004948257934302092,-0.023109091445803642,-0.005539863370358944,0.028920570388436317,-0.0008610945660620928,-0.005577826406806707
-0.004826824646443129,-0.022490132600069046,-0.005869430955499411,0.029254818335175514,-0.0007897832547314465,-0.005294147878885269
-0.004704337567090988,-0.022923825308680534,-0.006020440254360437,0.028991207480430603,-0.0008053850615397096,-0.00546118151396513
-0.005100930109620094,-0.02358480542898178,-0.006246780976653099,0.028963064774870872,-0.0006916834390722215,-0.005691272206604481
-0.005249711684882641,-0.02288568578660488,-0.0055662645027041435,0.029146406799554825,-0.0007026346283964813,-0.005981856025755405
-0.0050195977091789246,-0.022549524903297424,-0.005597092676907778,0.02941190078854561,-0.0006339199026115239,-0.005720182787626982
-0.004872425924986601,-0.02262275479733944,-0.005495958495885134,0.029186759144067764,-0.0005680364556610584,-0.005850189831107855
-0.004788022954016924,-0.02290765382349491,-0.005717928986996412,0.029054930433630943,-0.0005934310611337423,-0.005450566299259663
-0.00513538857921958,-0.023194827139377594,-0.006292130798101425,0.02882646955549717,-0.0005470458418130875,-0.0053792730905115604
-0.004834357183426619,-0.022373586893081665,-0.005270809400826693,0.028924526646733284,-0.0005305246450006962,-0.005558522418141365
-0.0047299424186348915,-0.022545523941516876,-0.0054693096317350864,0.029158521443605423,-0.0004994664923287928,-0.005573217291384935
-0.00505013857036829,-0.02272188477218151,-0.005537705030292273,0.029316354542970657,-0.0004139639204367995,-0.005170296877622604
-0.004870917648077011,-0.022711558267474174,-0.005871724337339401,0.02895832061767578,-0.00041308157960884273,-0.005631927400827408
-0.004450540523976088,-0.022453943267464638,-0.005828614346683025,0.028660155832767487,-0.00041432984289713204,-0.005537659861147404
-0.004450540523976088,-0.022453943267464638,-0.005828614346683025,0.028660155832767487,-0.00041432984289713204,-0.005537659861147404
-0.004525472410023212,-0.02165677584707737,-0.0053462372161448,0.028499215841293335,-0.00041808740934357047,-0.005821991246193647
-0.004539023619145155,-0.023045241832733154,-0.005757929757237434,0.02828288823366165,-0.0004190691979601979,-0.005703573115170002
-0.004096984397619963,-0.02255413308739662,-0.00537174241617322,0.027913551777601242,-0.00039468909380957484,-0.005649044178426266
-0.0039008823223412037,-0.02242271415889263,-0.006080766208469868,0.02795906737446785,-0.00037152745062485337,-0.005458080675452948
-0.004398392979055643,-0.022478200495243073,-0.00560663640499115,0.02793142758309841,-0.0003941984905395657,-0.0056739975698292255
-0.0045863124541938305,-0.02187003754079342,-0.005294363014400005,0.027531856670975685,-0.00037935684667900205,-0.00544913811609149
-0.004183515906333923,-0.02208135649561882,-0.005363574251532555,0.027562642470002174,-0.0003607329854276031,-0.00540196755900979
-0.0042371684685349464,-0.022514961659908295,-0.005270867142826319,0.027343105524778366,-0.00034412991954013705,-0.005425790790468454
-0.004181021358817816,-0.022393273189663887,-0.0057997992262244225,0.026916682720184326,-0.0003724901471287012,-0.005598505027592182
-0.004312553443014622,-0.02205413393676281,-0.005617075599730015,0.026528697460889816,-0.00034744542790576816,-0.005351949483156204
-0.003981789108365774,-0.022001221776008606,-0.005692585837095976,0.02714797854423523,-0.00032275126432068646,-0.005717792082577944
-0.0038418611511588097,-0.02232406474649906,-0.005746953655034304,0.027379589155316353,-0.0003011541557498276,-0.00555099593475461
-0.004374475218355656,-0.021876007318496704,-0.005575232207775116,0.027042532339692116,-0.0003097125154454261,-0.005859564058482647
-0.00412558251991868,-0.021432947367429733,-0.005198961589485407,0.027383802458643913,-0.0003168138209730387,-0.005636340938508511
-0.003953198436647654,-0.021678846329450607,-0.005909060128033161,0.02824806049466133,-0.00030081416480243206,-0.005580240394920111
-0.004335891921073198,-0.02226657047867775,-0.0058603412471711636,0.028035016730427742,-0.000285038142465055,-0.005298311356455088
-0.0042261783964931965,-0.021462446078658104,-0.005775857251137495,0.027262801304459572,-0.00027074909303337336,-0.005675084423273802
-0.004143696743994951,-0.021191667765378952,-0.005574463400989771,0.02691224031150341,-0.00029784164507873356,-0.005895430687814951
-0.0039048942271620035,-0.021153157576918602,-0.005628702696412802,0.027652937918901443,-0.000286885944660753,-0.006160698365420103
-0.003563348203897476,-0.021636368706822395,-0.005914637818932533,0.028382018208503723,-0.00026309516397304833,-0.005724809598177671
-0.003941849805414677,-0.021387869492173195,-0.005609614308923483,0.029075302183628082,-0.00028617033967748284,-0.00532865896821022
-0.004075156059116125,-0.021169187501072884,-0.005620450247079134,0.029018549248576164,-0.0002773390442598611,-0.0054687694646418095
-0.0042803301475942135,-0.021528031677007675,-0.006022349465638399,0.028966477140784264,-0.0002671889669727534,-0.0057503655552864075
-0.004612123128026724,-0.021119628101587296,-0.006050868891179562,0.027959072962403297,-0.0002576358965598047,-0.0058624641969799995
-0.0038240354042500257,-0.019534999504685402,-0.005849895998835564,0.027367867529392242,-0.000248735275818035,-0.005572284571826458
-0.0032458947971463203,-0.02035360224545002,-0.005305329337716103,0.027986938133835793,-0.00024042824225034565,-0.005631778389215469
-0.003566962666809559,-0.021802088245749474,-0.005878808442503214,0.028313297778367996,-0.00022821369930170476,-0.005487643647938967
-0.003566962666809559,-0.021802088245749474,-0.005878808442503214,0.028313297778367996,-0.00022821369930170476,-0.005487643647938967
-0.003928290214389563,-0.021728089079260826,-0.006330816075205803,0.02796133980154991,-0.0002162939344998449,-0.005892195273190737
-0.003878834191709757,-0.020862411707639694,-0.005791567265987396,0.027951302006840706,-0.0002063121646642685,-0.005663641728460789
-0.003780103288590908,-0.02134978584945202,-0.005839027930051088,0.02791992574930191,-0.00019726224127225578,-0.005672903265804052
-0.004175505600869656,-0.02188570611178875,-0.005295460112392902,0.027798881754279137,-0.000188976337085478,-0.00548067782074213
-0.004047086462378502,-0.02187243103981018,-0.0058060153387486935,0.027734827250242233,-0.00018135886057280004,-0.0056724511086940765
-0.0039712670259177685,-0.021067645400762558,-0.005685585085302591,0.027437927201390266,-0.00020682948525063694,-0.005805551540106535
-0.004026144277304411,-0.021138731390237808,-0.0057273549027740955,0.0272702407091856,-0.00020123999274801463,-0.005796557758003473
-0.0040540192276239395,-0.021109333261847496,-0.0059899394400417805,0.027082400396466255,-0.00019414220878388733,-0.0055221449583768845
-0.003970843739807606,-0.02093593403697014,-0.006056816317141056,0.027006857097148895,-0.00018741264648269862,-0.005638381466269493
-0.003971444442868233,-0.021397456526756287,-0.006237202323973179,0.026918260380625725,-0.00018112637917511165,-0.005536101758480072
-0.003967859782278538,-0.02203642576932907,-0.00599376205354929,0.026472294703125954,-0.00017524746363051236,-0.005679490510374308
-0.004321002401411533,-0.021431809291243553,-0.006320233456790447,0.02636467106640339,-0.00016973829769995064,-0.00547781540080905
-0.004267608746886253,-0.021247997879981995,-0.006690526381134987,0.026489751413464546,-0.00016456519369967282,-0.005704197566956282
-0.00394073873758316,-0.021192576736211777,-0.005908366292715073,0.02648422122001648,-0.00017275882419198751,-0.006042588967829943
-0.0038640741258859634,-0.021950367838144302,-0.005806128028780222,0.026384947821497917,-0.00018007730250246823,-0.005862139165401459
-0.003925074823200703,-0.02131766825914383,-0.005867992993444204,0.025955479592084885,-0.0001758511789375916,-0.006003016140311956
-0.003895430825650692,-0.021146444603800774,-0.0062546515837311745,0.025574637576937675,-0.0001711267395876348,-0.0062937368638813496
-0.004346149042248726,-0.02136176824569702,-0.006633744575083256,0.025621695443987846,-0.00016660423716530204,-0.006223139353096485
-0.00419977679848671,-0.021681081503629684,-0.0059327310882508755,0.025182748213410378,-0.00016231194604188204,-0.006170553155243397
-0.003994319587945938,-0.021489419043064117,-0.005943789146840572,0.025113200768828392,-0.00015823511057533324,-0.005897159688174725
-0.003915360663086176,-0.021045712754130363,-0.006202258635312319,0.02566935308277607,-0.00015435776731465012,-0.005898219533264637
-0.003953875973820686,-0.021336643025279045,-0.006330670323222876,0.026188993826508522,-0.00014714714779984206,-0.005965422838926315
-0.003876323811709881,-0.02137814834713936,-0.0061385794542729855,0.025098251178860664,-0.0001437885221093893,-0.006160965654999018
-0.003786061890423298,-0.02080385573208332,-0.00590155553072691,0.025489818304777145,-0.00014057998487260193,-0.005759179126471281
-0.003815298667177558,-0.020964710041880608,-0.006191500462591648,0.02636299468576908,-0.0001375113206449896,-0.005416004918515682
-0.003815298667177558,-0.020964710041880608,-0.006191500462591648,0.02636299468576908,-0.0001375113206449896,-0.005416004918515682
-0.003918513190001249,-0.021491706371307373,-0.006631501019001007,0.026082336902618408,-0.0001345739874523133,-0.005675982683897018
-0.003907134756445885,-0.021178526803851128,-0.006572158075869083,0.025389717891812325,-0.0001317593560088426,-0.0060909949243068695
-0.0035706027410924435,-0.021247660741209984,-0.006170099135488272,0.026446281000971794,-0.000129060004837811,-0.006266651675105095
-0.003713121870532632,-0.020977428182959557,-0.007138487882912159,0.02610350400209427,-0.0001239804259967059,-0.006197132635861635
-0.003954808693379164,-0.02068382129073143,-0.006880426313728094,0.024978693574666977,-0.00012158765457570553,-0.005961157381534576
-0.003954808693379164,-0.02068382129073143,-0.006880426313728094,0.024978693574666977,-0.00012158765457570553,-0.005961157381534576
-0.0036100377328693867,-0.02075091190636158,-0.00654149055480957,0.025504589080810547,-0.00011928549065487459,-0.006033539306372404
-0.003544955514371395,-0.021345077082514763,-0.0064577809534966946,0.025781799107789993,-0.00011706880468409508,-0.005629369523376226
-0.0037142476066946983,-0.02132592163980007,-0.007141041103750467,0.02616555616259575,-0.00011493294005049393,-0.005658392794430256
-0.004109066911041737,-0.020734282210469246,-0.007728578057140112,0.025959527119994164,-0.00011287381494184956,-0.006426566280424595
-0.0038035132456570864,-0.021035086363554,-0.007055141497403383,0.025419622659683228,-0.00011088718747487292,-0.006304524373263121
-0.0033923033624887466,-0.02144232578575611,-0.00622350862249732,0.02486010082066059,-0.0001089692595996894,-0.006070858333259821
-0.0034859722945839167,-0.021061554551124573,-0.006335892248898745,0.024558700621128082,-0.00010711633512983099,-0.005907967686653137
-0.0033440415281802416,-0.020563464611768723,-0.0071497028693556786,0.02419907972216606,-0.00010532561282161623,-0.005813993513584137
-0.003602944314479828,-0.021052716299891472,-0.0071039823815226555,0.02426278032362461,-0.00010359370207879692,-0.00627299165353179
-0.003867221297696233,-0.02047869563102722,-0.007149428594857454,0.024392401799559593,-0.00010191772889811546,-0.006183873396366835
-0.0038553429767489433,-0.020522957667708397,-0.006374543998390436,0.024430640041828156,-0.000100295314041432,-0.006204069126397371
-0.003874453017488122,-0.021092891693115234,-0.006287122145295143,0.024280697107315063,-9.872364898910746e-05,-0.0058680190704762936
-0.003413959639146924,-0.02127671055495739,-0.007202329114079475,0.02374883182346821,-9.72005509538576e-05,-0.005446221679449081
-0.0035890676081180573,-0.02049075812101364,-0.00752110593020916,0.02383171208202839,-9.572358976583928e-05,-0.006091320887207985
-0.00323086092248559,-0.02016604132950306,-0.007006495259702206,0.024103732779622078,-9.429089550394565e-05,-0.006264033727347851
-0.0033469246700406075,-0.021118607372045517,-0.006289757322520018,0.024650493636727333,-9.290051821153611e-05,-0.005813797004520893
-0.003289476502686739,-0.020759155973792076,-0.0066121104173362255,0.02449973113834858,-9.155057341558859e-05,-0.005840998608618975
-0.0033574311528354883,-0.020882362499833107,-0.006691629532724619,0.024144086986780167,-8.896490908227861e-05,-0.005857233889400959
-0.0036072712391614914,-0.02110269106924534,-0.00591248320415616,0.023476824164390564,-8.772612636676058e-05,-0.00633992487564683
-0.0036691646091639996,-0.020650723949074745,-0.005587765946984291,0.023434968665242195,-8.652130782138556e-05,-0.0064818658865988255
-0.0036073513329029083,-0.020747335627675056,-0.005730549804866314,0.023826466873288155,-8.534923836123198e-05,-0.006299694534391165
-0.003618118818849325,-0.020758653059601784,-0.00628272257745266,0.02332494780421257,-8.420840458711609e-05,-0.006021175067871809
-0.0033032528590410948,-0.0206458643078804,-0.006239475682377815,0.023032018914818764,-8.309771510539576e-05,-0.00649480614811182
-0.0033032528590410948,-0.0206458643078804,-0.006239475682377815,0.023032018914818764,-8.309771510539576e-05,-0.00649480614811182
-0.0030729256104677916,-0.020305555313825607,-0.0054947976022958755,0.023333383724093437,-8.201591117540374e-05,-0.006668759044259787
-0.0030127339996397495,-0.020174892619252205,-0.005854928866028786,0.023712271824479103,-5.625376070383936e-05,-0.0068109771236777306
-0.0031787410844117403,-0.020461559295654297,-0.005927154794335365,0.023469552397727966,-3.1946525268722326e-05,-0.006555532105267048
-0.003676122985780239,-0.020451856777071953,-0.006227285135537386,0.0233605969697237,-2.9892162274336442e-05,-0.006122549995779991
-0.0034419905859977007,-0.020273515954613686,-0.005609499290585518,0.023403558880090714,-2.930597293016035e-05,-0.006308923941105604
-0.0032545854337513447,-0.020195813849568367,-0.006565678399056196,0.02345874533057213,-2.883006709453184e-05,-0.006493023131042719
-0.0032810054253786802,-0.019975757226347923,-0.00593058904632926,0.02363264001905918,-2.837517240550369e-05,-0.005961732007563114
-0.00291516724973917,-0.019872600212693214,-0.005540973041206598,0.023468635976314545,-2.793478597595822e-05,-0.005851701367646456
-0.0030308242421597242,-0.020013270899653435,-0.00643748277798295,0.023201357573270798,-2.7507898266776465e-05,-0.005740796215832233
-0.0031754528172314167,-0.02031976915895939,-0.005850566551089287,0.024036098271608353,-2.709381988097448e-05,-0.006215203553438187
-0.0030299120116978884,-0.01857316680252552,-0.005891130771487951,0.023846862837672234,-2.6692050596466288e-05,-0.006791984662413597
-0.0027769161388278008,-0.019545061513781548,-0.0054587372578680515,0.022722087800502777,-2.6302026526536793e-05,-0.006877711974084377
-0.0027340450324118137,-0.020289888605475426,-0.006368800066411495,0.022143807262182236,-2.592324926808942e-05,-0.0062341587617993355
-0.002833963604643941,-0.019403403624892235,-0.006218144204467535,0.022338485345244408,-2.5555216780048795e-05,-0.006278942804783583
-0.003011502791196108,-0.019444866105914116,-0.005823879037052393,0.022445492446422577,-2.5197461582138203e-05,-0.006715776864439249
-0.0032666432671248913,-0.020077714696526527,-0.005564523860812187,0.02308507449924946,-1.3247422430140432e-05,-0.006888762582093477
-0.0028962271753698587,-0.019372787326574326,-0.005743130575865507,0.022690361365675926,-1.2309334124438465e-05,-0.00642319954931736
-0.0027678688056766987,-0.019101742655038834,-0.005683722905814648,0.022571200504899025,-1.2094477824575733e-05,-0.006218066439032555
-0.0025234101340174675,-0.019594663754105568,-0.00598564138635993,0.022907216101884842,-1.177461672341451e-05,-0.006355965510010719
-0.0028157494962215424,-0.019513528794050217,-0.005510400049388409,0.02246212214231491,-1.162255557574099e-05,-0.006922015454620123
-0.002971080830320716,-0.019357824698090553,-0.005784586537629366,0.022109640762209892,-1.1474382517917547e-05,-0.00644900556653738
-0.0025721013080328703,-0.018861057236790657,-0.0057008215226233006,0.02169971726834774,-1.1329937478876673e-05,-0.006492544896900654
-0.0025858019944280386,-0.018871892243623734,-0.006330028176307678,0.022147610783576965,-1.1189077667950187e-05,-0.006263991352170706
-0.002687339438125491,-0.019509688019752502,-0.006290281191468239,0.022297674790024757,-1.4407668231797288e-06,-0.006552836857736111
-0.002834201557561755,-0.019265221431851387,-0.0054458011873066425,0.023294473066926003,-9.407178680476136e-08,-0.006878055166453123
-0.0026800744235515594,-0.018689461052417755,-0.0059428769163787365,0.021672943606972694,-6.14221562500461e-09,-0.00633662287145853
-0.002673350041732192,-0.018877875059843063,-0.005655114073306322,0.021494895219802856,-4.010428100720276e-10,-0.006107754539698362
-0.0027060427237302065,-0.018740735948085785,-0.0064905243925750256,0.021341640502214432,-2.6185227597341765e-11,-0.006470775697380304
-0.0027060427237302065,-0.018740735948085785,-0.0064905243925750256,0.021341640502214432,-2.6185227597341765e-11,-0.006470775697380304
-0.002467463491484523,-0.018762310966849327,-0.006616503931581974,0.021465221419930458,-1.7097083297723525e-12,-0.006768308114260435
-0.002386454725638032,-0.019316500052809715,-0.005789452698081732,0.02136324904859066,-1.1163173250366976e-13,-0.0066141402348876
-0.0025017426814883947,-0.019037090241909027,-0.005829196888953447,0.021322136744856834,-7.288754933539986e-15,-0.00628244411200285
-0.002396002411842346,-0.018386557698249817,-0.0057374234311282635,0.021014628931879997,-4.759036085302565e-16,-0.0065710097551345825
-0.002518968190997839,-0.01829293929040432,-0.006424409803003073,0.020875029265880585,0.00061188725521788,-0.006682697683572769
-0.002357340417802334,-0.018163753673434258,-0.006368231028318405,0.02077343687415123,0.0008656139252707362,-0.006530551239848137
-0.0024570648092776537,-0.018135562539100647,-0.005607069004327059,0.020651232451200485,0.0008843179675750434,-0.007076610345393419
-0.0022405406925827265,-0.018123960122466087,-0.005782763473689556,0.020346060395240784,0.0008367795962840319,-0.007061467971652746
-0.0021783148404210806,-0.017939962446689606,-0.005487092770636082,0.02073780447244644,0.0009729171870276332,-0.005891609936952591
-0.002331637544557452,-0.018146030604839325,-0.006491018459200859,0.02064957655966282,0.0009106111247092485,-0.006024349946528673
-0.002692541806027293,-0.018194682896137238,-0.00598238967359066,0.02047659084200859,0.0008390696602873504,-0.006776784546673298
-0.0025169868022203445,-0.01783588156104088,-0.005734568927437067,0.02062470093369484,0.0008425144478678703,-0.006908823736011982
-0.0022159991785883904,-0.01858859322965145,-0.00558807048946619,0.02056717686355114,0.0008010591263882816,-0.006651629228144884
-0.0020930487662553787,-0.01762377843260765,-0.00572129525244236,0.02029246650636196,0.0007624291465617716,-0.006482680328190327
-0.001918041962198913,-0.017453981563448906,-0.006004834547638893,0.020209936425089836,0.0007041221833787858,-0.006643275730311871
-0.001918041962198913,-0.017453981563448906,-0.006004834547638893,0.020209936425089836,0.0007041221833787858,-0.006643275730311871
-0.0020751934498548508,-0.01691017486155033,-0.006043025758117437,0.019780166447162628,0.0007263419101946056,-0.006650527007877827
-0.002060068305581808,-0.017530307173728943,-0.005565806291997433,0.019480615854263306,0.0007323172758333385,-0.006753424648195505
-0.002048203255981207,-0.016894564032554626,-0.005800293758511543,0.019513847306370735,0.0008938745013438165,-0.007163465488702059
-0.0018360618269070983,-0.01777648739516735,-0.006003465969115496,0.019144529476761818,0.001035044202581048,-0.0072883195243775845
-0.0017733939457684755,-0.016985461115837097,-0.005819435231387615,0.01951221004128456,0.0013841659529134631,-0.006796311587095261
-0.001948753953911364,-0.017414093017578125,-0.0056889234110713005,0.019206374883651733,0.0014028449077159166,-0.00669685797765851
-0.0017911269096657634,-0.017207913100719452,-0.006069323047995567,0.01923699490725994,0.0014965980080887675,-0.006743241101503372
-0.0019385677296668291,-0.017649400979280472,-0.0066887009888887405,0.01944783329963684,0.001595576060935855,-0.006794737186282873
-0.0017653185641393065,-0.017289863899350166,-0.005966265220195055,0.019402174279093742,0.0015235829632729292,-0.006849245168268681
-0.0017947412561625242,-0.01653958670794964,-0.0058131166733801365,0.01863199658691883,0.0013910928973928094,-0.006954573094844818
-0.0017473483458161354,-0.017269574105739594,-0.005867102183401585,0.01898466795682907,0.0014068307355046272,-0.00703226774930954
-0.0015521170571446419,-0.016234731301665306,-0.00619912426918745,0.019426362589001656,0.001389573677442968,-0.0069808210246264935
-0.0015521170571446419,-0.016234731301665306,-0.00619912426918745,0.019426362589001656,0.001389573677442968,-0.0069808210246264935
-0.001550341141410172,-0.01668039709329605,-0.006395932286977768,0.018922166898846626,0.0015039403224363923,-0.007282287813723087
-0.001461209962144494,-0.016461074352264404,-0.00616060383617878,0.018604792654514313,0.0015719440998509526,-0.006991470232605934
-0.0014822123339399695,-0.016186032444238663,-0.005865997169166803,0.01804880052804947,0.001698256703093648,-0.007004634942859411
-0.0014115168014541268,-0.016903776675462723,-0.005871186964213848,0.01772499270737171,0.001623485586605966,-0.007109471596777439
-0.0013689560582861304,-0.016552995890378952,-0.005953701213002205,0.018213870003819466,0.0015112609835341573,-0.006884354166686535
-0.0014886608114466071,-0.016622396185994148,-0.006676163524389267,0.017892803996801376,0.0014468332519754767,-0.0068726628087460995
-0.0014946582959964871,-0.015902694314718246,-0.006725280545651913,0.018283158540725708,0.001358944340609014,-0.0069159530103206635
-0.0013852439587935805,-0.01608292944729328,-0.005874140653759241,0.018114352598786354,0.0012774969218298793,-0.006832278799265623
-0.001299418625421822,-0.01588340848684311,-0.005878346972167492,0.017160644754767418,0.001254642615094781,-0.006621829234063625
-0.0012208842672407627,-0.01553649827837944,-0.005793922580778599,0.017637019976973534,0.0013499840861186385,-0.006811310537159443
-0.0011339978082105517,-0.015924187377095222,-0.006353011354804039,0.01688932441174984,0.0017004559049382806,-0.0070472778752446175
-0.0010181281249970198,-0.015465529635548592,-0.0061060478910803795,0.017178017646074295,0.001815791125409305,-0.006930933333933353
-0.0008759501506574452,-0.015769517049193382,-0.005659190937876701,0.017140114679932594,0.0017858819337561727,-0.00706739816814661
-0.0008738543256185949,-0.015347534790635109,-0.005650827195495367,0.016405014321208,0.0019658298697322607,-0.007016406394541264
-0.0008773983572609723,-0.015845131129026413,-0.005618849769234657,0.0165257528424263,0.0020428032148629427,-0.007363096345216036
-0.0008801420917734504,-0.015512862242758274,-0.006331808399409056,0.015581951476633549,0.0020909488666802645,-0.007675901520997286
-0.0009124783100560308,-0.015801161527633667,-0.005758807994425297,0.015869952738285065,0.002103728475049138,-0.007554683368653059
-0.0008775440510362387,-0.015232071280479431,-0.005777321755886078,0.016277702525258064,0.0018882261356338859,-0.007129188627004623
-0.0008053421042859554,-0.015065355226397514,-0.005904053337872028,0.016166847199201584,0.0018791600596159697,-0.007407889701426029
-0.0007144797127693892,-0.015670938417315483,-0.0064859529957175255,0.016215180978178978,0.0019626340363174677,-0.0069424151442945
-0.000731965817976743,-0.01525138970464468,-0.005825154948979616,0.015916068106889725,0.0018077422864735126,-0.006798773538321257
-0.000665850646328181,-0.013558956794440746,-0.005761588457971811,0.01577191986143589,0.0017604733584448695,-0.006820173468440771
-0.0005918947863392532,-0.016170721501111984,-0.005783619359135628,0.01647186279296875,0.0017519791144877672,-0.007281822618097067
-0.0006262981914915144,-0.015237266197800636,-0.005902991630136967,0.015826959162950516,0.0016493466682732105,-0.007386545184999704
-0.0006262981914915144,-0.015237266197800636,-0.005902991630136967,0.015826959162950516,0.0016493466682732105,-0.007386545184999704
-0.0006778789102099836,-0.01479228213429451,-0.005911541637033224,0.015485566109418869,0.0016031982377171516,-0.007253911346197128
-0.0008805730612948537,-0.01504778303205967,-0.005713915918022394,0.01585281826555729,0.0017465334385633469,-0.007768520154058933
-0.0007662074058316648,-0.013765526004135609,-0.006049375049769878,0.015005088411271572,0.0018055951222777367,-0.007682597264647484
-0.0007662074058316648,-0.013765526004135609,-0.006049375049769878,0.015005088411271572,0.0018055951222777367,-0.007682597264647484
-0.000739668554160744,-0.014976223930716515,-0.005897184368222952,0.014878583140671253,0.0019034587312489748,-0.0072642103768885136
-0.0006854397943243384,-0.014892913401126862,-0.006240917835384607,0.015161124989390373,0.001766408677212894,-0.007398124784231186
-0.0006086679641157389,-0.01507152896374464,-0.0058892457745969296,0.014712848700582981,0.0017510944744572043,-0.007560804486274719
-0.0005469851312227547,-0.01482766680419445,-0.00576274236664176,0.014600255526602268,0.0018196920864284039,-0.007404161151498556
-0.0005505564040504396,-0.015337543562054634,-0.006027687806636095,0.01462806947529316,0.0018061588052660227,-0.007071749772876501
-0.0005302205681800842,-0.01411125436425209,-0.005886003375053406,0.014209478162229061,0.0018790081376209855,-0.007257599849253893
-0.0004893721779808402,-0.014377295039594173,-0.006302049849182367,0.014056104235351086,0.0017192622181028128,-0.007870466448366642
-0.00045409402810037136,-0.014291026629507542,-0.00584401423111558,0.013750037178397179,0.001836129929870367,-0.0077227335423231125
-0.00042356085032224655,-0.01459672674536705,-0.005696754436939955,0.014121157117187977,0.0017404456157237291,-0.007774333003908396
-0.00039687176467850804,-0.014236457645893097,-0.005998487584292889,0.014047130942344666,0.0018192792776972055,-0.0076603274792432785
-0.00037334952503442764,-0.014876265078783035,-0.00588598707690835,0.013970216736197472,0.0017848055576905608,-0.008076227270066738
-0.0003524588537402451,-0.01372072845697403,-0.0061188568361103535,0.013420927338302135,0.001725275651551783,-0.007873526774346828
-0.0003337831294629723,-0.01384301669895649,-0.00585729768499732,0.013543074950575829,0.0017371687572449446,-0.008159668184816837
-0.0003169882111251354,-0.013510254211723804,-0.005819711368530989,0.012939750216901302,0.0018338656518608332,-0.007924873381853104
-0.00030180078465491533,-0.01417900063097477,-0.005719258449971676,0.013315847143530846,0.0019449087558314204,-0.008398551493883133
-0.000288002920569852,-0.013863165862858295,-0.005720215383917093,0.012668773531913757,0.0022043727803975344,-0.007944416254758835
-0.00027541155577637255,-0.01368679478764534,-0.006102024111896753,0.012929810211062431,0.0020855271723121405,-0.008015491999685764
-0.00025326720788143575,-0.013606267049908638,-0.005586305633187294,0.012650685384869576,0.0019329128554090858,-0.007876862771809101
-0.00024347878934349865,-0.01351188775151968,-0.005545716267079115,0.012493782676756382,0.0017740157200023532,-0.007491828873753548
-9.859688725555316e-05,-0.013209572061896324,-0.005640261806547642,0.012175949290394783,0.001776185934431851,-0.00773249939084053
-7.714952516835183e-05,-0.01343992818146944,-0.0058573270216584206,0.012120361439883709,0.0021114053670316935,-0.007759873289614916
-7.375653513008729e-05,-0.013388607650995255,-0.006161248777061701,0.011649414896965027,0.0024233334697782993,-0.007976165972650051
-7.085015386110172e-05,-0.013730412349104881,-0.005572136025875807,0.011842104606330395,0.002474590903148055,-0.008273079991340637
-6.816675158916041e-05,-0.013046585954725742,-0.005624793004244566,0.011976351030170918,0.0022673055063933134,-0.007931536063551903
-6.567948003066704e-05,-0.013713615015149117,-0.005554526578634977,0.011604207567870617,0.0021336243953555822,-0.008215515874326229
-6.336719525279477e-05,-0.013142066076397896,-0.005842684302479029,0.011347350664436817,0.0018375648651272058,-0.007976408116519451
-6.121233309386298e-05,-0.013318913988769054,-0.006501991767436266,0.0110709760338068,0.0016840302851051092,-0.008078273385763168
-6.121233309386298e-05,-0.013318913988769054,-0.006501991767436266,0.0110709760338068,0.0016840302851051092,-0.008078273385763168
-5.919897012063302e-05,-0.012879895977675915,-0.005688691511750221,0.01174225565046072,0.0015604861546307802,-0.007836699485778809
-5.7314158766530454e-05,-0.012994933873414993,-0.005388621240854263,0.0114189637824893,0.001480674254707992,-0.008018805645406246
-3.103993003605865e-05,-0.012663571164011955,-0.005596087779849768,0.011085462756454945,0.001383492024615407,-0.007587740197777748
-4.1644025827736186e-07,-0.01276272814720869,-0.006299911066889763,0.011033393442630768,0.0013302018633112311,-0.00812084972858429
-5.587077911428651e-09,-0.012945286929607391,-0.006386392284184694,0.0106470612809062,0.0013411195250228047,-0.008266271091997623
-7.495778303612255e-11,-0.012969564646482468,-0.005771047901362181,0.010981750674545765,0.0014032273320481181,-0.007822035811841488
-1.0056543271741436e-12,-0.012652947567403316,-0.005652242340147495,0.010455851443111897,0.0016819664742797613,-0.007422940339893103
-1.3492136248028416e-14,-0.012291928753256798,-0.005643021315336227,0.010235278867185116,0.001566502614878118,-0.007797268219292164
-1.810142230809146e-16,-0.01245355885475874,-0.006291847210377455,0.010085353627800941,0.0014788529369980097,-0.007757089100778103
-2.4285369311872976e-18,-0.01203983835875988,-0.00597211392596364,0.009932138957083225,0.0015792574267834425,-0.008015128783881664
-3.258192700777631e-20,-0.012540630996227264,-0.0056507783010602,0.009756908752024174,0.0015684962272644043,-0.008242348209023476
0.0002443975827191025,-0.012117499485611916,-0.005451614502817392,0.010507534258067608,0.0021287540439516306,-0.008277243003249168
0.0005054129869677126,-0.012000110000371933,-0.005809357389807701,0.009972099214792252,0.0024396523367613554,-0.008194086141884327
0.000545550778042525,-0.012354226782917976,-0.006461865734308958,0.009755871258676052,0.002468977589160204,-0.008206297643482685
0.0004986920394003391,-0.011837033554911613,-0.006640242878347635,0.009976047091186047,0.0024645202793180943,-0.008419706486165524
0.00045656022848561406,-0.012260574847459793,-0.0057619186118245125,0.010037725791335106,0.0021529565565288067,-0.008287416771054268
0.0003905089688487351,-0.011788788251578808,-0.0059627750888466835,0.010742259211838245,0.0019209053134545684,-0.008024826645851135
0.00041758071165531874,-0.012231875211000443,-0.006146328058093786,0.010257831774652004,0.0019185543060302734,-0.00814846996217966
0.0003979172033723444,-0.011501352302730083,-0.006125070620328188,0.009309565648436546,0.0020417708437889814,-0.00867028720676899
0.00037435913691297174,-0.012284724973142147,-0.006041861604899168,0.009013327769935131,0.002062479965388775,-0.008082385174930096
0.0003533610433805734,-0.011384108103811741,-0.006038394290953875,0.00846150703728199,0.002079251455143094,-0.008010352961719036
0.00033459230326116085,-0.011804511770606041,-0.006234365981072187,0.00833006389439106,0.0018790771719068289,-0.0079720513895154
0.00034745465382002294,-0.012005705386400223,-0.006007946562021971,0.008244183845818043,0.0017894847551360726,-0.00784021895378828
0.0003468093927949667,-0.011434977874159813,-0.006340502295643091,0.00852690078318119,0.0018351164180785418,-0.007532151415944099
0.0003468093927949667,-0.011434977874159813,-0.006340502295643091,0.00852690078318119,0.0018351164180785418,-0.007532151415944099
0.00037557826726697385,-0.0118165984749794,-0.006511463318020105,0.00802407506853342,0.002080019796267152,-0.008107657544314861
0.0004538612556643784,-0.011269641108810902,-0.005882680881768465,0.006959529127925634,0.002371208742260933,-0.00837609264999628
0.0011053973576053977,-0.01131326612085104,-0.0058686211705207825,0.007233528885990381,0.002998982323333621,-0.0078579131513834
0.0013404707424342632,-0.012013229541480541,-0.006335774436593056,0.007403363008052111,0.0029901904053986073,-0.008036241866648197
0.0011993349762633443,-0.011257846839725971,-0.00620815996080637,0.006891826633363962,0.002459971932694316,-0.008207942359149456
0.0010517966002225876,-0.011927977204322815,-0.006473135203123093,0.006277111358940601,0.002171959960833192,-0.008947587572038174
0.0009850853821262717,-0.01104416511952877,-0.006672263611108065,0.006426339037716389,0.0019216174259781837,-0.008250040002167225
0.0009008417255245149,-0.011189191602170467,-0.006309241522103548,0.007357319816946983,0.0017828003037720919,-0.008104660548269749
0.0007305583567358553,-0.011377176269888878,-0.006717354524880648,0.006585142575204372,0.0019109854474663734,-0.008385008201003075
0.0008213329710997641,-0.011240791529417038,-0.006843946408480406,0.0058930059894919395,0.0022947180550545454,-0.00888537336140871
0.0008598976419307292,-0.011243387125432491,-0.0061819711700081825,0.0054955799132585526,0.0029228783678263426,-0.009720121510326862
0.001352569437585771,-0.0114017054438591,-0.005835535936057568,0.0064392779022455215,0.003057683352380991,-0.008552882820367813
0.0013085961109027267,-0.011045730672776699,-0.005668433383107185,0.006780322641134262,0.0026730813551694155,-0.00823654979467392
0.001131910947151482,-0.011351206339895725,-0.006269869394600391,0.006293391343206167,0.0024136409629136324,-0.008287451229989529
0.001094951294362545,-0.010826458223164082,-0.006441112607717514,0.005464127752929926,0.002339375903829932,-0.008819582872092724
0.0009732709149830043,-0.01090497337281704,-0.00593036413192749,0.005102524068206549,0.0023231152445077896,-0.009057942777872086
0.0010640727123245597,-0.011107509955763817,-0.005727383773773909,0.0055747018195688725,0.002741363365203142,-0.009111698716878891
0.001097393804229796,-0.010242441669106483,-0.006096398923546076,0.005838031880557537,0.0029423378873616457,-0.008973422460258007
0.0016334443353116512,-0.010656150057911873,-0.006026118062436581,0.005508854985237122,0.002906578127294779,-0.009260869584977627
0.001977976644411683,-0.010084712877869606,-0.005707679782062769,0.004942696541547775,0.0025458026211708784,-0.009339178912341595
0.0017724052304401994,-0.010979117825627327,-0.005973084829747677,0.00515680480748415,0.0023324110079556704,-0.00890802126377821
0.0016878116875886917,-0.01017969474196434,-0.0056999921798706055,0.004932499025017023,0.002667162101715803,-0.009278985671699047
0.0017156988615170121,-0.009844815358519554,-0.0058727809228003025,0.0047476813197135925,0.003098695306107402,-0.008968043141067028
0.002174335764721036,-0.010655995458364487,-0.006049317307770252,0.005446719471365213,0.002867830218747258,-0.009045884013175964
0.0026294353883713484,-0.010096228681504726,-0.005750652402639389,0.005374052096158266,0.0027047775220125914,-0.009229171089828014
0.002483116229996085,-0.010402852669358253,-0.005684851203113794,0.005367107689380646,0.0026776534505188465,-0.009314337745308876
0.0024944774340838194,-0.010167673230171204,-0.005340280942618847,0.005393879022449255,0.0024775827769190073,-0.009013251401484013
0.0022249012254178524,-0.009524652734398842,-0.0063498918898403645,0.005118864122778177,0.0023336743470281363,-0.009022257290780544
0.0022249012254178524,-0.009524652734398842,-0.0063498918898403645,0.005118864122778177,0.0023336743470281363,-0.009022257290780544
0.002366666216403246,-0.009309262037277222,-0.006644985638558865,0.004724082536995411,0.0026327555533498526,-0.009256597608327866
0.002352145966142416,-0.01048337109386921,-0.006050006486475468,0.0048920041881501675,0.0026295408606529236,-0.00996792409569025
0.0023976059164851904,-0.009516830556094646,-0.005753414239734411,0.004909082315862179,0.002560834866017103,-0.009322882629930973
0.0027455389499664307,-0.009064240381121635,-0.005620503332465887,0.004605283960700035,0.0025994181632995605,-0.009367529302835464
0.0028297570534050465,-0.01048310287296772,-0.006315560545772314,0.004496541805565357,0.0024983487091958523,-0.009661770425736904
0.0028629193548113108,-0.009072491899132729,-0.006481710821390152,0.00460550794377923,0.0023337050806730986,-0.0098084332421422
0.0029715346172451973,-0.009128052741289139,-0.005589059554040432,0.0048580169677734375,0.0023126150481402874,-0.010033642873167992
0.003119123401120305,-0.009086658246815205,-0.005810070782899857,0.004363564774394035,0.0024411985650658607,-0.009243207052350044
0.0033338519278913736,-0.009218230843544006,-0.005842480342835188,0.004016612656414509,0.002434407826513052,-0.008962167426943779
0.0033341567032039165,-0.008615009486675262,-0.006517324130982161,0.003897534217685461,0.0025803428143262863,-0.008898462168872356
0.003528508124873042,-0.00825236365199089,-0.006391019560396671,0.0040602595545351505,0.0027186223305761814,-0.009867439046502113
0.0037318302784115076,-0.008207790553569794,-0.005487415939569473,0.003666600910946727,0.002740622265264392,-0.009796801023185253
0.003955276217311621,-0.0074907634407281876,-0.005860926583409309,0.003514749463647604,0.002814609557390213,-0.009358033537864685
0.003958923276513815,-0.007368443068116903,-0.005980740766972303,0.003748982446268201,0.0028041619807481766,-0.00930062122642994
0.003982119262218475,-0.008328620344400406,-0.006351344287395477,0.003973744809627533,0.002744350116699934,-0.009455359540879726
0.0040215011686086655,-0.008479953743517399,-0.006282204296439886,0.0037476143334060907,0.0025922413915395737,-0.010427597910165787
0.004614933393895626,-0.00715656578540802,-0.005523584317415953,0.0032013081945478916,0.002873498946428299,-0.009274568408727646
0.0048493449576199055,-0.007511005736887455,-0.006007683929055929,0.0031646601855754852,0.0032430023420602083,-0.009348828345537186
0.004706976003944874,-0.00770138343796134,-0.00575074041262269,0.0029985890723764896,0.003286822000518441,-0.00948893278837204
0.004473804030567408,-0.007438564207404852,-0.006413493305444717,0.0033541417215019464,0.0028278902173042297,-0.009303543716669083
0.0049756430089473724,-0.006623874418437481,-0.005369823891669512,0.0030362866818904877,0.002640779595822096,-0.009957226924598217
0.004891263321042061,-0.0067756944335997105,-0.00524084223434329,0.0032056281343102455,0.0027541499584913254,-0.009733632206916809
0.00584227591753006,-0.00675949128344655,-0.006044252309948206,0.0031634746119379997,0.0027408578898757696,-0.009900672361254692
0.005422473419457674,-0.006318723317235708,-0.005953381769359112,0.002771788276731968,0.0030169906094670296,-0.010365729220211506
0.005068757571280003,-0.006001354660838842,-0.007010314147919416,0.0022487931419163942,0.003007723018527031,-0.009796107187867165
0.005178444087505341,-0.006135115399956703,-0.006017202045768499,0.002157473238185048,0.0028857795987278223,-0.009876695461571217
0.005407271906733513,-0.0064730872400105,-0.004878122825175524,0.0022844187915325165,0.002723997225984931,-0.009929039515554905
0.005407271906733513,-0.0064730872400105,-0.004878122825175524,0.0022844187915325165,0.002723997225984931,-0.009929039515554905
0.005884701851755381,-0.0062447297386825085,-0.006214976776391268,0.002086672931909561,0.00286496221087873,-0.00967971421778202
0.005884701851755381,-0.0062447297386825085,-0.006214976776391268,0.002086672931909561,0.00286496221087873,-0.00967971421778202
0.006108044181019068,-0.005862118676304817,-0.00642012944445014,0.001930390251800418,0.0029833868611603975,-0.009870254434645176
0.006300619803369045,-0.005757625680416822,-0.005689680110663176,0.0017814789898693562,0.00331795122474432,-0.009712115861475468
0.0058624278753995895,-0.006125018000602722,-0.005251484923064709,0.0017781197093427181,0.0031873693224042654,-0.009832227602601051
0.0064613292925059795,-0.005952135194092989,-0.00590845150873065,0.0017715301364660263,0.0032239591237157583,-0.009647396393120289
0.007014649920165539,-0.005973147228360176,-0.005981049500405788,0.0016035980079323053,0.0030339136719703674,-0.00957088265568018
0.006947706453502178,-0.0055358391255140305,-0.005999061278998852,0.0014737334568053484,0.0028647573199123144,-0.010243842378258705
0.006521185394376516,-0.005280490964651108,-0.006016476545482874,0.0012237497139722109,0.0026867601554840803,-0.010227409191429615
0.0065327538177371025,-0.005087682511657476,-0.0059009725227952,0.0009728455916047096,0.0028186605777591467,-0.010450892150402069
0.00727872084826231,-0.00520050385966897,-0.006117613520473242,0.0009359137038700283,0.0029288753867149353,-0.010377881117165089
0.007786271627992392,-0.005275461822748184,-0.005885998718440533,0.0008128621848300099,0.0031232002656906843,-0.010373512282967567
0.006931904703378677,-0.004638601094484329,-0.006075817160308361,0.0007072852458804846,0.0031409834045916796,-0.010070068761706352
0.006948001682758331,-0.004577940329909325,-0.006546987220644951,0.0006252714665606618,0.0030381344258785248,-0.010219826363027096
0.007570515852421522,-0.004424824379384518,-0.005846967920660973,0.0005602797609753907,0.0030278819613158703,-0.010388938710093498
0.007610207889229059,-0.0044607133604586124,-0.005750500131398439,0.0005075416993349791,0.0031127911061048508,-0.01072495523840189
0.007268254179507494,-0.004721221048384905,-0.005384678486734629,0.00046388982445932925,0.0032040830701589584,-0.010424637235701084
0.007232981733977795,-0.005115268751978874,-0.006265847943723202,0.00042715706513263285,0.0032951394096016884,-0.00997871533036232
0.008222857490181923,-0.004905540030449629,-0.00570765882730484,0.00036877175443805754,0.0029433593153953552,-0.010164633393287659
0.007776267360895872,-0.00452868826687336,-0.005607181694358587,0.0003451834782026708,0.002922097686678171,-0.010009994730353355
0.0076834275387227535,-0.004307727795094252,-0.00575143052265048,0.00032443361124023795,0.002865057671442628,-0.010246573947370052
0.008207977749407291,-0.004498730413615704,-0.006222967058420181,0.0003060390881728381,0.002914669457823038,-0.010192959569394588
0.008207977749407291,-0.004498730413615704,-0.006222967058420181,0.0003060390881728381,0.002914669457823038,-0.010192959569394588
0.007815822958946228,-0.0046660564839839935,-0.006232101004570723,0.0002896189980674535,0.0029491984751075506,-0.00985005497932434
0.007817035540938377,-0.004717686213552952,-0.006106855347752571,0.00027487141778692603,0.0030891932547092438,-0.011283144354820251
0.008151262067258358,-0.004118526354432106,-0.005273896735161543,0.0002615532139316201,0.0033938789274543524,-0.010675422847270966
0.008454752154648304,-0.0039369817823171616,-0.005506692919880152,0.00024946691701188684,0.0033371353056281805,-0.009685199707746506
0.008478129282593727,-0.0042993491515517235,-0.005993265192955732,0.00023844811948947608,0.0029988689348101616,-0.009858937934041023
0.008302963338792324,-0.0044394624419510365,-0.006096520461142063,0.0002283620269736275,0.0026035020127892494,-0.010407247580587864
0.00843509379774332,-0.004582960158586502,-0.005476148799061775,0.0002190947998315096,0.0026653031818568707,-0.0106914471834898
0.01013321615755558,-0.004614050034433603,-0.005502444691956043,0.00021055027900729328,0.0030336102936416864,-0.011153407394886017
0.007958142086863518,-0.004203407093882561,-0.006136084906756878,0.00017766800010576844,0.0035503811668604612,-0.010534737259149551
0.008215188048779964,-0.0040558017790317535,-0.0062164561823010445,0.0001633383653825149,0.003450721735134721,-0.010083070956170559
0.009108058176934719,-0.0041907127015292645,-0.006403740029782057,0.00015711909509263933,0.003544247942045331,-0.010335301049053669
0.008628607727587223,-0.004390810616314411,-0.005443280097097158,0.0001517849595984444,0.003695417195558548,-0.010303211398422718
0.008751890622079372,-0.00398120516911149,-0.005689364857971668,0.00012135201541241258,0.0033753053285181522,-0.01034486573189497
0.009291957132518291,-0.004336705897003412,-0.006012296769768,0.00011400548100937158,0.003075376618653536,-0.010780206881463528
0.008499028161168098,-0.004354755859822035,-0.006122204475104809,0.00011028355220332742,0.0029879712965339422,-0.010369090363383293
0.008590609766542912,-0.0045289271511137486,-0.0059785074554383755,0.00010699074482545257,0.0032621114514768124,-0.00997775699943304
0.009381037205457687,-0.0036456461530178785,-0.005478845909237862,7.967258716234937e-05,0.0037370813079178333,-0.010633963160216808
0.00964377447962761,-0.0038722376339137554,-0.005634330213069916,-5.1836934289895e-05,0.0036010013427585363,-0.0105326808989048
0.00917791947722435,-0.004201029893010855,-0.005874610971659422,-0.00012235193571541458,0.00355314533226192,-0.010602680034935474
0.009929874911904335,-0.004033409524708986,-0.006300765555351973,-0.0019180445233359933,0.00364682637155056,-0.010427040979266167
0.009949159808456898,-0.0038181182462722063,-0.0057183303870260715,-0.002664139959961176,0.0037405663169920444,-0.010411685332655907
0.009634199552237988,-0.0037802692968398333,-0.005614347755908966,-0.0026195489335805178,0.0038096439093351364,-0.010758320800960064
0.009936385788023472,-0.0036023124121129513,-0.005746267735958099,-0.001937494962476194,0.0039367168210446835,-0.011053717695176601
0.009711077436804771,-0.003650585887953639,-0.005808213725686073,-0.0022328379563987255,0.004186307080090046,-0.010675386525690556
0.010216771624982357,-0.003703871974721551,-0.00581322330981493,-0.004020416643470526,0.0037059683818370104,-0.010403412394225597
0.010232165455818176,-0.0036315673496574163,-0.006113193929195404,-0.004998408257961273,0.0035672883968800306,-0.010375840589404106
0.010728554800152779,-0.003626607358455658,-0.005605170037597418,-0.004761439748108387,0.003643917618319392,-0.010634039528667927
0.009048385545611382,-0.00288048735819757,-0.005850187502801418,-0.004341762047261,0.004105020314455032,-0.01070878840982914
0.009048385545611382,-0.00288048735819757,-0.005850187502801418,-0.004341762047261,0.004105020314455032,-0.01070878840982914
0.008162146434187889,-0.0028274536598473787,-0.00554825272411108,-0.0048973048105835915,0.0036685741506516933,-0.010609438642859459
0.008116209879517555,-0.002780941082164645,-0.005966937635093927,-0.0060080597177147865,0.0031472521368414164,-0.011194901540875435
0.008651180192828178,-0.0036407599691301584,-0.005750077776610851,-0.005316826514899731,0.0028290029149502516,-0.011020551435649395
0.008651180192828178,-0.0036407599691301584,-0.005750077776610851,-0.005316826514899731,0.0028290029149502516,-0.011020551435649395
0.009100871160626411,-0.0037003024481236935,-0.00607944605872035,-0.005036138463765383,0.0032413583248853683,-0.011139579117298126
0.008302556350827217,-0.003391771577298641,-0.005488415714353323,-0.006401764694601297,0.003958729095757008,-0.010918780229985714
0.00877663679420948,-0.0029591124039143324,-0.00586783466860652,-0.0074194385670125484,0.004499718546867371,-0.011107145808637142
0.009135342203080654,-0.002818720880895853,-0.006067307665944099,-0.007491265423595905,0.004251544363796711,-0.01107666827738285
0.008891988545656204,-0.003149486379697919,-0.005998606327921152,-0.007269340101629496,0.003937045112252235,-0.011381970718502998
0.009046033024787903,-0.003189211944118142,-0.0055722747929394245,-0.007980753667652607,0.0034255036152899265,-0.011271864175796509
0.008889371529221535,-0.0027226232923567295,-0.0055176573805511,-0.008442631922662258,0.0032545197755098343,-0.01122153177857399
0.009186544455587864,-0.0026820919010788202,-0.006534854415804148,-0.008183363825082779,0.003246007487177849,-0.011630740948021412
0.009122870862483978,-0.002415259601548314,-0.006034424528479576,-0.008149382658302784,0.003167184302583337,-0.011633167043328285
0.009578205645084381,-0.0023481242824345827,-0.0058169057592749596,-0.00917845033109188,0.0035012029111385345,-0.01146903820335865
0.009601220488548279,-0.002652628580108285,-0.005691757425665855,-0.009684640914201736,0.003854461247101426,-0.011131965555250645
0.010182319208979607,-0.0025226385332643986,-0.0054391007870435715,-0.010305030271410942,0.0043533542193472385,-0.010975996032357216
0.010388397611677647,-0.0023104592692106962,-0.005568197928369045,-0.010282344184815884,0.00459177466109395,-0.011181609705090523
0.010031625628471375,-0.002045417670160532,-0.006168060004711151,-0.010761279612779617,0.004398983437567949,-0.011503105983138084
0.010403650812804699,-0.0019768178462982178,-0.006296449340879917,-0.010581028647720814,0.004343308508396149,-0.011677530594170094
0.010919216088950634,-0.002133238362148404,-0.005529763642698526,-0.009848306886851788,0.003974814899265766,-0.011421800591051579
0.010292031802237034,-0.002297957893460989,-0.005267116706818342,-0.009717270731925964,0.0037914735730737448,-0.0112568698823452
0.010823474265635014,-0.0025005305651575327,-0.005592706147581339,-0.009753014892339706,0.0034320601262152195,-0.011308002285659313
0.01094586681574583,-0.002259214874356985,-0.006096377968788147,-0.010890242643654346,0.0040021552704274654,-0.011583548039197922
0.010887937620282173,-0.001698536449111998,-0.0055898092687129974,-0.011162882670760155,0.003974291495978832,-0.011863227002322674
0.010931492783129215,-0.001273053465411067,-0.005123370327055454,-0.01146426610648632,0.003781047184020281,-0.011760194785892963
0.01114024966955185,-0.0013133392203599215,-0.005409493111073971,-0.011436393484473228,0.003700962057337165,-0.011664355173707008
0.011088958941400051,-0.0012910841032862663,-0.005914096254855394,-0.012529274448752403,0.0036470198538154364,-0.012608863413333893
0.010907494463026524,-0.0014484297716990113,-0.006021107546985149,-0.012096934020519257,0.003647375851869583,-0.011696589179337025
0.01179872639477253,-0.0013542517554014921,-0.005323250778019428,-0.011787923984229565,0.003975117579102516,-0.011454007588326931
0.011625342071056366,-0.0012781963450834155,-0.005200443789362907,-0.01165115274488926,0.004181182477623224,-0.011632343754172325
0.01153816282749176,-0.0011620200239121914,-0.005375944543629885,-0.010434450581669807,0.004302354529500008,-0.011765876784920692
0.01202116347849369,-0.0012372733326628804,-0.005847938358783722,-0.010492346249520779,0.004331897012889385,-0.011720426380634308
0.011906073428690434,-0.001216679229401052,-0.005844409111887217,-0.010560449212789536,0.004078345838934183,-0.011705318465828896
0.011485723778605461,-0.0012198641197755933,-0.005411227233707905,-0.01080754678696394,0.003994855564087629,-0.012283006682991982
0.011485723778605461,-0.0012198641197755933,-0.005411227233707905,-0.01080754678696394,0.003994855564087629,-0.012283006682991982
0.0114971362054348,-0.0012282106326892972,-0.005123166833072901,-0.010737131349742413,0.0035560138057917356,-0.01220366545021534
0.0114971362054348,-0.0012282106326892972,-0.005123166833072901,-0.010737131349742413,0.0035560138057917356,-0.01220366545021534
0.011934696696698666,-0.001111426972784102,-0.005917421542108059,-0.010713604278862476,0.004163383971899748,-0.011842319741845131
0.01119664590805769,-0.0011836434714496136,-0.006081584841012955,-0.011116505600512028,0.0042932708747684956,-0.011963041499257088
0.011969668790698051,-0.0011468277079984546,-0.0057815928012132645,-0.011018802411854267,0.004466847516596317,-0.0122061250731349
0.01194883231073618,-0.001065550372004509,-0.005183493718504906,-0.011226453818380833,0.004965323489159346,-0.012092282995581627
0.011452688835561275,-0.000964687904343009,-0.00517007103189826,-0.011677871458232403,0.0043025510385632515,-0.012377580627799034
0.011690611951053143,-0.0008512064232490957,-0.005537834018468857,-0.012093393132090569,0.0038187350146472454,-0.01256578229367733
0.011507337912917137,-0.0007438778993673623,-0.006177776958793402,-0.012236224487423897,0.0037017555441707373,-0.012358013540506363
0.011926881037652493,-0.0007212753407657146,-0.005571247544139624,-0.011945225298404694,0.0038079938385635614,-0.012434817850589752
0.01172206923365593,-0.0006704403203912079,-0.005498179700225592,-0.012435249984264374,0.00397135317325592,-0.012314299121499062
0.011572401970624924,-0.0006947824731469154,-0.005349613726139069,-0.012611327692866325,0.003991628997027874,-0.012372861616313457
0.012339244596660137,-0.000626946275588125,-0.005392496008425951,-0.01332440972328186,0.004364375956356525,-0.01240324042737484
0.011870279908180237,-0.0005701918853446841,-0.005687651224434376,-0.01335843000560999,0.004473105072975159,-0.012347756884992123
0.011906350962817669,-0.000522852293215692,-0.005920427851378918,-0.013516329228878021,0.004432676360011101,-0.012470399029552937
0.011660784482955933,-0.00048277806490659714,-0.005106475204229355,-0.013724730350077152,0.004451041109859943,-0.012897715903818607
0.01200076099485159,-0.00047839313629083335,-0.005468884948641062,-0.01379640493541956,0.004366758745163679,-0.01270556915551424
0.011416394263505936,-0.000448593549663201,-0.0059983800165355206,-0.014251691289246082,0.0045889681205153465,-0.012579372152686119
0.012023785151541233,-0.00042228016536682844,-0.00584769481793046,-0.014166007749736309,0.004908116068691015,-0.012438598088920116
0.011461217887699604,-0.0003551376285031438,-0.005602812860161066,-0.014023799449205399,0.004653210286051035,-0.012790398672223091
0.011667330749332905,-0.000324553664540872,-0.005340478383004665,-0.014632477425038815,0.0044823093339800835,-0.012739862315356731
0.012255365028977394,-0.00034222780959680676,-0.005854542832821608,-0.014528180472552776,0.004429846536368132,-0.012592711485922337
0.01199987344443798,-0.0003400131536182016,-0.005847920197993517,-0.0145792867988348,0.004385071340948343,-0.012398841790854931
0.012025739997625351,-0.0003201134968549013,-0.00598117895424366,-0.014927038922905922,0.004295696038752794,-0.012842552736401558
0.011803388595581055,-0.00030220107873901725,-0.005402823444455862,-0.01510901004076004,0.004496154375374317,-0.012626211158931255
0.011831311509013176,-0.00028618317446671426,-0.0052841478027403355,-0.0147811658680439,0.0043338448740541935,-0.012770206667482853
0.011934836395084858,-0.00027177794254384935,-0.00559530733153224,-0.01553364098072052,0.0043203141540288925,-0.012754291296005249
0.011934836395084858,-0.00027177794254384935,-0.00559530733153224,-0.01553364098072052,0.0043203141540288925,-0.012754291296005249
0.012054278515279293,-0.0002587544731795788,-0.006133534479886293,-0.01591263897716999,0.004709088709205389,-0.012755092233419418
0.012110373936593533,-0.00024692193255759776,-0.005495932884514332,-0.015481767244637012,0.004637192469090223,-0.013165468350052834
0.011656276881694794,-0.0002361243386985734,-0.005372508428990841,-0.01582581363618374,0.004355109762400389,-0.013170426711440086
0.01226524356752634,-0.00022623117547482252,-0.005560281686484814,-0.01589728519320488,0.004052882548421621,-0.013411073014140129
0.012128102593123913,-0.00021713433670811355,-0.006102270446717739,-0.016813213005661964,0.004380317404866219,-0.013053374364972115
0.012277805246412754,-0.00020874093752354383,-0.005812305025756359,-0.016535799950361252,0.004346705507487059,-0.013097070157527924
0.012387786991894245,-0.00020097180095035583,-0.005712880752980709,-0.01633518375456333,0.004449700936675072,-0.013287048786878586
0.013352167792618275,-0.00019376057025510818,-0.005612968001514673,-0.016459064558148384,0.004564119502902031,-0.013397366739809513
0.012249637395143509,-0.0001870484120445326,-0.005752983503043652,-0.016928059980273247,0.00461092684417963,-0.013920021243393421
0.01142355240881443,-0.00018078663561027497,-0.006017077714204788,-0.017295796424150467,0.004587722476571798,-0.012622307054698467
0.012861666269600391,-0.00017492960614617914,-0.005766114220023155,-0.017320094630122185,0.004243788775056601,-0.012616011314094067
0.012596594169735909,-0.00016944106027949601,-0.005639438051730394,-0.01759442128241062,0.004281037487089634,-0.01304550189524889
0.012934943661093712,-0.00016428576782345772,-0.005799193400889635,-0.017392581328749657,0.004482784308493137,-0.013517520390450954
0.0125952223315835,-0.0001594353379914537,-0.006159588694572449,-0.017271822318434715,0.004597389604896307,-0.013283309526741505
0.012149966321885586,-0.00015486292249988765,-0.006324868183583021,-0.018384026363492012,0.004934928845614195,-0.013588888570666313
0.01290195807814598,-0.00012646500545088202,-0.005873616319149733,-0.01803158037364483,0.004525229334831238,-0.013539276085793972
0.012905345298349857,-0.00012206572137074545,-0.005659555550664663,-0.017974084243178368,0.004463269840925932,-0.013726784847676754
0.012643677182495594,-0.00011882962280651554,-0.006000905763357878,-0.017862971872091293,0.00444441195577383,-0.013445648364722729
0.01296655461192131,-9.294243500335142e-05,-0.006136440206319094,-0.01841249130666256,0.004338918719440699,-0.013477634638547897
0.013024772517383099,-8.812101441435516e-05,-0.005756579805165529,-0.018537646159529686,0.0045949481427669525,-0.013866684399545193
0.012988806702196598,-8.598205022281036e-05,-0.0062262811698019505,-0.01808074489235878,0.004799683578312397,-0.013836497440934181
0.013358207419514656,-8.397591591347009e-05,-0.006833849940448999,-0.019154628738760948,0.0054952846840023994,-0.013790753670036793
0.013119291514158249,-6.182809011079371e-05,-0.006259296089410782,-0.018923921510577202,0.00523716863244772,-0.013780426234006882
0.013281588442623615,-6.0332080465741456e-05,-0.006168390158563852,-0.018856994807720184,0.004964664578437805,-0.0136277349665761
0.012898476794362068,5.2335672080516815e-05,-0.005721881985664368,-0.018592797219753265,0.004760215990245342,-0.013627953827381134
0.013421430252492428,5.230321403359994e-05,-0.0062660472467541695,-0.01785856857895851,0.004755313508212566,-0.013591122813522816
0.013196882791817188,5.084566510049626e-05,-0.006696241442114115,-0.018596528097987175,0.004835082218050957,-0.013811024837195873
0.013478979468345642,6.570066034328192e-05,-0.006487114820629358,-0.019522294402122498,0.0051604681648314,-0.01346774585545063
0.013221882283687592,7.20769603503868e-05,-0.005692316684871912,-0.01954934000968933,0.005086488090455532,-0.01366766169667244
0.013221882283687592,7.20769603503868e-05,-0.005692316684871912,-0.01954934000968933,0.005086488090455532,-0.01366766169667244
0.013550025410950184,7.030912092886865e-05,-0.005886009428650141,-0.019437646493315697,0.004761274438351393,-0.013811834156513214
0.013201749883592129,6.852623482700437e-05,-0.0071720220148563385,-0.019881175830960274,0.004359629936516285,-0.014202064834535122
0.013299187645316124,8.649405936012045e-05,-0.006989502813667059,-0.019762752577662468,0.004392773378640413,-0.014375105500221252
0.013733848929405212,8.691947732586414e-05,-0.006179541815072298,-0.020503681153059006,0.004641861189156771,-0.014402722008526325
0.013906179927289486,0.00010583747643977404,-0.00589219992980361,-0.021050620824098587,0.004814239218831062,-0.01408564206212759
0.013870234601199627,0.0004476516623981297,-0.006139022763818502,-0.020133083686232567,0.004792728461325169,-0.013900646939873695
0.013598141260445118,0.0005927146994508803,-0.007104350719600916,-0.02025701478123665,0.004480809438973665,-0.014116358011960983
0.01386331021785736,0.0043845768086612225,-0.006931887939572334,-0.02078976482152939,0.0045556905679404736,-0.014146103523671627
0.013396856375038624,0.005123958922922611,-0.006396929733455181,-0.020759955048561096,0.004192913882434368,-0.013923614285886288
0.014225655235350132,0.004494256339967251,-0.006416344549506903,-0.021148428320884705,0.004461398348212242,-0.014209461398422718
0.01389682199805975,0.0034163007512688637,-0.007463385351002216,-0.021625570952892303,0.004363687708973885,-0.014077611267566681
0.013833262026309967,0.0026657397393137217,-0.007508109789341688,-0.021892186254262924,0.004472747445106506,-0.014738228172063828
0.013549456372857094,0.0020931526087224483,-0.006298725493252277,-0.022101091220974922,0.004881925880908966,-0.014399540610611439
0.014182732440531254,0.001917253015562892,-0.006068934220820665,-0.022023215889930725,0.004891801625490189,-0.014177286997437477
0.013825219124555588,0.002217015717178583,-0.00717996945604682,-0.02157285436987877,0.004560673143714666,-0.013969261199235916
0.014424636028707027,0.002512542065232992,-0.007739383261650801,-0.02254502847790718,0.0045362310484051704,-0.015518602915108204
0.013961883261799812,0.0024812109768390656,-0.006375529803335667,-0.02318500727415085,0.004943413194268942,-0.013905532658100128
0.01423044502735138,0.002690509893000126,-0.005881288088858128,-0.022629546001553535,0.004898370709270239,-0.013600409962236881
0.014209535904228687,0.0038289627991616726,-0.00714936712756753,-0.02321123518049717,0.004655486438423395,-0.014433239586651325
0.013960040174424648,0.004148429725319147,-0.006742080207914114,-0.02296462468802929,0.004879368934780359,-0.014025107026100159
0.014067226089537144,0.004128789529204369,-0.006022031884640455,-0.022959349676966667,0.004948755260556936,-0.013854855671525002
0.01425445917993784,0.0038444139063358307,-0.005972432438284159,-0.023076029494404793,0.004757978953421116,-0.013925570994615555
0.014314090833067894,0.003555833362042904,-0.006251407787203789,-0.02276829443871975,0.004805116448551416,-0.013737456873059273
0.014233982190489769,0.0035470216535031796,-0.0068211304023861885,-0.023210549727082253,0.004968808498233557,-0.014158080331981182
0.014578769914805889,0.0041265725158154964,-0.006475643254816532,-0.023596055805683136,0.005266332533210516,-0.014272977598011494
0.014578769914805889,0.0041265725158154964,-0.006475643254816532,-0.023596055805683136,0.005266332533210516,-0.014272977598011494
0.015190893784165382,0.00464649498462677,-0.006158323027193546,-0.023596253246068954,0.004705200903117657,-0.014398251660168171
0.015190893784165382,0.00464649498462677,-0.006158323027193546,-0.023596253246068954,0.004705200903117657,-0.014398251660168171
0.014255811460316181,0.004667744971811771,-0.00694097438827157,-0.02362854592502117,0.004562031012028456,-0.01432518009096384
0.014446277171373367,0.004823971539735794,-0.0065361023880541325,-0.023497000336647034,0.005122518632560968,-0.014209709130227566
0.014446277171373367,0.004823971539735794,-0.0065361023880541325,-0.023497000336647034,0.005122518632560968,-0.014209709130227566
0.015121659263968468,0.004934045020490885,-0.006548524368554354,-0.02404189296066761,0.005064744967967272,-0.014152335934340954
0.014962413348257542,0.005047290585935116,-0.007615961600095034,-0.024365920573472977,0.004944211803376675,-0.014029132202267647
0.014962413348257542,0.005047290585935116,-0.007615961600095034,-0.024365920573472977,0.004944211803376675,-0.014029132202267647
0.014393244870007038,0.005613983143121004,-0.006591844838112593,-0.025842878967523575,0.0048217554576694965,-0.014123392291367054
0.015757102519273758,0.0058128745295107365,-0.006187088321894407,-0.024464409798383713,0.00517343170940876,-0.014263171702623367
0.01605384424328804,0.005777438171207905,-0.006347929127514362,-0.023914990946650505,0.005686298478394747,-0.013992195948958397
0.01609342359006405,0.00556151894852519,-0.006458650808781385,-0.025151720270514488,0.0053862533532083035,-0.014006697572767735
0.01644187420606613,0.006119593977928162,-0.006933494005352259,-0.0263082105666399,0.0056663574650883675,-0.014288057573139668
0.016451828181743622,0.006846318021416664,-0.006457730662077665,-0.02626756578683853,0.0053374189883470535,-0.014518411830067635
0.01659870706498623,0.006849486846476793,-0.00628614192828536,-0.025755537673830986,0.005430510733276606,-0.014391276054084301
0.016307715326547623,0.006757634691894054,-0.006115800701081753,-0.024980507791042328,0.005129902623593807,-0.014039733447134495
0.016568101942539215,0.006118203047662973,-0.00687117874622345,-0.02548987790942192,0.0051749651320278645,-0.014153060503304005
0.01635250635445118,0.00668855756521225,-0.006673606112599373,-0.02625192515552044,0.005541506223380566,-0.014435100369155407
0.016543008387088776,0.007175454869866371,-0.005576550494879484,-0.02570456825196743,0.005610225256532431,-0.014443796128034592
0.01617962308228016,0.0069711473770439625,-0.005395763088017702,-0.02653738111257553,0.005571175832301378,-0.014382770285010338
0.016833266243338585,0.0074372673407197,-0.00631356006488204,-0.027079077437520027,0.005611060652881861,-0.014773352071642876
0.016759775578975677,0.007782786153256893,-0.006714345421642065,-0.02678380347788334,0.0057145049795508385,-0.015019536949694157
0.01725616492331028,0.007359999697655439,-0.005787652917206287,-0.025749435648322105,0.005617675371468067,-0.014820120297372341
0.016759954392910004,0.007376284338533878,-0.00573346484452486,-0.026836631819605827,0.005029227584600449,-0.014986532740294933
0.01685473322868347,0.007549315225332975,-0.0067552621476352215,-0.0273192897439003,0.004946571309119463,-0.01395359355956316
0.017039362341165543,0.0075157820247113705,-0.006973275449126959,-0.027800394222140312,0.0051758503541350365,-0.014260624535381794
0.01647370681166649,0.00791429914534092,-0.006517236586660147,-0.028015457093715668,0.005041926167905331,-0.0144685423001647
0.016916858032345772,0.008582551032304764,-0.006235513370484114,-0.02788694016635418,0.0049581378698349,-0.01479190494865179
0.016916858032345772,0.008582551032304764,-0.006235513370484114,-0.02788694016635418,0.0049581378698349,-0.01479190494865179
0.015970200300216675,0.008483288809657097,-0.006556944455951452,-0.027589397504925728,0.0048202467150986195,-0.015100968070328236
0.017187146469950676,0.008000434376299381,-0.007216561120003462,-0.027415186166763306,0.004819064866751432,-0.015445929020643234
0.017023494467139244,0.008027960546314716,-0.007519362028688192,-0.027286458760499954,0.0055602979846298695,-0.015379277989268303
0.016615169122815132,0.008190001361072063,-0.006341697182506323,-0.027091478928923607,0.005501204635947943,-0.014768769964575768
0.0168744083493948,0.008774777874350548,-0.006010019686073065,-0.027243351563811302,0.005735927727073431,-0.014606758952140808
0.01658303290605545,0.00853598490357399,-0.006962588056921959,-0.02689666487276554,0.005373357329517603,-0.014515009708702564
0.017413588240742683,0.009055111557245255,-0.007173578254878521,-0.027366813272237778,0.005649964325129986,-0.014731830917298794
0.017022961750626564,0.009069976396858692,-0.006694991607218981,-0.027298228815197945,0.005451512988656759,-0.014363798312842846
0.01688520610332489,0.008840718306601048,-0.006151984445750713,-0.02707197144627571,0.005759343039244413,-0.014507468789815903
0.01691032201051712,0.009150389581918716,-0.0064531536772847176,-0.027404265478253365,0.00533300219103694,-0.014457573182880878
0.01679767481982708,0.010108853690326214,-0.007282793056219816,-0.027555866166949272,0.005303573329001665,-0.01510724239051342
0.017193488776683807,0.009548007510602474,-0.007053565699607134,-0.02792401798069477,0.005629836115986109,-0.015359503217041492
0.01690511964261532,0.008996136486530304,-0.0061043063178658485,-0.027832206338644028,0.005272542126476765,-0.01484029833227396
0.01697816327214241,0.009869064204394817,-0.005939333233982325,-0.028092974796891212,0.005719856824725866,-0.014406810514628887
0.01709258370101452,0.010179628618061543,-0.006906726397573948,-0.028233900666236877,0.005655511748045683,-0.014692901633679867
0.016829585656523705,0.010083026252686977,-0.007050111889839172,-0.028207512572407722,0.005995023995637894,-0.01509827934205532
0.017170585691928864,0.010794391855597496,-0.006597741972655058,-0.02809920161962509,0.0062026893720030785,-0.01550549641251564
0.01691061444580555,0.010118390433490276,-0.006128588691353798,-0.028303949162364006,0.005654411856085062,-0.015341369435191154
0.0176059752702713,0.010940429754555225,-0.007898424752056599,-0.028736600652337074,0.005590100772678852,-0.014669761061668396
0.01752658188343048,0.010535607114434242,-0.0073439921252429485,-0.028922025114297867,0.005640192423015833,-0.015053609386086464
0.017781997099518776,0.011138377711176872,-0.0057007186114788055,-0.028739286586642265,0.005748049356043339,-0.014667965471744537
0.01759234070777893,0.01112617552280426,-0.006062166299670935,-0.029596267268061638,0.005434281658381224,-0.014927288517355919
0.017582044005393982,0.011003482155501842,-0.007246729917824268,-0.03016667254269123,0.0056448704563081264,-0.01507015060633421
0.017608119174838066,0.011166670359671116,-0.00766551261767745,-0.030513938516378403,0.005363462958484888,-0.01507142186164856
0.01758243516087532,0.011255868710577488,-0.0063925450667738914,-0.02973455935716629,0.005684108939021826,-0.015339130535721779
0.017907043918967247,0.011654118075966835,-0.006207011640071869,-0.029041487723588943,0.006341688800603151,-0.015211503952741623
0.017855707556009293,0.012333914637565613,-0.006776392459869385,-0.03030993416905403,0.005984218791127205,-0.016076164320111275
0.017855707556009293,0.012333914637565613,-0.006776392459869385,-0.03030993416905403,0.005984218791127205,-0.016076164320111275
0.017899062484502792,0.011615753173828125,-0.0065813371911644936,-0.031194519251585007,0.005830262787640095,-0.014622300863265991
0.018411630764603615,0.012722808867692947,-0.006526712793856859,-0.03079627826809883,0.005709560122340918,-0.015033325180411339
0.018155334517359734,0.01232521515339613,-0.005995854735374451,-0.03231292963027954,0.006151411682367325,-0.015219584107398987
0.01840829849243164,0.012422009371221066,-0.005897543393075466,-0.032842736691236496,0.006494272034615278,-0.015548921190202236
0.017889218404889107,0.012459135614335537,-0.006210558582097292,-0.03130796179175377,0.005804849322885275,-0.015648676082491875
0.017555058002471924,0.012503843754529953,-0.007185427471995354,-0.030799733474850655,0.005672420375049114,-0.01567744091153145
0.018396269530057907,0.012876038439571857,-0.006516039837151766,-0.03270845115184784,0.005439084488898516,-0.015781201422214508
0.018464377149939537,0.01251161191612482,-0.005950808059424162,-0.03306030109524727,0.006191911641508341,-0.015822764486074448
0.018773408606648445,0.012854855507612228,-0.006487356498837471,-0.03246867656707764,0.005978068336844444,-0.015507601201534271
0.018765315413475037,0.012184973806142807,-0.00701920036226511,-0.03241943195462227,0.005800552666187286,-0.01563604548573494
0.01815539412200451,0.012580501846969128,-0.006878945045173168,-0.032455988228321075,0.0054740700870752335,-0.015817992389202118
0.018649373203516006,0.011605121195316315,-0.006258529145270586,-0.03244104981422424,0.00591155095025897,-0.01591830514371395
0.01954040490090847,0.011788901872932911,-0.006091475486755371,-0.032514024525880814,0.005703079979866743,-0.01600118726491928
0.019452698528766632,0.011372901499271393,-0.006809821352362633,-0.032553158700466156,0.005704892799258232,-0.015841301530599594
0.01875384896993637,0.011155490763485432,-0.007034799084067345,-0.03260001540184021,0.005989742930978537,-0.01590721867978573
0.019432013854384422,0.01188158430159092,-0.006684686988592148,-0.03290531039237976,0.005504049826413393,-0.01585124060511589
0.01896980218589306,0.012059207074344158,-0.006023051682859659,-0.032830845564603806,0.005912792403250933,-0.015914833173155785
0.01876547746360302,0.011704966425895691,-0.006092695519328117,-0.03296179324388504,0.0056373728439211845,-0.01582920178771019
0.019316134974360466,0.011561927385628223,-0.006755905691534281,-0.03409125655889511,0.006224671844393015,-0.015964720398187637
0.019805194810032845,0.012793254107236862,-0.006317667663097382,-0.03484354540705681,0.006091844756156206,-0.016148574650287628
0.019592035561800003,0.01175482664257288,-0.006273155566304922,-0.034843068569898605,0.005984549410641193,-0.016276763752102852
0.019283931702375412,0.011535017751157284,-0.006176792550832033,-0.03411410003900528,0.005796268582344055,-0.015919942408800125
0.019922668114304543,0.012224863283336163,-0.006606646813452244,-0.03483721613883972,0.006051298230886459,-0.01637035235762596
0.019887879490852356,0.011948604136705399,-0.0067117479629814625,-0.0367581732571125,0.006427202373743057,-0.016188569366931915
0.019612137228250504,0.01222982257604599,-0.0058559332974255085,-0.03676839545369148,0.0061964127235114574,-0.01626378297805786
0.01993119902908802,0.011996504850685596,-0.005852967035025358,-0.035663310438394547,0.006335883866995573,-0.015785466879606247
0.02010226808488369,0.012408246286213398,-0.006549389101564884,-0.03504884988069534,0.005745697766542435,-0.016104908660054207
0.02013421803712845,0.011814667843282223,-0.00681298365816474,-0.0359220914542675,0.006000174209475517,-0.016062606126070023
0.020214876160025597,0.01184977125376463,-0.006331371143460274,-0.03624608367681503,0.006351609248667955,-0.016973139718174934
0.020214876160025597,0.01184977125376463,-0.006331371143460274,-0.03624608367681503,0.006351609248667955,-0.016973139718174934
0.020706718787550926,0.012770249508321285,-0.006155525334179401,-0.0374697744846344,0.006370193790644407,-0.01611543819308281
0.020715467631816864,0.012339805252850056,-0.006352582015097141,-0.03714923560619354,0.006263586692512035,-0.01567009650170803
0.020787417888641357,0.012711088173091412,-0.00630622822791338,-0.03574295714497566,0.0060223303735256195,-0.016738926991820335
0.02089012786746025,0.012522931210696697,-0.007041617296636105,-0.03552258759737015,0.0061190566048026085,-0.01680491492152214
0.021457333117723465,0.012864266522228718,-0.006517414469271898,-0.03661983832716942,0.006326280999928713,-0.016703426837921143
0.021213222295045853,0.01254992000758648,-0.006343585439026356,-0.036540716886520386,0.006400174926966429,-0.01620248518884182
0.02109147049486637,0.012859296053647995,-0.006130691152065992,-0.03651636093854904,0.006507558282464743,-0.01611623913049698
0.021347513422369957,0.013232261873781681,-0.0065943836234509945,-0.03683140501379967,0.006230080500245094,-0.016737431287765503
0.022183971479535103,0.012924989685416222,-0.006761746946722269,-0.036438390612602234,0.00629895506426692,-0.016644781455397606
0.021810021251440048,0.013479354791343212,-0.006449195556342602,-0.036682166159152985,0.00676404545083642,-0.017052549868822098
0.021844854578375816,0.013145901262760162,-0.006119216326624155,-0.03679072856903076,0.0068343509919941425,-0.016870614141225815
0.021408965811133385,0.013635300099849701,-0.006355742923915386,-0.03675020486116409,0.006565546151250601,-0.017010459676384926
0.02230430766940117,0.013115246780216694,-0.007004337850958109,-0.03725085407495499,0.006494025234133005,-0.016962654888629913
0.022270439192652702,0.013430512510240078,-0.00678565027192235,-0.03703707829117775,0.006947232875972986,-0.016780132427811623
0.021949486806988716,0.01322804857045412,-0.006282072048634291,-0.03704431280493736,0.006978969089686871,-0.01705026812851429
0.021828731521964073,0.013733545318245888,-0.006345987319946289,-0.03734442591667175,0.005817831959575415,-0.017099015414714813
0.022198041900992393,0.013517397455871105,-0.006763399112969637,-0.03841538727283478,0.005683135241270065,-0.017397576943039894
0.02205786295235157,0.013449730351567268,-0.006381485611200333,-0.03903350606560707,0.006291484460234642,-0.0167758297175169
0.022105546668171883,0.013736328110098839,-0.006514494773000479,-0.039488088339567184,0.006541285198181868,-0.017149122431874275
0.022492019459605217,0.013606751337647438,-0.00649486156180501,-0.039455536752939224,0.006235003471374512,-0.017105037346482277
0.023122647777199745,0.013890424743294716,-0.006893906742334366,-0.04002274572849274,0.006432801019400358,-0.016823753714561462
0.023014569655060768,0.014014442451298237,-0.006615438498556614,-0.04078192636370659,0.006658542435616255,-0.016668427735567093
0.02272317185997963,0.013661058619618416,-0.007127868011593819,-0.04042138159275055,0.006820934824645519,-0.0165493693202734
0.022900070995092392,0.013964060693979263,-0.00657028378918767,-0.040854547172784805,0.00633839750662446,-0.016523513942956924
0.023602815344929695,0.013685058802366257,-0.006741064600646496,-0.04240364953875542,0.006380134727805853,-0.01693136990070343
0.023384056985378265,0.014235041104257107,-0.006920679938048124,-0.04158592224121094,0.006325502414256334,-0.017229128628969193
0.022926177829504013,0.014095894992351532,-0.006857612170279026,-0.03945069760084152,0.006373035255819559,-0.017368292436003685
0.022926177829504013,0.014095894992351532,-0.006857612170279026,-0.03945069760084152,0.006373035255819559,-0.017368292436003685
0.022467724978923798,0.014881053939461708,-0.006630623713135719,-0.04094310477375984,0.006163655314594507,-0.018172159790992737
0.022820085287094116,0.01409175805747509,-0.007148387376219034,-0.04136873409152031,0.006366710644215345,-0.016852933913469315
0.02342539094388485,0.014647167176008224,-0.007728596683591604,-0.04209166392683983,0.006544704549014568,-0.01654762029647827
0.023145340383052826,0.014281666837632656,-0.006889319512993097,-0.04273969680070877,0.007156019564718008,-0.016801510006189346
0.02313651144504547,0.014627985656261444,-0.0069482154212892056,-0.04058673977851868,0.006573087070137262,-0.01670735515654087
0.023437034338712692,0.0144786536693573,-0.00684304628521204,-0.04103634133934975,0.006343836896121502,-0.017572633922100067
0.023720500990748405,0.015604838728904724,-0.007213727105408907,-0.04267735034227371,0.006610624957829714,-0.017591072246432304
0.023380832746624947,0.015590990893542767,-0.007169151678681374,-0.042928583920001984,0.006643213797360659,-0.017841894179582596
0.0240139402449131,0.01557102333754301,-0.00707051670178771,-0.042887721210718155,0.006689861416816711,-0.017884256318211555
0.022691277787089348,0.01525965053588152,-0.007026714738458395,-0.043330512940883636,0.006566268391907215,-0.01734151877462864
0.023239582777023315,0.015515283681452274,-0.007562977261841297,-0.043399419635534286,0.006768595427274704,-0.017351660877466202
0.02347923256456852,0.01606624759733677,-0.007611516863107681,-0.043859340250492096,0.006852293852716684,-0.017731430009007454
0.023962516337633133,0.015955675393342972,-0.0068860892206430435,-0.043447159230709076,0.007153648417443037,-0.018127501010894775
0.024083584547042847,0.01646370254456997,-0.007146742660552263,-0.04387783631682396,0.0066870893351733685,-0.017822062596678734
0.024073557928204536,0.016094934195280075,-0.00785841979086399,-0.04394514113664627,0.006573149468749762,-0.017342068254947662
0.024060824885964394,0.016136949881911278,-0.007057599723339081,-0.0438079833984375,0.0068239388056099415,-0.017506813630461693
0.023678835481405258,0.01566745527088642,-0.006755484268069267,-0.04242783412337303,0.006862305104732513,-0.01747230254113674
0.023912576958537102,0.016591079533100128,-0.007165663409978151,-0.04411448910832405,0.006784642580896616,-0.0176701657474041
0.023789476603269577,0.016891391947865486,-0.007545105181634426,-0.04537457600235939,0.00643350463360548,-0.017761461436748505
0.024250630289316177,0.01709226332604885,-0.007362696807831526,-0.04366898164153099,0.006378304213285446,-0.01812691055238247
0.024705681949853897,0.016085587441921234,-0.0071669393219053745,-0.04345886409282684,0.006713759619742632,-0.018121886998414993
0.02425764501094818,0.01710541732609272,-0.007579158991575241,-0.043279413133859634,0.006549539975821972,-0.017721425741910934
0.02420937456190586,0.014855296351015568,-0.00792770553380251,-0.04466228559613228,0.006597611587494612,-0.017650170251727104
0.024212971329689026,0.017168313264846802,-0.0074813528917729855,-0.04292330518364906,0.006768639665096998,-0.017723454162478447
0.024577494710683823,0.01769585721194744,-0.007173122838139534,-0.04186181724071503,0.00719052366912365,-0.017510276287794113
0.024771839380264282,0.0169356856495142,-0.007083738688379526,-0.04356115311384201,0.007162414025515318,-0.017703738063573837
0.024771839380264282,0.0169356856495142,-0.007083738688379526,-0.04356115311384201,0.007162414025515318,-0.017703738063573837
0.024648860096931458,0.01728168874979019,-0.007813277654349804,-0.04372826963663101,0.006882122252136469,-0.018779708072543144
0.024820717051625252,0.01770339533686638,-0.00752753671258688,-0.04379731044173241,0.006744587328284979,-0.01781546324491501
0.0246242955327034,0.01728583313524723,-0.007087384816259146,-0.04415415599942207,0.007125918287783861,-0.017154298722743988
0.024372491985559464,0.017373470589518547,-0.0071970801800489426,-0.04420088604092598,0.00732802040874958,-0.017629582434892654
0.024796470999717712,0.017736101523041725,-0.0075816926546394825,-0.04500311240553856,0.007310215849429369,-0.018153561279177666
0.024892453104257584,0.018188901245594025,-0.007338491268455982,-0.04570012167096138,0.00693682162091136,-0.01821504533290863
0.024763470515608788,0.017794037237763405,-0.00698038749396801,-0.04560023173689842,0.006914885714650154,-0.017861727625131607
0.02514330856502056,0.018195319920778275,-0.007047202903777361,-0.04570583254098892,0.0073749348521232605,-0.01801549643278122
0.02517145313322544,0.018556129187345505,-0.007595859933644533,-0.0460914745926857,0.007380944211035967,-0.0180459376424551
0.024678116664290428,0.018005022779107094,-0.007279737386852503,-0.04618605226278305,0.007185839582234621,-0.017850089818239212
0.02455759048461914,0.017972765490412712,-0.006908639799803495,-0.04597623273730278,0.007137933745980263,-0.017841225489974022
0.025301247835159302,0.018629787489771843,-0.007383775431662798,-0.04612497612833977,0.00728571554645896,-0.018304262310266495
0.025756755843758583,0.01819887012243271,-0.007382199168205261,-0.04641762748360634,0.00679263100028038,-0.018655050545930862
0.025456931442022324,0.018408020958304405,-0.006999714765697718,-0.046798624098300934,0.007139875087887049,-0.01906818151473999
0.024727681651711464,0.01851235330104828,-0.006865627598017454,-0.046344757080078125,0.007074085995554924,-0.018833119422197342
0.025356179103255272,0.01844876818358898,-0.007203809916973114,-0.04689036309719086,0.007372456602752209,-0.018509194254875183
0.025719642639160156,0.018805963918566704,-0.007865694351494312,-0.04651721194386482,0.007461440283805132,-0.01814441941678524
0.02550351992249489,0.019251620396971703,-0.007306089624762535,-0.04715140536427498,0.007509512361139059,-0.017707571387290955
0.02507624216377735,0.018735792487859726,-0.007064462173730135,-0.04910963773727417,0.00708376057446003,-0.018138974905014038
0.025656072422862053,0.01930912956595421,-0.007045474834740162,-0.047680601477622986,0.007249333895742893,-0.018002556636929512
0.02592363953590393,0.019323473796248436,-0.007617494091391563,-0.0478954091668129,0.007952706888318062,-0.018694253638386726
0.025551239028573036,0.019072698429226875,-0.006530755199491978,-0.05068431422114372,0.007717386353760958,-0.018456190824508667
0.02510688826441765,0.019443882629275322,-0.006795698311179876,-0.05038830637931824,0.007134572137147188,-0.018343141302466393
0.025406016036868095,0.01974092610180378,-0.007075581233948469,-0.04791601002216339,0.006821268703788519,-0.018915368244051933
0.026124678552150726,0.0195140540599823,-0.007319456897675991,-0.04959012195467949,0.006959425285458565,-0.01917113922536373
0.026124678552150726,0.0195140540599823,-0.007319456897675991,-0.04959012195467949,0.006959425285458565,-0.01917113922536373
0.02592223696410656,0.019906017929315567,-0.006910192314535379,-0.04991784319281578,0.00738176004961133,-0.01900569535791874
0.026244673877954483,0.020241359248757362,-0.006451823748648167,-0.04970557987689972,0.007533556316047907,-0.018344691023230553
0.025650624185800552,0.020506754517555237,-0.006560872308909893,-0.048878565430641174,0.007965272292494774,-0.01874883845448494
0.025343909859657288,0.020625848323106766,-0.007068075239658356,-0.04863213002681732,0.0077831377275288105,-0.017882714048027992
0.02559318207204342,0.02032088115811348,-0.007003455888479948,-0.04841616749763489,0.00767636438831687,-0.017864683642983437
0.026047036051750183,0.020177071914076805,-0.007103379350155592,-0.04951423406600952,0.007746072020381689,-0.018673807382583618
0.02604036033153534,0.020328352227807045,-0.006959409918636084,-0.049740731716156006,0.007694615982472897,-0.01938745006918907
0.02636851742863655,0.020336972549557686,-0.007556149270385504,-0.04909762740135193,0.007758697494864464,-0.019073976203799248
0.02641751430928707,0.02049407921731472,-0.006772574037313461,-0.04919128119945526,0.008202845230698586,-0.019034069031476974
0.026366373524069786,0.021026749163866043,-0.00677495077252388,-0.05099425092339516,0.008067752234637737,-0.019124824553728104
0.026334965601563454,0.021475741639733315,-0.006839374545961618,-0.0490475557744503,0.007556078489869833,-0.0192535612732172
0.02645990438759327,0.021246301010251045,-0.00746296439319849,-0.0486917607486248,0.007710044737905264,-0.019450336694717407
0.026112889871001244,0.02127891406416893,-0.007049355190247297,-0.049658097326755524,0.0078099574893713,-0.019759612157940865
0.026042701676487923,0.021579070016741753,-0.006937324535101652,-0.051898229867219925,0.008068626746535301,-0.019535910338163376
0.0260151419788599,0.021410051733255386,-0.006764362566173077,-0.05066744238138199,0.007786075584590435,-0.019206728786230087
0.02649930864572525,0.02104964666068554,-0.007738043554127216,-0.050728410482406616,0.007455421611666679,-0.019631916657090187
0.026531975716352463,0.02113332599401474,-0.007702146656811237,-0.05205240473151207,0.007940362207591534,-0.019625749439001083
0.026467809453606606,0.021788908168673515,-0.006914244499057531,-0.0525505430996418,0.008461898192763329,-0.019690746441483498
0.026611682027578354,0.022332731634378433,-0.006732914596796036,-0.052182167768478394,0.008040150627493858,-0.019936084747314453
0.027154307812452316,0.02170262485742569,-0.00770310265943408,-0.05290619656443596,0.007545252796262503,-0.019540848210453987
0.02696545235812664,0.022312436252832413,-0.0071794153191149235,-0.05312604829668999,0.008136585354804993,-0.019715281203389168
0.0268136914819479,0.022731512784957886,-0.007082650437951088,-0.05285118520259857,0.008061221800744534,-0.02009180746972561
0.026592334732413292,0.022436892613768578,-0.007150528021156788,-0.05343857407569885,0.007783639710396528,-0.020120885223150253
0.026531262323260307,0.021505776792764664,-0.007727461401373148,-0.05411630496382713,0.008632347919046879,-0.02015496790409088
0.027345841750502586,0.02144998125731945,-0.007400450296700001,-0.0546574741601944,0.008253555744886398,-0.020291389897465706
0.027745284140110016,0.021896950900554657,-0.00684792036190629,-0.05438748002052307,0.007958825677633286,-0.020039383322000504
0.028022969141602516,0.02247709408402443,-0.007323465775698423,-0.05504589155316353,0.007556427735835314,-0.01996501348912716
0.028022969141602516,0.02247709408402443,-0.007323465775698423,-0.05504589155316353,0.007556427735835314,-0.01996501348912716
0.027629408985376358,0.02225939743220806,-0.0078079476952552795,-0.054859794676303864,0.008040023036301136,-0.020899586379528046
0.026570124551653862,0.022332720458507538,-0.007160125765949488,-0.05649422109127045,0.008198109455406666,-0.01996101252734661
0.02725289762020111,0.0227657500654459,-0.006815072149038315,-0.05581680312752724,0.008192229084670544,-0.019551964476704597
0.028037410229444504,0.02298164553940296,-0.007431103382259607,-0.05501184239983559,0.007978926412761211,-0.01962444745004177
0.027394933626055717,0.022844281047582626,-0.00790171604603529,-0.054808150976896286,0.008350313641130924,-0.019884761422872543
0.027988383546471596,0.023120781406760216,-0.007388304453343153,-0.057013195008039474,0.008797192014753819,-0.020182397216558456
0.028226470574736595,0.022508611902594566,-0.006949659436941147,-0.05482197925448418,0.008455745875835419,-0.01997247524559498
0.028354423120617867,0.022924168035387993,-0.0078064328990876675,-0.054688405245542526,0.00798503216356039,-0.020035170018672943
0.028132909908890724,0.023356130346655846,-0.007931659929454327,-0.05606526508927345,0.008410228416323662,-0.020110871642827988
0.027576006948947906,0.02311292476952076,-0.008020767942070961,-0.05725730210542679,0.008358319289982319,-0.020226284861564636
0.02795507200062275,0.022912820801138878,-0.007868965156376362,-0.05397508293390274,0.008354452438652515,-0.020461630076169968
0.028937090188264847,0.02291078120470047,-0.008112492971122265,-0.05414079129695892,0.008188324049115181,-0.02016269974410534
0.028777996078133583,0.023551246151328087,-0.00777464872226119,-0.055003583431243896,0.008459910750389099,-0.020266972482204437
0.028984209522604942,0.023858755826950073,-0.007392694242298603,-0.05549198389053345,0.008365925401449203,-0.02041877619922161
0.029140502214431763,0.023866813629865646,-0.007240992970764637,-0.055511876940727234,0.008374798111617565,-0.02044079639017582
0.02911732904613018,0.02372269332408905,-0.008073280565440655,-0.05586085096001625,0.00808984600007534,-0.02067435160279274
0.02937174402177334,0.023614609614014626,-0.007586339954286814,-0.0556134432554245,0.008558856323361397,-0.020664842799305916
0.02927086316049099,0.023810014128684998,-0.0075118932873010635,-0.055701520293951035,0.007828518748283386,-0.020927321165800095
0.029510077089071274,0.02414519712328911,-0.00719088688492775,-0.055449701845645905,0.008157003670930862,-0.02084370329976082
0.030008822679519653,0.02424214594066143,-0.007846435531973839,-0.058214280754327774,0.007921842858195305,-0.02076844498515129
0.029966969043016434,0.024012738838791847,-0.006971833761781454,-0.05632578954100609,0.0077654211781919,-0.02067694626748562
0.029988553375005722,0.02443297579884529,-0.007325031328946352,-0.057690344750881195,0.007884964346885681,-0.02088163234293461
0.030119262635707855,0.02498665638267994,-0.007786619942635298,-0.05898183956742287,0.008185389451682568,-0.021007871255278587
0.030017064884305,0.024206185713410378,-0.007604273036122322,-0.05657930299639702,0.008173228241503239,-0.02120169810950756
0.03019983135163784,0.024631591513752937,-0.007479146588593721,-0.057795751839876175,0.008305550552904606,-0.020902052521705627
0.030631547793745995,0.025717101991176605,-0.007058045826852322,-0.05862120911478996,0.008211877197027206,-0.020906198769807816
0.03088696114718914,0.02502881921827793,-0.0074878353625535965,-0.05952529236674309,0.00873268861323595,-0.021969247609376907
0.031177548691630363,0.024857554584741592,-0.007392615545541048,-0.05961504578590393,0.008403081446886063,-0.021434694528579712
0.031177548691630363,0.024857554584741592,-0.007392615545541048,-0.05961504578590393,0.008403081446886063,-0.021434694528579712
0.03144816309213638,0.024529173970222473,-0.007287072483450174,-0.05990135669708252,0.008243239484727383,-0.021104959771037102
0.03088105469942093,0.024806976318359375,-0.007282664068043232,-0.06014430150389671,0.008335457183420658,-0.021248335018754005
0.031129781156778336,0.02555241249501705,-0.007502858992666006,-0.059672944247722626,0.00848715752363205,-0.020746920257806778
0.032421693205833435,0.02575080469250679,-0.00804072804749012,-0.0600944459438324,0.008578949607908726,-0.020723693072795868
0.03205719590187073,0.02549182064831257,-0.007125633768737316,-0.059040315449237823,0.008258303627371788,-0.020534906536340714
0.029053905978798866,0.025742007419466972,-0.007533309981226921,-0.060870811343193054,0.008252461440861225,-0.020771581679582596
0.03184061124920845,0.026660721749067307,-0.007968609221279621,-0.06139756366610527,0.008583730086684227,-0.021437469869852066
0.032914143055677414,0.026104465126991272,-0.007990732789039612,-0.06133977323770523,0.008403172716498375,-0.02164418064057827
0.03231420740485191,0.025538921356201172,-0.006877146661281586,-0.061190057545900345,0.00837410893291235,-0.021394262090325356
0.032309066504240036,0.024938497692346573,-0.006839647889137268,-0.06058931350708008,0.008709310553967953,-0.021457592025399208
0.032566189765930176,0.025711828842759132,-0.007062695454806089,-0.06061045080423355,0.009114016778767109,-0.02204040065407753
0.032353539019823074,0.026987234130501747,-0.007623388431966305,-0.06012134253978729,0.008507853373885155,-0.02210836671292782
0.03125128522515297,0.026453599333763123,-0.007093844003975391,-0.061826128512620926,0.008118088357150555,-0.021328963339328766
0.0319448746740818,0.02690776064991951,-0.0068192011676728725,-0.059792451560497284,0.008557881228625774,-0.02123272232711315
