davideferrari95/blind_handover_controller/data/Test 15 - [2024-02-07 -- 14-14-04]/joint_states_data.csv
shoulder_pan_joint,shoulder_lift_joint,elbow_joint,wrist_1_joint,wrist_2_joint,wrist_3_joint
0.01932889223098755,-0.00033073045779019594,-0.02091500349342823,0.018866857513785362,7.087791891535744e-05,0.021784158423542976
0.020119570195674896,-0.0002303888468304649,-0.021817345172166824,0.01842309720814228,7.590272434754297e-05,0.021558893844485283
0.020119570195674896,-0.0002303888468304649,-0.021817345172166824,0.01842309720814228,7.590272434754297e-05,0.021558893844485283
0.020400190725922585,-0.00020960574329365045,-0.022696981206536293,0.018779020756483078,7.523840031353757e-05,0.020876554772257805
0.019819989800453186,-0.00019446534861344844,-0.022107919678092003,0.018971942365169525,7.422979251714423e-05,0.02000727504491806
0.019940555095672607,-0.00023461435921490192,-0.020904822275042534,0.01850368268787861,7.32249318389222e-05,0.020452475175261497
0.019861135631799698,-0.00022653619816992432,-0.02155531942844391,0.01907341368496418,7.22454278729856e-05,0.021243033930659294
0.019835911691188812,-0.0002132074732799083,-0.02127857692539692,0.018963059410452843,7.129165169317275e-05,0.02063191682100296
0.01996985264122486,-0.00020128620963077992,-0.02129795216023922,0.01853160373866558,7.036270835669711e-05,0.020656011998653412
0.01996985264122486,-0.00020128620963077992,-0.02129795216023922,0.01853160373866558,7.036270835669711e-05,0.020656011998653412
0.020114511251449585,-0.0001906261604744941,-0.021024299785494804,0.019177939742803574,6.945770292077214e-05,0.021069511771202087
0.019948067143559456,-0.00018103898037225008,-0.021393129602074623,0.018974388018250465,6.857563857920468e-05,0.021129801869392395
0.01964305154979229,-0.00017236973508261144,-0.021619051694869995,0.019149692729115486,6.771570042474195e-05,0.021158067509531975
0.019980279728770256,-0.00016449304530397058,-0.02120353654026985,0.019886404275894165,6.687709537800401e-05,0.020699402317404747
0.0201494712382555,-0.0001573048793943599,-0.02065136842429638,0.019933847710490227,6.60589212202467e-05,0.020386269316077232
0.01939956657588482,-0.00015071853704284877,-0.021309277042746544,0.01963355951011181,6.526061042677611e-05,0.019800325855612755
0.019635405391454697,-0.00014466169523075223,-0.021514778956770897,0.0196229238063097,6.448138447012752e-05,0.019704382866621017
0.019905490800738335,-0.00013907300308346748,-0.020448198541998863,0.019662698730826378,6.37205084785819e-05,0.02029004693031311
0.019369926303625107,-0.0001338999136351049,-0.020853836089372635,0.019756264984607697,6.297737854765728e-05,0.02125532366335392
0.0194682814180851,-0.0001290980726480484,-0.021250583231449127,0.02018253318965435,6.22513543930836e-05,0.020779794082045555
0.019699476659297943,-0.00012462883023545146,-0.02100365236401558,0.019934993237257004,6.154191214591265e-05,0.020569154992699623
0.01937015913426876,-0.00012045840412611142,-0.020350683480501175,0.019729532301425934,6.0848466091556475e-05,0.020420942455530167
0.02031523361802101,-6.945668428670615e-05,-0.0208860095590353,0.019918087869882584,6.01704596192576e-05,0.020311204716563225
0.02037571370601654,-6.505975761683658e-05,-0.020674359053373337,0.020929399877786636,3.016426126123406e-05,0.020457619801163673
0.019629407674074173,-6.27656263532117e-05,-0.02006223239004612,0.020792489871382713,1.969510776689276e-06,0.02042059786617756
0.01952860876917839,-8.974903175840154e-05,-0.020216746255755424,0.019921937957406044,1.2859497644512885e-07,0.02028285153210163
0.019391661509871483,-0.000136192116769962,-0.020630227401852608,0.019172614440321922,8.396332518145755e-09,0.02018101140856743
0.01936921663582325,-0.0007005217485129833,-0.021433228626847267,0.018815677613019943,5.482205245321836e-10,0.02046160027384758
0.019522592425346375,-0.0008113647345453501,-0.02062378078699112,0.020067861303687096,2.3371502216179563e-12,0.020419644191861153
0.01903715170919895,-0.0007201419794000685,-0.020501676946878433,0.01994510367512703,1.5259919250529969e-13,0.020368367433547974
0.01946154236793518,-0.0007346220663748682,-0.020337501540780067,0.019121594727039337,9.96363754712402e-15,0.020214496180415154
0.019990120083093643,-0.0006697715725749731,-0.02042612060904503,0.019276481121778488,6.505542318971272e-16,0.019961006939411163
0.019683798775076866,-0.0006127907545305789,-0.020783957093954086,0.019824370741844177,4.2476541709043173e-17,0.019955089315772057
0.019160164520144463,-0.0005940377595834434,-0.020909924060106277,0.02000933326780796,2.7734149983402565e-18,0.020256279036402702
0.0198818426579237,-0.0005375637556426227,-0.020128967240452766,0.01994786411523819,1.8108418250160672e-19,0.02004060707986355
0.01935449056327343,-0.0005722914356738329,-0.020993012934923172,0.019893286749720573,1.1823502379363469e-20,0.019695818424224854
0.019212335348129272,-0.0005772494478151202,-0.021247731521725655,0.018957462161779404,7.719902375495339e-22,0.019892452284693718
0.018995657563209534,-0.0005537200486287475,-0.020853407680988312,0.019521979615092278,5.040544136412352e-23,0.019729042425751686
0.019439922645688057,-0.0005810046568512917,-0.020491836592555046,0.020086688920855522,3.291115272022804e-24,0.019500749185681343
0.019439922645688057,-0.0005810046568512917,-0.020491836592555046,0.020086688920855522,3.291115272022804e-24,0.019500749185681343
0.019595911726355553,-0.0006849227356724441,-0.021154005080461502,0.0201523806899786,2.148863268797858e-25,0.019641786813735962
0.019678737968206406,-0.0007194336503744125,-0.02072262205183506,0.020157232880592346,1.403054139330492e-26,0.02031813934445381
0.019438816234469414,-0.0006466591148637235,-0.02022315189242363,0.020215719938278198,9.160940966195519e-28,0.020056162029504776
0.01908629760146141,-0.0005776231409981847,-0.020401421934366226,0.020008917897939682,5.981439471040537e-29,0.01958823949098587
0.01938425749540329,-0.00046514798304997385,-0.021131692454218864,0.01967923901975155,3.905452651058969e-30,0.01886412873864174
0.01978706754744053,-0.0003968972305301577,-0.020985398441553116,0.01993061602115631,2.5499815575269155e-31,0.018499933183193207
0.01957080140709877,-0.0003643800155259669,-0.02016584947705269,0.019810331985354424,1.6649556517620966e-32,0.019083388149738312
0.01997699774801731,-0.00033707224065437913,-0.020654845982789993,0.01969299651682377,1.0870970838049553e-33,0.01843707449734211
0.019843870773911476,-0.000313577736960724,-0.020734935998916626,0.02006537839770317,7.097966645994843e-35,0.020007196813821793
0.01947040855884552,-0.0003447539929766208,-0.020517712458968163,0.01877576857805252,4.6344650405139724e-36,0.01977323368191719
0.019742362201213837,-0.00033016284578479826,-0.020373670384287834,0.01967320777475834,3.0259744416274617e-37,0.019220655784010887
0.01973940059542656,-0.00031121898791752756,-0.020541971549391747,0.020029453560709953,1.9757452153618218e-38,0.019090035930275917
0.019839797168970108,-0.0002942592545878142,-0.020182527601718903,0.01973455585539341,1.290019951974319e-39,0.01986112631857395
0.019807321950793266,-0.00027905142633244395,-0.020341884344816208,0.01931045576930046,8.42292480936361e-41,0.01949312537908554
0.01978268101811409,-0.0002653380506671965,-0.020742449909448624,0.01954452134668827,5.500096472474907e-42,0.01840917021036148
0.019810499623417854,-0.0002529092598706484,-0.020749948918819427,0.01985032483935356,3.587324068671532e-43,0.018018944188952446
0.019692659378051758,-0.00024159382155630738,-0.02023099921643734,0.0198086965829134,2.382207389352189e-44,0.01769496500492096
0.020198635756969452,-0.00022175053891260177,-0.020525282248854637,0.02009851671755314,0.0,0.018031882122159004
0.020169656723737717,-0.00021300297521520406,-0.020491430535912514,0.019987527281045914,0.0,0.018808230757713318
0.020259177312254906,-0.00020491957548074424,-0.02010056935250759,0.020003989338874817,0.0,0.0187898650765419
0.01963108405470848,-0.00019742699805647135,-0.020714104175567627,0.019920311868190765,0.0,0.018962740898132324
0.019554274156689644,-0.00019046351371798664,-0.020706115290522575,0.019886838272213936,0.0,0.0187021903693676
0.020369652658700943,-0.00018397420353721827,-0.019814977422356606,0.020215362310409546,0.0,0.01868320070207119
0.020273851230740547,-0.00017791254504118115,-0.020569371059536934,0.02104802243411541,0.0,0.01885228417813778
0.020288240164518356,-0.0001722380256978795,-0.020650589838624,0.021555157378315926,0.0,0.018455050885677338
0.02011464536190033,-0.00016691384371370077,-0.020345963537693024,0.020998515188694,0.0,0.018208837136626244
0.020494550466537476,-0.0001619093818590045,-0.02024201862514019,0.020396532490849495,0.0,0.01827959343791008
0.02040199562907219,-0.00015719600196462125,-0.02034934237599373,0.020266933366656303,0.0,0.017967741936445236
0.02040199562907219,-0.00015719600196462125,-0.02034934237599373,0.020266933366656303,0.0,0.017967741936445236
0.020444387570023537,-0.00015274930046871305,-0.020406264811754227,0.020424390211701393,0.0,0.018032968044281006
0.020872903987765312,-0.00014854743494652212,-0.019703689962625504,0.020450742915272713,0.0,0.0184171125292778
0.02078155055642128,-0.00014457030920311809,-0.020161543041467667,0.020925182849168777,0.0,0.01824631541967392
0.0199507437646389,-0.0001408006646670401,-0.020034510642290115,0.020842844620347023,0.0,0.01790871098637581
0.02007357031106949,-0.00013722263975068927,-0.019724341109395027,0.02052016742527485,0.0,0.01778387278318405
0.021551193669438362,-0.0001338221482001245,-0.0201904084533453,0.020489800721406937,0.0,0.01807294599711895
0.02050967514514923,-0.00013058596232440323,-0.020161887630820274,0.021626999601721764,0.0,0.018393753096461296
0.019958902150392532,-0.00012750254245474935,-0.019525419920682907,0.021061532199382782,0.0,0.0177073385566473
0.02046494372189045,-0.00012456141121219844,-0.019705500453710556,0.020193379372358322,0.0,0.017731519415974617
0.02052544616162777,-0.00013966771075502038,-0.020087769255042076,0.020686466246843338,0.0,0.018260903656482697
0.020476436242461205,-0.00013888119428884238,-0.01978110335767269,0.020295757800340652,0.0,0.017980236560106277
0.020276254042983055,-0.0001359158632112667,-0.019603610038757324,0.019721193239092827,0.0,0.017966343089938164
0.020074136555194855,-0.00013304581807460636,-0.01992933265864849,0.020213745534420013,0.0,0.017771881073713303
0.020404141396284103,-0.00013029424007982016,-0.019586559385061264,0.020694134756922722,0.0,0.01725996658205986
0.0202944353222847,-0.0001276542607229203,-0.01956900954246521,0.02052822709083557,0.0,0.017296964302659035
0.020230047404766083,-0.00012268252612557262,-0.01955384388566017,0.020349465310573578,0.0,0.017590966075658798
0.019911687821149826,-0.00012033915118081495,-0.019370535388588905,0.020254861563444138,0.0,0.017366701737046242
0.01998789794743061,-0.00011808360432041809,-0.02001718059182167,0.01999964565038681,0.0,0.017350303009152412
0.019680818542838097,-0.0001159110979642719,-0.02000502310693264,0.020212886855006218,0.0,0.017315717414021492
0.019502973183989525,-0.00011381706281099468,-0.01897740177810192,0.020414967089891434,0.0,0.016998881474137306
0.020125601440668106,-0.00011179735156474635,-0.01949886605143547,0.02034355327486992,0.0,0.016931481659412384
0.020138995721936226,-0.00010984802065650001,-0.019591517746448517,0.019803587347269058,0.0,0.01700661890208721
0.01971760392189026,-0.00010796547576319426,-0.019113758578896523,0.020168328657746315,0.0,0.016965242102742195
0.02003379352390766,-0.00010614647908369079,-0.02023199573159218,0.02021648921072483,0.0,0.017070328816771507
0.01983395405113697,-0.00010438771278131753,-0.019646642729640007,0.020262472331523895,0.0,0.016698284074664116
0.019831005483865738,-0.00010268635378452018,-0.019442418590188026,0.020105406641960144,0.0,0.01709555834531784
0.019831005483865738,-0.00010268635378452018,-0.019442418590188026,0.020105406641960144,0.0,0.01709555834531784
0.019934039562940598,-0.00010103942622663453,-0.020092157647013664,0.02002650871872902,0.0,0.01694061979651451
0.01961670257151127,-9.789944306248799e-05,-0.020064547657966614,0.0202260110527277,0.0,0.01700296252965927
0.01961670257151127,-9.789944306248799e-05,-0.020064547657966614,0.0202260110527277,0.0,0.01700296252965927
0.019607285037636757,-9.64013088378124e-05,-0.019842667505145073,0.02008826844394207,0.0,0.01663660816848278
0.020131791010499,-9.494854020886123e-05,-0.019955642521381378,0.020129341632127762,0.0,0.016636468470096588
0.019873635843396187,-9.353880159324035e-05,-0.01970604434609413,0.019778551533818245,0.0,0.01693224161863327
0.019780205562710762,-0.00010481277422513813,-0.019483201205730438,0.01974753849208355,0.0,0.01692485250532627
0.02008635923266411,-0.00010381158790551126,-0.02108241803944111,0.01986749656498432,0.0,0.016767490655183792
0.019998103380203247,-0.00010234296496491879,-0.020919952541589737,0.019820820540189743,0.0,0.016856461763381958
0.019789522513747215,-0.00010090876457979903,-0.019518015906214714,0.01986352913081646,0.0,0.016857309266924858
0.020149022340774536,-9.951409447239712e-05,-0.02020258456468582,0.020172182470560074,0.0,0.016643526032567024
0.01990743726491928,-9.815746307140216e-05,-0.021118517965078354,0.02021842449903488,0.0,0.016022520139813423
0.020226851105690002,-9.68373569776304e-05,-0.020845970138907433,0.020281484350562096,0.0,0.015974316745996475
0.02001292072236538,-9.555232099955902e-05,-0.020024441182613373,0.020158402621746063,0.0,0.01654166541993618
0.01995704509317875,-9.308176231570542e-05,-0.019943159073591232,0.019990649074316025,0.0,0.01609318144619465
0.020000377669930458,-9.189378033624962e-05,-0.01990322582423687,0.020160304382443428,0.0,0.016185393556952477
0.020180437713861465,-9.073582623386756e-05,-0.02042189985513687,0.020154235884547234,0.0,0.015865826979279518
0.020474489778280258,-8.960661216406152e-05,-0.02093365788459778,0.019714878872036934,0.0,0.01633610390126705
0.020017744973301888,-8.850514859659597e-05,-0.02004498988389969,0.019995708018541336,0.0,0.015972163528203964
0.020358633249998093,-8.743045327719301e-05,-0.01997932605445385,0.02037305012345314,0.0,0.016201600432395935
0.020083924755454063,-8.638155122753233e-05,-0.02043669857084751,0.020333077758550644,0.0,0.015942377969622612
0.019813740625977516,-8.535753295291215e-05,-0.020414035767316818,0.020241204649209976,0.0,0.01540733315050602
0.02007952332496643,-8.435743802692741e-05,-0.01954054646193981,0.020479537546634674,0.0,0.015164334326982498
0.02032465487718582,-8.338061888935044e-05,-0.019750434905290604,0.019875330850481987,0.0,0.01573444902896881
0.019984666258096695,-8.242608600994572e-05,-0.02011486515402794,0.019349798560142517,0.0,0.016138948500156403
0.019827092066407204,-8.149319910444319e-05,-0.019543858245015144,0.019442232325673103,0.0,0.015943927690386772
0.020186258479952812,-8.05811578175053e-05,-0.019777031615376472,0.01954953558743,0.0,0.015175087377429008
0.021012865006923676,-7.968933641677722e-05,-0.019872380420565605,0.019946400076150894,0.0,0.014919884502887726
0.021012865006923676,-7.968933641677722e-05,-0.019872380420565605,0.019946400076150894,0.0,0.014919884502887726
0.020108088850975037,-3.1328074783232296e-06,-0.01883021369576454,0.02059408277273178,0.0,0.015289748087525368
0.02002699486911297,-5.1536160754039884e-05,-0.019034158438444138,0.02017488144338131,0.0,0.015335043892264366
0.01977778598666191,-5.1466708100633696e-05,-0.019437532871961594,0.019613483920693398,0.0,0.01577126793563366
0.019674096256494522,-5.089166006655432e-05,-0.019436901435256004,0.018830006942152977,0.0,0.015443629585206509
0.02017730288207531,-5.032266926718876e-05,-0.01933850347995758,0.018718447536230087,0.0,0.015066796913743019
0.02049572952091694,-4.976617492502555e-05,-0.01978403329849243,0.019022012129426003,0.0,0.01476023904979229
0.0204234067350626,-1.956447931661387e-06,-0.01884804666042328,0.019870933145284653,0.0,0.01486543845385313
0.019576696678996086,-2.6248244466842152e-08,-0.019060932099819183,0.019831614568829536,0.0,0.014740590006113052
0.0202673077583313,-3.5215369509344896e-10,-0.019333476200699806,0.018953366205096245,0.0,0.014777908101677895
0.020427744835615158,-4.724591377847087e-12,-0.018790172412991524,0.019635749980807304,0.0,0.014697952196002007
0.02013561502099037,-8.50409749977648e-16,-0.01969381980597973,0.019885055720806122,0.0,0.015133064240217209
0.020064864307641983,-1.140933114026535e-17,-0.018952006474137306,0.019627349451184273,3.8958310142334085e-06,0.015274232253432274
0.01967223733663559,-1.530707417052181e-19,-0.019386865198612213,0.020302876830101013,2.543699224588636e-07,0.014900301583111286
0.019607840105891228,-2.053639246911806e-21,-0.020020855590701103,0.019233977422118187,1.6608538544460316e-08,0.014272358268499374
0.02004789561033249,-2.755219142696874e-23,-0.019915033131837845,0.018703719601035118,1.0844188880199113e-09,0.013896037824451923
0.02050449326634407,-3.696478202792122e-25,-0.01913912035524845,0.019247019663453102,7.080480646237675e-11,0.01374799944460392
0.02001933939754963,-4.9592969550023426e-27,-0.019535204395651817,0.020174389705061913,4.623048471819047e-12,0.01373544055968523
0.019958125427365303,-6.653529438174028e-29,-0.018725058063864708,0.019867174327373505,3.0185202211027717e-13,0.013962464407086372
0.019779521971940994,-8.92655927924043e-31,-0.0194817204028368,0.020303824916481972,1.9708779557372005e-14,0.01441109087318182
0.019779521971940994,-8.92655927924043e-31,-0.0194817204028368,0.020303824916481972,1.9708779557372005e-14,0.01441109087318182
0.019677145406603813,-1.1976117913117873e-32,-0.019835686311125755,0.019970431923866272,1.2868424172592422e-15,0.014428311958909035
0.02002350613474846,-1.6067489046222957e-34,-0.019385043531656265,0.019504424184560776,8.402161849134753e-17,0.013735917396843433
0.01978476159274578,-2.1556587267392067e-36,-0.019359758123755455,0.019807860255241394,5.486011128552245e-18,0.013948634266853333
0.019343672320246696,-2.8920914155931243e-38,-0.01959591545164585,0.020082606002688408,3.5819735522568193e-19,0.01382362749427557
0.020222095772624016,-3.880111369807559e-40,-0.01955927535891533,0.019566969946026802,2.338772725754418e-20,0.013817816972732544
0.020074576139450073,-5.2058237949666954e-42,-0.01935945823788643,0.019576530903577805,1.527051444342378e-21,0.013585248962044716
0.019710877910256386,-7.006492321624085e-44,-0.01918487437069416,0.01960369572043419,9.970554976051308e-23,0.013725816272199154
0.019595813006162643,-1.401298464324817e-45,-0.01906534656882286,0.019537990912795067,6.510060026409653e-24,0.01344477292150259
0.020048756152391434,-0.0,-0.018952181562781334,0.019913168624043465,4.250603931422339e-25,0.013727230951189995
0.020123180001974106,0.0,-0.019583942368626595,0.02002389170229435,2.775340546315827e-26,0.013571558520197868
0.01965436339378357,-0.00014116591773927212,-0.0192127525806427,0.019797945395112038,1.812099010582195e-27,0.014001120813190937
0.02010333351790905,-0.00014927830488886684,-0.018791180104017258,0.019922642037272453,1.1831712279512366e-28,0.013317858800292015
0.020326586440205574,-0.00014465194544754922,-0.019165268167853355,0.020276494324207306,7.725262357219853e-30,0.013456420041620731
0.02004350535571575,-0.0001401488552801311,-0.019044848158955574,0.020005637779831886,5.044044378587474e-31,0.013386779464781284
0.020401878282427788,-0.00013591584865935147,-0.019168639555573463,0.019955426454544067,3.293400448987653e-32,0.01346232183277607
0.01989661529660225,-0.00013193099584896117,-0.019108252599835396,0.02019975520670414,2.1503551421752347e-33,0.013285256922245026
0.019870731979608536,-0.00012817328388337046,-0.018800579011440277,0.019877338781952858,1.4040282457495208e-34,0.013004176318645477
0.020517105236649513,-0.0001246235624421388,-0.019150445237755775,0.019489357247948647,9.16730119016248e-36,0.01268101017922163
0.0209797415882349,-0.0001212652787216939,-0.019485218450427055,0.02016088366508484,5.98559280471018e-37,0.012558110058307648
0.020005658268928528,-0.00011506405280670151,-0.018544159829616547,0.020135516300797462,2.551751891849313e-39,0.012604030780494213
0.02002044767141342,-0.00011219523003092036,-0.019074011594057083,0.019915040582418442,1.666115848112921e-40,0.01351032592356205
0.02003088966012001,-0.00012879185669589788,-0.01855696551501751,0.019748875871300697,1.0878279978553555e-41,0.012995915487408638
0.019741714000701904,-0.0001282055163756013,-0.018709274008870125,0.01974719762802124,7.1045832141268225e-43,0.012570272199809551
0.020255792886018753,-0.00012526453065220267,-0.01890764757990837,0.020116794854402542,4.624284932271896e-44,0.012399387545883656
0.020338356494903564,-0.00012242492812220007,-0.018565263599157333,0.020633257925510406,2.802596928649634e-45,0.012119656428694725
0.019294433295726776,-0.00011971117783105001,-0.018588656559586525,0.019886160269379616,0.0,0.01224763598293066
0.019870640709996223,-0.00011711490515153855,-0.01898164302110672,0.01907290890812874,0.0,0.011830010451376438
0.020663267001509666,-0.0001271965738851577,-0.018220918253064156,0.0196014866232872,0.0,0.012028469704091549
0.020306305959820747,-0.00013086611579637975,-0.018419058993458748,0.019420983269810677,0.0,0.012072951532900333
0.01976826600730419,-0.00012828629405703396,-0.018590062856674194,0.019224043935537338,0.0,0.012150049209594727
0.020253922790288925,-0.00012572719424497336,-0.018073460087180138,0.019763004034757614,0.0,0.012628383003175259
0.0196000374853611,-0.00012326729483902454,-0.018472321331501007,0.019667040556669235,0.0,0.012295667082071304
0.0196000374853611,-0.00012326729483902454,-0.018472321331501007,0.019667040556669235,0.0,0.012295667082071304
0.01989137753844261,-0.00013556254270952195,-0.018179764971137047,0.01942666433751583,0.0,0.011390358209609985
0.020324092358350754,-0.00013306624896358699,-0.01861458830535412,0.019582131877541542,-8.177501149475574e-05,0.01194783765822649
0.020324092358350754,-0.00013306624896358699,-0.01861458830535412,0.019582131877541542,-8.177501149475574e-05,0.01194783765822649
0.01991148665547371,-0.00013065173698123544,-0.017956038936972618,0.019609922543168068,-0.00034175702603533864,0.011781957000494003
0.020149890333414078,-0.0001283232995774597,-0.018959784880280495,0.019326919689774513,-0.0003338088863529265,0.012118502520024776
0.02011232078075409,-0.0001535022893222049,-0.018407532945275307,0.01932487078011036,-0.00034209547447972,0.012242794036865234
0.019874440506100655,-0.00015190738486126065,-0.017777319997549057,0.018685823306441307,-0.000347898923791945,0.012263871729373932
0.01914910227060318,-0.00014699326129630208,-0.018545696511864662,0.01884124055504799,-0.00037951930426061153,0.01210986077785492
0.02002151869237423,-0.00014234431728255004,-0.01832525245845318,0.01911587454378605,-0.0004058638005517423,0.011478268541395664
0.02019914984703064,-0.00013797955762129277,-0.01785641722381115,0.01937773823738098,-0.00039038655813783407,0.011482120491564274
0.02018112689256668,-0.00015146848454605788,-0.01853911764919758,0.020000040531158447,-0.0005560191348195076,0.011471147648990154
0.01999494433403015,-0.0001558853400638327,-0.018732858821749687,0.0201116930693388,-0.0005073657375760376,0.011400651186704636
0.020287467166781425,-0.0001516264892416075,-0.018605275079607964,0.019902899861335754,-0.000541442830581218,0.011134480126202106
0.020182117819786072,-0.00016364367911592126,-0.019028494134545326,0.020290657877922058,-0.0004971388261765242,0.011254632845520973
0.01967969350516796,-0.0001631548657314852,-0.018380923196673393,0.020223399624228477,-0.0005501427804119885,0.011304538697004318
0.01990313082933426,-0.00015903683379292488,-0.018748903647065163,0.020356517285108566,-0.0005189974326640368,0.01086066011339426
0.020339004695415497,-0.00015512104437220842,-0.018620643764734268,0.020120469853281975,-0.0005641168099828064,0.01095142774283886
0.020273985341191292,-0.00015139362949412316,-0.018740259110927582,0.019334975630044937,-0.000562811444979161,0.01132145058363676
0.02011904865503311,-0.00016173059702850878,-0.019236553460359573,0.019197775050997734,-0.0005504580913111567,0.009345986880362034
0.020507212728261948,-0.00016499063349328935,-0.01867443323135376,0.019480517134070396,-0.0005634684348478913,0.011585368774831295
0.02052583172917366,-0.000161385876708664,-0.018628759309649467,0.018986336886882782,-0.0005347162950783968,0.011188527569174767
0.019925348460674286,-0.0001583783159730956,-0.019332729279994965,0.01901453174650669,-0.0005281871417537332,0.010627149604260921
0.01997792162001133,-0.00024049050989560783,-0.018724722787737846,0.0193776972591877,-0.0005212092655710876,0.010317200794816017
0.020411167293787003,-0.00022944656666368246,-0.018972856923937798,0.019020935520529747,-0.000488871184643358,0.01028075534850359
0.020411167293787003,-0.00022944656666368246,-0.018972856923937798,0.019020935520529747,-0.000488871184643358,0.01028075534850359
0.020180702209472656,-0.00021832897618878633,-0.01918121986091137,0.01900591142475605,-0.000518398592248559,0.010428577661514282
0.020198868587613106,-0.00020822558144573122,-0.018807359039783478,0.019390948116779327,-0.0004698648117482662,0.010602360591292381
0.020521145313978195,-0.00023410502762999386,-0.019160620868206024,0.019175810739398003,-0.00042572448728606105,0.010047880001366138
0.02061963826417923,-0.00022864113270770758,-0.019467618316411972,0.01894496940076351,-0.00044591701589524746,0.010305092670023441
0.02025526389479637,-0.00021941092563793063,-0.018789691850543022,0.01932075247168541,-0.00042817904613912106,0.010057656094431877
0.020419958978891373,-0.0002108443295583129,-0.019309397786855698,0.01895262487232685,-0.00045941033749841154,0.009729258716106415
0.0205703042447567,-0.00020292139379307628,-0.01899745501577854,0.018919382244348526,-0.00048533413792029023,0.010596787557005882
0.020386530086398125,-0.00022684584837406874,-0.018362397328019142,0.019251776859164238,-0.0005141896544955671,0.010182026773691177
0.020416518673300743,-0.0002201743918703869,-0.019303392618894577,0.01892349123954773,-0.0005826549604535103,0.00965896062552929
0.02058405615389347,-0.0002419194352114573,-0.0193896796554327,0.01908804662525654,-0.0005938336835242808,0.009808358736336231
0.020243344828486443,-0.00023519022215623409,-0.01865478605031967,0.019878510385751724,-0.0006208783597685397,0.009021224454045296
0.02046477049589157,-0.00028708201716654,-0.018646761775016785,0.019678903743624687,-0.0006096081924624741,0.008999515324831009
0.02064977027475834,-0.0002975987154059112,-0.01875743456184864,0.019374746829271317,-0.0009299667435698211,0.008686388842761517
0.020542923361063004,-0.0003287266881670803,-0.01882023923099041,0.019473295658826828,-0.0008736984455026686,0.008439729921519756
0.020345713943243027,-0.0002983466547448188,-0.019388576969504356,0.019162015989422798,-0.0008766918326728046,0.008719350211322308
0.020808184519410133,-0.0003135947627015412,-0.018619362264871597,0.019644880667328835,-0.0009061215678229928,0.008841438218951225
0.020618556067347527,-0.0003132172569166869,-0.01874478906393051,0.019458530470728874,-0.0009062442113645375,0.00896137673407793
0.02028389275074005,-0.0002985765167977661,-0.01843361184000969,0.019194038584828377,-0.0009053594549186528,0.008319930173456669
0.020536089316010475,-0.00028506809030659497,-0.01843460649251938,0.019360428676009178,-0.0009178047766909003,0.008567783050239086
0.020178379490971565,-0.00031009927624836564,-0.019024206325411797,0.019143804907798767,-0.0010592072503641248,0.008986443281173706
0.020590296015143394,-0.0002987333864439279,-0.019170038402080536,0.01859993115067482,-0.0010809276718646288,0.00827600248157978
0.0203201062977314,-0.00028685139841400087,-0.019029874354600906,0.01894404925405979,-0.0010948358103632927,0.008224265649914742
0.021367017179727554,-0.0003607705293688923,-0.019047968089580536,0.01882893778383732,-0.0013505547540262341,0.00870099849998951
0.021367017179727554,-0.0003607705293688923,-0.019047968089580536,0.01882893778383732,-0.0013505547540262341,0.00870099849998951
0.021280674263834953,-0.00033740405342541635,-0.01818166859447956,0.019057100638747215,-0.0013779938453808427,0.007968226447701454
0.02043910324573517,-0.0003757878439500928,-0.018784744665026665,0.019599122926592827,-0.0013635329669341445,0.008143953047692776
0.020101113244891167,-0.00035211496287956834,-0.01915460266172886,0.02007874846458435,-0.001354619162157178,0.008310089819133282
0.02060101553797722,-0.0003790752962231636,-0.01843954622745514,0.019215185195207596,-0.0012808385072275996,0.008442169055342674
0.020708221942186356,-0.00036332462332211435,-0.019031960517168045,0.019368639215826988,-0.0012370434124022722,0.008116373792290688
0.020277157425880432,-0.0003435889375396073,-0.01883966103196144,0.019402503967285156,-0.0012396888341754675,0.00786279235035181
0.02020549774169922,-0.0003704550035763532,-0.017851447686553,0.01865714229643345,-0.0012020242866128683,0.00773385027423501
0.020842034369707108,-0.0003540261823218316,-0.018923860043287277,0.019164081662893295,-0.001170190516859293,0.007474938407540321
0.021086083725094795,-0.0004148655280005187,-0.018654929473996162,0.019422896206378937,-0.001288475701585412,0.00737460982054472
0.02100631780922413,-0.00041500601219013333,-0.01848438009619713,0.019320935010910034,-0.0012593085411936045,0.007806404028087854
0.020845569670200348,-0.00045331197907216847,-0.01928081177175045,0.01957165077328682,-0.00120146619156003,0.007975874468684196
0.020703526213765144,-0.00042088370537385345,-0.019401593133807182,0.019683562219142914,-0.0011545043671503663,0.007540815509855747
0.02040940150618553,-0.00043299930985085666,-0.018390784040093422,0.01928727887570858,-0.0010993588948622346,0.006905118469148874
0.02059997245669365,-0.00039798617945052683,-0.01898028887808323,0.020052656531333923,-0.0008916566148400307,0.006584146060049534
0.021416768431663513,-0.0004214317596051842,-0.01807413436472416,0.019009331241250038,-0.0008064223220571876,0.007202607579529285
0.02138930931687355,-0.00040373305091634393,-0.018906118348240852,0.019235294312238693,-0.0007655380759388208,0.007253813091665506
0.02113393321633339,-0.00038237005355767906,-0.01808527670800686,0.01911401003599167,-0.0007317124982364476,0.006692745257169008
0.021108468994498253,-0.0004270921344868839,-0.01932116225361824,0.01859385520219803,-0.0006036907434463501,0.006576711777597666
0.021049072965979576,-0.0003981516056228429,-0.01872195675969124,0.019123701378703117,-0.0005930333863943815,0.007035672198981047
0.02294798195362091,-0.0004302265588194132,-0.017978625372052193,0.019857212901115417,-0.0006217550835572183,0.007370303384959698
0.020548919215798378,-0.0004059238126501441,-0.018875446170568466,0.019730618223547935,-0.0006475860136561096,0.007108399644494057
0.020823054015636444,-0.000433021632488817,-0.01940053142607212,0.019564533606171608,-0.0007973245228640735,0.006644539535045624
0.02113610878586769,-0.00041167429299093783,-0.018726631999015808,0.01917022466659546,-0.0009465802577324212,0.00663657346740365
0.021411245688796043,-0.0003865072503685951,-0.018374301493167877,0.018654825165867805,-0.0009666975820437074,0.006382853724062443
0.021411245688796043,-0.0003865072503685951,-0.018374301493167877,0.018654825165867805,-0.0009666975820437074,0.006382853724062443
0.021365176886320114,-0.00039822058170102537,-0.01895984634757042,0.019039584323763847,-0.0009434606763534248,0.006008435040712357
0.02156221680343151,-0.0003932017716579139,-0.018418656662106514,0.01906786486506462,-0.0008615435799583793,0.005725907627493143
0.02132241055369377,-0.0004377088916953653,-0.0188731886446476,0.018537817522883415,-0.0008721988997422159,0.0056084394454956055
0.021588493138551712,-0.0004287379852030426,-0.01851811073720455,0.01890345849096775,-0.0008664763881824911,0.006465658079832792
0.021919040009379387,-0.00044293259270489216,-0.018371134996414185,0.01913660578429699,-0.0008539017289876938,0.006473084446042776
0.02170034870505333,-0.0004321678716223687,-0.01921137422323227,0.018798623234033585,-0.0008307475363835692,0.006290285382419825
0.021378519013524055,-0.0004440386255737394,-0.01914036273956299,0.019190099090337753,-0.0007889516418799758,0.006213104352355003
0.02177092619240284,-0.0004346206842456013,-0.01847335882484913,0.019401919096708298,-0.0007556749042123556,0.006147702224552631
0.021806728094816208,-0.0004068351991008967,-0.018851133063435555,0.01862432435154915,-0.0007588801672682166,0.005757935345172882
0.021779052913188934,-0.00043449431541375816,-0.019106034189462662,0.018563395366072655,-0.0007470729760825634,0.005834050476551056
0.02148035727441311,-0.0004117382341064513,-0.01855599693953991,0.018256396055221558,-0.0007134476909413934,0.0054176729172468185
0.021592501550912857,-0.0004835707077290863,-0.018584445118904114,0.018062273040413857,-0.0007291151559911668,0.005135266110301018
0.022150101140141487,-0.00044059459469281137,-0.018633492290973663,0.018565306439995766,-0.0007935580797493458,0.005020188167691231
0.022192789241671562,-0.0004804265627171844,-0.019014211371541023,0.018156785517930984,-0.0008230814710259438,0.004906212445348501
0.021300271153450012,-0.0004902307991869748,-0.01916019432246685,0.018164005130529404,-0.000834171602036804,0.004776773042976856
0.021808819845318794,-0.00047645901213400066,-0.01856331340968609,0.018643449991941452,-0.0008468787418678403,0.0045754574239254
0.02157321386039257,-0.0004989615408703685,-0.018626030534505844,0.01857558637857437,-0.001068777870386839,0.004152889363467693
0.02131309174001217,-0.0005831726593896747,-0.01858453080058098,0.018681369721889496,-0.0009643720113672316,0.004693010821938515
0.022280169650912285,-0.0006135226576589048,-0.01874520815908909,0.018027355894446373,-0.0008402552339248359,0.00515319686383009
0.021764904260635376,-0.000561134482268244,-0.019052322953939438,0.018257305026054382,-0.0008395230397582054,0.0048915790393948555
0.02133064530789852,-0.0005895738722756505,-0.018506532534956932,0.018260473385453224,-0.0007607928710058331,0.004430397413671017
0.02174282819032669,-0.0005925631849095225,-0.01825469546020031,0.018224215134978294,-0.0007539280923083425,0.004515890032052994
0.02236768789589405,-0.0005732995341531932,-0.01839345693588257,0.018619893118739128,-0.0007708768825978041,0.004344593733549118
0.022023864090442657,-0.0007635813090018928,-0.017984982579946518,0.01805548556149006,-0.0007854549330659211,0.0043162875808775425
0.021834053099155426,-0.0007070758147165179,-0.01862991601228714,0.017836114391684532,-0.0009541154722683132,0.004022030159831047
0.021464480087161064,-0.0007283783634193242,-0.018687205389142036,0.018148422241210938,-0.001001272932626307,0.0036626996006816626
0.021321337670087814,-0.0007148920558393002,-0.0181123036891222,0.01862199977040291,-0.0008654425037093461,0.0032663752790540457
0.021568967029452324,-0.0006767881568521261,-0.01856035552918911,0.01897537335753441,-0.0008535457891412079,0.0032833560835570097
0.021568967029452324,-0.0006767881568521261,-0.01856035552918911,0.01897537335753441,-0.0008535457891412079,0.0032833560835570097
0.02212250605225563,-0.0007340151933021843,-0.018323402851819992,0.019110122695565224,-0.0007642691489309072,0.003546644002199173
0.02204928547143936,-0.0007581070531159639,-0.017938369885087013,0.01832979917526245,-0.0007291086367331445,0.003681360511109233
0.021749019622802734,-0.0007502340013161302,-0.018338916823267937,0.018130477517843246,-0.0007002172060310841,0.003723832545801997
0.021817272529006004,-0.0007014881120994687,-0.017889749258756638,0.018260153010487556,-0.0006406166357919574,0.003760026767849922
0.02190432883799076,-0.0007108146673999727,-0.018201574683189392,0.018460743129253387,-0.0005485920701175928,0.0034432122483849525
0.0217560064047575,-0.0006558804889209569,-0.018240004777908325,0.01927957311272621,-0.0005695893778465688,0.003505577566102147
0.021604925394058228,-0.0006833946099504828,-0.017619116231799126,0.018994368612766266,-0.0006006966577842832,0.003192454343661666
0.02173018641769886,-0.0007017545285634696,-0.01801295019686222,0.01770944334566593,-0.0006280408706516027,0.0030901720747351646
0.021654337644577026,-0.0006324221612885594,-0.018127255141735077,0.01869647391140461,-0.0010886442614719272,0.002966540865600109
0.021520128473639488,-0.0005662411567755044,-0.017703218385577202,0.018488511443138123,-0.0011035370407626033,0.0028209236916154623
0.02121739275753498,-0.0005124794552102685,-0.018042046576738358,0.01862695813179016,-0.0010756291449069977,0.0026122748386114836
0.021598858758807182,-0.00046804186422377825,-0.017853697761893272,0.01846669241786003,-0.0011109241750091314,0.0027731272857636213
0.021638961508870125,-0.00043070054380223155,-0.017803529277443886,0.01758040487766266,-0.001031567808240652,0.0030004174914211035
0.021672796458005905,-0.00045735941966995597,-0.017672082409262657,0.018387652933597565,-0.001006375183351338,0.0034682396799325943
0.021649526432156563,-0.000433232169598341,-0.01591583527624607,0.01855696365237236,-0.0009905348997563124,0.00296457065269351
0.022295847535133362,-0.00044332610559649765,-0.01842399314045906,0.018020877614617348,-0.0009235093602910638,0.0027888170443475246
0.021199868991971016,-0.00030732862069271505,-0.017560523003339767,0.01822274923324585,-0.0011349772103130817,0.0022100445348769426
0.021100029349327087,-0.00028720279806293547,-0.01794598437845707,0.017961610108613968,-0.0011018217774108052,0.0020491029135882854
0.021459676325321198,-0.0002699629112612456,-0.01747051253914833,0.018318014219403267,-0.0010716243414208293,0.001926997909322381
0.021318843588232994,-0.00030489524942822754,-0.01805858500301838,0.017895156517624855,-0.0010567952413111925,0.001793205738067627
0.020930670201778412,-0.0002892373304348439,-0.01733366772532463,0.0180878434330225,-0.001120524131692946,0.001792130060493946
0.020911647006869316,-0.00030452333157882094,-0.017868855968117714,0.01796119101345539,-0.0011275439755991101,0.0017300887266173959
0.021257013082504272,-0.00030458703986369073,-0.018142083659768105,0.017823155969381332,-0.001113914418965578,0.0022141169756650925
0.0213228240609169,-0.000290730589767918,-0.017831819131970406,0.01823059469461441,-0.001152262557297945,0.0023390825372189283
0.021031299605965614,-0.00031598840723745525,-0.018026238307356834,0.01754508540034294,-0.0011121617862954736,0.00231847632676363
0.021031299605965614,-0.00031598840723745525,-0.018026238307356834,0.01754508540034294,-0.0011121617862954736,0.00231847632676363
0.020954376086592674,-0.0003041673044208437,-0.017677469179034233,0.017742574214935303,-0.0010917979525402188,0.0020688194781541824
0.02137487754225731,-0.00036728024133481085,-0.01761363260447979,0.017772598192095757,-0.0011799882631748915,0.0019765214528888464
0.020740682259202003,-0.00041423796210438013,-0.017317859455943108,0.017856312915682793,-0.0011360998032614589,0.0014654073165729642
0.020740682259202003,-0.00041423796210438013,-0.017317859455943108,0.017856312915682793,-0.0011360998032614589,0.0014654073165729642
0.021055858582258224,-0.00042757089249789715,-0.01795446127653122,0.01750687137246132,-0.001086137373931706,0.0013389034429565072
0.02118527516722679,-0.00041957214125432074,-0.01823766715824604,0.017574414610862732,-0.0010769448708742857,0.001280257711187005
0.02092544175684452,-0.00043041634489782155,-0.01752634532749653,0.018115976825356483,-0.0010687647154554725,0.0011107859900221229
0.020768696442246437,-0.0004231441707815975,-0.01812508888542652,0.017861656844615936,-0.0010277421679347754,0.0010574645129963756
0.021273966878652573,-0.0005908235907554626,-0.017478058114647865,0.017755310982465744,-0.0009920569136738777,0.0009729293524287641
0.020752228796482086,-0.0006152865244075656,-0.017726633697748184,0.01805514097213745,-0.0010212796041741967,0.0008973501389846206
0.02092316560447216,-0.0005827455315738916,-0.01790371723473072,0.017884990200400352,-0.0009852767689153552,0.0008932341588661075
0.02143697254359722,-0.0006103723426349461,-0.017168793827295303,0.017737306654453278,-0.0009722780669108033,0.0008008056902326643
0.02167091704905033,-0.0005594930844381452,-0.01781412959098816,0.017544323578476906,-0.0008940661209635437,0.0007133958861231804
0.021326981484889984,-0.0005842143436893821,-0.017476044595241547,0.01795348711311817,-0.0009479454602114856,0.0006138754542917013
0.02082253061234951,-0.0005429513403214514,-0.017735015600919724,0.018809687346220016,-0.000943845952861011,0.0005399049259722233
0.021412599831819534,-0.0005991417565383017,-0.016814252361655235,0.018491948023438454,-0.001051546074450016,0.0005190488882362843
0.021450381726026535,-0.0005688751698471606,-0.017568955197930336,0.018346982076764107,-0.0010744559112936258,0.0005143191083334386
0.021376077085733414,-0.0005904320278204978,-0.017849771305918694,0.01774000935256481,-0.0010377615690231323,0.0005078079411759973
0.021157387644052505,-0.0005484059802256525,-0.017520785331726074,0.018355779349803925,-0.0009680521907284856,0.0004720274009741843
0.021464498713612556,-0.000575623067561537,-0.01776788756251335,0.01789233088493347,-0.0009138385066762567,0.0004392446135170758
0.021940134465694427,-0.0006285238196142018,-0.016883859410881996,0.017703121528029442,-0.0009589732508175075,0.0004106102860532701
0.021760929375886917,-0.0005940537666901946,-0.01722978986799717,0.01799548976123333,-0.0009529655799269676,0.00038547394797205925
0.021292150020599365,-0.0006174485315568745,-0.017407650128006935,0.017733916640281677,-0.0009620172204449773,0.0003632383013609797
0.021674007177352905,-0.0005642788019031286,-0.01695416495203972,0.017964815720915794,-0.0011926520382985473,0.00034342979779466987
0.021333709359169006,-0.0005925638834014535,-0.0173600185662508,0.018223760649561882,-0.0012142763007432222,0.0003256697382312268
0.021191652864217758,-0.0005953038344159722,-0.017147192731499672,0.017945218831300735,-0.0011667156359180808,0.0003096571599598974
0.021102575585246086,-0.0005734710721299052,-0.017451787367463112,0.018278172239661217,-0.001108999946154654,0.0002951461065094918
0.021102575585246086,-0.0005734710721299052,-0.017451787367463112,0.018278172239661217,-0.001108999946154654,0.0002951461065094918
0.022181672975420952,-0.0006265385309234262,-0.01763392984867096,0.01828080415725708,-0.0010537384077906609,0.00028193503385409713
0.022002607583999634,-0.0006601163768209517,-0.01795041747391224,0.018276888877153397,-0.0010258137481287122,0.0002698552270885557
0.022040478885173798,-0.0006862843292765319,-0.01842360384762287,0.019323313608765602,-0.0009426136966794729,0.00025876896688714623
0.0222286619246006,-0.0007048476254567504,-0.017652299255132675,0.018416354432702065,-0.0009326105937361717,0.00024889243650250137
0.021359674632549286,-0.0006533993873745203,-0.017836885526776314,0.018139535561203957,-0.0009701332310214639,9.946014324668795e-05
0.02209489606320858,-0.0008583267917856574,-0.0179597120732069,0.01816507801413536,-0.0009668500279076397,8.578167762607336e-05
0.022040914744138718,-0.0007823450723662972,-0.017382001504302025,0.017711061984300613,-0.0009900517761707306,8.131995127769187e-05
0.022042056545615196,-0.0007928466657176614,-0.01879061385989189,0.018231552094221115,-0.0010431092232465744,7.77677123551257e-05
0.02228742092847824,-0.0007737322594039142,-0.018339380621910095,0.01768585667014122,-0.0010992117458954453,5.631065505440347e-05
0.02222265861928463,-0.0007317709387280047,-0.01750253699719906,0.017788195982575417,-0.0009547495865263045,3.703235779539682e-05
0.022132089361548424,-0.000833281665109098,-0.017996879294514656,0.017733611166477203,-0.0009389007464051247,3.450155054451898e-05
0.02284032478928566,-0.0007920024218037724,-0.017943454906344414,0.01720486581325531,-0.0007242809515446424,3.681449811665516e-08
0.0227827075868845,-0.0010121309896931052,-0.017615176737308502,0.01732606254518032,-0.0007995945634320378,2.403723886601483e-09
0.02292088232934475,-0.0009045620099641383,-0.01798374019563198,0.017787441611289978,-0.0008153248345479369,1.5694598398674486e-10
0.02275780960917473,-0.0009025565232150257,-0.01889149658381939,0.017093965783715248,-0.000930656329728663,1.0247450457634422e-11
0.022749407216906548,-0.0009021500591188669,-0.017841815948486328,0.01733929105103016,-0.0010286079486832023,-0.0002556867548264563
0.022749407216906548,-0.0009021500591188669,-0.017841815948486328,0.01733929105103016,-0.0010286079486832023,-0.0002556867548264563
0.023058438673615456,-0.000919662939850241,-0.017430968582630157,0.016783159226179123,-0.0010163916740566492,-0.001190416282042861
0.02294033393263817,-0.0009060899028554559,-0.01720326766371727,0.017462218180298805,-0.001038760645315051,-0.0011707108933478594
0.02302854135632515,-0.0008789952844381332,-0.017976542934775352,0.017282234504818916,-0.0010419704485684633,-0.001308515202254057
0.022852666676044464,-0.0008205535123124719,-0.01749289780855179,0.018715055659413338,-0.00113830401096493,-0.001263028010725975
0.023246431723237038,-0.000898129481356591,-0.01799558848142624,0.01729285903275013,-0.0012620376655831933,-0.0012142759514972568
0.024019645527005196,-0.0008994456147775054,-0.018055694177746773,0.01708335056900978,-0.001355041516944766,-0.001311948406510055
0.023421145975589752,-0.0009264802793040872,-0.017885060980916023,0.01751932129263878,-0.0011989815393462777,-0.0013502109795808792
0.02319912426173687,-0.0008443034603260458,-0.017848491668701172,0.01733841374516487,-0.0011457644868642092,-0.001636579167097807
0.02302286960184574,-0.0009042049641720951,-0.017921729013323784,0.01769096776843071,-0.0010257945396006107,-0.0017498504603281617
0.023064598441123962,-0.0008996118558570743,-0.01891469769179821,0.017952343448996544,-0.0010814060224220157,-0.00208461657166481
0.023064598441123962,-0.0008996118558570743,-0.01891469769179821,0.017952343448996544,-0.0010814060224220157,-0.00208461657166481
0.023536646738648415,-0.0008891263278201222,-0.01835610531270504,0.017626458778977394,-0.0010935928439721465,-0.0021309650037437677
0.023587161675095558,-0.0007912914152257144,-0.017868684604763985,0.018249690532684326,-0.0013199739623814821,-0.0023283082991838455
0.02280362695455551,-0.0008020288660191,-0.018946053460240364,0.01812533102929592,-0.001316399546340108,-0.0020771052222698927
0.023136403411626816,-0.0007383181364275515,-0.018580906093120575,0.017468808218836784,-0.0012685164110735059,-0.0020476437639445066
0.024171898141503334,-0.0007498908089473844,-0.01778380759060383,0.01705384999513626,-0.0012404557783156633,-0.002617224585264921
0.024062035605311394,-0.0007429589168168604,-0.018318846821784973,0.016474151983857155,-0.001275984337553382,-0.0034886596258729696
0.02291436865925789,-0.0007600291282869875,-0.018563929945230484,0.016859939321875572,-0.0012557622976601124,-0.004212443716824055
0.023206276819109917,-0.0007266076281666756,-0.018455717712640762,0.016994768753647804,-0.0013399870367720723,-0.004175280686467886
0.02298882231116295,-0.0008425124105997384,-0.0183228999376297,0.016995811834931374,-0.0012687592534348369,-0.0033734780736267567
0.02403053641319275,-0.0008489883621223271,-0.018766149878501892,0.016696838662028313,-0.0012148476671427488,-0.003084140829741955
0.023668644949793816,-0.0008519759285263717,-0.01870938204228878,0.017085038125514984,-0.0011807698756456375,-0.0033383157569915056
0.023238832131028175,-0.0008356731268577278,-0.017819421365857124,0.01667090691626072,-0.001131489872932434,-0.003766406560316682
0.023047560825943947,-0.000866780465003103,-0.018784528598189354,0.016756786033511162,-0.0010964124230667949,-0.003942569717764854
0.023469118401408195,-0.000871787837240845,-0.019311290234327316,0.016800563782453537,-0.0010930714197456837,-0.00392942363396287
0.02344750240445137,-0.0008842195384204388,-0.018583331257104874,0.016733234748244286,-0.001123278052546084,-0.0038764686323702335
0.02552179805934429,-0.0007994106272235513,-0.018886154517531395,0.017344936728477478,-0.001314206630922854,-0.003908996470272541
0.02249186672270298,-0.0008703412604518235,-0.01862853579223156,0.017006926238536835,-0.001393960788846016,-0.0039225732907652855
0.022837549448013306,-0.0007317157578654587,-0.018213728442788124,0.017476225271821022,-0.0013151670573279262,-0.004220757633447647
0.02349737286567688,-0.0007496153120882809,-0.019111592322587967,0.01773635670542717,-0.0012519486481323838,-0.004629265051335096
0.02345018833875656,-0.0007340044248849154,-0.01871323026716709,0.016805605962872505,-0.0012739354278892279,-0.0048966966569423676
0.023520635440945625,-0.0006878171116113663,-0.01833271235227585,0.017050938680768013,-0.001230125199072063,-0.005500647239387035
0.023403417319059372,-0.0006983406492508948,-0.017237838357686996,0.016769785434007645,-0.0011872429167851806,-0.005189164541661739
0.023452531546354294,-0.000645393505692482,-0.019029028713703156,0.017373094335198402,-0.0012560182949528098,-0.004977638367563486
0.023452531546354294,-0.000645393505692482,-0.019029028713703156,0.017373094335198402,-0.0012560182949528098,-0.004977638367563486
0.023619288578629494,-0.0005645807832479477,-0.018497653305530548,0.017594113945961,-0.0011908641317859292,-0.0058486307971179485
0.023619288578629494,-0.0005645807832479477,-0.018497653305530548,0.017594113945961,-0.0011908641317859292,-0.0058486307971179485
0.023382047191262245,-0.0005391200538724661,-0.0181313157081604,0.018164535984396935,-0.001317937159910798,-0.005890652537345886
0.023384757339954376,-0.0005688401870429516,-0.018551206216216087,0.017433512955904007,-0.001330956700257957,-0.00528054079040885
0.02325659990310669,-0.0005734717124141753,-0.01876566745340824,0.017422907054424286,-0.0014792978763580322,-0.005223598796874285
0.023418137803673744,-0.0005531219067052007,-0.018127232789993286,0.017738759517669678,-0.001498156227171421,-0.005708438344299793
0.02348385751247406,-0.0005180714069865644,-0.018305117264389992,0.017980149015784264,-0.0014836965128779411,-0.006412116810679436
0.02365218847990036,-0.0005899030948057771,-0.018567970022559166,0.01847550831735134,-0.0013153753243386745,-0.006870988756418228
0.0235598087310791,-0.0005231720278970897,-0.01820436492562294,0.017592789605259895,-0.0011994619853794575,-0.006825233809649944
0.022954540327191353,-0.0005610086373053491,-0.01875143311917782,0.017568979412317276,-0.0011833907337859273,-0.006685270927846432
0.023273015394806862,-0.0005838891374878585,-0.01859460212290287,0.01721046306192875,-0.0011645181803032756,-0.006637932732701302
0.023600369691848755,-0.0005626865895465016,-0.018402010202407837,0.017227770760655403,-0.0013697684044018388,-0.006802781019359827
0.023539692163467407,-0.0005291831912472844,-0.018040815368294716,0.017093315720558167,-0.0013860006583854556,-0.007181345950812101
0.023224275559186935,-0.0005347292753867805,-0.018350470811128616,0.017468946054577827,-0.0015669014537706971,-0.007264395244419575
0.0229358971118927,-0.0004976374912075698,-0.018506454303860664,0.01708799973130226,-0.0015194955049082637,-0.007662952411919832
0.023329515010118484,-0.0005341751384548843,-0.01807452365756035,0.016401201486587524,-0.0016342914896085858,-0.007115650922060013
0.02378624491393566,-0.0004891867283731699,-0.018436480313539505,0.016886020079255104,-0.001593083725310862,-0.0072761173360049725
0.023450778797268867,-0.000522250949870795,-0.01854679174721241,0.01664682663977146,-0.0014264805940911174,-0.007796092424541712
0.022950295358896255,-0.0005438899388536811,-0.018217649310827255,0.017574982717633247,-0.0012995960423722863,-0.007809780538082123
0.023555606603622437,-0.0005127641488797963,-0.018706532195210457,0.01749408058822155,-0.0012428025947883725,-0.007461364381015301
0.024085955694317818,-0.0006169420084916055,-0.018665241077542305,0.01628311723470688,-0.0012966669164597988,-0.007896821945905685
0.023070411756634712,-0.0006531888502649963,-0.018164796754717827,0.016562582924962044,-0.0013952526496723294,-0.007916808128356934
0.022721609100699425,-0.0006500057643279433,-0.018651306629180908,0.01630137674510479,-0.0013675562804564834,-0.00807273667305708
0.02294214628636837,-0.0006167521933093667,-0.018626224249601364,0.0168115496635437,-0.0013754382962360978,-0.007857928052544594
0.022818371653556824,-0.0006390169728547335,-0.018132640048861504,0.016504352912306786,-0.0014251102693378925,-0.00797786470502615
0.022818371653556824,-0.0006390169728547335,-0.018132640048861504,0.016504352912306786,-0.0014251102693378925,-0.00797786470502615
0.023142896592617035,-0.0007215488003566861,-0.018479427322745323,0.0168184544891119,-0.0013761587906628847,-0.008243821561336517
0.02301458828151226,-0.0006787684978917241,-0.018342096358537674,0.017210092395544052,-0.0012799198739230633,-0.007968572899699211
0.022882917895913124,-0.0007067907718010247,-0.018761983141303062,0.016887560486793518,-0.0013204823480919003,-0.008143221028149128
0.023269275203347206,-0.000694131595082581,-0.018918931484222412,0.016896851360797882,-0.001292236614972353,-0.008460458368062973
0.023753825575113297,-0.0006542730843648314,-0.018409330397844315,0.016634542495012283,-0.0013944566017016768,-0.008757375180721283
0.022986508905887604,-0.0006675112526863813,-0.018734008073806763,0.01710508204996586,-0.0013880734331905842,-0.008331703953444958
0.02327520214021206,-0.0006196002941578627,-0.019142162054777145,0.016883067786693573,-0.001545144827105105,-0.008526450954377651
0.022792000323534012,-0.0006236406043171883,-0.018577249720692635,0.016507834196090698,-0.0016835663700476289,-0.008513041771948338
0.022872721776366234,-0.0006568254320882261,-0.01885601505637169,0.016684308648109436,-0.0016241930425167084,-0.008679456077516079
0.02317858673632145,-0.0006805007578805089,-0.018628299236297607,0.016518233343958855,-0.0016820752061903477,-0.008575184270739555
0.023368192836642265,-0.0006949813687242568,-0.018631406128406525,0.01714312471449375,-0.0016809407388791442,-0.008981863968074322
0.023118967190384865,-0.0006512116524390876,-0.01904653012752533,0.017034126445651054,-0.0014770086854696274,-0.009012782946228981
0.025384264066815376,-0.0008698673918843269,-0.018961302936077118,0.016770444810390472,-0.0014201865997165442,-0.00944487750530243
0.02262711711227894,-0.0007996951462700963,-0.018925845623016357,0.017022646963596344,-0.0014717873418703675,-0.00992638897150755
0.022935621440410614,-0.0008099440601654351,-0.01881519705057144,0.017690245062112808,-0.001565698185004294,-0.009756029583513737
0.023656047880649567,-0.0008610240765847266,-0.018360523506999016,0.016843872144818306,-0.0015639076009392738,-0.009523307904601097
0.023541882634162903,-0.0008796930778771639,-0.01888446882367134,0.01684548333287239,-0.0015267045237123966,-0.009822645224630833
0.023881820961833,-0.000872455770149827,-0.01933237910270691,0.016768526285886765,-0.0015538263833150268,-0.010639239102602005
0.023555409163236618,-0.0008504213765263557,-0.018495259806513786,0.01682163029909134,-0.0013855320867151022,-0.01043484266847372
0.022957220673561096,-0.0007912631845101714,-0.019307082518935204,0.016981206834316254,-0.001450762152671814,-0.009984757751226425
0.022957220673561096,-0.0007912631845101714,-0.019307082518935204,0.016981206834316254,-0.001450762152671814,-0.009984757751226425
0.02335967682301998,-0.0008008231525309384,-0.018893975764513016,0.016559932380914688,-0.0016067471588030457,-0.010103181004524231
0.02347162365913391,-0.000816355983261019,-0.019780464470386505,0.01664012111723423,-0.0016486479435116053,-0.010601409710943699
0.023586593568325043,-0.0007341346354223788,-0.018597515299916267,0.016559353098273277,-0.0016850404208526015,-0.01094773132354021
0.023586593568325043,-0.0007341346354223788,-0.018597515299916267,0.016559353098273277,-0.0016850404208526015,-0.01094773132354021
0.023560544475913048,-0.0007501692161895335,-0.018349671736359596,0.01659458316862583,-0.0015157299349084496,-0.010733023285865784
0.023259073495864868,-0.0007749624783173203,-0.019265873357653618,0.016285855323076248,-0.0014169093919917941,-0.010718819685280323
0.023367274552583694,-0.0007912624860182405,-0.018583733588457108,0.016707520931959152,-0.0011971398489549756,-0.010834774933755398
0.023806802928447723,-0.0008054302888922393,-0.01849343441426754,0.016502339392900467,-0.0012190042762085795,-0.011145883239805698
0.023744627833366394,-0.0007254472002387047,-0.018797380849719048,0.016619043424725533,-0.0012308377772569656,-0.010321255773305893
0.023625576868653297,-0.0007422114722430706,-0.01865478605031967,0.016223300248384476,-0.0016220873221755028,-0.010170654393732548
0.023548293858766556,-0.000831196375656873,-0.018766731023788452,0.017099929973483086,-0.00182829808909446,-0.01083341334015131
0.023548293858766556,-0.000831196375656873,-0.018766731023788452,0.017099929973483086,-0.00182829808909446,-0.01083341334015131
0.023567156866192818,-0.0008030001190491021,-0.018393438309431076,0.01690966635942459,-0.0017723235068842769,-0.011066590435802937
0.023917410522699356,-0.0007449186523444951,-0.01890627294778824,0.017435608431696892,-0.0015465833712369204,-0.011091286316514015
0.024288546293973923,-0.0007578095537610352,-0.01873929426074028,0.017247311770915985,-0.0015263176755979657,-0.011606969870626926
0.024081194773316383,-0.000757500296458602,-0.01799214445054531,0.01718476042151451,-0.0014764118241146207,-0.011737504042685032
0.023671554401516914,-0.0007668487378396094,-0.018397556617856026,0.01711154729127884,-0.0015948076033964753,-0.011580860242247581
0.02373478375375271,-0.0007289720815606415,-0.018122240900993347,0.017236433923244476,-0.0014983403962105513,-0.010999568738043308
0.02408909983932972,-0.0007441151537932456,-0.018681230023503304,0.01664663292467594,-0.0014425843255594373,-0.009542318060994148
0.024210436269640923,-0.0008317669853568077,-0.018505973741412163,0.016540896147489548,-0.0013453186256811023,-0.011150696314871311
0.02338298410177231,-0.0008468988817185163,-0.01815669983625412,0.016583774238824844,-0.0012734808260574937,-0.0114237479865551
0.023552190512418747,-0.000826124451123178,-0.018413446843624115,0.01672031357884407,-0.00127549865283072,-0.011155270040035248
0.0250110924243927,-0.0007639392861165106,-0.01792334020137787,0.017551029101014137,-0.0013722102157771587,-0.011485835537314415
0.024612154811620712,-0.0007776407292112708,-0.018548866733908653,0.016775278374552727,-0.0017473110929131508,-0.011699872091412544
0.02431061863899231,-0.0008142404840327799,-0.018653351813554764,0.016675544902682304,-0.0018067442579194903,-0.011534285731613636
0.024199673905968666,-0.0007946554687805474,-0.017641454935073853,0.01593228057026863,-0.0018282345263287425,-0.01169032882899046
0.02385053224861622,-0.0008085747249424458,-0.01789276860654354,0.015797264873981476,-0.0016750118229538202,-0.011639516800642014
0.02385053224861622,-0.0008085747249424458,-0.01789276860654354,0.015797264873981476,-0.0016750118229538202,-0.011639516800642014
0.024276768788695335,-0.0007499767816625535,-0.018037667497992516,0.017098650336265564,-0.0016275228699669242,-0.011500323191285133
0.024968190118670464,-0.0007649665931239724,-0.01806485280394554,0.016242126002907753,-0.0018169691320508718,-0.011703112162649632
0.02440955862402916,-0.000820648274384439,-0.018868647515773773,0.01657143048942089,-0.0021303901448845863,-0.012157955206930637
0.02480580471456051,-0.0008334211888723075,-0.017842883244156837,0.01635304093360901,-0.0021313191391527653,-0.012232881970703602
0.024689363315701485,-0.000842354551423341,-0.017884237691760063,0.01668587327003479,-0.001846842234954238,-0.012468576431274414
0.024054640904068947,-0.0008521705749444664,-0.018484503030776978,0.01626533456146717,-0.0017604181775823236,-0.011750931851565838
0.025108162313699722,-0.001062144641764462,-0.017701635137200356,0.01643315888941288,-0.0016230145702138543,-0.012395424768328667
0.024326076731085777,-0.001078344532288611,-0.018362373113632202,0.01647431217133999,-0.0015128753148019314,-0.012900574132800102
0.024689314886927605,-0.0010524964891374111,-0.018445944413542747,0.01685749553143978,-0.001462525688111782,-0.01303125824779272
0.02501855418086052,-0.0010788807412609458,-0.01815197430551052,0.017039598897099495,-0.0015394747024402022,-0.013671675696969032
0.0250942874699831,-0.0010921228677034378,-0.018265390768647194,0.016855351626873016,-0.0017001889646053314,-0.013467498123645782
0.024891642853617668,-0.0010599273955449462,-0.017837796360254288,0.017111795023083687,-0.0016248285537585616,-0.013434341177344322
0.025220975279808044,-0.001036548288539052,-0.01853594370186329,0.01627383567392826,-0.001640040660277009,-0.013587886467576027
0.02507670596241951,-0.000996354385279119,-0.01909617707133293,0.01584191620349884,-0.001592628424987197,-0.013797727413475513
0.025041969493031502,-0.000985558028332889,-0.018228141590952873,0.01646796613931656,-0.001295731170102954,-0.01447397843003273
0.02535945177078247,-0.0009738167282193899,-0.018752779811620712,0.01709185168147087,-0.0013249614275991917,-0.014224810525774956
0.02538074553012848,-0.0009990222752094269,-0.017673926427960396,0.016695156693458557,-0.0013232313795015216,-0.014342539012432098
0.024911006912589073,-0.0010247556492686272,-0.018335234373807907,0.016847362741827965,-0.0014931594487279654,-0.014242956414818764
0.02506159618496895,-0.0010051234858110547,-0.018602726981043816,0.016737883910536766,-0.0014451006427407265,-0.014448404312133789
0.0254282858222723,-0.000990473199635744,-0.01822921819984913,0.01661015674471855,-0.0016342212911695242,-0.014459277503192425
0.02518276870250702,-0.0010398064041510224,-0.01715049333870411,0.01697348989546299,-0.0016503743827342987,-0.014566173776984215
0.024796592071652412,-0.0010341170709580183,-0.019173365086317062,0.017102472484111786,-0.0018960393499583006,-0.014842438511550426
0.02527361549437046,-0.0010125929256901145,-0.018490344285964966,0.017960956320166588,-0.0018422137945890427,-0.015573034062981606
0.025518016889691353,-0.0009968506637960672,-0.018187232315540314,0.017585892230272293,-0.0018802415579557419,-0.01596166379749775
0.025522001087665558,-0.0011239571031183004,-0.017952745780348778,0.01707197166979313,-0.001800623955205083,-0.01568296179175377
0.025404956191778183,-0.001089300843887031,-0.018266500905156136,0.017078811302781105,-0.0015510368393734097,-0.015375806950032711
0.025404956191778183,-0.001089300843887031,-0.018266500905156136,0.017078811302781105,-0.0015510368393734097,-0.015375806950032711
0.02549736574292183,-0.0010603201808407903,-0.01824328675866127,0.016302453354001045,-0.0015097310533747077,-0.015463669784367085
0.025299808010458946,-0.0010803823824971914,-0.01777683012187481,0.016596950590610504,-0.0014375628670677543,-0.015437033958733082
0.025173654779791832,-0.0010440223850309849,-0.018269766122102737,0.016224294900894165,-0.0014617538545280695,-0.015634076669812202
0.025694265961647034,-0.0010196235962212086,-0.018410110846161842,0.01650160923600197,-0.0015334333293139935,-0.015582939609885216
0.025903824716806412,-0.001002308214083314,-0.017620334401726723,0.016914749518036842,-0.0015353410271927714,-0.015625372529029846
0.02546146884560585,-0.0009247098350897431,-0.01828259602189064,0.01671411469578743,-0.0017024974804371595,-0.01547561027109623
0.02504556067287922,-0.0009905693586915731,-0.01855379343032837,0.017126578837633133,-0.0015855428064242005,-0.015373840928077698
0.025417551398277283,-0.0010106171248480678,-0.01833505555987358,0.016636978834867477,-0.00164364546071738,-0.01571829803287983
0.025777481496334076,-0.0010057610925287008,-0.018787723034620285,0.016943953931331635,-0.0016511776484549046,-0.01602001115679741
0.02578571066260338,-0.0012579604517668486,-0.018196972087025642,0.016649866476655006,-0.001513082766905427,-0.016264621168375015
0.025262685492634773,-0.0012392490170896053,-0.018224788829684258,0.01685844548046589,-0.00138365279417485,-0.016057267785072327
0.02574702352285385,-0.00119553052354604,-0.018326466903090477,0.0170010756701231,-0.001297145732678473,-0.016204601153731346
0.026309490203857422,-0.0011719343019649386,-0.018018163740634918,0.016326814889907837,-0.0012718229554593563,-0.015968082472682
0.02536589838564396,-0.0010760125005617738,-0.018301790580153465,0.015932271257042885,-0.0016739364946261048,-0.016676753759384155
0.025015849620103836,-0.0009331148467026651,-0.01791933923959732,0.01628958433866501,-0.0021433911751955748,-0.01659933105111122
0.025832384824752808,-0.0009271595627069473,-0.01875452697277069,0.01613248512148857,-0.0024035978130996227,-0.01647297851741314
0.0265378188341856,-0.0008147149346768856,-0.01798521913588047,0.016078613698482513,-0.002265260322019458,-0.016462434083223343
0.02680734544992447,-0.0007807556539773941,-0.018203388899564743,0.015882529318332672,-0.0019210873870179057,-0.01686619222164154
0.02620358020067215,-0.0008234638953581452,-0.01873028092086315,0.015845898538827896,-0.0017066455911844969,-0.016436628997325897
0.025996878743171692,-0.0008328574476763606,-0.01823081448674202,0.01631980761885643,-0.0015592740382999182,-0.016661910340189934
0.02612236514687538,-0.0010369771625846624,-0.018319325521588326,0.01597633585333824,-0.0014209836954250932,-0.01730070449411869
0.02626471221446991,-0.0011584203457459807,-0.018241045996546745,0.01616334356367588,-0.0015021591680124402,-0.017563702538609505
0.02563360705971718,-0.001118561951443553,-0.017923569306731224,0.015842782333493233,-0.0021060779690742493,-0.017863623797893524
0.026121016591787338,-0.0010066458489745855,-0.01880688965320587,0.016351649537682533,-0.002436323557049036,-0.0175719503313303
0.02661181055009365,-0.0009842929430305958,-0.01893683895468712,0.016635943204164505,-0.002182415686547756,-0.01725652813911438
0.02661181055009365,-0.0009842929430305958,-0.01893683895468712,0.016635943204164505,-0.002182415686547756,-0.01725652813911438
0.025937123224139214,-0.0009723093826323748,-0.018057268112897873,0.016407452523708344,-0.0019043657230213284,-0.01701410673558712
0.026385057717561722,-0.0009611275745555758,-0.01798051781952381,0.016908865422010422,-0.0017538937972858548,-0.016777794808149338
0.0267769955098629,-0.0009495522826910019,-0.01787453331053257,0.01609426736831665,-0.0016300072893500328,-0.017427464947104454
0.026744289323687553,-0.0009178140899166465,-0.018282808363437653,0.01659202016890049,-0.0017577680991962552,-0.01779334433376789
0.026453806087374687,-0.0009211325668729842,-0.018664730712771416,0.015956304967403412,-0.0017268932424485683,-0.018317829817533493
0.026379909366369247,-0.0009180682245641947,-0.018353242427110672,0.015886979177594185,-0.0021098197903484106,-0.01864248514175415
0.02612578496336937,-0.0009157205931842327,-0.018372206017374992,0.015438253059983253,-0.0019581811502575874,-0.018484080210328102
0.026491180062294006,-0.0009915012633427978,-0.018617847934365273,0.016264863312244415,-0.0019988827407360077,-0.018521664664149284
0.026382286101579666,-0.0011037266813218594,-0.018130317330360413,0.017078088596463203,-0.00207178364507854,-0.019135376438498497
0.026247933506965637,-0.001073832856491208,-0.01907583698630333,0.017191452905535698,-0.0022965387906879187,-0.01949954777956009
0.026502205058932304,-0.0009835159871727228,-0.018732339143753052,0.01682281121611595,-0.0019712098874151707,-0.01921556331217289
0.026537371799349785,-0.0009721845271997154,-0.018255002796649933,0.01600140891969204,-0.0019186839926987886,-0.01896340772509575
0.026330038905143738,-0.0009591549751348794,-0.018826520070433617,0.016662051901221275,-0.0018233464797958732,-0.018292419612407684
0.026150915771722794,-0.0009400139097124338,-0.018351122736930847,0.01692548766732216,-0.0016455190489068627,-0.01944902166724205
0.02652767114341259,-0.000875405385158956,-0.018993262201547623,0.016573959961533546,-0.001594426343217492,-0.020104575902223587
0.027467792853713036,-0.0008808905258774757,-0.019030490890145302,0.015947526320815086,-0.0016499861376360059,-0.019915340468287468
0.027182796970009804,-0.000977210351265967,-0.018790600821375847,0.01689589023590088,-0.0017926318105310202,-0.019682493060827255
0.026013489812612534,-0.0011737991590052843,-0.018801121041178703,0.016405265778303146,-0.0018428161274641752,-0.019815213978290558
0.02569124475121498,-0.0012375910300761461,-0.01889977417886257,0.017459740862250328,-0.001997745595872402,-0.019783414900302887
0.026125529780983925,-0.001289278268814087,-0.019080808386206627,0.015828166157007217,-0.002002403838559985,-0.020233985036611557
0.026226293295621872,-0.00114991154987365,-0.019689271226525307,0.01602933742105961,-0.002043529413640499,-0.0201904084533453
0.026226293295621872,-0.00114991154987365,-0.019689271226525307,0.01602933742105961,-0.002043529413640499,-0.0201904084533453
0.026400286704301834,-0.001158417435362935,-0.01923060230910778,0.017013635486364365,-0.0018492889357730746,-0.019111238420009613
0.02745671384036541,-0.0011166080366820097,-0.019273266196250916,0.016839096322655678,-0.0018451488576829433,-0.020973656326532364
0.026640353724360466,-0.0010788415092974901,-0.018596023321151733,0.01631140150129795,-0.002257376676425338,-0.020787442103028297
0.02691308595240116,-0.0010634709615260363,-0.01888418011367321,0.01657411828637123,-0.0021635449957102537,-0.021050548180937767
0.02691308595240116,-0.0010634709615260363,-0.01888418011367321,0.01657411828637123,-0.0021635449957102537,-0.021050548180937767
0.0262373648583889,-0.0010486557148396969,-0.019142767414450645,0.016597216948866844,-0.0024424635339528322,-0.021093489602208138
0.026399020105600357,-0.0010545101249590516,-0.0194095429033041,0.016584504395723343,-0.002345124026760459,-0.02074788324534893
0.026777436956763268,-0.0012808276806026697,-0.019192833453416824,0.016958197578787804,-0.0022062882781028748,-0.020833298563957214
0.026421261951327324,-0.0013274408411234617,-0.018692759796977043,0.01662580855190754,-0.001840219832956791,-0.02096197009086609
0.02682221680879593,-0.0011953237699344754,-0.020024722442030907,0.01697205752134323,-0.0017802222864702344,-0.021437713876366615
0.026651090011000633,-0.0012857967521995306,-0.01978950761258602,0.016895998269319534,-0.0016781215090304613,-0.02150481380522251
0.02650832198560238,-0.0012123746564611793,-0.01932612806558609,0.017024045810103416,-0.0017144959419965744,-0.021776193752884865
0.02629021927714348,-0.001173165743239224,-0.01916317827999592,0.0167952012270689,-0.0018458834383636713,-0.021569836884737015
0.026537491008639336,-0.0010822052136063576,-0.019274218007922173,0.01635470800101757,-0.0021256606560200453,-0.022053755819797516
0.02693263627588749,-0.0010511793661862612,-0.019163008779287338,0.01635972410440445,-0.0022650673054158688,-0.022228114306926727
0.02688014693558216,-0.0010305986506864429,-0.019215868785977364,0.015882223844528198,-0.0021920527797192335,-0.022157877683639526
0.027060655876994133,-0.001028269762173295,-0.019483080133795738,0.016138320788741112,-0.0020251309033483267,-0.022866981104016304
0.02721211314201355,-0.001124079106375575,-0.019241658970713615,0.016262127086520195,-0.002075765049085021,-0.02280670590698719
0.027520539239048958,-0.001057999674230814,-0.01924281381070614,0.016431236639618874,-0.002028781222179532,-0.02291775681078434
0.02748473733663559,-0.0009648799896240234,-0.019943298771977425,0.016523052006959915,-0.0021988775115460157,-0.023195214569568634
0.02735239639878273,-0.0010069110430777073,-0.01959681324660778,0.017128031700849533,-0.0021673007868230343,-0.02330353856086731
0.027569418773055077,-0.0009901616722345352,-0.019321197643876076,0.016724729910492897,-0.0023107414599508047,-0.02325926162302494
0.02736390009522438,-0.0009774673962965608,-0.019738221541047096,0.016814136877655983,-0.0022361299488693476,-0.023323101922869682
0.027319129556417465,-0.0011041276156902313,-0.01938365213572979,0.016634736210107803,-0.0021349885500967503,-0.023524047806859016
0.027308184653520584,-0.0012504506157711148,-0.01906142570078373,0.0168327484279871,-0.002027376787737012,-0.023812057450413704
0.02705514058470726,-0.0015900878934189677,-0.0198832955211401,0.01678188517689705,-0.0020609560888260603,-0.02417929284274578
0.027050847187638283,-0.001566811348311603,-0.020208127796649933,0.01630411483347416,-0.00194106949493289,-0.024121101945638657
0.02719360776245594,-0.0014236447168514132,-0.019513936713337898,0.01661880500614643,-0.0019130364526063204,-0.02397180162370205
0.027078432962298393,-0.0013265627203509212,-0.019613521173596382,0.01597447134554386,-0.0018849417101591825,-0.02445715293288231
0.027113497257232666,-0.0010921648936346173,-0.01969602145254612,0.016340073198080063,-0.001883912831544876,-0.023869728669524193
0.026846541091799736,-0.0010457298485562205,-0.01930713839828968,0.016106626018881798,-0.001979486783966422,-0.02411474660038948
0.02708682231605053,-0.0011206843191757798,-0.019816335290670395,0.016308879479765892,-0.001979659777134657,-0.024273980408906937
0.02708682231605053,-0.0011206843191757798,-0.019816335290670395,0.016308879479765892,-0.001979659777134657,-0.024273980408906937
0.02780190482735634,-0.0012169950641691685,-0.019600795581936836,0.016340192407369614,-0.002239275723695755,-0.024361811578273773
0.028193024918437004,-0.0013485115487128496,-0.018932098522782326,0.0158085897564888,-0.0027167268563061953,-0.02432078681886196
0.027876807376742363,-0.0013160373782739043,-0.018927713856101036,0.01607411541044712,-0.0027921588625758886,-0.02488543465733528
0.027002599090337753,-0.0015692748129367828,-0.019050080329179764,0.01604633778333664,-0.0026866639964282513,-0.026079798117280006
0.02748023346066475,-0.001558586023747921,-0.01875736564397812,0.016488227993249893,-0.0023241564631462097,-0.025732876732945442
0.028183892369270325,-0.0014490082394331694,-0.019504647701978683,0.016202978789806366,-0.0021109634544700384,-0.02517409808933735
0.02799265645444393,-0.0014749647816643119,-0.02018633298575878,0.016334066167473793,-0.001878388924524188,-0.02453485131263733
0.027815017849206924,-0.001418993342667818,-0.019308926537632942,0.016130637377500534,-0.001708917086943984,-0.02528236247599125
0.028039973229169846,-0.001525786006823182,-0.01917070522904396,0.016420414671301842,-0.0017142074648290873,-0.026238951832056046
0.02853216975927353,-0.001538971089757979,-0.0188863817602396,0.016630228608846664,-0.002075493335723877,-0.02553393505513668
0.028311125934123993,-0.0014868472935631871,-0.018510306254029274,0.016383927315473557,-0.002324462402611971,-0.02669796161353588
0.027612978592514992,-0.0015562947373837233,-0.019393296912312508,0.01653406210243702,-0.0026013485621660948,-0.027253832668066025
0.028619151562452316,-0.0015374628128483891,-0.01951771043241024,0.01663455180823803,-0.0023804358206689358,-0.026878923177719116
0.028359852731227875,-0.0015982926124706864,-0.01905170828104019,0.017476653680205345,-0.002204890362918377,-0.025899613276124
0.028500983491539955,-0.001853090594522655,-0.01924392208456993,0.017753316089510918,-0.0021038230042904615,-0.026344817131757736
0.028356796130537987,-0.0016940318746492267,-0.01906982809305191,0.018485713750123978,-0.002237830776721239,-0.027553971856832504
0.02850472182035446,-0.0015460043214261532,-0.019869232550263405,0.01694810949265957,-0.002588678151369095,-0.02770044282078743
0.028484240174293518,-0.0012803723802790046,-0.019770491868257523,0.016038693487644196,-0.002575130667537451,-0.02797519788146019
0.02863752655684948,-0.0011299370089545846,-0.01929091475903988,0.015485185198485851,-0.0026713430415838957,-0.027909934520721436
0.028277020901441574,-0.0011249290546402335,-0.01944313570857048,0.015922650694847107,-0.0023332550190389156,-0.0273705143481493
0.028503187000751495,-0.0011020319070667028,-0.019694745540618896,0.016347309574484825,-0.0021616604644805193,-0.026897123083472252
0.028835197910666466,-0.00117386388592422,-0.01909523271024227,0.017374541610479355,-0.001988762291148305,-0.026571407914161682
0.02878071926534176,-0.0012464381288737059,-0.0196613147854805,0.01617603562772274,-0.002021591877564788,-0.02695472724735737
0.028590954840183258,-0.0015363842248916626,-0.02036074362695217,0.014893713407218456,-0.0023343598004430532,-0.027417253702878952
0.028714889660477638,-0.0016336687840521336,-0.020075010135769844,0.016183501109480858,-0.002169359242543578,-0.027369631454348564
0.028757605701684952,-0.0014990343479439616,-0.01972227543592453,0.016473883762955666,-0.0022348957136273384,-0.027626467868685722
0.028757605701684952,-0.0014990343479439616,-0.01972227543592453,0.016473883762955666,-0.0022348957136273384,-0.027626467868685722
0.02891230396926403,-0.0015009609051048756,-0.019721010699868202,0.01736311987042427,-0.002271127188578248,-0.02839004620909691
0.02879962883889675,-0.0013693918008357286,-0.019919967278838158,0.016791541129350662,-0.0022075199522078037,-0.028096964582800865
0.028796961531043053,-0.0012820061529055238,-0.019173620268702507,0.01623992808163166,-0.0022599573712795973,-0.028223859146237373
0.02911558747291565,-0.0011616823030635715,-0.01976347714662552,0.016757911071181297,-0.0022352992091327906,-0.028693880885839462
0.028939124196767807,-0.0012349857715889812,-0.020215529948472977,0.01598404161632061,-0.0023523455020040274,-0.028654443100094795
0.029373914003372192,-0.0012441830476745963,-0.019584331661462784,0.0159200020134449,-0.0024248536210507154,-0.02974635362625122
0.028614506125450134,-0.0017562105786055326,-0.01975812017917633,0.015836969017982483,-0.0024040541611611843,-0.030848152935504913
0.029094412922859192,-0.0016227898886427283,-0.019833125174045563,0.01642550528049469,-0.0025596250779926777,-0.029930749908089638
0.030414685606956482,-0.001479524769820273,-0.01920405775308609,0.01687455363571644,-0.0025119981728494167,-0.028998516499996185
0.029922589659690857,-0.0014967015013098717,-0.019533678889274597,0.016856899484992027,-0.0023485487326979637,-0.028899557888507843
0.029211176559329033,-0.001435704412870109,-0.019892049953341484,0.01670990325510502,-0.0024476696271449327,-0.02942003682255745
0.02801019325852394,-0.0014014383777976036,-0.01990721933543682,0.016192888841032982,-0.0026710813399404287,-0.03061111457645893
0.0304569024592638,-0.001358230016194284,-0.019529439508914948,0.016693267971277237,-0.002623564563691616,-0.030782926827669144
0.029850468039512634,-0.0015899098943918943,-0.01956292986869812,0.016414977610111237,-0.0025901896879076958,-0.030754458159208298
0.030095187947154045,-0.0014973545912653208,-0.01940147392451763,0.016523389145731926,-0.0024895851965993643,-0.029243212193250656
0.03039386495947838,-0.0015508712967857718,-0.019628439098596573,0.016508258879184723,-0.0025651489850133657,-0.02955796755850315
0.030334312468767166,-0.0014654613332822919,-0.01963747665286064,0.01682041585445404,-0.002620881190523505,-0.031211605295538902
0.028916003182530403,-0.001372019061818719,-0.019403712823987007,0.016609536483883858,-0.002534019760787487,-0.031471822410821915
0.02911216951906681,-0.001399121480062604,-0.019653301686048508,0.01720091700553894,-0.002698212629184127,-0.03166910633444786
0.030443809926509857,-0.0013419600436463952,-0.01918705366551876,0.01702244207262993,-0.002362922765314579,-0.031276192516088486
0.03061772510409355,-0.0013185166753828526,-0.018982894718647003,0.017060156911611557,-0.002189845312386751,-0.03106621466577053
0.030077852308750153,-0.001429788302630186,-0.019476870074868202,0.01704014651477337,-0.0021852769423276186,-0.030996082350611687
0.029651613906025887,-0.0014916460495442152,-0.01956057734787464,0.016567470505833626,-0.0022283766884356737,-0.03176411613821983
0.02993619628250599,-0.0015979146119207144,-0.019109679386019707,0.016618870198726654,-0.002780082169920206,-0.031241193413734436
0.03008352406322956,-0.0015050525544211268,-0.019465025514364243,0.016247384250164032,-0.0029707392677664757,-0.03182734176516533
0.030212337151169777,-0.0014018936781212687,-0.019611135125160217,0.016723528504371643,-0.0025958118494600058,-0.03184590861201286
0.030436500906944275,-0.0014180319849401712,-0.018965046852827072,0.01689952425658703,-0.002331634284928441,-0.03236191347241402
0.030129695311188698,-0.0013557440834119916,-0.019179394468665123,0.0169454887509346,-0.0022470871917903423,-0.03265911340713501
0.03055977076292038,-0.0012910867808386683,-0.01926432177424431,0.017131665721535683,-0.0022533154115080833,-0.03288622200489044
0.03055977076292038,-0.0012910867808386683,-0.01926432177424431,0.017131665721535683,-0.0022533154115080833,-0.03288622200489044
0.030569173395633698,-0.0013910570414736867,-0.018930647522211075,0.016689682379364967,-0.002790533471852541,-0.033068571239709854
0.030287567526102066,-0.0014760385965928435,-0.01938837207853794,0.016855083405971527,-0.0029366633389145136,-0.03329063579440117
0.03056507371366024,-0.0017048983136191964,-0.019329849630594254,0.016320696100592613,-0.002569720847532153,-0.03262485936284065
0.030526800081133842,-0.0017581619322299957,-0.018585728481411934,0.01691191829741001,-0.002347182482481003,-0.033795129507780075
0.030752431601285934,-0.0016848024679347873,-0.01954967901110649,0.016881132498383522,-0.0024089610669761896,-0.033690258860588074
0.031294871121644974,-0.0017165845492854714,-0.019336596131324768,0.016404716297984123,-0.0024811059702187777,-0.0328889861702919
0.03089424967765808,-0.001612878986634314,-0.018915574997663498,0.016616009175777435,-0.002790780970826745,-0.03344358876347542
0.030956992879509926,-0.001547141233459115,-0.019750311970710754,0.01609339565038681,-0.0025755465030670166,-0.03388164937496185
0.03155311197042465,-0.001538279582746327,-0.019950008019804955,0.016280971467494965,-0.0024419939145445824,-0.033764757215976715
0.031040837988257408,-0.0015147108351811767,-0.01905493624508381,0.016106480732560158,-0.0028149792924523354,-0.03349944204092026
0.03096669912338257,-0.0016639453824609518,-0.019147777929902077,0.016439571976661682,-0.0029403597582131624,-0.033879898488521576
0.031068287789821625,-0.0017361592035740614,-0.019916599616408348,0.016447586938738823,-0.003407644107937813,-0.03417445346713066
0.030072541907429695,-0.0016192549373954535,-0.019755583256483078,0.017109017819166183,-0.0031144653912633657,-0.03371866047382355
0.03183823823928833,-0.0016554269241169095,-0.020390987396240234,0.016280412673950195,-0.0028490228578448296,-0.03488346189260483
0.03231162950396538,-0.0016397845465689898,-0.019801734015345573,0.0167262963950634,-0.00264055491425097,-0.035331740975379944
0.03198148310184479,-0.0015277971979230642,-0.01977437175810337,0.01628989726305008,-0.0023909644223749638,-0.03438939154148102
0.030932370573282242,-0.0015372963389381766,-0.019645102322101593,0.016942331567406654,-0.002445782534778118,-0.03318054974079132
0.030433787032961845,-0.0014667449286207557,-0.019171588122844696,0.01614934206008911,-0.0029639636632055044,-0.034657444804906845
0.031478703022003174,-0.0015352501068264246,-0.019547630101442337,0.015739258378744125,-0.0029084528796374798,-0.034824807196855545
0.03139998018741608,-0.0015513510443270206,-0.02008332870900631,0.01656472496688366,-0.0028182060923427343,-0.03467676043510437
0.03121008351445198,-0.001752338488586247,-0.019800636917352676,0.016568534076213837,-0.0023421195801347494,-0.0368339903652668
0.03218024969100952,-0.0016205658903345466,-0.019505998119711876,0.01699858158826828,-0.0021097210701555014,-0.03531666472554207
0.03143259137868881,-0.0015302870888262987,-0.02029692567884922,0.016911830753087997,-0.002105351537466049,-0.03411582484841347
0.031310562044382095,-0.0015005330787971616,-0.01981145702302456,0.017443690448999405,-0.0027699959464371204,-0.03523252531886101
0.03094056062400341,-0.0015193268191069365,-0.020027436316013336,0.017713511362671852,-0.0030767882708460093,-0.036386292427778244
0.03094056062400341,-0.0015193268191069365,-0.020027436316013336,0.017713511362671852,-0.0030767882708460093,-0.036386292427778244
0.03137248009443283,-0.0014430354349315166,-0.020068440586328506,0.017214421182870865,-0.0032554275821894407,-0.03631303831934929
0.03182794526219368,-0.0015246927505359054,-0.019832303747534752,0.01689349114894867,-0.0028858089353889227,-0.03598247095942497
0.03191196173429489,-0.0014394880272448063,-0.018883632495999336,0.015920840203762054,-0.002662009559571743,-0.036111053079366684
0.03149931877851486,-0.0017249628435820341,-0.019480803981423378,0.016319265589118004,-0.0024681861978024244,-0.036525845527648926
0.0318300798535347,-0.0015982239274308085,-0.019717032089829445,0.015692049637436867,-0.002709296764805913,-0.036907315254211426
0.031669631600379944,-0.0016882219351828098,-0.019436856731772423,0.015648942440748215,-0.003131356555968523,-0.03714243695139885
0.031098488718271255,-0.0015732677420601249,-0.019760891795158386,0.01648413948714733,-0.0031202842947095633,-0.0376310758292675
0.03151194378733635,-0.0014845215482637286,-0.019948448985815048,0.01660785637795925,-0.0031029125675559044,-0.03749917820096016
0.03164781257510185,-0.001508392277173698,-0.019861655309796333,0.016651269048452377,-0.0030868661124259233,-0.038357630372047424
0.0315539687871933,-0.001633529318496585,-0.019946547225117683,0.016599351540207863,-0.0030903643928468227,-0.03824136406183243
0.031691811978816986,-0.0015354467323049903,-0.01989537850022316,0.016476519405841827,-0.002736113965511322,-0.03844413161277771
0.02979486621916294,-0.0014519818359985948,-0.019668368622660637,0.01663198135793209,-0.002778500085696578,-0.03957079350948334
0.03246551379561424,-0.0014648853102698922,-0.01965143345296383,0.01670735515654087,-0.002738750306889415,-0.039651691913604736
0.032248470932245255,-0.0015193324070423841,-0.019495520740747452,0.016294505447149277,-0.0028947382234036922,-0.03771423548460007
0.031485430896282196,-0.0016426058718934655,-0.01976076513528824,0.016514763236045837,-0.0031322266440838575,-0.037759579718112946
0.03155244514346123,-0.0016831259708851576,-0.020000040531158447,0.016551896929740906,-0.003032279433682561,-0.038969986140728
0.031238457188010216,-0.0015743420226499438,-0.01952507160604,0.016707539558410645,-0.0029739392921328545,-0.039450932294130325
0.03243066370487213,-0.0016237441450357437,-0.019383003935217857,0.016565479338169098,-0.0028484167996793985,-0.0407550074160099
0.03238171339035034,-0.0015711784362792969,-0.019922062754631042,0.01644991710782051,-0.002927901456132531,-0.039518989622592926
0.03218294680118561,-0.0018238313496112823,-0.020508335903286934,0.016481084749102592,-0.0032708244398236275,-0.03830569237470627
0.03121909685432911,-0.0016859481111168861,-0.019790969789028168,0.016262514516711235,-0.003085647476837039,-0.04012943431735039
0.032112669199705124,-0.0017267427174374461,-0.01957548037171364,0.016826476901769638,-0.003086637705564499,-0.04072967916727066
0.032112669199705124,-0.0017267427174374461,-0.01957548037171364,0.016826476901769638,-0.003086637705564499,-0.04072967916727066
0.032091088593006134,-0.0016975413309410214,-0.019783396273851395,0.01643773540854454,-0.0029262935277074575,-0.03916437551379204
0.03199300542473793,-0.0017660751473158598,-0.019741220399737358,0.01671464927494526,-0.002565584843978286,-0.04019327461719513
0.032673537731170654,-0.0017907526344060898,-0.020068824291229248,0.016498399898409843,-0.0025361250154674053,-0.041154149919748306
0.032571304589509964,-0.0016860384494066238,-0.020380409434437752,0.01660000905394554,-0.002700214274227619,-0.04095691442489624
0.03185264393687248,-0.0017728159436956048,-0.019412824884057045,0.016916479915380478,-0.0028731897473335266,-0.04106970503926277
0.031546611338853836,-0.0016629343153908849,-0.019437409937381744,0.016405854374170303,-0.0034130967687815428,-0.04078030213713646
0.032589882612228394,-0.0016094892052933574,-0.020283926278352737,0.017064591869711876,-0.0033074014354497194,-0.04087409749627113
0.03333588317036629,-0.0016341572627425194,-0.02092227339744568,0.016479898244142532,-0.0033171353861689568,-0.04132101684808731
0.03282688558101654,-0.0016113299643620849,-0.01997276395559311,0.016725797206163406,-0.0030256337486207485,-0.041352931410074234
0.03282422199845314,-0.0015044288011267781,-0.020740341395139694,0.01684865541756153,-0.002750525949522853,-0.041791386902332306
0.03271046653389931,-0.0016059993067756295,-0.020391147583723068,0.01677604950964451,-0.0026708953082561493,-0.04198808595538139
0.030813438817858696,-0.0015518690925091505,-0.020345423370599747,0.01652631349861622,-0.0030074077658355236,-0.042461659759283066
0.033744439482688904,-0.0015709396684542298,-0.021006274968385696,0.017028450965881348,-0.003237888915464282,-0.04159441217780113
0.03374536335468292,-0.0016237138770520687,-0.020916875451803207,0.016924714669585228,-0.003109445096924901,-0.0431210920214653
0.033600326627492905,-0.0018505232874304056,-0.020003343001008034,0.017924495041370392,-0.002844622591510415,-0.042972687631845474
0.03296040743589401,-0.0016918729525059462,-0.020799241960048676,0.017127197235822678,-0.0029376097954809666,-0.042537104338407516
0.03298592567443848,-0.0015386295272037387,-0.021471908316016197,0.01656913198530674,-0.0029959867242723703,-0.04175800085067749
0.033429455012083054,-0.0015459675341844559,-0.021079417318105698,0.016990473493933678,-0.003054441185668111,-0.043793726712465286
0.03426824137568474,-0.0014209903310984373,-0.02113097719848156,0.01682829111814499,-0.003422391600906849,-0.04429544135928154
0.033922936767339706,-0.0014718169113621116,-0.021155470982193947,0.017109472304582596,-0.0036034495569765568,-0.041970375925302505
0.03395477309823036,-0.001547567080706358,-0.02053452655673027,0.017249170690774918,-0.0033624533098191023,-0.042806606739759445
0.03395477309823036,-0.001547567080706358,-0.02053452655673027,0.017249170690774918,-0.0033624533098191023,-0.042806606739759445
0.03392089158296585,-0.0014923290582373738,-0.020471399649977684,0.0169401615858078,-0.003255275310948491,-0.04373682662844658
0.03410304710268974,-0.0018373861676082015,-0.021283991634845734,0.017235349863767624,-0.0032512701582163572,-0.04573885351419449
0.03412951901555061,-0.0016786032356321812,-0.021637341007590294,0.016891175881028175,-0.003379782196134329,-0.044380541890859604
0.03435676917433739,-0.001706624054349959,-0.02137688547372818,0.0169664416462183,-0.003187817521393299,-0.04316064715385437
0.034560177475214005,-0.0015657070325687528,-0.02079903706908226,0.017115017399191856,-0.00312751904129982,-0.04479669779539108
0.0351145938038826,-0.0015872479416429996,-0.021137457340955734,0.016659367829561234,-0.0030422518029809,-0.045462191104888916
0.03482644259929657,-0.0016861503245308995,-0.021327776834368706,0.01705647073686123,-0.0030817745719105005,-0.045033738017082214
0.03417154401540756,-0.0020810100249946117,-0.021183673292398453,0.016660844907164574,-0.0032265475019812584,-0.04497992619872093
0.03496977686882019,-0.0021185551304370165,-0.02107699029147625,0.016889486461877823,-0.0031522843055427074,-0.045255377888679504
0.036284249275922775,-0.002107714070007205,-0.021506182849407196,0.01659105345606804,-0.003245013300329447,-0.04572638124227524
0.03578968346118927,-0.0018453745869919658,-0.021572669968008995,0.016788294538855553,-0.0031579637434333563,-0.045761074870824814
0.033272165805101395,-0.0017572547076269984,-0.021190673112869263,0.017397234216332436,-0.003421582980081439,-0.04573402926325798
0.035609640181064606,-0.0017969683976843953,-0.02125387452542782,0.017533469945192337,-0.00370360491797328,-0.04627044498920441
0.03557980805635452,-0.0021128891967236996,-0.021848607808351517,0.017986897379159927,-0.003399216802790761,-0.04512377083301544
0.03539670258760452,-0.0021230881102383137,-0.02159622125327587,0.01754177361726761,-0.0031447496730834246,-0.0468440018594265
0.03643108159303665,-0.002138450276106596,-0.021422825753688812,0.01692304201424122,-0.003389630001038313,-0.046679090708494186
0.03462109714746475,-0.0019119982607662678,-0.02191600762307644,0.016400275751948357,-0.0043718572705984116,-0.047729454934597015
0.035265661776065826,-0.0018805155996233225,-0.02215767465531826,0.01700541377067566,-0.004621739964932203,-0.04612685367465019
0.0361398421227932,-0.0019457691814750433,-0.020956268534064293,0.017010372132062912,-0.0034110834822058678,-0.045284781605005264
0.036017633974552155,-0.0019917069002985954,-0.02148173563182354,0.017540065571665764,-0.002831876976415515,-0.0463152676820755
0.036021359264850616,-0.0020774577278643847,-0.022132670506834984,0.017453132197260857,-0.0024707482662051916,-0.04775342717766762
0.03559082746505737,-0.002008299808949232,-0.0218940582126379,0.016657646745443344,-0.0028431324753910303,-0.047755468636751175
0.035790570080280304,-0.0019122454104945064,-0.02092132717370987,0.017404301092028618,-0.0034977751784026623,-0.04597656428813934
0.035959865897893906,-0.0018842484569177032,-0.02124079130589962,0.017190365120768547,-0.003462843131273985,-0.04521013796329498
0.036437295377254486,-0.0017804681556299329,-0.02174016274511814,0.017876122146844864,-0.0032894923351705074,-0.047794029116630554
0.036437295377254486,-0.0017804681556299329,-0.02174016274511814,0.017876122146844864,-0.0032894923351705074,-0.047794029116630554
0.03609054908156395,-0.0017892401665449142,-0.021794581785798073,0.017237883061170578,-0.0031628853175789118,-0.047872964292764664
0.036039069294929504,-0.0019188494188711047,-0.021336650475859642,0.01640407182276249,-0.003128546057268977,-0.04761597514152527
0.036853913217782974,-0.002144965808838606,-0.021590743213891983,0.01659712754189968,-0.0032663787715137005,-0.04716121405363083
0.036853913217782974,-0.002144965808838606,-0.021590743213891983,0.01659712754189968,-0.0032663787715137005,-0.04716121405363083
0.036076322197914124,-0.0020589265041053295,-0.02148679457604885,0.016950244084000587,-0.0030807533767074347,-0.047629423439502716
0.03426392748951912,-0.0019879366736859083,-0.020969802513718605,0.017253948375582695,-0.002995830262079835,-0.04723691940307617
0.03690899908542633,-0.0019403310725465417,-0.02105700597167015,0.017133643850684166,-0.0028610536828637123,-0.04786718636751175
0.03795386478304863,-0.0018915953114628792,-0.020972710102796555,0.017877178266644478,-0.003095613792538643,-0.047967154532670975
0.037125926464796066,-0.0018711215816438198,-0.02095026522874832,0.01771351508796215,-0.0030767994467169046,-0.04709446802735329
0.03531751036643982,-0.0019168185535818338,-0.020857421681284904,0.01772426813840866,-0.0033735360484570265,-0.04820895567536354
0.036213673651218414,-0.0018920298898592591,-0.021019605919718742,0.01743689924478531,-0.003411788260564208,-0.04921728000044823
0.037143953144550323,-0.0018120042514055967,-0.021316584199666977,0.017797155305743217,-0.003438264364376664,-0.049036234617233276
0.03691908344626427,-0.0018149444367736578,-0.020814519375562668,0.017128508538007736,-0.0034454972483217716,-0.048657216131687164
0.03734041750431061,-0.001996254548430443,-0.020844388753175735,0.01654963754117489,-0.003355890279635787,-0.048296716064214706
0.0380234532058239,-0.0019694226793944836,-0.02108749933540821,0.017112113535404205,-0.0029845847748219967,-0.049320295453071594
0.0364205501973629,-0.0019356012344360352,-0.021467162296175957,0.01764206402003765,-0.0028474971186369658,-0.0503963828086853
0.03697017952799797,-0.001886316342279315,-0.021076511591672897,0.017960457131266594,-0.0030752874445170164,-0.048983968794345856
0.036742836236953735,-0.0016983018722385168,-0.02138454094529152,0.017597367987036705,-0.0032010579016059637,-0.049917515367269516
0.03670179098844528,-0.0017163585871458054,-0.021176980808377266,0.01786579005420208,-0.0031154982279986143,-0.05130245164036751
0.03674604743719101,-0.0019574982579797506,-0.020896941423416138,0.018008047714829445,-0.0030066980980336666,-0.05007535219192505
0.03709853067994118,-0.002173191402107477,-0.02121979556977749,0.017475426197052002,-0.0029271955136209726,-0.05017142370343208
0.03683725744485855,-0.0021707534324377775,-0.021695608273148537,0.01757703721523285,-0.003242058213800192,-0.050490133464336395
0.03679313510656357,-0.0020065102726221085,-0.021373864263296127,0.017442211508750916,-0.0034764378797262907,-0.05088251829147339
0.036997947841882706,-0.0019535901956260204,-0.02040978893637657,0.01763315685093403,-0.003432833356782794,-0.05113286152482033
0.03723088651895523,-0.001918775960803032,-0.021280359476804733,0.018082421272993088,-0.003422057954594493,-0.05086195468902588
0.03718635439872742,-0.0018962064059451222,-0.021857120096683502,0.01761491782963276,-0.0032113802153617144,-0.05068491771817207
0.03674895316362381,-0.0019578856881707907,-0.021496867761015892,0.01762813702225685,-0.0030301089864224195,-0.051176685839891434
0.03765026107430458,-0.0019985318649560213,-0.020775219425559044,0.01750248484313488,-0.002902994630858302,-0.05138374865055084
0.03765026107430458,-0.0019985318649560213,-0.020775219425559044,0.01750248484313488,-0.002902994630858302,-0.05138374865055084
0.03743390738964081,-0.0022458576131612062,-0.021368326619267464,0.01729598455131054,-0.003199010854586959,-0.05011221393942833
0.03694520518183708,-0.002022287342697382,-0.02155263163149357,0.01760857366025448,-0.0035265753977000713,-0.05219864472746849
0.03717922791838646,-0.0021249023266136646,-0.020621009171009064,0.017307080328464508,-0.0037378245033323765,-0.052187230437994
0.0372437946498394,-0.0019716762471944094,-0.020907782018184662,0.0176574494689703,-0.0037566092796623707,-0.05100380256772041
0.037657663226127625,-0.002292966702952981,-0.021680574864149094,0.01746569573879242,-0.0036470629274845123,-0.05201707035303116
0.03777255490422249,-0.002336560981348157,-0.021929914131760597,0.017371121793985367,-0.003474810626357794,-0.05365624651312828
0.03806479647755623,-0.0021985953208059072,-0.021121034398674965,0.018050679937005043,-0.003607416758313775,-0.0513431616127491
0.038082584738731384,-0.002064288826659322,-0.021067749708890915,0.01827559992671013,-0.003362451447173953,-0.05177652835845947
0.03831707686185837,-0.0020627679768949747,-0.021793663501739502,0.017902469262480736,-0.003553363960236311,-0.05272812396287918
0.03799373656511307,-0.002029481576755643,-0.021809808909893036,0.017697077244520187,-0.0037542684003710747,-0.054845016449689865
0.037719614803791046,-0.0020111401099711657,-0.02147054113447666,0.01674658991396427,-0.00392770953476429,-0.05215767025947571
0.0388714075088501,-0.00217705057002604,-0.0215634535998106,0.016945987939834595,-0.003982022870332003,-0.05241773650050163
0.03728598728775978,-0.0020334424916654825,-0.02167758345603943,0.017272913828492165,-0.004209007136523724,-0.05422510951757431
0.03768060728907585,-0.0018521377351135015,-0.020941156893968582,0.017864292487502098,-0.0041714380495250225,-0.053806550800800323
0.03896084427833557,-0.0020210363436490297,-0.021347446367144585,0.01754302717745304,-0.003970899619162083,-0.05366910621523857
0.03881737217307091,-0.0018766109133139253,-0.022211112082004547,0.017256584018468857,-0.0034800071734935045,-0.05406010150909424
0.03964895009994507,-0.002087382832542062,-0.021583186462521553,0.01667659915983677,-0.003568761982023716,-0.05373530834913254
0.03886466473340988,-0.0020266331266611814,-0.021012336015701294,0.017278609797358513,-0.003351712366566062,-0.05436151847243309
0.03798267990350723,-0.0020278822630643845,-0.021365322172641754,0.0175600815564394,-0.0041305990889668465,-0.054865382611751556
0.03876132890582085,-0.0018336607608944178,-0.021464074030518532,0.01724187657237053,-0.004166046157479286,-0.05493932217359543
0.039482928812503815,-0.001874792156741023,-0.021552935242652893,0.017739372327923775,-0.004374064039438963,-0.054573170840740204
0.03874360769987106,-0.0017745193326845765,-0.020948942750692368,0.016906321048736572,-0.0036614660639315844,-0.05370841547846794
0.03994050249457359,-0.0019926095847040415,-0.02135826274752617,0.016879621893167496,-0.0031360345892608166,-0.05485840514302254
0.03994050249457359,-0.0019926095847040415,-0.02135826274752617,0.016879621893167496,-0.0031360345892608166,-0.05485840514302254
0.03923330828547478,-0.0019971125293523073,-0.021473746746778488,0.017455626279115677,-0.002853022888302803,-0.056116122752428055
0.03912000358104706,-0.002199544571340084,-0.02137760818004608,0.016582710668444633,-0.0031577025074511766,-0.05714484304189682
0.040183741599321365,-0.0022150822915136814,-0.020772431045770645,0.016855264082551003,-0.0034438229631632566,-0.05417034029960632
0.039154957979917526,-0.0021134086418896914,-0.02113226056098938,0.017208535224199295,-0.0035263497848063707,-0.05470119044184685
0.039848554879426956,-0.002035201760008931,-0.02190282568335533,0.018096016719937325,-0.003596819005906582,-0.057017579674720764
