davideferrari95/blind_handover_controller/data/Test 188 - [2024-02-08 -- 11-27-14]/joint_states_data.csv
shoulder_pan_joint,shoulder_lift_joint,elbow_joint,wrist_1_joint,wrist_2_joint,wrist_3_joint
0.0027757547795772552,-0.005890938453376293,-0.013318661600351334,0.02211533859372139,-0.0,0.0021873677615076303
0.0034025092609226704,-0.006295707076787949,-0.012866373173892498,0.02254525199532509,-0.0,0.0020005209371447563
0.0034025092609226704,-0.006295707076787949,-0.012866373173892498,0.02254525199532509,-0.0,0.0020005209371447563
0.003775955643504858,-0.006684506312012672,-0.013351011089980602,0.022453732788562775,-0.0,0.002222249051555991
0.003236297518014908,-0.006907522678375244,-0.014070308767259121,0.02236923761665821,-0.0,0.0026340330950915813
0.003168146824464202,-0.006912951823323965,-0.014181047677993774,0.022595759481191635,-0.0,0.002721691271290183
0.0034072245471179485,-0.006542026996612549,-0.014214931055903435,0.02131812460720539,-0.0,0.0025140054058283567
0.0036824357230216265,-0.006626660469919443,-0.01378979068249464,0.022823287174105644,-0.0,0.0021830021869391203
0.0038268640637397766,-0.006854575593024492,-0.013759591616690159,0.022883422672748566,-0.0,0.0020516477525234222
0.0038808484096080065,-0.00640961155295372,-0.013861386105418205,0.02255891263484955,-0.0,0.0019482356728985906
0.003433197969570756,-0.007119531277567148,-0.013570418581366539,0.021877534687519073,-0.0,0.0019221354741603136
0.0030908507760614157,-0.006890908349305391,-0.013865092769265175,0.021351231262087822,-0.0,0.002117864554747939
0.0034101593773812056,-0.006926898844540119,-0.013622358441352844,0.021477283909916878,-0.0,0.002193692373111844
0.0031949635595083237,-0.007184517104178667,-0.013917260803282261,0.021454650908708572,-0.0,0.0025655829813331366
0.0033893485087901354,-0.007005035877227783,-0.013286364264786243,0.02112669125199318,-0.0,0.0025471756234765053
0.0034267299342900515,-0.00761672155931592,-0.013733617961406708,0.020962662994861603,-0.0,0.0024648241233080626
0.003328796476125717,-0.007593370974063873,-0.013334734365344048,0.02136518992483616,-0.0,0.0024235357996076345
0.003085880307480693,-0.0072289565578103065,-0.013954554684460163,0.02131546102464199,-0.0,0.0021601514890789986
0.0033437188249081373,-0.006993443705141544,-0.013447982259094715,0.02082398533821106,-0.0,0.0020650080405175686
0.0037408871576189995,-0.007335619069635868,-0.014101461507380009,0.020639067515730858,-0.0,0.0021726153790950775
0.003824231680482626,-0.007848730310797691,-0.013585195876657963,0.020859336480498314,-0.0,0.00210974202491343
0.0034697873052209616,-0.007427621632814407,-0.013762752525508404,0.021170873194932938,-0.0,0.00239583314396441
0.0034170723520219326,-0.008107573725283146,-0.01351211778819561,0.020705893635749817,-0.0,0.002368378220126033
0.003112563630566001,-0.00850366149097681,-0.014075513929128647,0.020400505512952805,-0.0,0.002593117766082287
0.0032405380625277758,-0.007937563583254814,-0.013736190274357796,0.02038140781223774,-0.0,0.0026967909652739763
0.0032405380625277758,-0.007937563583254814,-0.013736190274357796,0.02038140781223774,-0.0,0.0026967909652739763
0.003633450483903289,-0.007288804743438959,-0.013240157626569271,0.020235344767570496,-0.0,0.002579603809863329
0.0035261784214526415,-0.007806018926203251,-0.013191434554755688,0.02060852386057377,-0.0,0.0025379073340445757
0.003525159554556012,-0.007625550962984562,-0.0134513508528471,0.020753532648086548,-0.0,0.002352047013118863
0.003525159554556012,-0.007625550962984562,-0.0134513508528471,0.020753532648086548,-0.0,0.002352047013118863
0.003632731968536973,-0.007326506078243256,-0.013125169090926647,0.020208312198519707,-0.0,0.002417896408587694
0.0035801276098936796,-0.007731088437139988,-0.013204028829932213,0.020290521904826164,-0.0,0.0024271525908261538
0.0035230328794568777,-0.0076932222582399845,-0.012741060927510262,0.020630812272429466,-0.0,0.00232334085740149
0.00364852836355567,-0.008125840686261654,-0.01340631116181612,0.02069316804409027,-0.0,0.0024259001947939396
0.003931405022740364,-0.007789101451635361,-0.012915394268929958,0.02088640257716179,-0.0,0.0023103076964616776
0.003914441913366318,-0.00826707761734724,-0.012784335762262344,0.021051185205578804,-0.0,0.0022458420135080814
0.0038928890135139227,-0.007898657582700253,-0.012685642577707767,0.02087891846895218,-0.0,0.0021472452208399773
0.003737933002412319,-0.007476215250790119,-0.012784365564584732,0.020498448982834816,-0.0,0.002270112745463848
0.004135604947805405,-0.007852327078580856,-0.012446288019418716,0.02065121755003929,-0.0,0.002213000552728772
0.00414678081870079,-0.007762027904391289,-0.012953090481460094,0.02080717124044895,-0.0,0.0023408278357237577
0.0035697659477591515,-0.007764746434986591,-0.012141686864197254,0.02093871310353279,-0.0,0.0023812439758330584
0.0035147271119058132,-0.007637545000761747,-0.012743046507239342,0.021383967250585556,-0.0,0.0022675408981740475
0.004155843984335661,-0.008776831440627575,-0.011990719474852085,0.021584048867225647,-0.0,0.0023453282192349434
0.004199345130473375,-0.008328789845108986,-0.012472770176827908,0.020867569372057915,-0.0,0.002079783705994487
0.004146395716816187,-0.00782492570579052,-0.012788757681846619,0.019888557493686676,-0.0,0.0018558698939159513
0.003855382092297077,-0.007919535972177982,-0.012400676496326923,0.019993068650364876,-0.0,0.0017566682072356343
0.0035569630563259125,-0.008450185880064964,-0.012601776979863644,0.020110560581088066,-0.0,0.002042508916929364
0.003783934749662876,-0.008492921479046345,-0.01224260963499546,0.019931191578507423,-0.0,0.002544660121202469
0.0038633437361568213,-0.007852587848901749,-0.01280289702117443,0.020056620240211487,-0.0,0.0027264857199043036
0.0032590606715530157,-0.008212940767407417,-0.012358002364635468,0.02002185955643654,-0.0,0.002801384311169386
0.002475132467225194,-0.008875234052538872,-0.013069771230220795,0.019905338063836098,-0.0,0.002362428931519389
0.001628741156309843,-0.007801371160894632,-0.012731948867440224,0.020740598440170288,-0.0,0.0021373385097831488
0.0014041867107152939,-0.008045106194913387,-0.012927801348268986,0.020938148722052574,-0.0,0.0019456397276371717
0.001025279751047492,-0.007886800915002823,-0.012589211575686932,0.020784791558980942,-3.636506562543218e-06,0.002071434399113059
0.0010434346040710807,-0.008449336513876915,-0.012507682666182518,0.019736433401703835,-2.374378880176664e-07,0.002474331995472312
0.0021061194129288197,-0.007835539989173412,-0.013021716848015785,0.019465122371912003,-1.550299622010698e-08,0.0027129168156534433
0.002273526741191745,-0.008066150359809399,-0.01256457157433033,0.019093859940767288,-1.0122348514940427e-09,0.0026769302785396576
0.002273526741191745,-0.008066150359809399,-0.01256457157433033,0.019093859940767288,-1.0122348514940427e-09,0.0026769302785396576
0.002192666055634618,-0.008301378227770329,-0.012949728406965733,0.018976537510752678,-6.609170155602584e-11,0.002614119555801153
0.0016181501559913158,-0.007736956235021353,-0.012995141558349133,0.019736148416996002,-2.8175926218912406e-13,0.0021063266322016716
0.0011439735535532236,-0.0077386703342199326,-0.012682088650763035,0.019332248717546463,-1.8396867823610233e-14,0.002088839653879404
0.00118553068023175,-0.007992785423994064,-0.013569585978984833,0.019395675510168076,-1.2011839870066645e-15,0.0023051619064062834
0.0016013726126402617,-0.007801546715199947,-0.013199908658862114,0.019381990656256676,-7.842873273252129e-17,0.002600007224828005
0.0020162642467767,-0.007052242290228605,-0.012620670720934868,0.019092142581939697,-5.1208361171187665e-18,0.0024981549941003323
0.00233341078273952,-0.006191186606884003,-0.013306085020303726,0.019660113379359245,-3.343540033158116e-19,0.002676321193575859
0.0022162513341754675,-0.0063362643122673035,-0.012253698892891407,0.019626358523964882,-2.1830928108279632e-20,0.0028290648479014635
0.001960469875484705,-0.00657592574134469,-0.012852386571466923,0.019199805334210396,-1.4254035486392552e-21,0.002746519399806857
0.0019125849939882755,-0.006092124618589878,-0.012747607193887234,0.018856236711144447,-9.306867363827145e-23,0.0025863500777632
0.0019092794973403215,-0.005978965666145086,-0.013498976826667786,0.01965646632015705,-6.076719404079574e-24,0.0024948681239038706
0.001952668186277151,-0.005940708797425032,-0.012890488840639591,0.01943986676633358,-3.9676639301038176e-25,0.0025414470583200455
0.002423967467620969,-0.0061855860985815525,-0.012950707226991653,0.019744964316487312,-2.590601031967128e-26,0.002474541775882244
0.0026448946446180344,-0.00612455140799284,-0.013051606714725494,0.019449438899755478,-1.6914772477932446e-27,0.00265441439114511
0.002453224267810583,-0.005802037660032511,-0.012782166711986065,0.01858312450349331,-1.1044138136235447e-28,0.0026170865166932344
0.0022061269264668226,-0.006000333931297064,-0.0131437499076128,0.01870325580239296,-7.211033043537385e-30,0.0025178538635373116
0.0020846379920840263,-0.005861719138920307,-0.012444010935723782,0.019010744988918304,-4.708289337755325e-31,0.002445252612233162
0.0020131063647568226,-0.005920073948800564,-0.01318466104567051,0.01868874579668045,-3.074176336157463e-32,0.0022622577380388975
0.001963462680578232,-0.005911028012633324,-0.012401149608194828,0.019089842215180397,-2.0072173991275125e-33,0.002333956304937601
0.0022818183060735464,-0.005577965639531612,-0.012605244293808937,0.019394081085920334,-1.310569557196937e-34,0.0027201813645660877
0.0022216602228581905,-0.005540759302675724,-0.012840821407735348,0.019310930743813515,-8.557082299320364e-36,0.0031504773069173098
0.0021539980079978704,-0.0055708372965455055,-0.013130586594343185,0.01930161938071251,-5.5871635181146166e-37,0.0031330555211752653
0.0019521801732480526,-0.006118125282227993,-0.012848526239395142,0.01860702596604824,-3.6480185090568325e-38,0.002871718257665634
0.002103220671415329,-0.0056974394246935844,-0.012413369491696358,0.018379010260105133,-2.3818948997946446e-39,0.002573783975094557
0.0023225354962050915,-0.005712246987968683,-0.013153739273548126,0.01936025172472,-1.5552030746616117e-40,0.0025494759902358055
0.0026031231973320246,-0.005525941960513592,-0.012094708159565926,0.02007988654077053,-1.0153808672497624e-41,0.0024798125959932804
0.0027010806370526552,-0.005948600359261036,-0.013115795329213142,0.01936432719230652,-6.628141736256385e-43,0.002870360855013132
0.002681545214727521,-0.005713366437703371,-0.012436303310096264,0.01897064782679081,-4.344025239406933e-44,0.002969985594972968
0.002681545214727521,-0.005713366437703371,-0.012436303310096264,0.01897064782679081,-4.344025239406933e-44,0.002969985594972968
0.0025816448032855988,-0.006005847826600075,-0.012302057817578316,0.018273236230015755,-0.0,0.0027168334927409887
0.002648858353495598,-0.005734408274292946,-0.012289502657949924,0.01874593272805214,-0.0,0.0026280067395418882
0.002786181401461363,-0.0063942112028598785,-0.01308270450681448,0.01907421089708805,-0.0,0.002738902810961008
0.002736844588071108,-0.006176253315061331,-0.012635570950806141,0.018913395702838898,-0.0,0.0027234707958996296
0.0028331787325441837,-0.0059920609928667545,-0.012764401733875275,0.01946735568344593,-0.0,0.0028015351854264736
0.0027696287725120783,-0.0060258107259869576,-0.01248935703188181,0.01936979405581951,-0.0,0.0024696998298168182
0.0027696287725120783,-0.0060258107259869576,-0.01248935703188181,0.01936979405581951,-0.0,0.0024696998298168182
0.0025991809088736773,-0.006241197697818279,-0.012468904256820679,0.019938798621296883,-0.0,0.002648207126185298
0.0029880416113883257,-0.006150309462100267,-0.013242358341813087,0.01975097507238388,-0.0,0.0031439904123544693
0.0030587196815758944,-0.006092436145991087,-0.013221973553299904,0.018868880346417427,-0.0,0.0033752191811800003
0.003459191182628274,-0.005829666741192341,-0.01326815690845251,0.019472867250442505,-0.0,0.003156183287501335
0.0032117345836013556,-0.00646864203736186,-0.012382899411022663,0.01872340217232704,-0.0,0.002853980055078864
0.0030173875857144594,-0.006184190046042204,-0.012457754462957382,0.018068598583340645,-0.0,0.0026076603680849075
0.003039188217371702,-0.00631435913965106,-0.0129679711535573,0.018818069249391556,-0.0,0.002518863882869482
0.003171770367771387,-0.006063746754080057,-0.01269497536122799,0.01901979371905327,-0.0,0.002412516623735428
0.003055673325434327,-0.0058607542887330055,-0.01277497410774231,0.019150670617818832,-0.0,0.0027654538862407207
0.0029778792522847652,-0.006235424429178238,-0.012575768865644932,0.01967722550034523,-0.0,0.0030038875993341208
0.0029778792522847652,-0.006235424429178238,-0.012575768865644932,0.01967722550034523,-0.0,0.0030038875993341208
0.0031623532995581627,-0.006594324950128794,-0.012999548576772213,0.018941238522529602,-0.0,0.0027729126159101725
0.0031623532995581627,-0.006594324950128794,-0.012999548576772213,0.018941238522529602,-0.0,0.0027729126159101725
0.003223494626581669,-0.006317787803709507,-0.012816958129405975,0.018722059205174446,-0.0,0.002675271825864911
0.003143219044432044,-0.005847882479429245,-0.012243346311151981,0.018776345998048782,-0.0,0.0025422631297260523
0.0031541476491838694,-0.006014518439769745,-0.012601345777511597,0.018339958041906357,-0.0,0.0024739867076277733
0.003469928167760372,-0.005823885090649128,-0.012558046728372574,0.01818234845995903,-0.0,0.0024571120738983154
0.003244176972657442,-0.005913321394473314,-0.012232852168381214,0.01756863296031952,-0.0,0.002916949335485697
0.003244176972657442,-0.005913321394473314,-0.012232852168381214,0.01756863296031952,-0.0,0.002916949335485697
0.003353805746883154,-0.006220710929483175,-0.012233748100697994,0.018311355262994766,-0.0,0.0030105221085250378
0.0036269647534936666,-0.006339501589536667,-0.011940237134695053,0.018331751227378845,-0.0,0.002870031865313649
0.003426925977692008,-0.006011020392179489,-0.012916780076920986,0.01769101992249489,-0.0,0.002813090570271015
0.0035707915667444468,-0.006336114834994078,-0.01264045387506485,0.01760527677834034,-0.0,0.002797124907374382
0.003823270555585623,-0.006136163603514433,-0.012083079665899277,0.017552219331264496,-0.0,0.0024646571837365627
0.003453506389632821,-0.006357510108500719,-0.012151642702519894,0.01786430925130844,-0.0,0.002439936390146613
0.003528768662363291,-0.006361338309943676,-0.011836480349302292,0.01796145923435688,-0.0,0.0022865061182528734
0.0036328204441815615,-0.005856607109308243,-0.012567688710987568,0.017534060403704643,-0.0,0.002284855581820011
0.003706890856847167,-0.00602111779153347,-0.012056832201778889,0.01817769929766655,-0.0,0.0026224248576909304
0.004092790186405182,-0.00666108587756753,-0.01267473865300417,0.0182562917470932,-0.0,0.002857424784451723
0.004203504882752895,-0.006474451161921024,-0.012393179349601269,0.01806260086596012,-0.0,0.0029630614444613457
0.003454801393672824,-0.0059183198027312756,-0.012073415331542492,0.0185682475566864,-0.0,0.002854031277820468
0.003484621411189437,-0.005494414363056421,-0.01241556741297245,0.018577396869659424,-0.0,0.002868753857910633
0.0036292336881160736,-0.005680507980287075,-0.011511293239891529,0.018547123298048973,-0.0,0.002853816607967019
0.004151032771915197,-0.006308773998171091,-0.012439412996172905,0.018780574202537537,-0.0,0.00292226648889482
0.0036799367517232895,-0.006392487324774265,-0.012582243420183659,0.018155531957745552,-0.0,0.002791274804621935
0.0035743059124797583,-0.006003327667713165,-0.012200395576655865,0.01794358715415001,-0.0,0.00279563432559371
0.0035743059124797583,-0.006003327667713165,-0.012200395576655865,0.01794358715415001,-0.0,0.00279563432559371
0.003761471249163151,-0.006055760663002729,-0.012586505152285099,0.017876101657748222,-0.0,0.0025643573608249426
0.003761471249163151,-0.006055760663002729,-0.012586505152285099,0.017876101657748222,-0.0,0.0025643573608249426
0.004304851405322552,-0.006251059006899595,-0.012513650581240654,0.017281420528888702,-0.0,0.002750287763774395
0.0041617960669100285,-0.005824886728078127,-0.012838262133300304,0.0173221193253994,-0.0,0.0032088763546198606
0.003510331269353628,-0.005568267311900854,-0.012286679819226265,0.017726873978972435,-0.0,0.003102468326687813
0.003510331269353628,-0.005568267311900854,-0.012286679819226265,0.017726873978972435,-0.0,0.003102468326687813
0.003950424026697874,-0.00617626216262579,-0.012327158823609352,0.017603080719709396,-0.0,0.0029623189475387335
0.004219167400151491,-0.00614354619756341,-0.012074293568730354,0.01724819652736187,-0.0,0.002905764151364565
0.004083072301000357,-0.005953683052212,-0.012830561026930809,0.01712256297469139,-0.0,0.0028095333836972713
0.0038756798021495342,-0.006030545569956303,-0.012346219271421432,0.01752517931163311,-0.0,0.0030938086565583944
0.0037969115655869246,-0.005523686297237873,-0.012495806440711021,0.017227575182914734,-0.0,0.002974518109112978
0.0038119498640298843,-0.006032290868461132,-0.012509037740528584,0.017852846533060074,-0.0,0.0028178184293210506
0.0042660715989768505,-0.00602676859125495,-0.01277416292577982,0.017198748886585236,-0.0,0.002628964837640524
0.0041815051808953285,-0.0062131136655807495,-0.01308523304760456,0.016629885882139206,-0.0,0.0026058852672576904
0.0035954087506979704,-0.005642496515065432,-0.012374809011816978,0.016807183623313904,-0.0,0.0029274565167725086
0.0038627367466688156,-0.005731335841119289,-0.012359458953142166,0.016407305374741554,0.00020598566334228963,0.003007962368428707
0.003698231652379036,-0.006214655935764313,-0.012167996726930141,0.017069455236196518,0.0003440600703470409,0.002926587825641036
0.0032034788746386766,-0.005671796388924122,-0.012919946573674679,0.01705617643892765,0.00032897654455155134,0.0029500112868845463
0.00288558891043067,-0.005961888935416937,-0.012501447461545467,0.01706131547689438,0.0003602445067372173,0.0026652312371879816
0.00288558891043067,-0.005961888935416937,-0.012501447461545467,0.01706131547689438,0.0003602445067372173,0.0026652312371879816
0.0031628673896193504,-0.005342779215425253,-0.012652864679694176,0.016882192343473434,0.0003243139653932303,0.002650374546647072
0.0033255205489695072,-0.0056020356714725494,-0.012218371033668518,0.016911650076508522,0.0003534252173267305,0.002901866100728512
0.003369064535945654,-0.006127652712166309,-0.012773764319717884,0.016120105981826782,0.0003375789092388004,0.002932704286649823
0.003174009034410119,-0.005675116553902626,-0.012728195637464523,0.016918985173106194,0.00035438957274891436,0.0027673097793012857
0.0033870881889015436,-0.005842363461852074,-0.013608993962407112,0.017169324681162834,0.00034787942422553897,0.002511942060664296
0.0032935827039182186,-0.005352220963686705,-0.012416857294738293,0.017085762694478035,0.00033329325378872454,0.0023655248805880547
0.0032753620762377977,-0.005738852545619011,-0.01292840950191021,0.01709071174263954,0.0003939762245863676,0.0022043604403734207
0.0032753620762377977,-0.005738852545619011,-0.01292840950191021,0.01709071174263954,0.0003939762245863676,0.0022043604403734207
0.003369553480297327,-0.006041950546205044,-0.012875000014901161,0.017082579433918,0.00034023329499177635,0.0028333605732768774
0.003369553480297327,-0.006041950546205044,-0.012875000014901161,0.017082579433918,0.00034023329499177635,0.0028333605732768774
0.003566419705748558,-0.005841607693582773,-0.012636921368539333,0.016407329589128494,0.0003628353006206453,0.0032726810313761234
0.0033069441560655832,-0.005670757964253426,-0.012587407603859901,0.017235513776540756,0.00035355359432287514,0.0030204332433640957
0.003283420344814658,-0.005474759265780449,-0.012698102742433548,0.01677526906132698,0.00033270870335400105,0.0027050883509218693
0.003386385040357709,-0.0055380030535161495,-0.011942633427679539,0.01630140282213688,0.0003388929180800915,0.002326731104403734
0.0034160963259637356,-0.005786424968391657,-0.012354251928627491,0.01598505489528179,0.00032752996776252985,0.0022825433406978846
0.003358934773132205,-0.006012068595737219,-0.012868249788880348,0.015804361552000046,0.00034995877649635077,0.002391754649579525
0.003363999305292964,-0.0054496880620718,-0.012418515980243683,0.01600584015250206,0.0003387714677955955,0.002999079180881381
0.003388884011656046,-0.005558226257562637,-0.012149038724601269,0.017034316435456276,0.00034972664434462786,0.0030714464373886585
0.0034614182077348232,-0.005788965616375208,-0.012609574012458324,0.016388768330216408,0.00034849936491809785,0.0028745613526552916
0.003386629978194833,-0.005373731721192598,-0.012338302098214626,0.0164689552038908,0.0003727978328242898,0.0025424007326364517
0.003431538585573435,-0.0056671942584216595,-0.01283208467066288,0.017458373680710793,0.0003627274709288031,0.0025371802039444447
0.0036401262041181326,-0.005207823123782873,-0.012039342895150185,0.01697542332112789,0.00036843842826783657,0.0027563339099287987
0.0038059367798268795,-0.005453891586512327,-0.012357267551124096,0.01679721660912037,0.0003721557732205838,0.003339985618367791
0.003866992425173521,-0.004976400174200535,-0.012079169973731041,0.016698218882083893,0.000352968811057508,0.0036832888144999743
0.0038054054602980614,-0.004450371488928795,-0.011969507671892643,0.016410987824201584,0.0003695631748996675,0.0034631509333848953
0.003915113862603903,-0.0045802779495716095,-0.012694991193711758,0.01673020049929619,0.0003620285424403846,0.003269864246249199
0.003973788116127253,-0.004982347600162029,-0.012137492187321186,0.016190920025110245,0.00047280621947720647,0.003192741656675935
0.003599029267206788,-0.0049050492234528065,-0.01225592102855444,0.01669216901063919,0.0005106322932988405,0.0032373908907175064
0.003483242355287075,-0.004932784009724855,-0.01154050137847662,0.016469255089759827,0.00048602811875753105,0.003427175572142005
0.0036681215278804302,-0.004977506585419178,-0.011941194534301758,0.01669657602906227,0.00050182337872684,0.003661512630060315
0.0037990512792021036,-0.004899000283330679,-0.012356162071228027,0.016892725601792336,0.0004805530479643494,0.003763512009754777
0.004244328010827303,-0.00479316059499979,-0.012035598047077656,0.016541728749871254,0.000502731476444751,0.0034517410676926374
0.0037019860465079546,-0.004753514192998409,-0.01198445912450552,0.016600005328655243,0.0004770125087816268,0.0031786507461220026
0.00358835537917912,-0.004625146742910147,-0.011387152597308159,0.016422465443611145,0.0005600529257208109,0.0031112642027437687
0.00358835537917912,-0.004625146742910147,-0.011387152597308159,0.016422465443611145,0.0005600529257208109,0.0031112642027437687
0.00367823988199234,-0.0047285789623856544,-0.011840189807116985,0.016785217449069023,0.0005142175941728055,0.003353113541379571
0.0041298288851976395,-0.004759220406413078,-0.011954708956182003,0.016491292044520378,0.000548265699762851,0.0036765148397535086
0.004225416574627161,-0.004590030759572983,-0.011824378743767738,0.016336806118488312,0.0005433039041236043,0.003772404510527849
0.004079774953424931,-0.004575441591441631,-0.01207834854722023,0.016508691012859344,0.0005341944051906466,0.0035467238631099463
0.004023340530693531,-0.004611260257661343,-0.011213235557079315,0.016452854499220848,0.0005465306458063424,0.0033066272735595703
0.0040283240377902985,-0.004429353401064873,-0.011715861037373543,0.016903337091207504,0.0005230688839219511,0.0032888278365135193
0.004225786775350571,-0.004947944078594446,-0.011295142583549023,0.016603494063019753,0.0005734669975936413,0.003788268892094493
0.004196766763925552,-0.004539307206869125,-0.012247909791767597,0.01633632741868496,0.000560638727620244,0.004160637967288494
0.003996782470494509,-0.004556084517389536,-0.011199261993169785,0.016231313347816467,0.000572950579226017,0.004178379662334919
0.0038380033802241087,-0.004490377381443977,-0.011119869537651539,0.01627802662551403,0.0005429527373053133,0.0035639635752886534
0.004394279792904854,-0.004763112403452396,-0.010852809064090252,0.01595204696059227,0.0005675215506926179,0.0035496510099619627
0.004646328277885914,-0.004776000510901213,-0.010844062082469463,0.01593945547938347,0.0005301320343278348,0.0032822333741933107
0.004351072479039431,-0.004859236069023609,-0.01133221760392189,0.015416622161865234,0.0005970333586446941,0.0035134104546159506
0.00408290047198534,-0.004781061317771673,-0.010961205698549747,0.016109881922602654,0.0005942221032455564,0.003986886702477932
0.00418549869209528,-0.004905033390969038,-0.011279103346168995,0.016455229371786118,0.0006061433814466,0.003582688746973872
0.00418549869209528,-0.004905033390969038,-0.011279103346168995,0.016455229371786118,0.0006061433814466,0.003582688746973872
0.004278247710317373,-0.00500941276550293,-0.010808581486344337,0.016566364094614983,0.0006319700623862445,0.003635160159319639
0.004556735046207905,-0.004442306701093912,-0.01164384838193655,0.01634909212589264,0.0007602697587572038,0.003782563842833042
0.004740796517580748,-0.004282223526388407,-0.011789100244641304,0.015909695997834206,0.0008007855503819883,0.003879085648804903
0.004670040216296911,-0.004668951500207186,-0.010729793459177017,0.015368697233498096,0.0008149982895702124,0.00388801796361804
0.004260691814124584,-0.004930208902806044,-0.010848955251276493,0.01591358333826065,0.0008042900008149445,0.003469642484560609
0.004181582015007734,-0.004817167762666941,-0.010686179623007774,0.015457686968147755,0.0007447373354807496,0.0033860518597066402
0.003972221631556749,-0.004353505093604326,-0.011791856959462166,0.01614246889948845,0.000676257535815239,0.0035658059641718864
0.003972221631556749,-0.004353505093604326,-0.011791856959462166,0.01614246889948845,0.000676257535815239,0.0035658059641718864
0.003881894750520587,-0.004233056213706732,-0.01099537592381239,0.016191992908716202,0.0005983486189506948,0.004296461585909128
0.003881894750520587,-0.004233056213706732,-0.01099537592381239,0.016191992908716202,0.0005983486189506948,0.004296461585909128
0.004783885087817907,-0.004566775169223547,-0.01162042934447527,0.015644269064068794,0.0006194462766870856,0.004062958061695099
0.00445548864081502,-0.004666588734835386,-0.011138436384499073,0.01512034423649311,0.000595922872889787,0.0034289418254047632
0.00445548864081502,-0.004666588734835386,-0.011138436384499073,0.01512034423649311,0.000595922872889787,0.0034289418254047632
0.004052815958857536,-0.004454432521015406,-0.011296656914055347,0.015478372573852539,0.0006194495945237577,0.0032560129184275866
0.004660506267100573,-0.0042835380882024765,-0.01180462446063757,0.015617979690432549,0.0006753572379238904,0.0034375067334622145
0.004725112114101648,-0.0044540660455822945,-0.011719552800059319,0.01529258769005537,0.0006250435253605247,0.003637859830632806
0.004846969619393349,-0.00467950152233243,-0.01182264182716608,0.015282238833606243,0.0006485854391939938,0.003708916250616312
0.004297009669244289,-0.004602784290909767,-0.011773869395256042,0.015503893606364727,0.0006341344560496509,0.0038305805064737797
0.004375362768769264,-0.0045547569170594215,-0.011577852070331573,0.014573706313967705,0.0006171131390146911,0.0038986809086054564
0.004525816533714533,-0.004123860038816929,-0.012277592904865742,0.014976704493165016,0.0006594688748009503,0.0036010423209518194
0.0045498148538172245,-0.004414405208081007,-0.011351785622537136,0.014843645505607128,0.0006031527300365269,0.003608978120610118
0.004893493838608265,-0.004474770277738571,-0.011711183935403824,0.015462920069694519,0.0006324459100142121,0.00379622052423656
0.004830461461097002,-0.004329377319663763,-0.011741439811885357,0.015689605847001076,0.0006416308460757136,0.0036738887429237366
0.004792574793100357,-0.004263291135430336,-0.011626394465565681,0.01571093685925007,0.0006020835717208683,0.0034791447687894106
0.004743565339595079,-0.004330817610025406,-0.013569413684308529,0.015389518812298775,0.0006238914211280644,0.003670733654871583
0.0046873269602656364,-0.004409499000757933,-0.011318132281303406,0.015503057278692722,0.0006576213054358959,0.0034472125116735697
0.004234438296407461,-0.004507012665271759,-0.011534908786416054,0.01547260582447052,0.0006573559949174523,0.0035294536501169205
0.004231296945363283,-0.004572514910250902,-0.01230672188103199,0.015581890940666199,0.0006330623291432858,0.003623495576903224
0.004524030722677708,-0.00416307570412755,-0.01182734128087759,0.0158323235809803,0.0006577139720320702,0.0037910633254796267
0.005229662638157606,-0.004142101388424635,-0.011843761429190636,0.015527603216469288,0.0006637407932430506,0.003875274443998933
0.004700399469584227,-0.004109855275601149,-0.011485472321510315,0.016012702137231827,0.0006258073844946921,0.0038510351441800594
0.004555550403892994,-0.004390542395412922,-0.012187282554805279,0.01551393698900938,0.0006851255893707275,0.0036993890535086393
0.004555550403892994,-0.004390542395412922,-0.012187282554805279,0.01551393698900938,0.0006851255893707275,0.0036993890535086393
0.0045045665465295315,-0.004470139741897583,-0.012183642946183681,0.01565072499215603,0.0006108066882006824,0.0033441924024373293
0.004605642519891262,-0.004262255970388651,-0.011481747962534428,0.014809200540184975,0.0006384938023984432,0.00324149033986032
0.004734921734780073,-0.004276374354958534,-0.012092781253159046,0.015250179916620255,0.0006470389780588448,0.003465137677267194
0.004507315810769796,-0.004072900395840406,-0.012202365323901176,0.015294454991817474,0.0006282295798882842,0.00372279342263937
0.004535440821200609,-0.003946896642446518,-0.011410173960030079,0.014731825329363346,0.0006226163823157549,0.003621790325269103
0.004620353225618601,-0.0038578673265874386,-0.011376344598829746,0.01505693793296814,0.0005825236439704895,0.0036927219480276108
0.0046004061587154865,-0.004037628881633282,-0.01188691146671772,0.01460178755223751,0.0006138817989267409,0.0037702766712754965
0.004654527176171541,-0.004064731765538454,-0.011366553604602814,0.015002087689936161,0.0006248260615393519,0.0036867880262434483
0.00512653449550271,-0.004392375238239765,-0.012324711307883263,0.014549518935382366,0.0005878267111256719,0.003601180389523506
0.004937444347888231,-0.0041339211165905,-0.011522505432367325,0.014812000095844269,0.0006052698008716106,0.003594200126826763
0.004978283774107695,-0.003991403616964817,-0.011434227228164673,0.014877351932227612,0.00056666653836146,0.003619204740971327
0.0049792747013270855,-0.004075458738952875,-0.011637563817203045,0.014732797630131245,0.0006084294291213155,0.0036872555501759052
0.0049102334305644035,-0.004099872428923845,-0.010835387744009495,0.014625201933085918,0.0006012311205267906,0.0036911971401423216
0.005057780537754297,-0.004013753496110439,-0.01187667902559042,0.014521979726850986,0.0005839845398440957,0.0038029339630156755
0.0054236650466918945,-0.004379292484372854,-0.011831988580524921,0.014239426702260971,0.0006116837030276656,0.003503624349832535
0.005331842228770256,-0.004101637285202742,-0.011340887285768986,0.014412461780011654,0.000621420331299305,0.0036178738810122013
0.005392366088926792,-0.003835141658782959,-0.011733434163033962,0.014410614036023617,0.0005891771288588643,0.0038248186465352774
0.005238279700279236,-0.0036661378107964993,-0.011133899912238121,0.0142228277400136,0.0006364855216816068,0.0038673498202115297
0.005133226979523897,-0.0036261093337088823,-0.011400880292057991,0.014183711260557175,0.0005861626123078167,0.003864322556182742
0.0051941173151135445,-0.004252186045050621,-0.011399976909160614,0.014203857630491257,0.000672026420943439,0.003789145965129137
0.005181168206036091,-0.004131756257265806,-0.010870681144297123,0.0141987893730402,0.0006494030239991844,0.00426121149212122
0.005299178883433342,-0.004046432673931122,-0.011384342797100544,0.01419096440076828,0.0006532111437991261,0.004121776204556227
0.00547343073412776,-0.003926138859242201,-0.010810194537043571,0.013790145516395569,0.0006539286114275455,0.003904329612851143
0.006060626357793808,-0.0038045046385377645,-0.011887350119650364,0.014291321858763695,0.0006416665855795145,0.0037549911066889763
0.0053743054158985615,-0.003710660617798567,-0.011289847083389759,0.013896645046770573,0.0007716745021753013,0.003979758825153112
0.005474521312862635,-0.0036522657610476017,-0.010889971628785133,0.013974484987556934,0.0007933457964099944,0.004242191091179848
0.005603782832622528,-0.0034956480376422405,-0.011596656404435635,0.013498521409928799,0.000805144605692476,0.004102773033082485
0.005696985870599747,-0.0038470695726573467,-0.011422745883464813,0.014098608866333961,0.0007727574557065964,0.004166170954704285
0.005696985870599747,-0.0038470695726573467,-0.011422745883464813,0.014098608866333961,0.0007727574557065964,0.004166170954704285
0.005541318561881781,-0.003923592157661915,-0.011509770527482033,0.013763682916760445,0.0008799798088148236,0.004012076184153557
0.0059365262277424335,-0.0038253057282418013,-0.011924628168344498,0.014230534434318542,0.0008505241712555289,0.00400244677439332
0.0059365262277424335,-0.0038253057282418013,-0.011924628168344498,0.014230534434318542,0.0008505241712555289,0.00400244677439332
0.005674614571034908,-0.004284700378775597,-0.011669869534671307,0.01337601151317358,0.000805568415671587,0.0035520177334547043
0.005597728304564953,-0.004021156579256058,-0.011584771797060966,0.013708999380469322,0.000783993920776993,0.003377927467226982
0.005248212721198797,-0.00348858954384923,-0.011189890094101429,0.013289561495184898,0.000795109081082046,0.003444632748141885
0.005726134404540062,-0.0034775470849126577,-0.01089396607130766,0.01341382134705782,0.0008084605797193944,0.003754852106794715
0.0055507333017885685,-0.0035668115597218275,-0.012000728398561478,0.012899980880320072,0.0008190495427697897,0.004370904993265867
0.005894280970096588,-0.004208053462207317,-0.011569288559257984,0.01321543287485838,0.000909714144654572,0.004592196084558964
0.00581486988812685,-0.0041739121079444885,-0.011424961499869823,0.012986303307116032,0.0009448202326893806,0.004577348008751869
0.006067635957151651,-0.003518608631566167,-0.011656142771244049,0.013043451122939587,0.0009224287932738662,0.004204625263810158
0.0059180245734751225,-0.0033180625177919865,-0.011268720030784607,0.01295764371752739,0.0008887480362318456,0.00403700303286314
0.006040910724550486,-0.0033011145424097776,-0.01149766705930233,0.012544926255941391,0.0008417078061029315,0.003802825231105089
0.006447132211178541,-0.003206245368346572,-0.011577920988202095,0.012894890271127224,0.000821807945612818,0.004097870085388422
0.006567014381289482,-0.0033415802754461765,-0.011291143484413624,0.01272456906735897,0.0008317757165059447,0.0043379561975598335
0.006108162458986044,-0.003637359943240881,-0.011192422360181808,0.013337381184101105,0.0008324343943968415,0.004759995266795158
0.0061707450076937675,-0.003359361784532666,-0.010896149091422558,0.013233710080385208,0.0008259968017227948,0.004651723429560661
0.006783436518162489,-0.0034758909605443478,-0.011136911809444427,0.01357155479490757,0.0007694698288105428,0.004411858040839434
0.006428340449929237,-0.0033186397049576044,-0.0109779704362154,0.013230553828179836,0.0008374687167815864,0.004099682904779911
0.006240344140678644,-0.00328239006921649,-0.010765432380139828,0.013266519643366337,0.0007870864355936646,0.003889273852109909
0.006273845676332712,-0.003281188430264592,-0.0113326795399189,0.013152302242815495,0.0007974982727319002,0.003878803923726082
0.006123063154518604,-0.0029725898057222366,-0.011084350757300854,0.012808887287974358,0.0008088096510618925,0.0038968678563833237
0.006525849923491478,-0.0027792102191597223,-0.010887150652706623,0.012882260605692863,0.0008841906674206257,0.0038263702299445868
0.00676532881334424,-0.00259324605576694,-0.011023184284567833,0.012446558102965355,0.0009036115952767432,0.0037177777849137783
0.006112253293395042,-0.002857666229829192,-0.010679916478693485,0.013016525655984879,0.0009040440199896693,0.004095411393791437
0.005951305851340294,-0.002980029908940196,-0.011013636365532875,0.01284684520214796,0.000895727367606014,0.0041944244876503944
0.007130015175789595,-0.003364015370607376,-0.01063571311533451,0.013285242952406406,0.0009341618861071765,0.004009236581623554
0.0069623831659555435,-0.002816211199387908,-0.010354084894061089,0.013029673136770725,0.0009324839920736849,0.003476011333987117
0.0069623831659555435,-0.002816211199387908,-0.010354084894061089,0.013029673136770725,0.0009324839920736849,0.003476011333987117
0.006389598362147808,-0.002682127058506012,-0.010763773694634438,0.01235805731266737,0.0009492390090599656,0.003835161216557026
0.006382440682500601,-0.002789828460663557,-0.010668917559087276,0.012647124007344246,0.0009952918626368046,0.003998579923063517
0.006549052894115448,-0.0027092064265161753,-0.01107605267316103,0.013057277537882328,0.000994630972854793,0.00419059069827199
0.006214304827153683,-0.0029660991858690977,-0.010643141344189644,0.01299319602549076,0.0009806088637560606,0.004282106179744005
0.006478014402091503,-0.0029104009736329317,-0.01100183930248022,0.013584318570792675,0.0009611583082005382,0.004079621285200119
0.006490712054073811,-0.002807126147672534,-0.010786613449454308,0.01254374161362648,0.000950130051933229,0.0039054793305695057
0.006285740993916988,-0.0025710014160722494,-0.010343212634325027,0.012914136052131653,0.0009572861599735916,0.0038520486559718847
0.00667742220684886,-0.002889603143557906,-0.01086209062486887,0.01232939399778843,0.0009494838304817677,0.003825001185759902
0.00696502486243844,-0.0027633176650851965,-0.010598377324640751,0.012433536350727081,0.0009428910561837256,0.003870821325108409
0.00698735611513257,-0.002621907740831375,-0.011107302270829678,0.012313226237893105,0.0011121155694127083,0.004246001597493887
0.0067136636935174465,-0.002649371512234211,-0.011317633092403412,0.012085923925042152,0.0010988012654706836,0.004496139939874411
0.006503985729068518,-0.00250424281693995,-0.010858995839953423,0.012744535692036152,0.0010008038952946663,0.004528081510215998
0.006962687708437443,-0.002423530211672187,-0.010953745804727077,0.011671869084239006,0.0009918313007801771,0.004295132122933865
0.006874953396618366,-0.002598564140498638,-0.010619265958666801,0.01211046427488327,0.0010650042677298188,0.00434182770550251
0.006791924126446247,-0.0027733719907701015,-0.010999953374266624,0.011904442682862282,0.0010820947354659438,0.004176147282123566
0.006944658234715462,-0.002417788142338395,-0.011709853075444698,0.011964425444602966,0.0010574558982625604,0.004196359310299158
0.0072652124799788,-0.0025561596266925335,-0.011494699865579605,0.011969039216637611,0.0010323519818484783,0.004277823492884636
0.007380863185971975,-0.0025093555450439453,-0.010477634146809578,0.011351704597473145,0.0010494716698303819,0.004438826814293861
0.007182955741882324,-0.002324617700651288,-0.011978005059063435,0.011835124343633652,0.0010270311031490564,0.004106895532459021
0.0072694215923547745,-0.00233988044783473,-0.01138719730079174,0.011889408342540264,0.0010087521513924003,0.004199988208711147
0.007503310684114695,-0.0022181873209774494,-0.01151957456022501,0.011631691828370094,0.0009255350450985134,0.0042275418527424335
0.007647916208952665,-0.0023523904383182526,-0.01111708302050829,0.0116126062348485,0.0009746825671754777,0.003998045343905687
0.007020121905952692,-0.00222188257612288,-0.011101027950644493,0.011375677771866322,0.0009660303476266563,0.004249162971973419
0.007413786370307207,-0.0022243934217840433,-0.011274019256234169,0.011963936500251293,0.0008957090904004872,0.004193718545138836
0.007030047010630369,-0.0024466991890221834,-0.010996004566550255,0.011740975081920624,0.0008920748368836939,0.004400311037898064
0.0072162640281021595,-0.002083783969283104,-0.011228998191654682,0.01166270300745964,0.0008813990862108767,0.004890965763479471
0.007106054108589888,-0.0019262261921539903,-0.01056803297251463,0.011463011614978313,0.0008838014327920973,0.0044599128887057304
0.007106054108589888,-0.0019262261921539903,-0.01056803297251463,0.011463011614978313,0.0008838014327920973,0.0044599128887057304
0.006984415464103222,-0.0021041894797235727,-0.0112175103276968,0.011295685544610023,0.0008857950451783836,0.0040573542937636375
0.007115920074284077,-0.002150036860257387,-0.011312764137983322,0.0108742481097579,0.000924085034057498,0.004184550605714321
0.00727596553042531,-0.0021408800967037678,-0.011035135015845299,0.01046677865087986,0.0009457869455218315,0.004609466064721346
0.007189932279288769,-0.00205987598747015,-0.01178515050560236,0.010764471255242825,0.0009404774755239487,0.004262110218405724
0.007290591020137072,-0.0019248281605541706,-0.011115792207419872,0.010300830006599426,0.0009351948392577469,0.004403336439281702
0.007176315411925316,-0.0016162029933184385,-0.011409468948841095,0.01065940223634243,0.0009755651699379086,0.004661825485527515
0.007239081896841526,-0.0016455325530841947,-0.01186418067663908,0.010821273550391197,0.0009683056268841028,0.004376668483018875
0.007293154485523701,-0.001727105351164937,-0.011290660127997398,0.010663263499736786,0.0009223879897035658,0.004266970790922642
0.007430984638631344,-0.001983931055292487,-0.012017006054520607,0.010954651050269604,0.0009170713019557297,0.0041444748640060425
0.0075228251516819,-0.0018296921625733376,-0.012196564115583897,0.01037183590233326,0.0009335940703749657,0.004411485977470875
0.007427148520946503,-0.0018700537038967013,-0.011818169616162777,0.00984273012727499,0.0009621304925531149,0.004472674801945686
0.0073631685227155685,-0.0018156084697693586,-0.011574025265872478,0.010242152027785778,0.0010408759117126465,0.004799741320312023
0.007761851418763399,-0.0018438950646668673,-0.011432805098593235,0.010308424010872841,0.0011869079899042845,0.004680338315665722
0.00784008763730526,-0.001819555414840579,-0.012743595987558365,0.009770561940968037,0.0014091006014496088,0.004458537325263023
0.007606437895447016,-0.0018646742682904005,-0.011765673756599426,0.010553354397416115,0.001372232916764915,0.004434312228113413
0.0074166166596114635,-0.001851691515184939,-0.010989762842655182,0.010381587781012058,0.0013346491614356637,0.004634817596524954
0.008186927065253258,-0.0018329329323023558,-0.01141834631562233,0.010186275467276573,0.0012647012481465936,0.004524881951510906
0.007839498110115528,-0.0016897822497412562,-0.011289721354842186,0.01035017054527998,0.0011725309304893017,0.0043868413195014
0.008149033412337303,-0.0016861463664099574,-0.01203831471502781,0.00955269020050764,0.0010210638865828514,0.004319211468100548
0.007978858426213264,-0.0016591133316978812,-0.011943366378545761,0.009185305796563625,0.0009881232399493456,0.004375368822365999
0.008127400651574135,-0.001764462678693235,-0.011797674000263214,0.009534516371786594,0.0008599898428656161,0.0047730314545333385
0.008094100281596184,-0.0016415560385212302,-0.01138449739664793,0.009149214252829552,0.0007792091346345842,0.004838992841541767
0.007589289452880621,-0.001512161921709776,-0.010846473276615143,0.00909201055765152,0.0007900024647824466,0.004950679838657379
0.008760799653828144,-0.0015089146327227354,-0.01152802538126707,0.009127012453973293,0.000802923459559679,0.004858046770095825
0.008546077646315098,-0.0013755360851064324,-0.011356353759765625,0.009033547714352608,0.0009055218542926013,0.00463226530700922
0.008546077646315098,-0.0013755360851064324,-0.011356353759765625,0.009033547714352608,0.0009055218542926013,0.00463226530700922
0.00789831206202507,-0.001334042870439589,-0.011581703089177608,0.008741489611566067,0.001126427436247468,0.004501071758568287
0.009001840837299824,-0.0012629935517907143,-0.011046507395803928,0.00844899658113718,0.0012814339715987444,0.004559678491204977
0.008126161061227322,-0.0013922653160989285,-0.011674262583255768,0.007890039123594761,0.0014317017048597336,0.005058497656136751
0.007859770208597183,-0.0015049398643895984,-0.011159256100654602,0.008297440595924854,0.0013676880626007915,0.005072347819805145
0.008229956030845642,-0.0014333438593894243,-0.010608414188027382,0.008904804475605488,0.0012587342644110322,0.0051385690458118916
0.009180250577628613,-0.001422712579369545,-0.010854354128241539,0.008801850490272045,0.0012060224544256926,0.005052851978689432
0.008463732898235321,-0.0014446362620219588,-0.010893397033214569,0.007928604260087013,0.0012288532452657819,0.0048757330514490604
0.008382645435631275,-0.0013405658537521958,-0.01114712655544281,0.008146187290549278,0.001130168093368411,0.004709089174866676
0.009226900525391102,-0.001192209660075605,-0.010945926420390606,0.00890201237052679,0.0011584061430767179,0.004985470790416002
0.008351139724254608,-0.0011413219617679715,-0.010494195856153965,0.008630848489701748,0.0011378955096006393,0.005038908217102289
0.008101990446448326,-0.0012145941145718098,-0.011194434948265553,0.008422640152275562,0.0011147857876494527,0.004915374796837568
0.008833022788167,-0.0013342272723093629,-0.011348999105393887,0.008624963462352753,0.0012397381942719221,0.005086672026664019
0.0085294833406806,-0.0014856960624456406,-0.01091226376593113,0.008816947229206562,0.0012283324031159282,0.004943361971527338
0.008326524868607521,-0.0014137638499960303,-0.011076225899159908,0.00833599828183651,0.0012070410884916782,0.004721542354673147
0.008800351060926914,-0.0012909950455650687,-0.010740596801042557,0.008453020825982094,0.001332863699644804,0.004759914241731167
0.008892069570720196,-0.0012275875778868794,-0.01106049120426178,0.008829749189317226,0.0013800528831779957,0.005175527185201645
0.009311757050454617,-0.0011661540484055877,-0.011260725557804108,0.008131792768836021,0.0012656573671847582,0.005087096709758043
0.008662757463753223,-0.0011239399900659919,-0.010745233856141567,0.00809504371136427,0.0013781737070530653,0.005385245196521282
0.00900006853044033,-0.0010594180785119534,-0.011040152050554752,0.008186719380319118,0.001315457746386528,0.004961068741977215
0.008910806849598885,-0.0011468412121757865,-0.01089063286781311,0.008232451044023037,0.0012554386630654335,0.004448119085282087
0.008629968389868736,-0.00111291219945997,-0.011568532325327396,0.008449352346360683,0.001113551203161478,0.004316320642828941
0.008629968389868736,-0.00111291219945997,-0.011568532325327396,0.008449352346360683,0.001113551203161478,0.004316320642828941
0.009142903611063957,-0.0011955865193158388,-0.011745757423341274,0.008571108803153038,0.0011824686080217361,0.0048486096784472466
0.009142903611063957,-0.0011955865193158388,-0.011745757423341274,0.008571108803153038,0.0011824686080217361,0.0048486096784472466
0.008840017020702362,-0.0011419320944696665,-0.011642026714980602,0.008704297244548798,0.0013594882329925895,0.004812125116586685
0.009173271246254444,-0.0009815983939915895,-0.01129499264061451,0.009936253540217876,0.0013692681677639484,0.005010198801755905
0.009389613755047321,-0.0008507771417498589,-0.01142103411257267,0.008286921307444572,0.0014037820510566235,0.004743726458400488
0.008949150331318378,-0.00085330696310848,-0.010791497305035591,0.007847079075872898,0.0013332011876627803,0.004776096437126398
0.009503568522632122,-0.0008496647351421416,-0.011307003907859325,0.008253035135567188,0.0012692653108388186,0.00496175792068243
0.009529346600174904,-0.0008556403336115181,-0.011218812316656113,0.008293405175209045,0.0012287084246054292,0.005263319239020348
0.009044425562024117,-0.0007879877812229097,-0.01072731800377369,0.008154095150530338,0.00121533521451056,0.005300146993249655
0.009402704425156116,-0.0007999205263331532,-0.011330688372254372,0.008065142668783665,0.001165737514384091,0.005246797576546669
0.009242348372936249,-0.0008148396736942232,-0.011350627057254314,0.00836427416652441,0.0011126112658530474,0.005079769995063543
0.008903292007744312,-0.0008226106874644756,-0.011170295998454094,0.00846021343022585,0.0012125892098993063,0.005168554838746786
0.009559357538819313,-0.0007993964827619493,-0.011169659905135632,0.007871371693909168,0.0012425845488905907,0.005344018340110779
0.01019290927797556,-0.0007485837559215724,-0.010891739279031754,0.008640839718282223,0.0015745030250400305,0.005780269391834736
0.009619071148335934,-0.0006784499273635447,-0.01127937063574791,0.008470172062516212,0.0016403873451054096,0.005656905472278595
0.00972088985145092,-0.000632600742392242,-0.011651413515210152,0.00785545352846384,0.0017140457639470696,0.005115555599331856
0.01034496445208788,-0.000555918668396771,-0.010543249547481537,0.00813473854213953,0.0016310218488797545,0.0053300620056688786
0.009425660595297813,-0.0005922344280406833,-0.011901291087269783,0.008195945993065834,0.0015216462779790163,0.005256399046629667
0.00964607484638691,-0.0006202167714945972,-0.01151136215776205,0.007913323119282722,0.001461065374314785,0.005409514531493187
0.010534223169088364,-0.0005677191074937582,-0.010665013454854488,0.007361154537647963,0.001369767589494586,0.005712864454835653
0.009803202003240585,-0.0005693543353118002,-0.011799507774412632,0.008017966523766518,0.0013200425310060382,0.005555249750614166
0.009503951296210289,-0.0005494083743542433,-0.011472000740468502,0.008327164687216282,0.0013131846208125353,0.005274288821965456
0.010574736632406712,-0.0005107472534291446,-0.011674992740154266,0.007760286796838045,0.0014045536518096924,0.005112042650580406
0.00969009194523096,-0.0004769104707520455,-0.010522071272134781,0.007509617600589991,0.0016014171997085214,0.005288730375468731
0.009705665521323681,-0.0004472810833249241,-0.010688004083931446,0.008236800320446491,0.0015588987153023481,0.005202577915042639
0.009705665521323681,-0.0004472810833249241,-0.010688004083931446,0.008236800320446491,0.0015588987153023481,0.005202577915042639
0.010418949648737907,-0.0004221521958243102,-0.01134694367647171,0.008097185753285885,0.0014604551251977682,0.005367646925151348
0.009397763758897781,-0.00038636557292193174,-0.010784050449728966,0.007516268640756607,0.0014599892310798168,0.0054270243272185326
0.010012290440499783,-0.0003558123135007918,-0.01089940220117569,0.007433310616761446,0.0013718224363401532,0.005197619553655386
0.009798851795494556,-0.00030721796792931855,-0.010470540262758732,0.007977968081831932,0.001329299295321107,0.005220366176217794
0.010281338356435299,-0.0003442736342549324,-0.010822076350450516,0.007418925408273935,0.001273391768336296,0.005459620151668787
0.010493500158190727,-0.0003243546816520393,-0.010705110616981983,0.006880725733935833,0.001241592806763947,0.005679454654455185
0.009973081760108471,-0.0003059826558455825,-0.010308750905096531,0.007553570903837681,0.001475188066251576,0.0051956139504909515
0.010623445734381676,-0.0002579565334599465,-0.011160090565681458,0.007559454068541527,0.0014375554164871573,0.005229930859059095
0.010171489790081978,-0.00015530557720921934,-0.01064293459057808,0.006689665373414755,0.0016850527608767152,0.005366986151784658
0.010443378239870071,0.00013698135444428772,-0.010572483763098717,0.00635366328060627,0.001745953457430005,0.005975866224616766
0.010740624740719795,0.0001580902753630653,-0.010929079726338387,0.007065239362418652,0.0019244719296693802,0.00570922065526247
0.010172782465815544,0.00014573527732864022,-0.010703405365347862,0.007464827969670296,0.0018427149625495076,0.005305329337716103
0.01016351580619812,7.552262832177803e-05,-0.011227484792470932,0.007394339889287949,0.001844583312049508,0.005036837887018919
0.010649438016116619,6.282145477598533e-05,-0.010710208676755428,0.006496652029454708,0.0017063450068235397,0.005289238877594471
0.010309280827641487,5.862833131686784e-05,-0.010501062497496605,0.006714246701449156,0.0017011768650263548,0.005388094577938318
0.011091033928096294,0.00013725079770665616,-0.01133708469569683,0.007340623531490564,0.0017955166986212134,0.005370383150875568
0.011360900476574898,0.00012203125515952706,-0.010748546570539474,0.006850123405456543,0.0016867155209183693,0.005955508444458246
0.010366307571530342,0.00010749091597972438,-0.010472893714904785,0.0065932138822972775,0.0017002284293994308,0.005700518377125263
0.010800658725202084,9.601643250789493e-05,-0.010845922864973545,0.0070259179919958115,0.001692732097581029,0.005806728731840849
0.010723169893026352,8.675570279592648e-05,-0.0105334697291255,0.006853525526821613,0.001477993093430996,0.005650573410093784
0.010157407261431217,0.00013071484863758087,-0.011199814267456532,0.006804552394896746,0.0014492300106212497,0.005877971649169922
0.01070784218609333,0.0001450892013963312,-0.011079719290137291,0.006453876383602619,0.001403968664817512,0.00613105995580554
0.010661708191037178,0.00013457472959998995,-0.010268563404679298,0.006540227681398392,0.0014462886610999703,0.005902700591832399
0.010704141110181808,0.0001252159709110856,-0.010734060779213905,0.00649960245937109,0.0015423980075865984,0.006015249993652105
0.010704141110181808,0.0001252159709110856,-0.010734060779213905,0.00649960245937109,0.0015423980075865984,0.006015249993652105
0.010821133852005005,0.0001170704563264735,-0.011024193838238716,0.006463518366217613,0.0015553777338936925,0.005835361313074827
0.010366528294980526,0.00010991997987730429,-0.01097534317523241,0.006751355715095997,0.0017288505332544446,0.005860368721187115
0.010888454504311085,0.00014921138063073158,-0.011001299135386944,0.006468843203037977,0.0015924392500892282,0.005698011722415686
0.010927818715572357,0.000146849692100659,-0.010411770083010197,0.006926155183464289,0.0015987257938832045,0.005764060653746128
0.01060788705945015,0.00013934724847786129,-0.011348308995366096,0.006818949710577726,0.001481380546465516,0.006124579813331366
0.01102394238114357,0.0001666927564656362,-0.01068558357656002,0.005242308601737022,0.0015359745593741536,0.006140995305031538
0.01098107360303402,0.00016086264804471284,-0.01163229625672102,0.005103054456412792,0.0015282394597306848,0.0065538035705685616
0.011336944997310638,0.000218780551222153,-0.011320770718157291,0.005113213323056698,0.0018516017589718103,0.006277795881032944
0.010758615098893642,0.00023881593369878829,-0.011110514402389526,0.005184187553822994,0.0018190331757068634,0.006399748381227255
0.011119450442492962,0.00022718263790011406,-0.010994554497301579,0.0056687588803470135,0.0019573119934648275,0.006048510782420635
0.011263852007687092,0.00021626867237500846,-0.010676086880266666,0.005185450427234173,0.0017723080236464739,0.0060263872146606445
0.011266193352639675,0.00020635189139284194,-0.011195642873644829,0.005003723315894604,0.0016278120456263423,0.0060626305639743805
0.01115991361439228,0.00019730378699023277,-0.011608874425292015,0.005207439418882132,0.0016509300330653787,0.005879872012883425
0.01181772444397211,0.00022628935403190553,-0.012673762626945972,0.0053489478304982185,0.0015606918605044484,0.005885581951588392
0.011698180809617043,0.00021766801364719868,-0.01050859410315752,0.005458710249513388,0.0016680812695994973,0.005613218992948532
0.011480831541121006,0.00020924063574057072,-0.010468712076544762,0.005087961442768574,0.0017494057537987828,0.005988766439259052
0.010902187786996365,0.000234539300436154,-0.011333569884300232,0.0050523472018539906,0.001997424755245447,0.006206071004271507
0.011294910684227943,0.0002584641915746033,-0.011593681760132313,0.005333308130502701,0.002083873376250267,0.005933363921940327
0.01151847094297409,0.00044238296686671674,-0.010907578282058239,0.0050460281781852245,0.0020542650017887354,0.006092373747378588
0.01115929801017046,0.0004851467383559793,-0.011061830446124077,0.005425260867923498,0.0018667192198336124,0.0064754909835755825
0.011488617397844791,0.00047227932373061776,-0.011063111945986748,0.005416933912783861,0.0018359405221417546,0.006313609424978495
0.011819091625511646,0.0004806762735825032,-0.011204159818589687,0.0053795864805579185,0.0016600016970187426,0.006232330109924078
0.01145996805280447,0.00046936696162447333,-0.011471730656921864,0.004900836851447821,0.0015551043907180429,0.005726962815970182
0.011305768974125385,0.0006507655489258468,-0.01080703642219305,0.004757888615131378,0.0016039202455431223,0.005926008336246014
0.011305768974125385,0.0006507655489258468,-0.01080703642219305,0.004757888615131378,0.0016039202455431223,0.005926008336246014
0.011323614977300167,0.0007426008232869208,-0.011043536476790905,0.004357543773949146,0.0019919874612241983,0.005930765066295862
0.01158613059669733,0.0006890558870509267,-0.01087135635316372,0.004524595104157925,0.001930126454681158,0.0063874367624521255
0.011751974001526833,0.0006115322466939688,-0.010753322392702103,0.005245164968073368,0.0021119252778589725,0.006517335306853056
0.011536532081663609,0.0006394734373316169,-0.011198797263205051,0.004968190100044012,0.002103484235703945,0.006293505895882845
0.011544924229383469,0.000654630595818162,-0.010584892705082893,0.004594865720719099,0.002003717003390193,0.006090780254453421
0.011870856396853924,0.000618668389506638,-0.010844950564205647,0.0046971081756055355,0.001743583707138896,0.0064824470318853855
0.011710277758538723,0.000654309056699276,-0.010086524300277233,0.004797481000423431,0.0017197822453454137,0.0063947876915335655
0.012280836701393127,0.000744288379792124,-0.010868730954825878,0.004600992426276207,0.001986514078453183,0.00646582106128335
0.011749312281608582,0.0007137511856853962,-0.010696071200072765,0.004518257919698954,0.0018963353941217065,0.006660879123955965
0.01164958719164133,0.0011059213429689407,-0.010757587850093842,0.004493508487939835,0.002162971068173647,0.00674254959449172
0.01229030266404152,0.0010878632310777903,-0.011076130904257298,0.004139762371778488,0.002077822107821703,0.006593831814825535
0.012032803148031235,0.0010601815301924944,-0.010825971141457558,0.004404405131936073,0.0020578461699187756,0.0064741806127130985
0.01176533754914999,0.0010697516845539212,-0.010001522488892078,0.0044939215295016766,0.0018861707067117095,0.00684939743950963
0.011847994290292263,0.0010368447983637452,-0.011824745684862137,0.004439427051693201,0.0018142752815037966,0.0064756316132843494
0.01187492161989212,0.001014437759295106,-0.010332616977393627,0.004620990250259638,0.0017332826973870397,0.006226182449609041
0.012133006006479263,0.0010085537796840072,-0.010292796418070793,0.0045087384060025215,0.001959150889888406,0.006479289382696152
0.011562236584722996,0.0011485916329547763,-0.010926499031484127,0.004086298402398825,0.0022260979749262333,0.006543019786477089
0.01183013990521431,0.0012691848678514361,-0.010503599420189857,0.0042963954620063305,0.0023496842477470636,0.006708488799631596
0.012471460737287998,0.0018015113892033696,-0.011234741657972336,0.0040933056734502316,0.0022686191368848085,0.006701446603983641
0.01214647013694048,0.0016809480730444193,-0.011180770583450794,0.003993842285126448,0.002148425206542015,0.0067727649584412575
0.012416264042258263,0.0015810081968083978,-0.010181047022342682,0.004016389138996601,0.002146719489246607,0.00651409849524498
0.012416264042258263,0.0015810081968083978,-0.010181047022342682,0.004016389138996601,0.002146719489246607,0.00651409849524498
0.01257586944848299,0.0015527508221566677,-0.010691509582102299,0.004310580901801586,0.0021979210432618856,0.006837344262748957
0.012145616114139557,0.0014376383041962981,-0.01056581549346447,0.0043858727440238,0.002300758846104145,0.00662024412304163
0.012620470486581326,0.0016579552320763469,-0.01098850928246975,0.0039015519432723522,0.0022596712224185467,0.0064597283490002155
0.012329370714724064,0.0020069086458534002,-0.010647579096257687,0.0035539655946195126,0.002125179162248969,0.006200836505740881
0.012588009238243103,0.0020542051643133163,-0.010842337273061275,0.0036430577747523785,0.0020441736560314894,0.005867869593203068
0.012588009238243103,0.0020542051643133163,-0.010842337273061275,0.0036430577747523785,0.0020441736560314894,0.005867869593203068
0.012714250013232231,0.0024040676653385162,-0.010561559349298477,0.0038562894333153963,0.001962042413651943,0.006139532662928104
0.012153750285506248,0.0021191213745623827,-0.010095173493027687,0.003921674098819494,0.001931395847350359,0.006688633933663368
0.012610513716936111,0.0019804469775408506,-0.01091981865465641,0.0039772754535079,0.002056742087006569,0.006499138195067644
0.01204073429107666,0.0019082488724961877,-0.010601839050650597,0.003914663102477789,0.002042146632447839,0.0065942928194999695
0.012899731285870075,0.001809826004318893,-0.010985610075294971,0.0038110956083983183,0.0022669013123959303,0.0068471855483949184
0.012946103699505329,0.002451452426612377,-0.009721236303448677,0.0035956776700913906,0.002583384746685624,0.006768197752535343
0.013792361132800579,0.002845734590664506,-0.009980328381061554,0.003293599234893918,0.0024332727771252394,0.006555698346346617
0.014153391122817993,0.0025987294502556324,-0.010552906431257725,0.0029839312192052603,0.0022276306990534067,0.006566393654793501
0.013896767050027847,0.0026272800751030445,-0.00969170406460762,0.0028685485012829304,0.0021176538430154324,0.006648098584264517
0.013989793136715889,0.002660044701769948,-0.009545489214360714,0.0029975520446896553,0.001901407027617097,0.006958803161978722
0.01462166104465723,0.0028139243368059397,-0.010012967512011528,0.003185475245118141,0.001861470635049045,0.006680537946522236
0.014250500127673149,0.002810727572068572,-0.009559414349496365,0.003217332763597369,0.001768092392012477,0.00704961596056819
0.014249361120164394,0.0030534942634403706,-0.009628239087760448,0.0030043136794120073,0.0019019198371097445,0.006672285497188568
0.015488720498979092,0.0031895111314952374,-0.009969684295356274,0.002744019730016589,0.0018239819910377264,0.006850927136838436
0.014131798408925533,0.0030358952935785055,-0.0099559361115098,0.0025161479134112597,0.002043717773631215,0.007004627957940102
0.013944449834525585,0.003480510553345084,-0.010272422805428505,0.0024400888942182064,0.002008229261264205,0.007050980348140001
0.014657086692750454,0.0033260504715144634,-0.009863251820206642,0.0024084735196083784,0.002207312500104308,0.0069427210837602615
0.014456394128501415,0.0035023498348891735,-0.010205593891441822,0.002810099394991994,0.0025209919549524784,0.006710831541568041
0.014604432508349419,0.003163745393976569,-0.010019554756581783,0.0029102854896336794,0.002751089632511139,0.0066573480144143105
0.01449153944849968,0.003245886880904436,-0.010033859871327877,0.0025977743789553642,0.002830678829923272,0.006922236643731594
0.014491088688373566,0.003465628018602729,-0.009789957664906979,0.0025766005273908377,0.0028773299418389797,0.006904202047735453
0.014546016231179237,0.0036806422285735607,-0.009717459790408611,0.0024042977020144463,0.002484128111973405,0.006613784935325384
0.014346309006214142,0.0036097464617341757,-0.010326570831239223,0.002360198413953185,0.0022589245345443487,0.0070920404978096485
0.014378669671714306,0.0038221017457544804,-0.009735518135130405,0.0025525453966110945,0.0021395774092525244,0.0074590882286429405
0.014626552350819111,0.003925971686840057,-0.010275058448314667,0.0023687274660915136,0.001985796494409442,0.007089267484843731
0.014415930025279522,0.004017124883830547,-0.010967627167701721,0.0022150620352476835,0.0019768087659031153,0.006493928376585245
0.01440091896802187,0.003873794339597225,-0.010217135772109032,0.0020673847757279873,0.001967299496755004,0.006712615955621004
0.014445656910538673,0.004260793328285217,-0.011064024642109871,0.0018723412649706006,0.002249239943921566,0.006964065134525299
0.014623066410422325,0.004070751368999481,-0.010708463378250599,0.0017363284714519978,0.0022033180575817823,0.007083115167915821
0.014623066410422325,0.004070751368999481,-0.010708463378250599,0.0017363284714519978,0.0022033180575817823,0.007083115167915821
0.01474010106176138,0.004362095613032579,-0.009977332316339016,0.0017499044770374894,0.0024201921187341213,0.006881889887154102
0.014953740872442722,0.004398100543767214,-0.010507619008421898,0.0018548020161688328,0.0025519519113004208,0.0070616803131997585
0.014953740872442722,0.004398100543767214,-0.010507619008421898,0.0018548020161688328,0.0025519519113004208,0.0070616803131997585
0.015008492395281792,0.004319369327276945,-0.010795903392136097,0.001692150835879147,0.0024262224324047565,0.007191457785665989
0.015059555880725384,0.004517639521509409,-0.010981432162225246,0.0016615210333839059,0.002225615782663226,0.007063459139317274
0.014852147549390793,0.004648192320019007,-0.010444466024637222,0.0015233022859320045,0.0022871647961437702,0.007153728976845741
0.014661132358014584,0.004720344208180904,-0.0106078265234828,0.0014414273900911212,0.0020809038542211056,0.007871019653975964
0.014747624285519123,0.0057013616897165775,-0.010024994611740112,0.0013971449807286263,0.002177591435611248,0.007857964374125004
0.014626073651015759,0.005326063372194767,-0.010722348466515541,0.001547217951156199,0.0023724487982690334,0.0075452025048434734
0.015114297159016132,0.004805918782949448,-0.010767951607704163,0.0015284097753465176,0.0023514064960181713,0.0070808748714625835
0.014890521764755249,0.004835052881389856,-0.010071923956274986,0.0014127952745184302,0.002362399362027645,0.006904265843331814
0.014968265779316425,0.005287585314363241,-0.010720743797719479,0.0013160518137738109,0.0022254297509789467,0.007130887825042009
0.014681056141853333,0.005492279306054115,-0.010806851089000702,0.0012571889674291015,0.002315727761015296,0.007008424028754234
0.015226838178932667,0.005578465294092894,-0.011235869489610195,0.0011979398550465703,0.002193042542785406,0.007345237303525209
0.014684360474348068,0.005627622827887535,-0.011240875348448753,0.001067057834006846,0.002191383857280016,0.007243290543556213
0.01529525313526392,0.005249107722193003,-0.010920229367911816,0.0009746791911311448,0.0022891031112521887,0.007600728888064623
0.014738022349774837,0.0057057542726397514,-0.011502412147819996,0.0008879891247488558,0.0023010410368442535,0.007669917307794094
0.015268972143530846,0.005842564161866903,-0.011448166333138943,0.000875792873557657,0.002489188453182578,0.007598937023431063
0.014792279340326786,0.006146969273686409,-0.010136308148503304,0.000781930168159306,0.0026501340325921774,0.007440248504281044
0.015260979533195496,0.005868671461939812,-0.010907027870416641,0.0007885043742135167,0.0025367937050759792,0.0073602464981377125
0.015099895186722279,0.0057807606644928455,-0.010872610844671726,0.0007250690250657499,0.002616159152239561,0.0079912468791008
0.015706585720181465,0.005571144632995129,-0.010270366445183754,0.0007231886265799403,0.0024594124406576157,0.00775762926787138
0.015296690165996552,0.005798886530101299,-0.01157337985932827,0.0006626714603044093,0.002396766562014818,0.007435724139213562
0.015102218836545944,0.006544534582644701,-0.010719754733145237,0.0006765454891137779,0.0024277810007333755,0.00733284093439579
0.015196543186903,0.006192896049469709,-0.010357839986681938,0.000621351005975157,0.0023913318291306496,0.007353049237281084
0.015258055180311203,0.005923012737184763,-0.01085827685892582,0.0006412944057956338,0.0023147929459810257,0.008004867471754551
0.015258055180311203,0.005923012737184763,-0.01085827685892582,0.0006412944057956338,0.0023147929459810257,0.008004867471754551
0.015315624885261059,0.005934770684689283,-0.01041423063725233,0.0005933532956987619,0.0024433450307697058,0.007783132139593363
0.015339176170527935,0.006099259480834007,-0.01075051911175251,0.0005875501083210111,0.0025776291731745005,0.007563526276499033
0.015259039588272572,0.006288148462772369,-0.010653473436832428,0.0005340598872862756,0.002443313365802169,0.007922663353383541
0.015304598025977612,0.006768535356968641,-0.010737286880612373,0.00047827910748310387,0.002288126153871417,0.007822808809578419
0.015044101513922215,0.006174211390316486,-0.010314795188605785,0.0004724919854197651,0.0026232809759676456,0.0074537829495966434
0.015785152092576027,0.006666433531790972,-0.010658998042345047,0.00043505357461981475,0.002375704701989889,0.007377771660685539
0.015713155269622803,0.007109371013939381,-0.011318911798298359,0.00040263254777528346,0.0022804078180342913,0.007510643918067217
0.01599111221730709,0.00696759345009923,-0.010682931169867516,0.0004049936542287469,0.002270367229357362,0.007428666111081839
0.01550076063722372,0.007009795401245356,-0.010269214399158955,0.0004066486726514995,0.002107070293277502,0.008003896102309227
0.01599978655576706,0.007089056074619293,-0.010753843002021313,0.00038369279354810715,0.0021635317243635654,0.008522667922079563
0.015720367431640625,0.0075745778158307076,-0.010546908713877201,0.0003617711190599948,0.00233095558360219,0.008298388682305813
0.015634598210453987,0.007552846800535917,-0.010694336146116257,0.0003421236469876021,0.0023566673044115305,0.008546330966055393
0.01574462465941906,0.0068792118690907955,-0.010626374743878841,0.00032449615537188947,0.0026812765281647444,0.008377522230148315
0.015846218913793564,0.007403267547488213,-0.010283486917614937,0.00015795954095665365,0.002644536318257451,0.008396249264478683
0.015842832624912262,0.007879517041146755,-0.010802351869642735,0.00012701761443167925,0.002512251492589712,0.008045499213039875
0.01548475120216608,0.007760477717965841,-0.011098712682723999,0.00011742577771656215,0.002530092839151621,0.008065260015428066
0.015437884256243706,0.0070656538009643555,-0.010167957283556461,0.00011015089694410563,0.0027588310185819864,0.008125326596200466
0.01522466354072094,0.006954133976250887,-0.010823610238730907,0.00010379108425695449,0.0027600780595093966,0.008067507296800613
0.0161692313849926,0.008396532386541367,-0.010706927627325058,9.813003271119669e-05,0.0027053894009441137,0.008199657313525677
0.01600150763988495,0.007884752936661243,-0.01021368708461523,9.305501589551568e-05,0.0024863979779183865,0.008039348758757114
0.016459571197628975,0.007528249640017748,-0.010731149464845657,8.847963908920065e-05,0.0023977262899279594,0.008050600066781044
0.016009556129574776,0.007400305941700935,-0.010163875296711922,8.433304901700467e-05,0.0025843174662441015,0.008185920305550098
0.015850765630602837,0.008088802918791771,-0.01072752382606268,8.055784564930946e-05,0.0024087883066385984,0.008692678064107895
0.016276072710752487,0.007903593592345715,-0.010731697082519531,7.710629142820835e-05,0.00238946545869112,0.007714752573519945
0.015455417335033417,0.007480209227651358,-0.01065109297633171,4.189642277196981e-05,0.002710147062316537,0.008540584705770016
0.015595280565321445,0.007353843655437231,-0.011124766431748867,3.5831948480335996e-05,0.0028731815982609987,0.009294433519244194
0.015704596415162086,0.008172684349119663,-0.011278943158686161,3.418311462155543e-05,0.002843113848939538,0.008986050263047218
0.01619870588183403,0.008163513615727425,-0.010105716995894909,3.2914049370447174e-05,0.0026524432469159365,0.008677839301526546
0.01624380424618721,0.007622522301971912,-0.010876762680709362,3.1751471397001296e-05,0.002742159878835082,0.008783362805843353
0.01497616432607174,0.008209636434912682,-0.010400539264082909,4.065565462951781e-06,0.0027015581727027893,0.008999121375381947
0.01497616432607174,0.008209636434912682,-0.010400539264082909,4.065565462951781e-06,0.0027015581727027893,0.008999121375381947
0.016370851546525955,0.0076222773641347885,-0.010765455663204193,1.7332144608417366e-08,0.0029112566262483597,0.008538625203073025
0.015954982489347458,0.008162993006408215,-0.010884729214012623,7.388964440302459e-11,0.002416739473119378,0.008718224242329597
0.015954982489347458,0.008162993006408215,-0.010884729214012623,7.388964440302459e-11,0.002416739473119378,0.008718224242329597
0.01610400341451168,0.0067330822348594666,-0.01067881565541029,4.824465913572107e-12,0.0023693873081356287,0.008811713196337223
0.015876470133662224,0.005364956334233284,-0.010433083400130272,3.1500315051703753e-13,0.0023633637465536594,0.00904968474060297
0.016387300565838814,0.005636334884911776,-0.011100025847554207,2.056745412545337e-14,0.002366465050727129,0.008575580082833767
0.01615006849169731,0.006215460132807493,-0.011191636323928833,1.3429078456753596e-15,0.0027101258747279644,0.008796613663434982
0.016330881044268608,0.006387288216501474,-0.010079407133162022,8.768228313114381e-17,0.003115488449111581,0.008669140748679638
0.016634855419397354,0.006486976519227028,-0.01087432075291872,-0.0008547342731617391,0.0031837821006774902,0.008373052813112736
0.016497662290930748,0.0065412214025855064,-0.010230994783341885,-0.0009619833435863256,0.003119449596852064,0.008791138418018818
0.01688440889120102,0.006694200448691845,-0.01040796097368002,-0.0009780563414096832,0.0030319886282086372,0.008825873024761677
0.016653472557663918,0.006255319807678461,-0.01069359015673399,-0.0013699089176952839,0.003013192443177104,0.00841323472559452
0.016823912039399147,0.006672639865428209,-0.010156105272471905,-0.001413162681274116,0.0028068614192306995,0.008446982130408287
0.016761207953095436,0.0069442554377019405,-0.010943964123725891,-0.001586209167726338,0.0027064054738730192,0.008812314830720425
0.017429299652576447,0.006904010660946369,-0.011149927042424679,-0.001742535619996488,0.002524166600778699,0.008867918513715267
0.01794351637363434,0.00670994259417057,-0.010180899873375893,-0.0024621975608170033,0.0027873008511960506,0.008432254195213318
0.017703913152217865,0.006833098363131285,-0.010793888010084629,-0.002814976964145899,0.00316879665479064,0.008757286705076694
0.017852196469902992,0.006717674434185028,-0.01080385409295559,-0.0027302231173962355,0.0030314831528812647,0.008606339804828167
0.01772422157227993,0.006721024867147207,-0.010047122836112976,-0.002745725680142641,0.002908967435359955,0.008872633799910545
0.017307300120592117,0.006623311899602413,-0.01065051555633545,-0.002736408729106188,0.002827971475198865,0.0085831880569458
0.01813591830432415,0.007187022361904383,-0.010116864927113056,-0.0028243425767868757,0.002822611480951309,0.009272254072129726
0.01818087138235569,0.007586025167256594,-0.009758975356817245,-0.0033910651691257954,0.0030141554307192564,0.009174465201795101
0.017950844019651413,0.006646358873695135,-0.010796613059937954,-0.003798865946009755,0.00322450022213161,0.009551784954965115
0.017818735912442207,0.006472084671258926,-0.010371221229434013,-0.003855507355183363,0.003547325497493148,0.009145727381110191
0.017725689336657524,0.006799397990107536,-0.010460314340889454,-0.0033630423713475466,0.00320039177313447,0.008900490589439869
0.01855536736547947,0.007224482949823141,-0.010721900500357151,-0.0033334242179989815,0.0030860016122460365,0.00867181085050106
0.01855536736547947,0.007224482949823141,-0.010721900500357151,-0.0033334242179989815,0.0030860016122460365,0.00867181085050106
0.01819894090294838,0.00735769048333168,-0.01017492450773716,-0.0033412452321499586,0.003412263933569193,0.009012579917907715
0.017984293401241302,0.00754336453974247,-0.010800892487168312,-0.003162805922329426,0.003266320563852787,0.009116844274103642
0.018099632114171982,0.007148538716137409,-0.010524892248213291,-0.004232669714838266,0.0030382340773940086,0.008782366290688515
0.0183169674128294,0.007246032822877169,-0.011276663281023502,-0.004088719375431538,0.003074626438319683,0.009073659777641296
0.01849309355020523,0.007972425781190395,-0.01039164699614048,-0.003919191658496857,0.0031721843406558037,0.00907206255942583
0.01815047301352024,0.007987622171640396,-0.010432458482682705,-0.0037761519197374582,0.00301973894238472,0.008475507609546185
0.01844538375735283,0.007918757386505604,-0.010631056502461433,-0.003704112023115158,0.00285000610165298,0.008855939842760563
0.018598804250359535,0.007679265458136797,-0.01008931640535593,-0.004175988025963306,0.002682705409824848,0.009257701225578785
0.018301086500287056,0.007943573407828808,-0.010265624150633812,-0.005136452149599791,0.0029028269927948713,0.009293952956795692
0.01851455308496952,0.007932642474770546,-0.010844203643500805,-0.005271088797599077,0.0030404471326619387,0.009072812274098396
0.018867112696170807,0.008399055339396,-0.01051922794431448,-0.004588985815644264,0.003304026322439313,0.008803857490420341
0.018724597990512848,0.008466356433928013,-0.011001537553966045,-0.004906290210783482,0.003219296457245946,0.008776194415986538
0.01917112059891224,0.007985373958945274,-0.01101192831993103,-0.0048156119883060455,0.003509851172566414,0.008894131518900394
0.01921994797885418,0.007746065966784954,-0.011259503662586212,-0.00492590619251132,0.003195071592926979,0.009005198255181313
0.01874176785349846,0.00814198050647974,-0.011611755937337875,-0.004978732205927372,0.0030901762656867504,0.009147673845291138
0.018642444163560867,0.008024861104786396,-0.01148570142686367,-0.005697536747902632,0.0030156176071614027,0.009072783403098583
0.01868605799973011,0.008205627091228962,-0.010469322092831135,-0.005573027301579714,0.0032715993002057076,0.009327962063252926
0.01884167082607746,0.008776145055890083,-0.011729306541383266,-0.0057037691585719585,0.003186609596014023,0.009416310116648674
0.019519850611686707,0.008569261059165001,-0.011305027641355991,-0.005364557262510061,0.003522495273500681,0.009586995467543602
0.019112391397356987,0.008398214355111122,-0.011388750746846199,-0.005264836363494396,0.0033846632577478886,0.009465722367167473
0.018872657790780067,0.008574118837714195,-0.011074756272137165,-0.005363237578421831,0.0032243167515844107,0.009077704511582851
0.01964452676475048,0.009003320708870888,-0.010800494812428951,-0.005922209471464157,0.0031154328025877476,0.009743894450366497
0.019647058099508286,0.009110989049077034,-0.011103302240371704,-0.0058302972465753555,0.0030290738213807344,0.00972150731831789
0.019647058099508286,0.009110989049077034,-0.011103302240371704,-0.0058302972465753555,0.0030290738213807344,0.00972150731831789
0.019361475482583046,0.008152817375957966,-0.0110660744830966,-0.005622690077871084,0.00315710692666471,0.00937421154230833
0.019950293004512787,0.008978283032774925,-0.010962278582155704,-0.005041309632360935,0.0029304511845111847,0.009653984569013119
0.019221512600779533,0.008797848597168922,-0.010947859846055508,-0.0060722557827830315,0.0031202116515487432,0.009467990137636662
0.019221512600779533,0.008797848597168922,-0.010947859846055508,-0.0060722557827830315,0.0031202116515487432,0.009467990137636662
0.019519954919815063,0.008885900489985943,-0.011076850816607475,-0.005758645944297314,0.0035360055044293404,0.009324091486632824
0.01992974802851677,0.008518907241523266,-0.01073264330625534,-0.0052163139916956425,0.0038099950179457664,0.00914012175053358
0.020318537950515747,0.008814643137156963,-0.011741402558982372,-0.005667762365192175,0.003996792249381542,0.009241401217877865
0.020059138536453247,0.009503122419118881,-0.011617285199463367,-0.005871574394404888,0.0035253383684903383,0.009681189432740211
0.02012428268790245,0.008997902274131775,-0.011672338470816612,-0.0060105957090854645,0.0031653817277401686,0.009196543134748936
0.02033056877553463,0.008966351859271526,-0.011303410865366459,-0.006103527266532183,0.003040212905034423,0.009190128184854984
0.020535046234726906,0.009291446767747402,-0.011387561447918415,-0.0057442886754870415,0.003098652232438326,0.0093595115467906
0.020491747185587883,0.009119412861764431,-0.011976543813943863,-0.006300162058323622,0.0032975059002637863,0.009691780433058739
0.020349256694316864,0.009249941445887089,-0.01074556540697813,-0.0069419159553945065,0.003439293708652258,0.009635345079004765
0.020784717053174973,0.010272295214235783,-0.012064999900758266,-0.00714191235601902,0.003623315831646323,0.010598490945994854
0.020838841795921326,0.009220401756465435,-0.011301441118121147,-0.0068534198217093945,0.0036306120455265045,0.010367644019424915
0.02065773494541645,0.009630749002099037,-0.010935903526842594,-0.006782407872378826,0.003658072091639042,0.009751291014254093
0.020887162536382675,0.009992088191211224,-0.011223843321204185,-0.007477636449038982,0.0038395789451897144,0.0104701928794384
0.02125725895166397,0.008363240398466587,-0.010964831337332726,-0.008074412122368813,0.003983861301094294,0.010039187036454678
0.021214758977293968,0.009968215599656105,-0.011085307225584984,-0.0077009801752865314,0.0035356292501091957,0.009677045047283173
0.020930172875523567,0.010888885706663132,-0.011119152419269085,-0.007283453363925219,0.003209444461390376,0.010294902138411999
0.021409058943390846,0.00974720437079668,-0.010911134071648121,-0.007265103980898857,0.0030914698727428913,0.009819232858717442
0.021409058943390846,0.00974720437079668,-0.010911134071648121,-0.007265103980898857,0.0030914698727428913,0.009819232858717442
0.02138538658618927,0.009908279404044151,-0.011839121580123901,-0.007779591251164675,0.0035601358395069838,0.010378925129771233
0.0214536190032959,0.010223396122455597,-0.010158070363104343,-0.0075345332734286785,0.003550334135070443,0.010127207264304161
0.021799007430672646,0.009622877463698387,-0.010986720211803913,-0.007131737191230059,0.003629433922469616,0.009683649986982346
0.021741850301623344,0.010386759415268898,-0.010729850269854069,-0.007918616756796837,0.0037317387759685516,0.010144753381609917
0.021686112508177757,0.009805252775549889,-0.010226460173726082,-0.0072723436169326305,0.0038027160335332155,0.010589294135570526
0.021622152999043465,0.009779263287782669,-0.011346983723342419,-0.007191627286374569,0.00390183855779469,0.010181558318436146
0.021622152999043465,0.009779263287782669,-0.011346983723342419,-0.007191627286374569,0.00390183855779469,0.010181558318436146
0.022152403369545937,0.011047317646443844,-0.011622593738138676,-0.007789643481373787,0.0035394576843827963,0.010293828323483467
0.022152403369545937,0.011047317646443844,-0.011622593738138676,-0.007789643481373787,0.0035394576843827963,0.010293828323483467
0.022238949313759804,0.010480903089046478,-0.010274325497448444,-0.007821558974683285,0.0034260826651006937,0.010024365037679672
0.02195010706782341,0.010277734138071537,-0.010456562042236328,-0.007791877258569002,0.003631827887147665,0.00988686177879572
0.02181512489914894,0.010217501781880856,-0.010537452064454556,-0.008298237808048725,0.0034669076558202505,0.0098990797996521
0.022292738780379295,0.010362298227846622,-0.010399090126156807,-0.008075413294136524,0.0035325391218066216,0.010301741771399975
0.022832021117210388,0.010041965171694756,-0.01132045965641737,-0.008175001479685307,0.00408953009173274,0.00958955567330122
0.022141961380839348,0.011139164678752422,-0.010515892878174782,-0.008812003768980503,0.004146290011703968,0.011532257311046124
0.022603247314691544,0.010140880942344666,-0.010308664292097092,-0.008623110130429268,0.003743776585906744,0.010627876035869122
0.022289413958787918,0.009696951135993004,-0.010818179696798325,-0.00793568603694439,0.003473894437775016,0.010225113481283188
0.021428188309073448,0.010303408838808537,-0.010779311880469322,-0.007868983782827854,0.003236036282032728,0.009974370710551739
0.023286087438464165,0.010609087534248829,-0.011163451708853245,-0.008784652687609196,0.0033133390825241804,0.010021648369729519
0.022986220195889473,0.00996479857712984,-0.01116759330034256,-0.008476022630929947,0.004107440821826458,0.009868682362139225
0.022317703813314438,0.010387182235717773,-0.010430458001792431,-0.007913137786090374,0.004118428565561771,0.010524348355829716
0.02274896577000618,0.010507664643228054,-0.01177450455725193,-0.007906443439424038,0.004407904110848904,0.010435642674565315
0.02267548441886902,0.010679959319531918,-0.0113121522590518,-0.008721701800823212,0.003653398947790265,0.010204671882092953
0.022723868489265442,0.01094481348991394,-0.011239611543715,-0.0088325385004282,0.003228073474019766,0.010351164266467094
0.023070819675922394,0.010656355880200863,-0.011453044600784779,-0.008539796806871891,0.0030299017671495676,0.01041493285447359
0.023149199783802032,0.010593094862997532,-0.010402877815067768,-0.008641356602311134,0.0034383158199489117,0.009866916574537754
0.022281665354967117,0.01051568053662777,-0.010821227915585041,-0.008627736940979958,0.003587196348235011,0.01039314828813076
0.022214211523532867,0.010461108759045601,-0.012058809399604797,-0.008745805360376835,0.0038084853440523148,0.010133938863873482
0.022214211523532867,0.010461108759045601,-0.012058809399604797,-0.008745805360376835,0.0038084853440523148,0.010133938863873482
0.02301868051290512,0.011022414080798626,-0.011611740104854107,-0.009518293663859367,0.003996860235929489,0.010185298509895802
0.0235055610537529,0.011058393865823746,-0.01171472854912281,-0.009530127979815006,0.004034352023154497,0.010496005415916443
0.02325133979320526,0.011236092075705528,-0.011580479331314564,-0.008603754453361034,0.0042488547042012215,0.010549236088991165
0.023114347830414772,0.011412134394049644,-0.01020871102809906,-0.00892429519444704,0.0037256269715726376,0.010864341631531715
0.022898508235812187,0.011201324872672558,-0.011013937182724476,-0.009814951568841934,0.0033558302093297243,0.010241946205496788
0.023784145712852478,0.011357792653143406,-0.010478024370968342,-0.009175148792564869,0.00344094424508512,0.010401940904557705
0.023953501135110855,0.01126715075224638,-0.010586327873170376,-0.009516792371869087,0.004014560952782631,0.010243344120681286
0.023435568436980247,0.011569350957870483,-0.01005490217357874,-0.009242160245776176,0.004078794736415148,0.010560708120465279
0.023641470819711685,0.011071399785578251,-0.011073535308241844,-0.00954824686050415,0.0038748150691390038,0.011060717515647411
0.023873480036854744,0.010893247090280056,-0.01121953409165144,-0.010260647162795067,0.0037423865869641304,0.01120724342763424
0.023597542196512222,0.011137746274471283,-0.011176999658346176,-0.009545364417135715,0.0038671009242534637,0.011308847926557064
0.024088717997074127,0.010968013666570187,-0.010548537597060204,-0.009312363341450691,0.003694098209962249,0.010557523928582668
0.024376751855015755,0.01069257315248251,-0.010063069872558117,-0.010478085838258266,0.0035722721368074417,0.010386202484369278
0.024294834583997726,0.010979744605720043,-0.010298511944711208,-0.010350676253437996,0.003676772816106677,0.010346386581659317
0.0237423125654459,0.011278093792498112,-0.01081492193043232,-0.010269006714224815,0.003891558386385441,0.010818487033247948
0.023913629353046417,0.011609788984060287,-0.01010783202946186,-0.010109081864356995,0.004012793302536011,0.010898301377892494
0.023750022053718567,0.011507131159305573,-0.010546555742621422,-0.009430736303329468,0.00410437909886241,0.01099346298724413
0.024114813655614853,0.010597356595098972,-0.011015417985618114,-0.00965222716331482,0.004263199865818024,0.01078609749674797
0.024347135797142982,0.011728915385901928,-0.010205047205090523,-0.01030667033046484,0.004404075443744659,0.010670406743884087
0.024751001968979836,0.010591697879135609,-0.01070703286677599,-0.009277422912418842,0.003804038744419813,0.011234313249588013
0.024041345342993736,0.010457812808454037,-0.01096480805426836,-0.009517709724605083,0.003541245823726058,0.011589971370995045
0.023893842473626137,0.011058870702981949,-0.010068724863231182,-0.009928676299750805,0.0035798028111457825,0.011303037405014038
0.024121886119246483,0.010718204081058502,-0.010385501198470592,-0.00958471279591322,0.0041838958859443665,0.011569203808903694
0.024724405258893967,0.010572044178843498,-0.010513936169445515,-0.009789424017071724,0.004389127250760794,0.011304819956421852
0.02454148419201374,0.010777710936963558,-0.01048577856272459,-0.010458499193191528,0.004316016100347042,0.011337262578308582
0.02432977966964245,0.010302209295332432,-0.010372021235525608,-0.00977467093616724,0.004554556682705879,0.01130584068596363
0.024612894281744957,0.010866555385291576,-0.010519840754568577,-0.00988176092505455,0.003969924058765173,0.011258482001721859
0.024612894281744957,0.010866555385291576,-0.010519840754568577,-0.00988176092505455,0.003969924058765173,0.011258482001721859
0.024409569799900055,0.010440628044307232,-0.01013678964227438,-0.010149755515158176,0.0035441925283521414,0.011451191268861294
0.02462584152817726,0.01064998283982277,-0.010593632236123085,-0.009815149009227753,0.0034302270505577326,0.011333399452269077
0.023953493684530258,0.011112852953374386,-0.010379324667155743,-0.010174635797739029,0.003901752410456538,0.01184467040002346
0.025273136794567108,0.010694213211536407,-0.0104868458583951,-0.010447072796523571,0.004213349428027868,0.012102136388421059
0.025354016572237015,0.010582104325294495,-0.01073470525443554,-0.009959892369806767,0.004271449521183968,0.011315704323351383
0.025667842477560043,0.010505828075110912,-0.011201311834156513,-0.010185712948441505,0.004118361510336399,0.01098948810249567
0.02490549348294735,0.011157833971083164,-0.010508943349123001,-0.010431078262627125,0.003991518635302782,0.011216063052415848
0.023868462070822716,0.011087263002991676,-0.010317922569811344,-0.011063974350690842,0.004237961024045944,0.011490040458738804
0.024555176496505737,0.010643474757671356,-0.010711745359003544,-0.010889137163758278,0.004057092126458883,0.011211107484996319
0.025500202551484108,0.011244910769164562,-0.01062040962278843,-0.010911134071648121,0.004243405070155859,0.011349909007549286
0.024774271994829178,0.010965297929942608,-0.0102311410009861,-0.010967280715703964,0.004533196333795786,0.011640510521829128
0.02548235096037388,0.010879971086978912,-0.010463452897965908,-0.010082483291625977,0.004648513160645962,0.012162327766418457
0.026186291128396988,0.011200431734323502,-0.010463082231581211,-0.009979521855711937,0.004261964466422796,0.011472116224467754
0.02619985118508339,0.010826092213392258,-0.011058961972594261,-0.010342479683458805,0.004290133249014616,0.011360586620867252
0.025536615401506424,0.011311907321214676,-0.011223092675209045,-0.009931695647537708,0.004145097453147173,0.011659528128802776
0.02551433816552162,0.011264245957136154,-0.010999370366334915,-0.010250908322632313,0.003869935404509306,0.01149627286940813
0.02539350464940071,0.010474138893187046,-0.01027179230004549,-0.010428979061543941,0.003718752646818757,0.0116153284907341
0.025300446897745132,0.011580904945731163,-0.010135224089026451,-0.010376611724495888,0.0037636645138263702,0.011523168534040451
0.026104995980858803,0.011039084754884243,-0.010329888202250004,-0.01092560961842537,0.004678352735936642,0.011357784271240234
0.026014937087893486,0.011195803992450237,-0.011187275871634483,-0.010727225802838802,0.005128498654812574,0.01080247201025486
0.026146745309233665,0.011387145146727562,-0.010919845663011074,-0.010608179494738579,0.004760410636663437,0.012166614644229412
0.025895269587635994,0.011116664856672287,-0.010410546325147152,-0.0108345253393054,0.004385659471154213,0.012394900433719158
0.026408478617668152,0.01167632918804884,-0.011055112816393375,-0.010607029311358929,0.003989510238170624,0.012148887850344181
0.026281261816620827,0.011253807693719864,-0.010965362191200256,-0.01085303071886301,0.004187692888081074,0.011592444963753223
0.02582910656929016,0.011041632853448391,-0.01075167115777731,-0.011066028848290443,0.004185834899544716,0.011675339192152023
0.02582910656929016,0.011041632853448391,-0.01075167115777731,-0.011066028848290443,0.004185834899544716,0.011675339192152023
0.026067407801747322,0.011568215675652027,-0.01129825133830309,-0.010906308889389038,0.004559197463095188,0.01163087971508503
0.025931505486369133,0.011140936985611916,-0.010641834698617458,-0.011367657221853733,0.004755297210067511,0.012140905484557152
0.025213195011019707,0.011729762889444828,-0.011063222773373127,-0.011272179894149303,0.0043955352157354355,0.012392794713377953
0.02596302144229412,0.011485704220831394,-0.01072531659156084,-0.01106047723442316,0.004295224789530039,0.011632014997303486
0.02591806836426258,0.01137853879481554,-0.010431164875626564,-0.011365855112671852,0.00411229208111763,0.01175298448652029
0.0262895617634058,0.011457412503659725,-0.010751217603683472,-0.011801330372691154,0.004541049711406231,0.012129120528697968
0.024167096242308617,0.012163580395281315,-0.01042272336781025,-0.011657866649329662,0.004358679987490177,0.01193169318139553
0.02723752334713936,0.011239948682487011,-0.01073450967669487,-0.01156899705529213,0.00450560450553894,0.011969993822276592
0.027225244790315628,0.011507246643304825,-0.010647905990481377,-0.012306541204452515,0.004148213192820549,0.012207897379994392
0.0267226193100214,0.011835840530693531,-0.011562805622816086,-0.012140776962041855,0.00421150354668498,0.012057382613420486
0.026299478486180305,0.011235669255256653,-0.011484133079648018,-0.012499244883656502,0.004091028124094009,0.01250099390745163
0.026723122224211693,0.012411028146743774,-0.010827611200511456,-0.012018116191029549,0.004287406802177429,0.011958231218159199
0.026506580412387848,0.011398641392588615,-0.011585285887122154,-0.012094566598534584,0.004071915056556463,0.01209164597094059
0.027744311839342117,0.011670948006212711,-0.010947156697511673,-0.013001486659049988,0.0044046733528375626,0.012593741528689861
0.027222657576203346,0.011793901212513447,-0.010959814302623272,-0.012636604718863964,0.004596158862113953,0.012613773345947266
0.027828169986605644,0.011682229116559029,-0.011758184991776943,-0.013208003714680672,0.005191314499825239,0.012346867471933365
0.02636590786278248,0.012370034120976925,-0.011141601949930191,-0.012951713986694813,0.005445775575935841,0.012232326902449131
0.027244478464126587,0.013225278817117214,-0.011691582389175892,-0.013231193646788597,0.004734335001558065,0.012564602307975292
0.027874672785401344,0.013772616162896156,-0.01126916240900755,-0.012828982435166836,0.0044721635058522224,0.012381338514387608
0.027536187320947647,0.013026711530983448,-0.010932957753539085,-0.01318482868373394,0.004693080671131611,0.012890834361314774
0.02782641351222992,0.013174325227737427,-0.011498195119202137,-0.013016271404922009,0.0053094010800123215,0.012562742456793785
0.028491657227277756,0.013047534972429276,-0.011341104283928871,-0.013294486328959465,0.0050923628732562065,0.012574734166264534
0.02847534790635109,0.013024318031966686,-0.011610467918217182,-0.013650743290781975,0.004771153908222914,0.01249977108091116
0.028615865856409073,0.013377238996326923,-0.011588148772716522,-0.013724721036851406,0.004626009147614241,0.012409713119268417
0.027563784271478653,0.013047588989138603,-0.011169839650392532,-0.013891635462641716,0.004809698089957237,0.012909835204482079
0.0277644544839859,0.013695143163204193,-0.011274243704974651,-0.013595303520560265,0.004585692193359137,0.012717843987047672
0.0277644544839859,0.013695143163204193,-0.011274243704974651,-0.013595303520560265,0.004585692193359137,0.012717843987047672
0.028719671070575714,0.01327914372086525,-0.010791066102683544,-0.013892152346670628,0.0041591408662498,0.012697061523795128
0.028922369703650475,0.013674450106918812,-0.011433083564043045,-0.013332145288586617,0.0038879148196429014,0.012657073326408863
0.028748195618391037,0.013148289173841476,-0.011705843731760979,-0.013488571159541607,0.003962479531764984,0.012774201110005379
0.029020169749855995,0.014133824035525322,-0.011220269836485386,-0.013584105297923088,0.004346681293100119,0.012831206433475018
0.028877994045615196,0.013327612541615963,-0.011287583969533443,-0.013993965461850166,0.004461271222680807,0.012937542051076889
0.029083844274282455,0.013709815219044685,-0.011687958613038063,-0.013034768402576447,0.004644209984689951,0.01308434084057808
0.028847482055425644,0.013774733990430832,-0.011114437133073807,-0.013205471448600292,0.004373944830149412,0.012961489148437977
0.029826899990439415,0.013459412381052971,-0.010876256972551346,-0.013680637814104557,0.004194747656583786,0.012690572068095207
0.029628252610564232,0.013668284751474857,-0.011270755901932716,-0.014008693397045135,0.004719751421362162,0.012735392898321152
0.02976863645017147,0.01380637101829052,-0.010972688905894756,-0.014100044034421444,0.0044594136998057365,0.012716350145637989
0.029357917606830597,0.013581207022070885,-0.010735868476331234,-0.013614822179079056,0.004469548352062702,0.013090969063341618
0.029494550079107285,0.013351453468203545,-0.011592451483011246,-0.014122280292212963,0.004598074592649937,0.013432622887194157
0.029720202088356018,0.01337930466979742,-0.010322918184101582,-0.01426252257078886,0.004776765592396259,0.01306984107941389
0.0300107691437006,0.013843667693436146,-0.011132058687508106,-0.014879036694765091,0.004718939773738384,0.012856295332312584
0.029695071280002594,0.013320592232048512,-0.011229585856199265,-0.014875891618430614,0.004754628054797649,0.012686004862189293
0.02962842397391796,0.014286711812019348,-0.010401371866464615,-0.014911460690200329,0.004397931043058634,0.012693735770881176
0.029873035848140717,0.014072291553020477,-0.010957005433738232,-0.014232495799660683,0.004433377180248499,0.013723185285925865
0.029666032642126083,0.014076316729187965,-0.010851633735001087,-0.014426887966692448,0.00506464671343565,0.013740635477006435
0.029758797958493233,0.013700452633202076,-0.011003385297954082,-0.014423144049942493,0.005180096719413996,0.01289333589375019
0.030118828639388084,0.01409523282200098,-0.011390579864382744,-0.014026934280991554,0.0047652097418904305,0.012969846837222576
0.030039995908737183,0.013351929374039173,-0.01095890998840332,-0.014185961335897446,0.004356998484581709,0.012871678918600082
0.030173027887940407,0.01379757933318615,-0.011148414574563503,-0.014638969674706459,0.0043967366218566895,0.013361020013689995
0.030326558277010918,0.013227819465100765,-0.010870987549424171,-0.014411510899662971,0.004255338571965694,0.013329741545021534
0.030663589015603065,0.013829033821821213,-0.010547435842454433,-0.014931660145521164,0.00449298694729805,0.013077674433588982
0.030859190970659256,0.013915710151195526,-0.01090338546782732,-0.014587352983653545,0.0046587917022407055,0.012689558789134026
0.0303812138736248,0.01476699486374855,-0.01063067652285099,-0.015053335577249527,0.004920880775898695,0.012830234132707119
0.0303812138736248,0.01476699486374855,-0.01063067652285099,-0.015053335577249527,0.004920880775898695,0.012830234132707119
0.031106995418667793,0.01411572378128767,-0.010591969825327396,-0.014425093308091164,0.00550480280071497,0.013247395865619183
0.03215881437063217,0.014404145069420338,-0.010930878110229969,-0.014820096082985401,0.005088236182928085,0.013537189923226833
0.03210606053471565,0.014042842201888561,-0.010420355014503002,-0.014391299337148666,0.004575677216053009,0.013834747485816479
0.02921498939394951,0.01435061264783144,-0.011011303402483463,-0.014967500232160091,0.004764617886394262,0.013455091044306755
0.032397475093603134,0.014446496963500977,-0.010491694323718548,-0.015429524704813957,0.0048440610989928246,0.012874129228293896
0.03151141479611397,0.014220480807125568,-0.011307024396955967,-0.01477604079991579,0.004785837139934301,0.013469969853758812
0.03172886744141579,0.014564655721187592,-0.011229021474719048,-0.015191519632935524,0.0051636602729558945,0.013746483251452446
0.03297477960586548,0.014185292646288872,-0.01026988960802555,-0.01516694575548172,0.005102907307446003,0.013858305290341377
0.03274153545498848,0.014427918940782547,-0.011862797662615776,-0.01552965585142374,0.004927550442516804,0.014373715966939926
0.03138657659292221,0.014218674972653389,-0.010548402555286884,-0.01500721462070942,0.005122323986142874,0.013912168331444263
0.031312715262174606,0.014667144976556301,-0.010634650476276875,-0.01522976066917181,0.004958686418831348,0.013724282383918762
0.03256678953766823,0.014372684992849827,-0.010926186107099056,-0.01532711461186409,0.004846970550715923,0.013657116331160069
0.032561250030994415,0.01467848289757967,-0.01067645289003849,-0.015608818270266056,0.0049179173074662685,0.013938967138528824
0.03228016942739487,0.014576968736946583,-0.011209364049136639,-0.015732819214463234,0.004995916038751602,0.01349987369030714
0.032610271126031876,0.014766370877623558,-0.010870890691876411,-0.015726134181022644,0.005202106200158596,0.013448722660541534
0.03210454434156418,0.014628272503614426,-0.010080484673380852,-0.015812009572982788,0.005250482354313135,0.01335058268159628
0.03276010602712631,0.014863301068544388,-0.011104715056717396,-0.01614442840218544,0.004701823461800814,0.01378810778260231
0.0328688807785511,0.014636881649494171,-0.010870109312236309,-0.016622673720121384,0.00493727857246995,0.014074422419071198
0.03274926543235779,0.015008236281573772,-0.010850219056010246,-0.015986857935786247,0.0053396872244775295,0.014505690895020962
0.03273976966738701,0.014350038021802902,-0.011021220125257969,-0.01613541878759861,0.0052614957094192505,0.013992137275636196
