davideferrari95/blind_handover_controller/data/Test 163 - [2024-02-08 -- 11-04-54]/joint_states_data.csv
shoulder_pan_joint,shoulder_lift_joint,elbow_joint,wrist_1_joint,wrist_2_joint,wrist_3_joint
-0.004378866869956255,-0.030334020033478737,-0.00869404710829258,0.030970435589551926,-0.004558743443340063,-0.0034474863205105066
-0.004378866869956255,-0.030334020033478737,-0.00869404710829258,0.030970435589551926,-0.004558743443340063,-0.0034474863205105066
-0.004173003137111664,-0.02900204248726368,-0.008357249200344086,0.0313076488673687,-0.00425291433930397,-0.003479552222415805
-0.0035141052212566137,-0.029294390231370926,-0.008426949381828308,0.031171690672636032,-0.003987186122685671,-0.0036363147664815187
-0.0035205548629164696,-0.030354395508766174,-0.008388364687561989,0.03112310916185379,-0.0038655477110296488,-0.0035706227645277977
-0.004840943496674299,-0.030295124277472496,-0.009099927730858326,0.031299006193876266,-0.0038602882996201515,-0.0034679651726037264
-0.004673304967582226,-0.029823506250977516,-0.008453371934592724,0.0316421315073967,-0.00391228124499321,-0.0036203188356012106
-0.003464653855189681,-0.030067160725593567,-0.00819726474583149,0.03183891251683235,-0.004299170803278685,-0.0032935438212007284
-0.003328456077724695,-0.029894782230257988,-0.008847770281136036,0.03246527537703514,-0.004025413654744625,-0.003102448070421815
-0.003770713694393635,-0.030118022114038467,-0.008714064955711365,0.03222059831023216,-0.0032947075087577105,-0.003154093399643898
-0.003998796455562115,-0.03005731664597988,-0.00848391093313694,0.03262913227081299,-0.0027637965977191925,-0.003460558596998453
-0.0039023146964609623,-0.029982948675751686,-0.009144250303506851,0.03268219530582428,-0.003077280940487981,-0.0037568015977740288
-0.0041196830570697784,-0.029885806143283844,-0.008471564389765263,0.0324573889374733,-0.0036953205708414316,-0.003858298296108842
-0.004231746308505535,-0.02985464222729206,-0.008234396576881409,0.03239503875374794,-0.00380565132945776,-0.0037846530321985483
-0.004231746308505535,-0.02985464222729206,-0.008234396576881409,0.03239503875374794,-0.00380565132945776,-0.0037846530321985483
-0.003973919898271561,-0.030302751809358597,-0.009450075216591358,0.03379402682185173,-0.0029033429455012083,-0.0037220376543700695
-0.00422403821721673,-0.030026620253920555,-0.00892073754221201,0.03341348096728325,-0.0026710534002631903,-0.0036214557476341724
-0.0042693400755524635,-0.030093088746070862,-0.00841794814914465,0.032599467784166336,-0.002624727785587311,-0.0035043745301663876
-0.004431275650858879,-0.029744260013103485,-0.00878889113664627,0.032815318554639816,-0.002632652875036001,-0.0036215530708432198
-0.004573458340018988,-0.029912006109952927,-0.008939062245190144,0.03273230418562889,-0.0027410369366407394,-0.003771270625293255
-0.00462651951238513,-0.029905768111348152,-0.008744466118514538,0.03288133069872856,-0.0025616874918341637,-0.0041479249484837055
-0.004388642031699419,-0.029941752552986145,-0.009434993378818035,0.03443899005651474,-0.0024716730695217848,-0.004056836478412151
-0.004034898243844509,-0.030198704451322556,-0.008592195808887482,0.03386056050658226,-0.002729514380916953,-0.003763813292607665
-0.0043786438181996346,-0.030002843588590622,-0.008263034746050835,0.03303714841604233,-0.0031399161089211702,-0.003594594541937113
-0.004468187224119902,-0.029781535267829895,-0.009687605313956738,0.03308649733662605,-0.0031494214199483395,-0.0034338089171797037
-0.00443542655557394,-0.029920760542154312,-0.009881595149636269,0.0341823473572731,-0.003026363905519247,-0.0035532312467694283
-0.004330826923251152,-0.03035908192396164,-0.009205886162817478,0.033970724791288376,-0.002765069715678692,-0.0037391239311546087
-0.004418567754328251,-0.03034335747361183,-0.008450740948319435,0.03354597091674805,-0.0025578471831977367,-0.0038267597556114197
-0.004318679217249155,-0.030406182631850243,-0.00754866749048233,0.03395302966237068,-0.0025608870200812817,-0.003952456172555685
-0.00403559161350131,-0.029289890080690384,-0.007207550574094057,0.03406296670436859,-0.0025138070341199636,-0.003952379804104567
-0.004367077723145485,-0.031222814694046974,-0.007750050630420446,0.03371541202068329,-0.0029457099735736847,-0.0039917961694300175
-0.0041579147800803185,-0.031253788620233536,-0.0075957574881613255,0.03267983719706535,-0.002723207464441657,-0.004078559577465057
-0.003938003908842802,-0.031095854938030243,-0.008300047367811203,0.03278732672333717,-0.0025479167234152555,-0.004081137012690306
-0.004047015681862831,-0.030618732795119286,-0.007874415256083012,0.03309880569577217,-0.0026040938682854176,-0.004004223737865686
-0.004052372649312019,-0.030645105987787247,-0.006924666929990053,0.03358505666255951,-0.0028459487948566675,-0.003914962522685528
-0.0043232799507677555,-0.0303634125739336,-0.007350585423409939,0.03378516435623169,-0.002893531695008278,-0.004035924095660448
-0.003999967128038406,-0.030318371951580048,-0.008767559193074703,0.033572278916835785,-0.0027262261137366295,-0.004256206564605236
-0.004270004574209452,-0.03037027269601822,-0.0077696810476481915,0.033824242651462555,-0.0025598660577088594,-0.004415044095367193
-0.004225185140967369,-0.029814550653100014,-0.006792532745748758,0.03409427031874657,-0.0023673370014876127,-0.004549388773739338
-0.00444144057109952,-0.029507145285606384,-0.007438688073307276,0.03397876024246216,-0.002387777902185917,-0.004509091377258301
-0.00444144057109952,-0.029507145285606384,-0.007438688073307276,0.03397876024246216,-0.002387777902185917,-0.004509091377258301
-0.004149339627474546,-0.030417833477258682,-0.008394519798457623,0.03455358371138573,-0.00235909316688776,-0.004357955884188414
-0.00418686680495739,-0.03026866354048252,-0.007954902946949005,0.033649787306785583,-0.0023114692885428667,-0.004123226273804903
-0.004094249103218317,-0.028961507603526115,-0.007068219594657421,0.034107308834791183,-0.002411471912637353,-0.004058689810335636
-0.004361673258244991,-0.02881765365600586,-0.0074780103750526905,0.03447461873292923,-0.0021882608998566866,-0.0040744272992014885
-0.004161785822361708,-0.029067091643810272,-0.007679783273488283,0.03455926477909088,-0.002095182193443179,-0.004344802815467119
-0.00415975134819746,-0.02940521575510502,-0.008121631108224392,0.0338912308216095,-0.0020590785425156355,-0.004599232692271471
-0.004312058445066214,-0.029516326263546944,-0.007963644340634346,0.03393000364303589,-0.0021106707863509655,-0.004534918814897537
-0.004147831816226244,-0.030550694093108177,-0.00785071775317192,0.033661045134067535,-0.0020666434429585934,-0.004175303969532251
-0.003978514578193426,-0.02975267730653286,-0.007024151273071766,0.03458017110824585,-0.0020229993388056755,-0.003955306485295296
-0.003997200168669224,-0.028591085225343704,-0.007214252837002277,0.03492669016122818,-0.0019835843704640865,-0.004328352864831686
-0.0040044658817350864,-0.028582291677594185,-0.007660132832825184,0.033453356474637985,-0.00207152240909636,-0.004535831045359373
-0.003996308892965317,-0.029345232993364334,-0.008164444006979465,0.03218429908156395,-0.0020211872179061174,-0.004652973730117083
-0.004365723580121994,-0.029643388465046883,-0.007553105242550373,0.033306002616882324,-0.001901247538626194,-0.004553798586130142
-0.004062575753778219,-0.029755836352705956,-0.007219107821583748,0.03335782140493393,-0.0019294422818347812,-0.004355867393314838
-0.004333105869591236,-0.029473312199115753,-0.007638447917997837,0.03284671530127525,-0.00197567674331367,-0.004079681355506182
-0.004166014026850462,-0.02931183949112892,-0.00846841186285019,0.03398233652114868,-0.002036208286881447,-0.0039036280941218138
-0.004288942087441683,-0.02913966216146946,-0.007770243100821972,0.03334688022732735,-0.0023178565315902233,-0.004141207784414291
-0.0042325276881456375,-0.029158804565668106,-0.0074447826482355595,0.03237353637814522,-0.002369174500927329,-0.0042508915066719055
-0.004064947832375765,-0.028679916635155678,-0.008270734921097755,0.032859113067388535,-0.0022365355398505926,-0.0047556073404848576
-0.003932546824216843,-0.029129326343536377,-0.007945390418171883,0.0339561365544796,-0.0018881415016949177,-0.004754223395138979
-0.004188254475593567,-0.03046286478638649,-0.007540030870586634,0.03398125618696213,-0.0017664800398051739,-0.004449109546840191
-0.004453533329069614,-0.029750442132353783,-0.0077334195375442505,0.034383952617645264,-0.0016257674433290958,-0.004106263164430857
-0.004210213199257851,-0.02890017442405224,-0.008217568509280682,0.033308085054159164,-0.0015057650161907077,-0.004292014986276627
-0.003993077669292688,-0.028038987889885902,-0.007638299837708473,0.03378644958138466,-0.0015574789140373468,-0.004476032219827175
-0.003855800023302436,-0.02842925861477852,-0.00724462466314435,0.034277912229299545,-0.0015636455500498414,-0.004583174828439951
-0.003820420242846012,-0.028773261234164238,-0.007407011464238167,0.03416600823402405,-0.0017338104080408812,-0.004704383201897144
-0.004157739225775003,-0.027039755135774612,-0.008512659929692745,0.033891256898641586,-0.0016050615813583136,-0.004635250195860863
-0.0038019956555217505,-0.029228800907731056,-0.008457615040242672,0.03348550200462341,-0.0016096567269414663,-0.004594071768224239
-0.0035447038244456053,-0.02926338091492653,-0.007871570065617561,0.0341673381626606,-0.0015977952862158418,-0.004260793793946505
-0.0036164468619972467,-0.02843271568417549,-0.007644458208233118,0.03416585922241211,-0.0014789859997108579,-0.004515439737588167
-0.003856844501569867,-0.027333686128258705,-0.007686125114560127,0.03421713411808014,-0.0013889068504795432,-0.004661398474127054
-0.003856844501569867,-0.027333686128258705,-0.007686125114560127,0.03421713411808014,-0.0013889068504795432,-0.004661398474127054
-0.003874104702845216,-0.02744164876639843,-0.007495730184018612,0.03365775942802429,-0.001391095109283924,-0.004659879487007856
-0.0038064804393798113,-0.028277741745114326,-0.007298050448298454,0.03337126970291138,-0.001461776322685182,-0.004647533874958754
-0.003955223131924868,-0.027576500549912453,-0.007851204834878445,0.035035185515880585,-0.0013766840565949678,-0.004369510803371668
-0.003953860141336918,-0.027509795501828194,-0.007417637389153242,0.034908849745988846,-0.0014992946526035666,-0.004693412687629461
-0.0039052623324096203,-0.027535898610949516,-0.007160570938140154,0.03276409953832626,-0.0014068703167140484,-0.004654875490814447
-0.003452044678851962,-0.027348250150680542,-0.007726271636784077,0.03180266544222832,-0.0012926426716148853,-0.004936665762215853
-0.003322293283417821,-0.027646293863654137,-0.00754226790741086,0.03283116966485977,-0.0011385662946850061,-0.004972777795046568
-0.0034892174880951643,-0.027477553114295006,-0.007173401303589344,0.03236502781510353,-0.0009364706929773092,-0.0049272864125669
-0.00355473137460649,-0.027687299996614456,-0.006859255954623222,0.03247370198369026,-0.0009926153579726815,-0.004975836258381605
-0.0034234554041177034,-0.027724485844373703,-0.00770927406847477,0.03361388295888901,-0.0009832943323999643,-0.004786449950188398
-0.003513521980494261,-0.027315035462379456,-0.00797486025840044,0.03328862413764,-0.0009178812615573406,-0.004938074387609959
-0.003757511032745242,-0.027487965300679207,-0.008072604425251484,0.03215062618255615,-0.0009030013461597264,-0.0045082722790539265
-0.0034314317163079977,-0.027929332107305527,-0.0068445708602666855,0.03076590970158577,-0.0009813070064410567,-0.0045088245533406734
-0.0035824603401124477,-0.027533894404768944,-0.007117301691323519,0.03211493045091629,-0.0010075491154566407,-0.004840603563934565
-0.003264578292146325,-0.027654500678181648,-0.007680003065615892,0.032628707587718964,-0.0011108916951343417,-0.0047566210851073265
-0.003460845211520791,-0.02772834338247776,-0.008231726475059986,0.032305680215358734,-0.0011165430769324303,-0.004458481911569834
-0.003714514896273613,-0.027466949075460434,-0.007171979174017906,0.03234397619962692,-0.001167173613794148,-0.004317159298807383
-0.0032378823962062597,-0.027698364108800888,-0.006941961590200663,0.0330016203224659,-0.0010874131694436073,-0.004706910811364651
-0.0032378823962062597,-0.027698364108800888,-0.006941961590200663,0.0330016203224659,-0.0010874131694436073,-0.004706910811364651
-0.003380291163921356,-0.02760612778365612,-0.006731623318046331,0.03252410888671875,-0.0011661144671961665,-0.004989411681890488
-0.003409444121643901,-0.027835486456751823,-0.00721847265958786,0.0324866883456707,-0.0011256056604906917,-0.0051538352854549885
-0.003450133604928851,-0.027641624212265015,-0.007619673851877451,0.03272421658039093,-0.0010788735235109925,-0.004874923266470432
-0.0031608142890036106,-0.027750544250011444,-0.007321720477193594,0.0329899787902832,-0.0010593300685286522,-0.00488638412207365
-0.0029314521234482527,-0.027334028854966164,-0.006972323637455702,0.03291765972971916,-0.0009760670945979655,-0.004862852860242128
-0.002866949886083603,-0.02769535593688488,-0.0069967154413461685,0.03314564377069473,-0.0008999396814033389,-0.005249197129160166
-0.0032375752925872803,-0.027308808639645576,-0.007201583124697208,0.03287719190120697,-0.0008954897057265043,-0.005017505027353764
-0.003198298392817378,-0.026955312117934227,-0.007797909434884787,0.03243431821465492,-0.0008303867653012276,-0.004796995315700769
-0.003031352302059531,-0.02702917717397213,-0.0071941399946808815,0.03256160020828247,-0.0007832990377210081,-0.005016528535634279
-0.003031352302059531,-0.02702917717397213,-0.0071941399946808815,0.03256160020828247,-0.0007832990377210081,-0.005016528535634279
-0.0028489776886999607,-0.02702850103378296,-0.007036213297396898,0.032514918595552444,-0.0007367082289420068,-0.0052158464677631855
-0.0028554126620292664,-0.027155328541994095,-0.007358222734183073,0.03191303089261055,-0.0007448365795426071,-0.0049516488797962666
-0.0028922664932906628,-0.027148373425006866,-0.007843529805541039,0.031767211854457855,-0.000693548412527889,-0.005314521491527557
-0.0028167187701910734,-0.026626354083418846,-0.0071760378777980804,0.031718991696834564,-0.0006374401273205876,-0.005316953640431166
-0.002892394084483385,-0.02668081410229206,-0.007338722702115774,0.031363360583782196,-0.0005858703516423702,-0.005307451356202364
-0.0028529055416584015,-0.02695774845778942,-0.007028868887573481,0.032607924193143845,-0.0005417705397121608,-0.00519922049716115
-0.00282738427631557,-0.02684687450528145,-0.006495561916381121,0.031200630590319633,-0.0004844758368562907,-0.0051476918160915375
-0.0025993622839450836,-0.02652386948466301,-0.006736768409609795,0.030744614079594612,-0.00043631441076286137,-0.005203073378652334
-0.002661507111042738,-0.026996320113539696,-0.007356519345194101,0.03114524483680725,-0.00039763806853443384,-0.005476657766848803
-0.0026550935581326485,-0.026626788079738617,-0.00750552536919713,0.03128568083047867,-0.00036531820660457015,-0.005442304071038961
-0.002535720355808735,-0.02592194825410843,-0.00694887712597847,0.031036386266350746,-0.00033786604763008654,-0.005174619145691395
-0.002828171942383051,-0.026323044672608376,-0.006443302147090435,0.031585656106472015,-0.00031425367342308164,-0.0056459056213498116
-0.0029244341421872377,-0.026456695050001144,-0.006575398147106171,0.03240407258272171,-0.0002937281969934702,-0.00536784902215004
-0.0029553284402936697,-0.0253691915422678,-0.0073303221724927425,0.031591854989528656,-0.00030255160527303815,-0.005048464518040419
-0.0027048964984714985,-0.026139261201024055,-0.007358072325587273,0.02998889796435833,-0.0003099057939834893,-0.005647121462970972
-0.0027244454249739647,-0.02532901242375374,-0.006435401737689972,0.030776038765907288,-0.0002946112654171884,-0.0055366693995893
-0.0026739551685750484,-0.02523620054125786,-0.006291376892477274,0.03179933503270149,-0.00027946519549004734,-0.005389487370848656
-0.0024738044012337923,-0.02633417397737503,-0.006771104875952005,0.03146493062376976,-0.0002657161676324904,-0.005117164924740791
-0.0024957244750112295,-0.02577064000070095,-0.007363511715084314,0.03216350078582764,-0.0002532511134631932,-0.005206747446209192
-0.0026439386419951916,-0.02524944767355919,-0.007279769517481327,0.03190739452838898,-0.00024190302065107971,-0.00544225936755538
-0.002502055373042822,-0.025732237845659256,-0.006288727279752493,0.0315738320350647,-0.00023152897483669221,-0.005487049929797649
-0.0025091746356338263,-0.026192817836999893,-0.005995637271553278,0.030756264925003052,-0.00022200825333129615,-0.005585991311818361
-0.0026046214625239372,-0.025221815332770348,-0.006718982942402363,0.030753036960959435,-0.00021323977853171527,-0.005197964608669281
-0.0026046214625239372,-0.025221815332770348,-0.006718982942402363,0.030753036960959435,-0.00021323977853171527,-0.005197964608669281
-0.0026219203136861324,-0.024653345346450806,-0.006491486448794603,0.031068556010723114,-0.00019762864394579083,-0.0051971604116261005
-0.0026767607778310776,-0.024987438693642616,-0.006535057909786701,0.03187498822808266,-0.0001906502147903666,-0.0050560166127979755
-0.002626146422699094,-0.02553757093846798,-0.00683412654325366,0.03144744038581848,-0.00018414785154163837,-0.005197108257561922
-0.002626146422699094,-0.02553757093846798,-0.00683412654325366,0.03144744038581848,-0.00018414785154163837,-0.005197108257561922
-0.0027417263481765985,-0.02573464624583721,-0.007060936186462641,0.03160415217280388,-0.0001780744205461815,-0.005066116340458393
-0.002544758375734091,-0.025232458487153053,-0.0068337745033204556,0.03192244842648506,-0.0001723890600260347,-0.004957023076713085
-0.002422476187348366,-0.024661004543304443,-0.006708596833050251,0.032373663038015366,-0.0001670553465373814,-0.005206411238759756
-0.002383894519880414,-0.02439701370894909,-0.007596708834171295,0.03131185844540596,-0.00016204184794332832,-0.0053193774074316025
-0.0024473718367516994,-0.025047576054930687,-0.0071616158820688725,0.03030855394899845,-0.00015732082829345018,-0.006067227106541395
-0.002331027528271079,-0.02504567801952362,-0.006521895527839661,0.030494634062051773,-0.0001528668508399278,-0.006001667119562626
-0.0023217611014842987,-0.025376733392477036,-0.006628625560551882,0.03007141873240471,-0.00014467499568127096,-0.005314868409186602
-0.002464303281158209,-0.024738600477576256,-0.007395395543426275,0.030062302947044373,-0.00014089987962506711,-0.005317521747201681
-0.0024107585195451975,-0.025160185992717743,-0.007526510860770941,0.029771190136671066,-0.0001373167324345559,-0.005147169344127178
-0.0022500413469970226,-0.02522272802889347,-0.006703198421746492,0.030002329498529434,-0.00013391127868089825,-0.005297872703522444
-0.0022886137012392282,-0.02535359002649784,-0.0065823569893836975,0.030299460515379906,-0.00013067065447103232,-0.005360565613955259
-0.002059516031295061,-0.02458183653652668,-0.006955049932003021,0.030178623273968697,-0.00012758330558426678,-0.005238378420472145
-0.002130793407559395,-0.024754023179411888,-0.007441492285579443,0.029117820784449577,-0.00012463836173992604,-0.005319713149219751
-0.0023338748142123222,-0.025173446163535118,-0.007179825566709042,0.029126564040780067,-0.0001218262841575779,-0.005671319551765919
-0.00224801036529243,-0.025527281686663628,-0.0069246068596839905,0.03032061457633972,-0.00011913839989574626,-0.006085414905101061
-0.002138447714969516,-0.02535305917263031,-0.007039441727101803,0.030181407928466797,-0.00011656660353764892,-0.005692395847290754
-0.00205040886066854,-0.02491774968802929,-0.0075326780788600445,0.03071342594921589,-0.00011410339357098565,-0.005533472169190645
-0.0019797019194811583,-0.02502363920211792,-0.007565306965261698,0.031744226813316345,-0.00011174216342624277,-0.005749209318310022
-0.0019417989533394575,-0.02549155429005623,-0.007027279585599899,0.030606435611844063,-0.00010947669943561777,-0.005868732929229736
-0.0020393836311995983,-0.024548113346099854,-0.007398483343422413,0.029082756489515305,-0.00010730128997238353,-0.00564300362020731
-0.002057101810351014,-0.024698998779058456,-0.00755936186760664,0.029056444764137268,-0.00010521064541535452,-0.0056177424266934395
-0.002102328697219491,-0.024285415187478065,-0.007395342458039522,0.030460551381111145,-0.00010319991270080209,-0.005412769969552755
-0.0020255136769264936,-0.024597521871328354,-0.007360401563346386,0.030821871012449265,-0.00010126453707925975,-0.00569523312151432
-0.0018968455260619521,-0.024432480335235596,-0.00735331978648901,0.0299755297601223,-9.940051677403972e-05,-0.005918876733630896
-0.0018764740088954568,-0.02372858300805092,-0.0074977451004087925,0.02988693118095398,-9.760385000845417e-05,-0.005917523056268692
-0.001941218040883541,-0.02397974580526352,-0.007441787980496883,0.03001846745610237,-9.587102977093309e-05,-0.006035687867552042
-0.0019205404678359628,-0.024111563339829445,-0.00744260661303997,0.029740238562226295,-9.419859270565212e-05,-0.005823126528412104
-0.0019507204415276647,-0.02408440224826336,-0.007589276414364576,0.029336709529161453,-9.258346108254045e-05,-0.005908766761422157
-0.0019507204415276647,-0.02408440224826336,-0.007589276414364576,0.029336709529161453,-9.258346108254045e-05,-0.005908766761422157
-0.0017441425006836653,-0.02410230040550232,-0.007646676152944565,0.02874271757900715,-7.97617103671655e-05,-0.006012388505041599
-0.0016054222360253334,-0.023448381572961807,-0.007608650717884302,0.029703333973884583,-7.485027163056657e-05,-0.0061230286955833435
-0.00152150122448802,-0.023605158552527428,-0.007065816782414913,0.02854439802467823,-7.33952911105007e-05,-0.006070992909371853
-0.001762976055033505,-0.02384832501411438,-0.008251555263996124,0.02823353372514248,-7.106119301170111e-05,-0.005802328232675791
-0.0017220901791006327,-0.023743001744151115,-0.007952949032187462,0.028180589899420738,-6.995642615947872e-05,-0.0061111170798540115
-0.0015872796066105366,-0.02381683886051178,-0.006960327737033367,0.02828696183860302,-6.888554344186559e-05,-0.00609050877392292
-0.0016228682361543179,-0.023267075419425964,-0.007045361213386059,0.028107881546020508,-5.605028854915872e-05,-0.0062182131223380566
-0.0015155364526435733,-0.02344033308327198,-0.007703211158514023,0.027635442093014717,-5.3587096772389486e-05,-0.0056383018381893635
-0.0013267829781398177,-0.02342846430838108,-0.007985967211425304,0.027412915602326393,-5.269631219562143e-05,-0.005711663980036974
-0.0013806895585730672,-0.023372793570160866,-0.007725104223936796,0.02771356701850891,-4.06422586820554e-05,-0.0060203783214092255
-0.00133637769613415,-0.02327599935233593,-0.007034112233668566,0.02790825441479683,-3.850348002742976e-05,-0.006092257797718048
-0.001510081347078085,-0.02293398417532444,-0.008011998608708382,0.027445724233984947,-3.786170782404952e-05,-0.0062965028919279575
-0.0014464508276432753,-0.023028496652841568,-0.007844238542020321,0.02705087698996067,1.9679715478559956e-05,-0.006363613065332174
-0.00137121242005378,-0.022644663229584694,-0.007578436750918627,0.026675516739487648,3.4105392842320725e-05,-0.006069164257496595
-0.0014401220250874758,-0.023067563772201538,-0.007739086635410786,0.026605423539876938,4.059049388160929e-05,-0.006128796376287937
-0.0013428169768303633,-0.023333270102739334,-0.007909190841019154,0.02699214778840542,4.708482083515264e-05,-0.006578282453119755
-0.0012692080345004797,-0.02292618155479431,-0.007559698540717363,0.026820819824934006,5.2716572099598125e-05,-0.0063773090951144695
-0.001266149920411408,-0.022973889485001564,-0.007338300812989473,0.026654815301299095,6.459277938120067e-05,-0.00648515997454524
-0.001237649703398347,-0.022992294281721115,-0.007991135120391846,0.02676599845290184,0.0006494238041341305,-0.006351758725941181
-0.0011949969921261072,-0.02289689891040325,-0.007895946502685547,0.02681833691895008,0.0007791091338731349,-0.006104802247136831
-0.0013688351027667522,-0.022800058126449585,-0.00735893240198493,0.026686079800128937,0.0007736830157227814,-0.006250652950257063
-0.0012908787466585636,-0.023041564971208572,-0.007211565505713224,0.026461683213710785,0.000740773684810847,-0.006475023925304413
-0.0012302007526159286,-0.022829893976449966,-0.007724221795797348,0.026444831863045692,0.0009040212607942522,-0.0061360374093055725
-0.001308813807554543,-0.02272169664502144,-0.007753074634820223,0.027365632355213165,0.000898845843039453,-0.006202234886586666
-0.0012851041974499822,-0.022901898249983788,-0.007183229550719261,0.026775166392326355,0.0008017313084565103,-0.00643378309905529
-0.001246523461304605,-0.022806106135249138,-0.006928293965756893,0.026915352791547775,0.0007847457309253514,-0.00643247552216053
-0.0013609880115836859,-0.02232012338936329,-0.007043803110718727,0.02750280499458313,0.0007960638613440096,-0.006417789030820131
-0.0012843695003539324,-0.021906837821006775,-0.007688106968998909,0.027513042092323303,0.0007856991142034531,-0.006678223144263029
-0.0012843695003539324,-0.021906837821006775,-0.007688106968998909,0.027513042092323303,0.0007856991142034531,-0.006678223144263029
-0.001206454704515636,-0.022447999566793442,-0.007400115020573139,0.02634185180068016,0.0009170407429337502,-0.006310639902949333
-0.0008955792873166502,-0.022147446870803833,-0.007295297924429178,0.025804562494158745,0.001982014859095216,-0.006505954544991255
-0.000894154654815793,-0.022047514095902443,-0.007832217030227184,0.026524260640144348,0.0018945171032100916,-0.0069999718107283115
-0.0009777238592505455,-0.022313112393021584,-0.0073079923167824745,0.02634444087743759,0.001803574268706143,-0.006454023998230696
-0.0009089087252505124,-0.02224184200167656,-0.006969730835407972,0.02616051398217678,0.0016539565986022353,-0.006101465318351984
-0.0010348319774493575,-0.021971844136714935,-0.0074155437760055065,0.026656920090317726,0.0013679865514859557,-0.006442289333790541
-0.001014525769278407,-0.0217434149235487,-0.0076425629667937756,0.02674034796655178,0.001405616058036685,-0.0065573351457715034
-0.0009985074866563082,-0.02150902710855007,-0.007185542955994606,0.02644156850874424,0.0015575127908959985,-0.0062812259420752525
-0.0008952111820690334,-0.021357053890824318,-0.007214216981083155,0.026305845007300377,0.0018815584480762482,-0.006284515373408794
-0.000891878386028111,-0.01865781657397747,-0.006946650333702564,0.024379126727581024,0.0022706983145326376,-0.006224222481250763
-0.0008887312142178416,-0.02156236581504345,-0.007360534276813269,0.02454163134098053,0.0023380459751933813,-0.006217930465936661
-0.0008799111819826066,-0.021898595616221428,-0.007414307910948992,0.025237271562218666,0.0023290396202355623,-0.006336339749395847
-0.0007841027108952403,-0.021747101098299026,-0.006829716265201569,0.024723930284380913,0.002154691144824028,-0.006672066170722246
-0.0007955547189339995,-0.020952241495251656,-0.0066895815543830395,0.024943942204117775,0.001965364906936884,-0.006211439147591591
-0.0007393169798888266,-0.020916998386383057,-0.007050097454339266,0.025060884654521942,0.0019510389538481832,-0.00596572132781148
-0.0006471991073340178,-0.020502155646681786,-0.006668048910796642,0.024802984669804573,0.001999802188947797,-0.006132256705313921
-0.0006773681379854679,-0.02045266143977642,-0.006949338596314192,0.0244852676987648,0.0019467291422188282,-0.006061877124011517
-0.0006993688875809312,-0.020492013543844223,-0.006828272715210915,0.024280987679958344,0.002143326448276639,-0.00648720795288682
-0.0006329187890514731,-0.02100401744246483,-0.007453856058418751,0.02418842911720276,0.002231509191915393,-0.00674856873229146
-0.0006561198970302939,-0.020739855244755745,-0.006846551783382893,0.024143138900399208,0.002280773827806115,-0.00669202022254467
-0.000603824679274112,-0.020724603906273842,-0.006630899850279093,0.024017423391342163,0.002560714492574334,-0.006334990728646517
-0.0006240408401936293,-0.020726140588521957,-0.006834079511463642,0.024646947160363197,0.002363643841817975,-0.0063134776428341866
-0.0006205023382790387,-0.021434878930449486,-0.006907213944941759,0.024861501529812813,0.002202896634116769,-0.006833640858530998
-0.0005868475418537855,-0.021054310724139214,-0.007228337228298187,0.02458580955862999,0.0021198156755417585,-0.006696050520986319
-0.0005297073512338102,-0.020491700619459152,-0.006872265599668026,0.024073699489235878,0.0020483338739722967,-0.007018463220447302
-0.0005593692767433822,-0.02032550424337387,-0.0065116663463413715,0.023608241230249405,0.0020279306918382645,-0.006455984897911549
-0.0005593692767433822,-0.02032550424337387,-0.0065116663463413715,0.023608241230249405,0.0020279306918382645,-0.006455984897911549
-0.000516564236022532,-0.020769324153661728,-0.0066529931500554085,0.02411639876663685,0.001981933368369937,-0.006360241677612066
-0.0005068858154118061,-0.020639806985855103,-0.006861975882202387,0.024801358580589294,0.001973543083295226,-0.006996841635555029
-0.0004738152492791414,-0.020717667415738106,-0.006875792983919382,0.023800939321517944,0.0019464083015918732,-0.006764397025108337
-0.00045202570618130267,-0.02119271829724312,-0.0067186723463237286,0.02256958745419979,0.0018736554775387049,-0.006637687794864178
-0.0004123869293835014,-0.02067970670759678,-0.007620020769536495,0.022465849295258522,0.0018222022335976362,-0.006727077066898346
-0.00042705965461209416,-0.02039436250925064,-0.007574905175715685,0.022958161309361458,0.0018364929128438234,-0.007201229687780142
-0.0004178625240456313,-0.020867040380835533,-0.006819406524300575,0.02322443388402462,0.0022365234326571226,-0.007081226445734501
-0.0004450580745469779,-0.02127746492624283,-0.006366229150444269,0.022711435332894325,0.002484349999576807,-0.00683622295036912
-0.0004223590367473662,-0.020621875301003456,-0.006987037602812052,0.02227785997092724,0.0023479904048144817,-0.007151992060244083
-0.000395910203224048,-0.020741377025842667,-0.007181421387940645,0.023036818951368332,0.002425048965960741,-0.006755895912647247
-0.0003724982962012291,-0.020547550171613693,-0.006978966295719147,0.022827984765172005,0.0023812875151634216,-0.006951210554689169
-0.0003517010190989822,-0.020790958777070045,-0.006955148186534643,0.022295406088232994,0.0024861835408955812,-0.006876292172819376
-0.00038001517532393336,-0.020614223554730415,-0.007661924697458744,0.021555112674832344,0.0023354210425168276,-0.006945598404854536
-0.0003615629975683987,-0.02024569921195507,-0.007885872386395931,0.021280288696289062,0.002192754065617919,-0.00697876513004303
-0.0003442804154474288,-0.020694058388471603,-0.006757150869816542,0.02150895819067955,0.0021353180054575205,-0.006917105987668037
-0.00032856743200682104,-0.02004300057888031,-0.0063965460285544395,0.022253943607211113,0.0020655253902077675,-0.007047898601740599
-0.00033295623143203557,-0.019978608936071396,-0.006657278165221214,0.022336412221193314,0.002238549990579486,-0.006650216411799192
-0.0003109215758740902,-0.02032175473868847,-0.0073103467002511024,0.021950768306851387,0.0024337349459528923,-0.006982424296438694
-0.00029083507251925766,-0.020504234358668327,-0.006798355840146542,0.021803170442581177,0.002456414047628641,-0.007280977442860603
-0.0002731771091930568,-0.0197452362626791,-0.0071229212917387486,0.021435413509607315,0.002815145766362548,-0.006944705732166767
-0.00025754107628017664,-0.020046837627887726,-0.006619616411626339,0.021069347858428955,0.002743152203038335,-0.006869246251881123
-0.00024359804228879511,-0.020512891933321953,-0.007147025782614946,0.020775597542524338,0.0027022804133594036,-0.007021929137408733
-0.00023108672758098692,-0.019013676792383194,-0.0072897677309811115,0.020834796130657196,0.002718590199947357,-0.0073532587848603725
-0.00021979880693834275,-0.019392067566514015,-0.006502652075141668,0.020999068394303322,0.0024993421975523233,-0.007635552901774645
-0.00020956227672286332,-0.02001967839896679,-0.006917144171893597,0.020478151738643646,0.002302713692188263,-0.007037288509309292
-0.00020956227672286332,-0.02001967839896679,-0.006917144171893597,0.020478151738643646,0.002302713692188263,-0.007037288509309292
-0.00020023649267386645,-0.019517293199896812,-0.007667348720133305,0.02099311538040638,0.0020686443895101547,-0.007356058340519667
-0.00018387314048595726,-0.01971077173948288,-0.006374390795826912,0.020250292494893074,0.002275085309520364,-0.0070937988348305225
-0.00017665413906797767,-0.018867749720811844,-0.0063327401876449585,0.019930478185415268,0.0025799297727644444,-0.007262405939400196
-0.00016998083447106183,-0.01939607784152031,-0.006647953297942877,0.020132992416620255,0.002562673296779394,-0.007584611419588327
-0.00016379336011596024,-0.019838053733110428,-0.007242363411933184,0.019641287624835968,0.0026767312083393335,-0.007454512175172567
-0.00015804132272023708,-0.018502462655305862,-0.007471655961126089,0.019369585439562798,0.002515304833650589,-0.008001827634871006
-0.00015267892740666866,-0.018453383818268776,-0.006343456916511059,0.02011055313050747,0.0024249828420579433,-0.007691635750234127
-0.0001476684119552374,-0.01877838745713234,-0.006360472645610571,0.020183365792036057,0.0025992507580667734,-0.008087963797152042
-0.00014297674351837486,-0.018369747325778008,-0.006832838524132967,0.01983409747481346,0.0027575634885579348,-0.007961709052324295
-0.00013857409066986293,-0.018682299181818962,-0.007155595347285271,0.01967606134712696,0.0026049669831991196,-0.0076552205719053745
-0.00013443412899505347,-0.01893971674144268,-0.006469615735113621,0.019635383039712906,0.002725969534367323,-0.0076825604774057865
-0.0001305344922002405,-0.018346307799220085,-0.006228873040527105,0.019300131127238274,0.0026614635717123747,-0.007791114971041679
-0.00012685469118878245,-0.018408318981528282,-0.00636859517544508,0.019388336688280106,0.002399320714175701,-0.007725111208856106
-0.00010715741518652067,-0.017861146479845047,-0.007090795319527388,0.019247835502028465,0.0024253728333860636,-0.007628340739756823
-9.618112380849198e-05,-0.017615096643567085,-0.006819749716669321,0.018743665888905525,0.002428869716823101,-0.007529062684625387
-9.357204544357955e-05,-0.018425488844513893,-0.006568842567503452,0.019008105620741844,0.0022884621284902096,-0.0075689638033509254
-9.12002578843385e-05,-0.018000643700361252,-0.006300174165517092,0.019218452274799347,0.0023261045571416616,-0.007335185538977385
-8.894696657080203e-05,-0.017629066482186317,-0.00681252172216773,0.01863023266196251,0.0022468790411949158,-0.0073197586461901665
-8.680217433720827e-05,-0.01743093505501747,-0.006698255427181721,0.01890621706843376,0.0024060914292931557,-0.00741172581911087
-8.680217433720827e-05,-0.01743093505501747,-0.006698255427181721,0.01890621706843376,0.0024060914292931557,-0.00741172581911087
-8.475865615764633e-05,-0.017541246488690376,-0.006235609762370586,0.018713824450969696,0.002599550411105156,-0.007767428178340197
-8.280899783130735e-05,-0.017751408740878105,-0.006330706179141998,0.01804601587355137,0.0027547706849873066,-0.007747842464596033
-8.094708755379543e-05,-0.01740742102265358,-0.006556442938745022,0.01874556578695774,0.002688077976927161,-0.007921147160232067
-6.0168564232299104e-05,-0.017410721629858017,-0.006875398103147745,0.01762930303812027,0.0025850972160696983,-0.007817218080163002
-5.810835864394903e-05,-0.017654327675700188,-0.006791871972382069,0.017451316118240356,0.0023263252805918455,-0.00788162648677826
-5.6873988796724007e-05,-0.01736200973391533,-0.006359605118632317,0.017778147011995316,0.0023614021483808756,-0.008194675669074059
-5.45747134310659e-05,-0.017015738412737846,-0.006819667294621468,0.018318600952625275,0.0027667866088449955,-0.007989038713276386
-5.349406274035573e-05,-0.01696334406733513,-0.0070158690214157104,0.01793556474149227,0.002750801621004939,-0.007833021692931652
6.0261194448685274e-05,-0.017025796696543694,-0.006541495211422443,0.017425434663891792,0.00294454931281507,-0.007632101885974407
8.764167432673275e-05,-0.01682337373495102,-0.006401607766747475,0.01773052103817463,0.0029660905711352825,-0.0077164373360574245
0.00010933058365480974,-0.01743892952799797,-0.007229034788906574,0.017057733610272408,0.00291117699816823,-0.007760126609355211
0.00010767985077109188,-0.017273761332035065,-0.006878184154629707,0.0166618712246418,0.002702956786379218,-0.0075366743840277195
0.0009118768502958119,-0.017336327582597733,-0.006497720722109079,0.016874438151717186,0.0025345836766064167,-0.007897053845226765
0.0007675618981011212,-0.01734112575650215,-0.006678466685116291,0.016544148325920105,0.002549066673964262,-0.007623391691595316
0.0006557154702022672,-0.017031336203217506,-0.006473996676504612,0.01703271083533764,0.002388386055827141,-0.007555132266134024
0.000572250981349498,-0.017370080575346947,-0.007177382241934538,0.016726508736610413,0.00256802374497056,-0.008107551373541355
0.0005076456000097096,-0.01694313995540142,-0.0075193592347204685,0.016601094976067543,0.002758083399385214,-0.008193409070372581
0.00045615670387633145,-0.01721540279686451,-0.006579000968486071,0.01681649312376976,0.002739691874012351,-0.007834643125534058
0.00048692538985051215,-0.017111405730247498,-0.006396960932761431,0.01702861860394478,0.002635369775816798,-0.0076312958262860775
0.0004549511068034917,-0.016621306538581848,-0.006924757733941078,0.016048556193709373,0.002198222791776061,-0.0080525241792202
0.0004197054076939821,-0.01722472906112671,-0.006979865022003651,0.01559364702552557,0.001968716736882925,-0.007813768461346626
0.0003894281981047243,-0.016864342615008354,-0.006627419963479042,0.01619732566177845,0.0018395705847069621,-0.007410939317196608
0.00036322895903140306,-0.01687806472182274,-0.006697005592286587,0.01617501862347126,0.0020818819757550955,-0.007727629970759153
0.00039470556657761335,-0.01645873300731182,-0.006636542733758688,0.016601718962192535,0.002275412902235985,-0.007778205443173647
0.00042046880116686225,-0.016184788197278976,-0.007121710572391748,0.016032926738262177,0.002278733067214489,-0.008050062693655491
0.00033268335391767323,-0.016666771844029427,-0.007082237396389246,0.015868108719587326,0.002159662777557969,-0.008199367672204971
0.0004008774121757597,-0.01581716537475586,-0.006879153661429882,0.015426541678607464,0.0020721005275845528,-0.007857674732804298
0.0004454717563930899,-0.01648694835603237,-0.0066185989417135715,0.014675489626824856,0.001970222918316722,-0.0081874318420887
0.001189105911180377,-0.01567537523806095,-0.006815006956458092,0.014392836019396782,0.0020133221987634897,-0.008139343932271004
0.001189105911180377,-0.01567537523806095,-0.006815006956458092,0.014392836019396782,0.0020133221987634897,-0.008139343932271004
0.001210029935464263,-0.015958920121192932,-0.0067921592853963375,0.014248219318687916,0.002242674818262458,-0.00824620109051466
0.0009954727720469236,-0.016302520409226418,-0.00674565602093935,0.01455039530992508,0.0025216646026819944,-0.008252874948084354
0.0008480728138238192,-0.015798840671777725,-0.006891142576932907,0.015212509781122208,0.002899027895182371,-0.009056136943399906
0.00085272645810619,-0.016078921034932137,-0.007289435714483261,0.014820849522948265,0.0028140279464423656,-0.007544497959315777
0.0007874993025325239,-0.01619688980281353,-0.006492330692708492,0.014908641576766968,0.0027492069639265537,-0.007748688571155071
0.0008279280154965818,-0.01567368023097515,-0.006521951407194138,0.014368590898811817,0.0025828867219388485,-0.008450619876384735
0.0008558539557270706,-0.01620016060769558,-0.006750604137778282,0.014760899357497692,0.0025567777920514345,-0.008495142683386803
0.0014381412183865905,-0.015427867881953716,-0.0073529016226530075,0.013884888961911201,0.0025955589953809977,-0.008221675641834736
0.0013370162341743708,-0.01578660123050213,-0.0075445352122187614,0.014075253158807755,0.002545831026509404,-0.008466623723506927
0.0012601653579622507,-0.015728453174233437,-0.006885353475809097,0.01405674871057272,0.0026243007741868496,-0.008350880816578865
0.0011015968630090356,-0.016208648681640625,-0.006520234514027834,0.014210052788257599,0.003035350237041712,-0.008414552547037601
0.0010522921802476048,-0.015465011820197105,-0.00687815947458148,0.013811048120260239,0.0028197146020829678,-0.008173252455890179
0.0010390665847808123,-0.01518050953745842,-0.006790830288082361,0.01338612288236618,0.002300743479281664,-0.008297106251120567
0.0012153965653851628,-0.01550495345145464,-0.006519252900034189,0.013335813768208027,0.0021064039319753647,-0.008311466313898563
0.001368053024634719,-0.015097727067768574,-0.006532228086143732,0.012993605807423592,0.0022920023184269667,-0.008467016741633415
0.001376099418848753,-0.015453524887561798,-0.006381354760378599,0.013221880421042442,0.0026590691413730383,-0.008368605747818947
0.0018808146705850959,-0.015175756998360157,-0.006907310802489519,0.013588902540504932,0.003287253435701132,-0.008193572983145714
0.001786062610335648,-0.015435033477842808,-0.00665270583704114,0.013489536941051483,0.003323741490021348,-0.008608178235590458
0.0019278735853731632,-0.014989168383181095,-0.0067121475003659725,0.012521510012447834,0.0030983586329966784,-0.008721369318664074
0.0017578817205503583,-0.015542621724307537,-0.00644763745367527,0.013220987282693386,0.002557926345616579,-0.008653356693685055
0.0017135395901277661,-0.015252616256475449,-0.007181096822023392,0.012316960841417313,0.002326148794963956,-0.008568239398300648
0.0017494505736976862,-0.01552831195294857,-0.007420539390295744,0.011983155272901058,0.0025203004479408264,-0.00843694806098938
0.0017494505736976862,-0.01552831195294857,-0.007420539390295744,0.011983155272901058,0.0025203004479408264,-0.00843694806098938
0.002192885847762227,-0.014825420454144478,-0.007508618291467428,0.012317211367189884,0.002886753063648939,-0.008742393925786018
0.0024569490924477577,-0.014967018738389015,-0.006624303292483091,0.011744423769414425,0.003230832051485777,-0.008559057489037514
0.0024264513049274683,-0.01447962410748005,-0.00682693300768733,0.011928173713386059,0.0033075795508921146,-0.008898455649614334
0.002616280922666192,-0.014488772489130497,-0.007152440957725048,0.011839693412184715,0.0029634975362569094,-0.009189525619149208
0.002755525289103389,-0.014247608371078968,-0.007020790595561266,0.011961693875491619,0.002781890332698822,-0.008411536924540997
0.0027484428137540817,-0.014677987433969975,-0.007182609289884567,0.011321100406348705,0.0026480609085410833,-0.00842087622731924
0.0029036016203463078,-0.01529692206531763,-0.00737695163115859,0.011471103876829147,0.002781014423817396,-0.00852080900222063
0.0032697312999516726,-0.014901196584105492,-0.00729799922555685,0.011737514287233353,0.0027896594256162643,-0.008616678416728973
0.0031891961116343737,-0.014229508116841316,-0.007440745830535889,0.011598976328969002,0.0025036304723471403,-0.008966488763689995
0.0034106262028217316,-0.013872410170733929,-0.007048496510833502,0.011501776985824108,0.0025953934527933598,-0.008543483912944794
0.0029974866192787886,-0.014624343253672123,-0.007985178381204605,0.011274376884102821,0.0027898061089217663,-0.00841040164232254
0.003026998834684491,-0.01421716995537281,-0.007856162264943123,0.011246293783187866,0.0030859147664159536,-0.00904939603060484
0.0034795321989804506,-0.014565140008926392,-0.0070924232713878155,0.010616783984005451,0.0030768876895308495,-0.00907581951469183
0.0038129871245473623,-0.014492623507976532,-0.006683327257633209,0.010877375490963459,0.002917128149420023,-0.008822092786431313
0.003817880991846323,-0.014624975621700287,-0.008071603253483772,0.01111516635864973,0.0029961455147713423,-0.008760365657508373
0.003717282088473439,-0.014316651038825512,-0.007554252631962299,0.01080886647105217,0.0029855992179363966,-0.009227987378835678
0.003847415093332529,-0.014546903781592846,-0.006762318313121796,0.010955999605357647,0.002921217819675803,-0.009024150669574738
0.003966561518609524,-0.014275598339736462,-0.006818832829594612,0.011108867824077606,0.0031887965742498636,-0.008722266182303429
0.004074777476489544,-0.014424116350710392,-0.007809649687260389,0.010131804272532463,0.0029970218893140554,-0.008829195983707905
0.004029315430670977,-0.01395091600716114,-0.007999901659786701,0.00986770074814558,0.0030626750085502863,-0.009174510836601257
0.004359549377113581,-0.013959421776235104,-0.0067822495475411415,0.010099582374095917,0.0031328885816037655,-0.009050324559211731
0.00450692605227232,-0.014168023131787777,-0.006244336254894733,0.009819281287491322,0.0032668462954461575,-0.008784693665802479
0.004504315555095673,-0.013950305059552193,-0.007084733806550503,0.009611559100449085,0.003177076345309615,-0.008752236142754555
0.00470151100307703,-0.01322537288069725,-0.007067793048918247,0.008852677419781685,0.0033526222687214613,-0.00861707329750061
0.004754591267555952,-0.013697482645511627,-0.006796938832849264,0.007820885628461838,0.003119406057521701,-0.008995127864181995
0.00514207873493433,-0.013201744295656681,-0.006528011057525873,0.00882215891033411,0.0032568180467933416,-0.009149080142378807
0.005013551563024521,-0.01360271219164133,-0.007035532966256142,0.008484642021358013,0.00328799057751894,-0.008975796401500702
0.0052393837831914425,-0.012960530817508698,-0.00714319059625268,0.007439333479851484,0.0031114951707422733,-0.008745597675442696
0.0052393837831914425,-0.012960530817508698,-0.00714319059625268,0.007439333479851484,0.0031114951707422733,-0.008745597675442696
0.005878077819943428,-0.013325629755854607,-0.006593848112970591,0.006521012634038925,0.0027060885913670063,-0.009218135848641396
0.005677463952451944,-0.013039148412644863,-0.006808551959693432,0.0070353541523218155,0.002737316768616438,-0.009485532529652119
0.005543845705688,-0.013315231539309025,-0.0068073333241045475,0.007577210199087858,0.0030007900204509497,-0.009425556287169456
0.005240834783762693,-0.013054153881967068,-0.007401495240628719,0.007990644313395023,0.003070974722504616,-0.009282323531806469
0.0064473687671124935,-0.013091444037854671,-0.006586509756743908,0.006746666040271521,0.003224477870389819,-0.00948783103376627
0.006280948407948017,-0.012753685005009174,-0.006303831934928894,0.006832654122263193,0.0029848767444491386,-0.009235654957592487
0.005574888549745083,-0.012661303393542767,-0.006998970173299313,0.006737621035426855,0.003117830492556095,-0.009213190525770187
0.005574888549745083,-0.012661303393542767,-0.006998970173299313,0.006737621035426855,0.003117830492556095,-0.009213190525770187
0.006297422107309103,-0.013098086230456829,-0.006400623358786106,0.006341378204524517,0.0032513579353690147,-0.009350025095045567
0.00670044869184494,-0.012428517453372478,-0.0062242657877504826,0.006248864810913801,0.003325107740238309,-0.009527750313282013
0.006581678055226803,-0.012541497126221657,-0.006745722144842148,0.0066706654615700245,0.003332024672999978,-0.00905271340161562
0.006129156332463026,-0.011973902583122253,-0.007161751855164766,0.006533145904541016,0.003570523113012314,-0.008892342448234558
0.006527476944029331,-0.011914526112377644,-0.006757848896086216,0.0062645613215863705,0.00335115659981966,-0.009371599182486534
0.007045857608318329,-0.01270292792469263,-0.00640445901080966,0.0055869328789412975,0.003309034975245595,-0.009447901509702206
0.007242209278047085,-0.012235328555107117,-0.0062330858781933784,0.0065192729234695435,0.0032212412916123867,-0.00986558385193348
0.0068972245790064335,-0.012471932917833328,-0.006992474664002657,0.006834353320300579,0.003097277134656906,-0.009403340518474579
0.006347601301968098,-0.012250489555299282,-0.007098798174411058,0.006540343165397644,0.0030845007859170437,-0.009447924792766571
0.007100643590092659,-0.012293285690248013,-0.006836636457592249,0.006306577939540148,0.0030025052838027477,-0.009443288668990135
0.006971599068492651,-0.012241637334227562,-0.006390667054802179,0.006291182246059179,0.0028849539812654257,-0.009570502676069736
0.007133712992072105,-0.012102052569389343,-0.0066040572710335255,0.006206464022397995,0.002794397994875908,-0.010071178898215294
0.006986004300415516,-0.012398401275277138,-0.006985723972320557,0.005943438969552517,0.0027871436905115843,-0.009445560164749622
0.00706173712387681,-0.011668157763779163,-0.006776303518563509,0.005786578636616468,0.00284406915307045,-0.00942641869187355
0.00706173712387681,-0.011668157763779163,-0.006776303518563509,0.005786578636616468,0.00284406915307045,-0.00942641869187355
0.007838943041861057,-0.011442446149885654,-0.006320507265627384,0.005901749711483717,0.003442650893703103,-0.009483563713729382
0.007378804963082075,-0.011778535321354866,-0.006894574500620365,0.005968682933598757,0.0036289480049163103,-0.00902171153575182
0.007264247629791498,-0.011479135602712631,-0.0065665775910019875,0.0059430706314742565,0.003461345797404647,-0.009168061427772045
0.007264247629791498,-0.011479135602712631,-0.0065665775910019875,0.0059430706314742565,0.003461345797404647,-0.009168061427772045
0.007630559615790844,-0.010970773175358772,-0.006778564304113388,0.005014325026422739,0.003073231317102909,-0.009272785857319832
0.007352997083216906,-0.011091993190348148,-0.006763019133359194,0.0053269886411726475,0.002871669130399823,-0.00939111690968275
0.007352997083216906,-0.011091993190348148,-0.006763019133359194,0.0053269886411726475,0.002871669130399823,-0.00939111690968275
0.007957935333251953,-0.011025995016098022,-0.006917827297002077,0.005066352896392345,0.0029917501378804445,-0.008856719359755516
0.007696153130382299,-0.010548434220254421,-0.006740329321473837,0.004745894111692905,0.003431009128689766,-0.009478399530053139
0.008071932010352612,-0.01063413918018341,-0.0064556491561234,0.004768200218677521,0.0033402377739548683,-0.00983070395886898
0.007940499112010002,-0.0108229611068964,-0.007213194388896227,0.004437826108187437,0.00350740784779191,-0.009793187491595745
0.008103522472083569,-0.010205338709056377,-0.006552643608301878,0.004289278760552406,0.0037172590382397175,-0.009777706116437912
0.008155681192874908,-0.010567542165517807,-0.006415287498384714,0.004819669760763645,0.0034505105577409267,-0.010045696049928665
0.008655322715640068,-0.010834243148565292,-0.006835297681391239,0.004825500771403313,0.003463167930021882,-0.009728841483592987
0.008444814011454582,-0.010702789761126041,-0.007013751193881035,0.0051658437587320805,0.0031384651083499193,-0.009362229146063328
0.00827771332114935,-0.010443700477480888,-0.006676068529486656,0.005527672357857227,0.002990919863805175,-0.009215914644300938
0.008420659229159355,-0.009930582717061043,-0.006261999718844891,0.005181645508855581,0.002883512992411852,-0.009419824928045273
0.008604097180068493,-0.010392078198492527,-0.006675158627331257,0.004632288124412298,0.0033528576605021954,-0.010368134826421738
0.008771071210503578,-0.010140493512153625,-0.007265469990670681,0.004683878272771835,0.003759650979191065,-0.00962913129478693
0.009204695001244545,-0.009408975020051003,-0.007017177063971758,0.004839946515858173,0.003834291361272335,-0.009459967724978924
0.008704953826963902,-0.009928234852850437,-0.006485784891992807,0.0042811548337340355,0.0037322884891182184,-0.010489211417734623
0.00917782075703144,-0.009761841967701912,-0.006421104073524475,0.004015037789940834,0.003360450267791748,-0.010044685564935207
0.008836780674755573,-0.009197945706546307,-0.006747384089976549,0.0036615438293665648,0.0034603953827172518,-0.010240128263831139
0.008741633966565132,-0.00859000626951456,-0.007066377438604832,0.0034600484650582075,0.0032002530060708523,-0.009535541757941246
0.009055365808308125,-0.008894054219126701,-0.006837236229330301,0.0031285053119063377,0.0033104107715189457,-0.009532704018056393
0.00893380492925644,-0.008343112654983997,-0.007180592976510525,0.002981555415317416,0.0032747164368629456,-0.009849506430327892
0.009205366484820843,-0.007994314655661583,-0.006617093924432993,0.002868065144866705,0.003132149111479521,-0.010449872352182865
0.009650898166000843,-0.008127720095217228,-0.006650867406278849,0.0025250576436519623,0.003045768477022648,-0.010800269432365894
0.009650898166000843,-0.008127720095217228,-0.006650867406278849,0.0025250576436519623,0.003045768477022648,-0.010800269432365894
0.009666886180639267,-0.00795755721628666,-0.006965138018131256,0.0022209477610886097,0.0033434394281357527,-0.010097052901983261
0.009391906671226025,-0.007985635660588741,-0.006890659686177969,0.002069466980174184,0.0032148382160812616,-0.009844259358942509
0.010731193237006664,-0.008164473809301853,-0.006604741793125868,0.002209646161645651,0.003331880085170269,-0.010175674222409725
0.006667370907962322,-0.007729315664619207,-0.00712246960029006,0.0023146052844822407,0.003442979184910655,-0.00971495546400547
0.007678179536014795,-0.0074450112879276276,-0.0070902579464018345,0.0022803344763815403,0.003357123816385865,-0.010123694315552711
0.00899583287537098,-0.00753957312554121,-0.006590594071894884,0.0019976350013166666,0.0034690937027335167,-0.010177770629525185
0.008349382318556309,-0.007109536789357662,-0.006782582029700279,0.0018065660260617733,0.004034906160086393,-0.010498681105673313
0.008364749141037464,-0.0073462300933897495,-0.007615747861564159,0.001739296829327941,0.004182739648967981,-0.01009525079280138
0.008303020149469376,-0.006563255563378334,-0.007054558955132961,0.0015631323913112283,0.004007705021649599,-0.010142085142433643
0.008684060536324978,-0.006426731590181589,-0.006300692446529865,0.0013613839400932193,0.0035039924550801516,-0.010327731259167194
0.008027598261833191,-0.006757471710443497,-0.006690732203423977,0.0012589715188369155,0.003540011588484049,-0.010728863999247551
0.008213723078370094,-0.006652744021266699,-0.007257970981299877,0.0011188213247805834,0.003723299829289317,-0.010196479968726635
0.008548424579203129,-0.006003574468195438,-0.007105125114321709,0.0010707968613132834,0.0034072203561663628,-0.009975123219192028
0.008559360168874264,-0.005650165490806103,-0.006407225504517555,0.0009458282729610801,0.0030453535728156567,-0.010414835065603256
0.00867385882884264,-0.005637729540467262,-0.0061755795031785965,0.000836715626064688,0.002935218857601285,-0.01085851900279522
0.008690163493156433,-0.0062408410012722015,-0.006538200657814741,0.0006709397421218455,0.003261556616052985,-0.010632762685418129
0.009023443795740604,-0.006541150622069836,-0.007048938423395157,0.0005651795654557645,0.0037597795017063618,-0.010464828461408615
0.008623573929071426,-0.005867902655154467,-0.006831707898527384,0.000500737049151212,0.0038174360524863005,-0.010572067461907864
0.008887259289622307,-0.005755807273089886,-0.0066298991441726685,0.0005162821616977453,0.004089700523763895,-0.01013963297009468
0.009272806346416473,-0.005299514625221491,-0.006588090676814318,0.0004896900500170887,0.004089444410055876,-0.010548669844865799
0.009038974530994892,-0.00600311066955328,-0.006730199325829744,0.0004501602379605174,0.0040311445482075214,-0.010486147366464138
0.009038974530994892,-0.00600311066955328,-0.006730199325829744,0.0004501602379605174,0.0040311445482075214,-0.010486147366464138
0.009378398768603802,-0.00572208920493722,-0.006615731865167618,0.00041557365329936147,0.003993222489953041,-0.009976247325539589
0.009045622311532497,-0.00566897401586175,-0.0066225710324943066,0.00038586120354011655,0.003978676162660122,-0.010211165994405746
0.009088997729122639,-0.005254729185253382,-0.006797183770686388,0.0004159328527748585,0.004003714770078659,-0.010248611681163311
0.00880337879061699,-0.005275039467960596,-0.006326364353299141,0.00039357831701636314,0.004035358317196369,-0.010255878791213036
0.010482575744390488,-0.005457273684442043,-0.006720999721437693,0.0003706494171638042,0.0035013603046536446,-0.01000117976218462
0.009929145686328411,-0.005101802758872509,-0.006842154543846846,0.00035006317193619907,0.0035468905698508024,-0.010146573185920715
0.00925938319414854,-0.005220369435846806,-0.006545610725879669,0.00033162892214022577,0.003982370253652334,-0.010456172749400139
0.009128292091190815,-0.004982409067451954,-0.006266196724027395,0.0003150400589220226,0.004225873854011297,-0.010893389582633972
0.010331644676625729,-0.0049620820209383965,-0.006764957215636969,0.00028644033591262996,0.003770882496610284,-0.01122364867478609
0.0099024698138237,-0.00443000253289938,-0.006749250460416079,0.00012072531535523012,0.003693247213959694,-0.011250298470258713
0.009954049251973629,-0.0044752564281225204,-0.006177131552249193,0.00010407160152681172,0.0036734691821038723,-0.011143689043819904
0.009966217912733555,-0.004176588729023933,-0.006056284997612238,9.77818708634004e-05,0.003668357850983739,-0.010651306249201298
0.011246239766478539,-0.004368386697024107,-0.006794228218495846,9.270247392123565e-05,0.003723588539287448,-0.010907142423093319
0.010673104785382748,-0.004426189698278904,-0.0071536703035235405,6.663851672783494e-05,0.0038221743889153004,-0.010755966417491436
0.010426482185721397,-0.004373003728687763,-0.006290212273597717,4.3493455450516194e-05,0.004152639303356409,-0.010975010693073273
0.010869449935853481,-0.004297814331948757,-0.00598510168492794,4.024179725092836e-05,0.004141907207667828,-0.010995283722877502
0.011121065355837345,-0.004091657232493162,-0.006690113805234432,5.134841103426879e-06,0.0038822984788566828,-0.010917920619249344
0.010288202203810215,-0.0039973873645067215,-0.006862834561616182,3.352684245783166e-07,0.004138090647757053,-0.011582980863749981
0.010981935076415539,-0.0043402439914643764,-0.006356948520988226,2.1890635082399967e-08,0.0041578966192901134,-0.01140639092773199
0.01146826520562172,-0.004156602080911398,-0.0060167936608195305,1.4293020100808462e-09,0.0039880783297121525,-0.011277290061116219
0.011207317002117634,-0.0038635144010186195,-0.005944439675658941,9.332321027066826e-11,0.0038144574500620365,-0.011233898811042309
0.01112468633800745,-0.0037937145680189133,-0.007046281825751066,6.093338507373591e-12,0.004241444170475006,-0.011351684108376503
0.010851063765585423,-0.0034513715654611588,-0.006492536049336195,3.978514837455621e-13,0.004107503220438957,-0.01136224064975977
0.01129090879112482,-0.0035273171961307526,-0.006137297488749027,-0.0006583299254998565,0.003886587219312787,-0.01121912244707346
0.011825076304376125,-0.0036506985779851675,-0.006433423142880201,-0.0013039156328886747,0.003815912874415517,-0.011166159063577652
0.01118115708231926,-0.0037817731499671936,-0.006176614668220282,-0.00209831609390676,0.004195807036012411,-0.011205950751900673
0.011411900632083416,-0.003782606916502118,-0.00650002621114254,-0.0028113266453146935,0.0042038047686219215,-0.011202238500118256
0.011411900632083416,-0.003782606916502118,-0.00650002621114254,-0.0028113266453146935,0.0042038047686219215,-0.011202238500118256
0.011284478940069675,-0.003329869592562318,-0.005875261500477791,-0.0043188133276999,0.003860777011141181,-0.011350485496222973
0.011284478940069675,-0.003329869592562318,-0.005875261500477791,-0.0043188133276999,0.003860777011141181,-0.011350485496222973
0.011469116434454918,-0.003025348298251629,-0.006245354190468788,-0.004341506864875555,0.0037788862828165293,-0.011220469139516354
0.011372946202754974,-0.003079172456637025,-0.005877761170268059,-0.004121272824704647,0.004026189912110567,-0.011668233200907707
0.01211120467633009,-0.003276699921116233,-0.006597029510885477,-0.004853381309658289,0.004114056006073952,-0.011608640663325787
0.011473624035716057,-0.0032289058435708284,-0.006595881190150976,-0.0064591229893267155,0.004430250730365515,-0.01164038386195898
0.011505956761538982,-0.0026730522513389587,-0.005745455622673035,-0.00652054138481617,0.0042154560796916485,-0.011630553752183914
0.011069602333009243,-0.0028835854027420282,-0.006615897174924612,-0.005868620239198208,0.004231322556734085,-0.0127364881336689
0.011642828583717346,-0.0027671249117702246,-0.006709280423820019,-0.007062351796776056,0.0040140170603990555,-0.011645343154668808
0.011674178764224052,-0.002576763741672039,-0.0060169571079313755,-0.008390543982386589,0.004359515383839607,-0.011059270240366459
0.01180464681237936,-0.002458206843584776,-0.006160748656839132,-0.008963607251644135,0.004320499952882528,-0.011263622902333736
0.011845067143440247,-0.0022222555708140135,-0.006670176517218351,-0.008787818253040314,0.004317762330174446,-0.011175664141774178
0.011452535167336464,-0.00230042333714664,-0.0064402553252875805,-0.009320258162915707,0.004431470297276974,-0.011663991957902908
0.011820422485470772,-0.002326381392776966,-0.006453790236264467,-0.009290137328207493,0.004190044943243265,-0.011766373179852962
0.011283730156719685,-0.0021952211391180754,-0.006307749543339014,-0.009076773189008236,0.004029139410704374,-0.0118178129196167
0.011603809893131256,-0.0023636147379875183,-0.005791507661342621,-0.00944640301167965,0.004394926130771637,-0.01223753485828638
0.01158564630895853,-0.002230536425486207,-0.00671799061819911,-0.009289347566664219,0.004120344761759043,-0.011259038932621479
0.011697791516780853,-0.002376351272687316,-0.007133414037525654,-0.009420636110007763,0.00427905423566699,-0.011688021011650562
0.011920526623725891,-0.0022598232608288527,-0.006749018561094999,-0.009905925951898098,0.00412123603746295,-0.011472003534436226
0.011365705169737339,-0.0021360262762755156,-0.0060739764012396336,-0.010888425633311272,0.003969362936913967,-0.011198477819561958
0.011478141881525517,-0.00211314857006073,-0.006283686961978674,-0.010104796849191189,0.004103378392755985,-0.011495214886963367
0.011393856257200241,-0.002039852784946561,-0.0067969756200909615,-0.010189174674451351,0.004085726570338011,-0.011505669914186
0.01150969136506319,-0.0020645190961658955,-0.006466109771281481,-0.01107458584010601,0.0047392831183969975,-0.01175917498767376
0.011279914528131485,-0.0019976452458649874,-0.0062265414744615555,-0.011135952547192574,0.004989315755665302,-0.011938435025513172
0.011716753244400024,-0.002118554199114442,-0.005988123826682568,-0.010912432335317135,0.004758961498737335,-0.01206609420478344
0.011716753244400024,-0.002118554199114442,-0.005988123826682568,-0.010912432335317135,0.004758961498737335,-0.01206609420478344
0.011849104426801205,-0.0019086162792518735,-0.0058908043429255486,-0.01141090877354145,0.004233021754771471,-0.01250939816236496
0.01192851085215807,-0.0018075814004987478,-0.006173085421323776,-0.011660841293632984,0.00422860449180007,-0.012263906188309193
0.01092077698558569,-0.0016310986829921603,-0.007176254875957966,-0.012955249287188053,0.004570312798023224,-0.012050020508468151
0.011657106690108776,-0.0014944899594411254,-0.0066773537546396255,-0.013066492043435574,0.0047904555685818195,-0.011990679427981377
0.011487917974591255,-0.001192282885313034,-0.006095072254538536,-0.013590791262686253,0.004566369112581015,-0.011755184270441532
0.01177958957850933,-0.0011213393881917,-0.006181542295962572,-0.012563753873109818,0.004381238948553801,-0.011863335967063904
0.011592735536396503,-0.0010865533258765936,-0.006752184126526117,-0.01221756637096405,0.004285918083041906,-0.012016383931040764
0.012092375196516514,-0.0011832906166091561,-0.006430723704397678,-0.011795278638601303,0.004221783019602299,-0.011812488548457623
0.01131525170058012,-0.0011467942968010902,-0.005742252338677645,-0.012294747866690159,0.004485465586185455,-0.011842194013297558
0.011658567935228348,-0.0010973806492984295,-0.005909319035708904,-0.01164670754224062,0.004714163951575756,-0.012244354002177715
0.012201568111777306,-0.0009650906431488693,-0.006839184556156397,-0.01238560676574707,0.004579724743962288,-0.012293966487050056
0.011457252316176891,-0.0008742127101868391,-0.00642072968184948,-0.012646498158574104,0.004487187135964632,-0.012662097811698914
0.011848565191030502,-0.0007363923941738904,-0.005956725217401981,-0.012732105329632759,0.004475103225558996,-0.012448086403310299
0.011721489019691944,-0.0006327907904051244,-0.006142921280115843,-0.012726365588605404,0.004448684398084879,-0.012637287378311157
0.011751130223274231,-0.0005547085893340409,-0.006479764822870493,-0.012548134662210941,0.004775488283485174,-0.012365074828267097
0.01219311635941267,-0.0005910689360462129,-0.006478311959654093,-0.013037756085395813,0.0050360942259430885,-0.01267159078270197
0.011761377565562725,-0.0005339121562428772,-0.006125719286501408,-0.012642720714211464,0.00529663497582078,-0.012912976555526257
0.01205653976649046,-0.0005570242065005004,-0.006049814634025097,-0.013068689964711666,0.004960196558386087,-0.013107722625136375
0.011806853115558624,-0.0005199105944484472,-0.0059951674193143845,-0.012832647189497948,0.004362151026725769,-0.01255989633500576
0.012062161229550838,-0.0004803742631338537,-0.006503886077553034,-0.013749556615948677,0.004190337378531694,-0.012316576205193996
0.011908366344869137,-0.0004463353252504021,-0.006940124556422234,-0.013795251026749611,0.0045002298429608345,-0.012494746595621109
0.012356223538517952,-0.00041680055437609553,-0.006893734913319349,-0.014248385094106197,0.005093096289783716,-0.01260931883007288
0.012181118130683899,-0.0003909318766091019,-0.0060624899342656136,-0.013770620338618755,0.005041042808443308,-0.01253385841846466
0.011695918627083302,-0.00036808697041124105,-0.006171802524477243,-0.01407218724489212,0.004949949216097593,-0.012451459653675556
0.0124595258384943,-0.000347767403582111,-0.006956090219318867,-0.014336416497826576,0.00481704855337739,-0.012516172602772713
0.012166790664196014,-0.0003295726783107966,-0.006956544239073992,-0.015206249430775642,0.004551231395453215,-0.012967529706656933
0.012538818642497063,-0.0003131867852061987,-0.006253843195736408,-0.01487686112523079,0.004639266058802605,-0.012746666558086872
0.012538818642497063,-0.0003131867852061987,-0.006253843195736408,-0.01487686112523079,0.004639266058802605,-0.012746666558086872
0.012505234219133854,-0.0002983534359373152,-0.006204861216247082,-0.0155380479991436,0.0050128852017223835,-0.012968537397682667
0.013765804469585419,-0.000284862908301875,-0.006853512488305569,-0.015826638787984848,0.005439008120447397,-0.012613034807145596
0.012515309266746044,-0.00027253851294517517,-0.007017103023827076,-0.016422348096966743,0.005505528301000595,-0.013015777803957462
0.01297447457909584,-0.00025083505897782743,-0.0072072879411280155,-0.016235601156949997,0.004725282080471516,-0.012507460080087185
0.012770376168191433,-0.000241230329265818,-0.006646275520324707,-0.016336696222424507,0.004028238821774721,-0.01208081841468811
0.012854131869971752,-8.59762731124647e-05,-0.006944609340280294,-0.017237382009625435,0.004053776152431965,-0.012482143007218838
0.012475600466132164,-7.6494732638821e-05,-0.006827066652476788,-0.01795114390552044,0.004636612255126238,-0.013151565566658974
0.012757090851664543,-7.330087100854144e-05,-0.006976325996220112,-0.017988942563533783,0.004781584721058607,-0.01339795533567667
0.013174775056540966,-7.043161895126104e-05,-0.006932043004781008,-0.018041487783193588,0.004849317483603954,-0.01358202937990427
0.013070477172732353,-6.777935777790844e-05,-0.006996516138315201,-0.018029799684882164,0.005172809585928917,-0.013176082633435726
0.013194141909480095,-3.6512603401206434e-05,-0.006523491814732552,-0.017998380586504936,0.00490324292331934,-0.013088622130453587
0.012453002855181694,-3.156786260660738e-05,-0.006642805878072977,-0.0182895939797163,0.00466157915070653,-0.013065095990896225
0.012864580377936363,-3.045049925276544e-05,-0.006935901939868927,-0.01851482130587101,0.004538491368293762,-0.013255883939564228
0.012734164483845234,-1.0107472917297855e-05,-0.006998192053288221,-0.018731247633695602,0.005305374041199684,-0.013310523703694344
0.01313775684684515,-1.3560465106365882e-07,-0.007284915540367365,-0.019798031076788902,0.005398628767579794,-0.013507756404578686
0.013374804519116879,-1.819309480843856e-09,-0.007230074144899845,-0.019790122285485268,0.005910377483814955,-0.013569274917244911
0.013300440274178982,-2.4408357279792625e-11,-0.006808536592870951,-0.019022876396775246,0.005447838455438614,-0.013402396813035011
0.013086438179016113,-3.2746925288616724e-13,-0.007555567193776369,-0.019616663455963135,0.004527355544269085,-0.013364973478019238
0.013658979907631874,-4.393418019389391e-15,-0.007914924062788486,-0.0201191958039999,0.004934897646307945,-0.013554642908275127
0.013340321369469166,-5.894330888119755e-17,-0.00669071264564991,-0.02076634392142296,0.005430780816823244,-0.013798859901726246
0.013359418138861656,-7.90799658249297e-19,-0.006490775849670172,-0.020896099507808685,0.005459453910589218,-0.01379530131816864
0.013956774957478046,-1.0609586557667058e-20,-0.006808026228100061,-0.02077479474246502,0.005353583488613367,-0.013722490519285202
0.013370031490921974,-1.4234114034854207e-22,-0.006691471207886934,-0.019847949966788292,0.005383981391787529,-0.013444424606859684
0.013705283403396606,-1.9096880872096404e-24,-0.00631735660135746,-0.020491326227784157,0.004943274427205324,-0.013853296637535095
0.013754618354141712,-2.562090335442397e-26,-0.0062091415748000145,-0.021332615986466408,0.004756827838718891,-0.013825916685163975
0.015110018663108349,-3.437371116534416e-28,-0.006602869834750891,-0.02187735214829445,0.004939832258969545,-0.014085800386965275
0.014699896797537804,0.00021886102331336588,-0.0065506016835570335,-0.0209868922829628,0.00505036860704422,-0.013891609385609627
0.015052390284836292,0.0005868346779607236,-0.007173990365117788,-0.021145371720194817,0.005565075669437647,-0.014158216305077076
0.015028422698378563,0.0006157655734568834,-0.006460968870669603,-0.02185964025557041,0.005455427803099155,-0.014294867403805256
0.015028422698378563,0.0006157655734568834,-0.006460968870669603,-0.02185964025557041,0.005455427803099155,-0.014294867403805256
0.015407457947731018,0.000562958768568933,-0.0064965831115841866,-0.02188100293278694,0.004788519348949194,-0.014131465926766396
0.015521861612796783,0.000594056211411953,-0.007269745226949453,-0.022046690806746483,0.004799873102456331,-0.014475817792117596
0.015539572574198246,0.0005742443026974797,-0.0067083267495036125,-0.022970423102378845,0.00556941656395793,-0.014305848628282547
0.015709392726421356,0.0007570573943667114,-0.0062388647347688675,-0.022936830297112465,0.005903983023017645,-0.014575526118278503
0.015607643872499466,0.0007859785691834986,-0.006147600710391998,-0.023135976865887642,0.006078442558646202,-0.014536536298692226
0.015595962293446064,0.0008086901507340372,-0.007073885761201382,-0.023317936807870865,0.005530790891498327,-0.014607165940105915
0.015926502645015717,0.0013278097612783313,-0.006703753490000963,-0.023386996239423752,0.005352377891540527,-0.014302673749625683
0.015601567924022675,0.0010900635970756412,-0.006247734650969505,-0.023712413385510445,0.005212253890931606,-0.014681519009172916
0.01648564077913761,0.001055759028531611,-0.00628279335796833,-0.025056274607777596,0.006187658291310072,-0.014763584360480309
0.01614430546760559,0.0010190526954829693,-0.0062525514513254166,-0.024312913417816162,0.006232996936887503,-0.014857597649097443
0.016316132619976997,0.0009000541758723557,-0.0067685628309845924,-0.02430214360356331,0.005856781732290983,-0.014745677821338177
0.015773147344589233,0.000992853776551783,-0.006729103624820709,-0.024480849504470825,0.005116487853229046,-0.01563446596264839
0.015896428376436234,0.0010245381854474545,-0.006316281855106354,-0.024440322071313858,0.005238308571279049,-0.014471509493887424
0.01619080826640129,0.0020599758718162775,-0.006044904701411724,-0.024839727208018303,0.005531261675059795,-0.01387234590947628
0.016067026183009148,0.0036535414401441813,-0.0064391689375042915,-0.025033818557858467,0.005732549354434013,-0.014338361099362373
0.01656235009431839,0.005099219735711813,-0.0071019260212779045,-0.025395063683390617,0.00576044199988246,-0.014905521646142006
0.016341887414455414,0.00482594221830368,-0.006963557563722134,-0.025534115731716156,0.005413686856627464,-0.015043341554701328
0.016341887414455414,0.00482594221830368,-0.006963557563722134,-0.025534115731716156,0.005413686856627464,-0.015043341554701328
0.01636071503162384,0.004560645669698715,-0.006669912487268448,-0.02540646493434906,0.005385736469179392,-0.015148710459470749
0.016328023746609688,0.004151177126914263,-0.006230355706065893,-0.02577846869826317,0.005462529603391886,-0.014760718680918217
0.016719473525881767,0.003936870954930782,-0.0066548483446240425,-0.02570480853319168,0.005318234674632549,-0.014964818954467773
0.01723974011838436,0.0038779424503445625,-0.007024431601166725,-0.02575545199215412,0.00587311340495944,-0.01505581196397543
0.017189867794513702,0.004343418404459953,-0.006979207042604685,-0.02603941597044468,0.0060556381940841675,-0.01521019171923399
0.017152244225144386,0.004962770733982325,-0.006288107018917799,-0.026097621768712997,0.00581805594265461,-0.014895685017108917
0.016578814014792442,0.004430803470313549,-0.006131048779934645,-0.025499694049358368,0.005180282052606344,-0.01533045619726181
0.01710890233516693,0.005844282452017069,-0.006988330278545618,-0.02649869956076145,0.006210940424352884,-0.01561045367270708
0.01692567765712738,0.005411638878285885,-0.0063317036256194115,-0.026337886229157448,0.006580101326107979,-0.015268578194081783
0.017406446859240532,0.005426549818366766,-0.005646142642945051,-0.026405133306980133,0.006269698031246662,-0.015308297239243984
0.017660968005657196,0.005692960694432259,-0.006526172161102295,-0.026301294565200806,0.006589458789676428,-0.01539893914014101
0.017966920509934425,0.00618749251589179,-0.007155010011047125,-0.0269432682543993,0.0056638577952980995,-0.014935338869690895
0.017810700461268425,0.006405136547982693,-0.006054534111171961,-0.026803115382790565,0.0055716922506690025,-0.015075263567268848
0.01729106716811657,0.006252123508602381,-0.0057989913038909435,-0.02663385681807995,0.006032752338796854,-0.015276586636900902
0.017897838726639748,0.006012155208736658,-0.00645224517211318,-0.02655489183962345,0.006022695917636156,-0.015607873909175396
0.01762321963906288,0.005994652397930622,-0.006362895481288433,-0.026411209255456924,0.005687099881470203,-0.01570313610136509
0.017908500507473946,0.006580584216862917,-0.006368906702846289,-0.026989532634615898,0.005080618895590305,-0.01581908017396927
0.018215352669358253,0.007077885791659355,-0.006175607908517122,-0.02800491452217102,0.0059072524309158325,-0.015133063308894634
0.018171526491642,0.007161854300647974,-0.006028448231518269,-0.028129642829298973,0.006176960188895464,-0.015457101166248322
0.017944687977433205,0.007022508420050144,-0.006265703588724136,-0.02794155292212963,0.005949211772531271,-0.015306477434933186
0.018082505092024803,0.0070722210220992565,-0.006873190402984619,-0.02745889499783516,0.006073581054806709,-0.015260091051459312
0.018188903108239174,0.007296699099242687,-0.006715069524943829,-0.027334898710250854,0.005718050990253687,-0.015633396804332733
0.018822509795427322,0.007694816682487726,-0.006215358152985573,-0.02853977121412754,0.006331951357424259,-0.015561654232442379
0.0187037643045187,0.007626132573932409,-0.006100710015743971,-0.028942113742232323,0.0065363990142941475,-0.01565978303551674
0.018307587131857872,0.008202374912798405,-0.006382971536368132,-0.02891862578690052,0.006403315346688032,-0.016271518543362617
0.018799716606736183,0.008297527208924294,-0.007205528672784567,-0.029973870143294334,0.006160500459372997,-0.016114113852381706
0.01896272972226143,0.00831653457134962,-0.006413716357201338,-0.03086547553539276,0.00636417418718338,-0.015603448264300823
0.019206514582037926,0.00843461137264967,-0.00636038463562727,-0.029987646266818047,0.006300711538642645,-0.01654682494699955
0.019534867256879807,0.009450308047235012,-0.006441224366426468,-0.02918514423072338,0.006490654777735472,-0.015462596900761127
0.019251206889748573,0.009290791116654873,-0.006298290565609932,-0.030405281111598015,0.006738497409969568,-0.016013549640774727
0.019251206889748573,0.009290791116654873,-0.006298290565609932,-0.030405281111598015,0.006738497409969568,-0.016013549640774727
0.019316084682941437,0.00905614160001278,-0.006536929868161678,-0.031455665826797485,0.006700875703245401,-0.016243228688836098
0.019726170226931572,0.009393884800374508,-0.006633932236582041,-0.031172167509794235,0.006293157581239939,-0.015918534249067307
0.019189829006791115,0.009261715225875378,-0.006598986219614744,-0.031022321432828903,0.006292327772825956,-0.015405560843646526
0.019243786111474037,0.008905310183763504,-0.005849769804626703,-0.03095966950058937,0.006466361694037914,-0.015323542058467865
0.019314030185341835,0.0100970808416605,-0.006591080222278833,-0.030951060354709625,0.00614611292257905,-0.015480616129934788
0.019857482984662056,0.009772798977792263,-0.00616992125287652,-0.031497370451688766,0.0059225778095424175,-0.015839269384741783
0.02028307132422924,0.010305014438927174,-0.006204705219715834,-0.03181571140885353,0.006018640007823706,-0.016235072165727615
0.019994862377643585,0.010271907784044743,-0.00635398318991065,-0.03160278499126434,0.0067623937502503395,-0.016127629205584526
0.01951080560684204,0.01022272277623415,-0.005984160117805004,-0.031473949551582336,0.0069081843830645084,-0.015753336250782013
0.019951777532696724,0.011267213150858879,-0.005763866938650608,-0.03179449215531349,0.006145469844341278,-0.015901273116469383
0.020234478637576103,0.01155183371156454,-0.005805451888591051,-0.031765230000019073,0.006014566402882338,-0.01591040939092636
0.02014783024787903,0.010567504912614822,-0.006065930239856243,-0.033089712262153625,0.0061615328304469585,-0.01590600423514843
0.020102694630622864,0.011898479424417019,-0.00627182750031352,-0.03247456252574921,0.006306421477347612,-0.016025403514504433
0.020450688898563385,0.011360030621290207,-0.006359298713505268,-0.03191555663943291,0.006197999231517315,-0.01621217280626297
0.020564230158925056,0.011343819089233875,-0.00609641382470727,-0.032006703317165375,0.0059980954974889755,-0.016480188816785812
0.020351136103272438,0.011240294203162193,-0.006186957471072674,-0.03329678252339363,0.006280676927417517,-0.016039544716477394
0.020712222903966904,0.011155684478580952,-0.005943154916167259,-0.03370444476604462,0.006485807243734598,-0.01616939902305603
0.020749013870954514,0.011705624870955944,-0.00627158721908927,-0.03327920287847519,0.006679072044789791,-0.01634502410888672
0.021182013675570488,0.011611394584178925,-0.006497672758996487,-0.034738946706056595,0.006483292672783136,-0.016555748879909515
0.021432049572467804,0.011363021098077297,-0.0060112252831459045,-0.034478817135095596,0.006328769959509373,-0.016389932483434677
0.021315734833478928,0.011842607520520687,-0.006079070270061493,-0.033554062247276306,0.006528286729007959,-0.016506696119904518
0.020828723907470703,0.011797012761235237,-0.0065214443020522594,-0.03354058414697647,0.006760734133422375,-0.01671907864511013
0.020828723907470703,0.011797012761235237,-0.0065214443020522594,-0.03354058414697647,0.006760734133422375,-0.01671907864511013
0.020081346854567528,0.012081741355359554,-0.006255620624870062,-0.03425121679902077,0.006407478824257851,-0.01632540300488472
0.02100253850221634,0.012042631395161152,-0.006316837854683399,-0.03437842056155205,0.006129509769380093,-0.01633039116859436
0.02133050374686718,0.012401222251355648,-0.006428872235119343,-0.035084426403045654,0.006397651508450508,-0.01662760227918625
0.0213236715644598,0.012301980517804623,-0.005734877195209265,-0.0355711504817009,0.00665108161047101,-0.01695330999791622
0.02048328146338463,0.012006320990622044,-0.005829572677612305,-0.0354280062019825,0.007151287514716387,-0.016579385846853256
0.02182099223136902,0.012224892154335976,-0.006244948133826256,-0.035765890032052994,0.0065236263908445835,-0.016261780634522438
0.02188008651137352,0.012778639793395996,-0.006283823866397142,-0.03570690006017685,0.006690477021038532,-0.01631307043135166
0.02146904543042183,0.012690958566963673,-0.00560325663536787,-0.03582002595067024,0.007141192443668842,-0.01688135787844658
0.02206711657345295,0.013104280456900597,-0.005985761992633343,-0.03616293519735336,0.007132315542548895,-0.0168608445674181
0.020751608535647392,0.012892699800431728,-0.006172507535666227,-0.03591044619679451,0.006872411351650953,-0.016979696229100227
0.021062197163701057,0.012622297741472721,-0.006421833764761686,-0.035651154816150665,0.007200857158750296,-0.01751064695417881
0.021473655477166176,0.012701825238764286,-0.0065437485463917255,-0.035378046333789825,0.007023360580205917,-0.017181186005473137
0.02240704372525215,0.012716089375317097,-0.00607536593452096,-0.0360402874648571,0.007397713139653206,-0.01689017005264759
0.022432293742895126,0.013337738811969757,-0.006261455360800028,-0.03583589196205139,0.0068229553289711475,-0.01666295900940895
0.021681787446141243,0.013207338750362396,-0.006663020234555006,-0.03609032928943634,0.006658555474132299,-0.01638943888247013
0.021668700501322746,0.013721708208322525,-0.006327171344310045,-0.036240264773368835,0.007006768137216568,-0.016553174704313278
0.02183752879500389,0.012854376807808876,-0.006123145576566458,-0.03728753328323364,0.00731659634038806,-0.016401495784521103
0.022315600886940956,0.013715465553104877,-0.006276908330619335,-0.0357869528234005,0.0069802915677428246,-0.016684794798493385
0.022185493260622025,0.013580556958913803,-0.006668894551694393,-0.03631363809108734,0.006717707961797714,-0.017082568258047104
0.02189348265528679,0.014036493375897408,-0.007249169051647186,-0.03706164285540581,0.007205597124993801,-0.016816573217511177
0.02239406481385231,0.013872291892766953,-0.006828109733760357,-0.03658829629421234,0.0068961274810135365,-0.016473552212119102
0.02270599827170372,0.014593619853258133,-0.006061346735805273,-0.03671069070696831,0.006989199202507734,-0.01679445244371891
0.022635333240032196,0.014342947863042355,-0.006303018890321255,-0.0381074994802475,0.006850101053714752,-0.01747455634176731
0.02244233526289463,0.014666222035884857,-0.00722375325858593,-0.037965141236782074,0.006671024952083826,-0.01792440190911293
0.022428182885050774,0.014143846929073334,-0.007434976752847433,-0.037704359740018845,0.007065828423947096,-0.017704268917441368
0.022955771535634995,0.014689692296087742,-0.006260658614337444,-0.03982793167233467,0.007463274989277124,-0.016921160742640495
0.022996963933110237,0.014653824269771576,-0.006066624075174332,-0.039969079196453094,0.006978771649301052,-0.016700513660907745
0.022613143548369408,0.015093949623405933,-0.0066686710342764854,-0.038026515394449234,0.006646021734923124,-0.016938313841819763
0.022613143548369408,0.015093949623405933,-0.0066686710342764854,-0.038026515394449234,0.006646021734923124,-0.016938313841819763
0.02283177338540554,0.014782825484871864,-0.007272143382579088,-0.03895784169435501,0.006867075804620981,-0.01741624064743519
0.02324170619249344,0.015551064163446426,-0.006773888599127531,-0.04020961374044418,0.00743035739287734,-0.017529252916574478
0.02331242710351944,0.01498810388147831,-0.006435975432395935,-0.04151303693652153,0.00721580209210515,-0.017886869609355927
0.023295976221561432,0.015466071665287018,-0.0069264438934624195,-0.04119698330760002,0.007093779742717743,-0.018431609496474266
0.023393014445900917,0.015964072197675705,-0.006906843278557062,-0.04042578861117363,0.0074429805390536785,-0.016934165731072426
0.023378776386380196,0.01571212336421013,-0.0065412321127951145,-0.04146796092391014,0.007190510630607605,-0.017612021416425705
0.023751920089125633,0.01603575237095356,-0.006245482712984085,-0.04213591292500496,0.007214678451418877,-0.01803177036345005
0.02379891648888588,0.016094064339995384,-0.006395773030817509,-0.042202178388834,0.007048020139336586,-0.018056558445096016
0.02349000796675682,0.016342492774128914,-0.007012554910033941,-0.043611619621515274,0.007412559352815151,-0.018330827355384827
0.023412074893712997,0.01628594845533371,-0.006868552416563034,-0.042678989470005035,0.007547248620539904,-0.01823660545051098
0.023177484050393105,0.016105927526950836,-0.0064110164530575275,-0.042395539581775665,0.0068982853554189205,-0.01809369958937168
0.024055425077676773,0.016606053337454796,-0.007104021962732077,-0.04244362562894821,0.006471026223152876,-0.018188100308179855
0.024510718882083893,0.016381746158003807,-0.007681751158088446,-0.043586619198322296,0.007068173494189978,-0.018135810270905495
0.02429695427417755,0.016887888312339783,-0.0076020159758627415,-0.04312114790081978,0.007330862805247307,-0.01829412393271923
0.023732580244541168,0.017003042623400688,-0.006641772110015154,-0.04321394860744476,0.007320615462958813,-0.018355607986450195
0.02340773493051529,0.017020447179675102,-0.006476766429841518,-0.0439634695649147,0.007132052909582853,-0.018583908677101135
0.023917920887470245,0.01722402684390545,-0.007396395783871412,-0.04562545195221901,0.0077985431998968124,-0.01862204819917679
0.02453303523361683,0.016865454614162445,-0.007292977534234524,-0.043839484453201294,0.008195571601390839,-0.018567422404885292
0.023930687457323074,0.01754324696958065,-0.006930450443178415,-0.04317779839038849,0.00792072806507349,-0.018771642819046974
0.024357205256819725,0.01783808320760727,-0.006799678318202496,-0.04386797174811363,0.007676209323108196,-0.01915053464472294
0.025148339569568634,0.01799693889915943,-0.007749872747808695,-0.04562302306294441,0.007591083645820618,-0.01907206140458584
0.024903519079089165,0.017887165769934654,-0.007207469083368778,-0.04654684662818909,0.008067123591899872,-0.018961099907755852
0.024252699688076973,0.017530208453536034,-0.0067086974158883095,-0.044061578810214996,0.007979941554367542,-0.019014524295926094
0.024221988394856453,0.018157655373215675,-0.006715578492730856,-0.04438507929444313,0.007940344512462616,-0.019015789031982422
0.02436698228120804,0.018728381022810936,-0.00728875445201993,-0.04509294778108597,0.007772637065500021,-0.01926511526107788
0.02436698228120804,0.018728381022810936,-0.00728875445201993,-0.04509294778108597,0.007772637065500021,-0.01926511526107788
0.02451745979487896,0.01770710200071335,-0.007278417237102985,-0.04590670019388199,0.007546885870397091,-0.019315490499138832
0.02399146743118763,0.01769065111875534,-0.006891009863466024,-0.04655347019433975,0.007464428897947073,-0.0186571404337883
0.025134669616818428,0.017619160935282707,-0.0067365760914981365,-0.044567324221134186,0.007380397990345955,-0.018921151757240295
0.025163590908050537,0.017523786053061485,-0.006661081220954657,-0.045042797923088074,0.007749061565846205,-0.0192438792437315
0.02426058053970337,0.017717910930514336,-0.006970557384192944,-0.04581626504659653,0.007531226146966219,-0.018918611109256744
0.024855364114046097,0.018418937921524048,-0.006520724389702082,-0.045440323650836945,0.007325734011828899,-0.019244106486439705
0.025021258741617203,0.01889473758637905,-0.006724895443767309,-0.046060722321271896,0.007934963330626488,-0.0196994598954916
0.025237606838345528,0.018450327217578888,-0.00748870987445116,-0.04670431464910507,0.008258301764726639,-0.019823536276817322
0.02530333399772644,0.01893165335059166,-0.007077430374920368,-0.0469370000064373,0.008099517785012722,-0.019944658502936363
0.025550853461027145,0.01919623464345932,-0.006350939627736807,-0.047299932688474655,0.007989742793142796,-0.019881416112184525
0.02518835850059986,0.018908537924289703,-0.006456808187067509,-0.048012785613536835,0.007933481596410275,-0.01972445845603943
0.025296689942479134,0.01906261406838894,-0.006882799789309502,-0.048560332506895065,0.008136056363582611,-0.02022782899439335
0.02503693476319313,0.019217325374484062,-0.007308646105229855,-0.048985183238983154,0.008335734717547894,-0.02018037624657154
0.025192435830831528,0.019266949966549873,-0.006825990974903107,-0.049478352069854736,0.00790274329483509,-0.020471516996622086
0.025361794978380203,0.019473250955343246,-0.007169692311435938,-0.04971088841557503,0.008105834946036339,-0.020660292357206345
0.02573383040726185,0.01963828317821026,-0.006750775966793299,-0.0489661768078804,0.008040462620556355,-0.02093620039522648
0.02588357962667942,0.019365768879652023,-0.00804049987345934,-0.05132366344332695,0.007743625435978174,-0.020861146971583366
0.025699365884065628,0.019590215757489204,-0.007104575168341398,-0.050300709903240204,0.00802750512957573,-0.02050239033997059
0.025752589106559753,0.02046486735343933,-0.006434778682887554,-0.048803240060806274,0.008397622965276241,-0.02042493410408497
0.02570253238081932,0.019625378772616386,-0.006538725923746824,-0.049956467002630234,0.00803714245557785,-0.020205898210406303
0.025402957573533058,0.01964605413377285,-0.007237699348479509,-0.051083605736494064,0.008164721541106701,-0.02039084956049919
0.026039699092507362,0.02052987739443779,-0.0073337070643901825,-0.053029630333185196,0.008226248435676098,-0.02020084485411644
0.02670043148100376,0.020408816635608673,-0.0066829570569098,-0.050188079476356506,0.008132780902087688,-0.020308854058384895
0.02681295946240425,0.020401062443852425,-0.007113316096365452,-0.05046021193265915,0.008385497145354748,-0.02001515030860901
0.0267309732735157,0.020459458231925964,-0.007873216643929482,-0.05248720198869705,0.00853239931166172,-0.020432641729712486
0.026824507862329483,0.02071145735681057,-0.006952363066375256,-0.052393581718206406,0.00819745846092701,-0.020491531118750572
0.026824507862329483,0.02071145735681057,-0.006952363066375256,-0.052393581718206406,0.00819745846092701,-0.020491531118750572
0.026778416708111763,0.020190011709928513,-0.006349667441099882,-0.05193568766117096,0.008057271130383015,-0.020826859399676323
0.02706875652074814,0.020529180765151978,-0.006653420627117157,-0.05221656709909439,0.008283582516014576,-0.021612336859107018
0.027299942448735237,0.020821401849389076,-0.006903242785483599,-0.05267113074660301,0.007980627939105034,-0.020174385979771614
0.0277815293520689,0.020572902634739876,-0.00688169477507472,-0.052666228264570236,0.007997498847544193,-0.02022676356136799
0.026782548055052757,0.020805764943361282,-0.006340622901916504,-0.05436201021075249,0.008017079904675484,-0.019949978217482567
0.027164606377482414,0.021535459905862808,-0.006698268465697765,-0.052439745515584946,0.008417009375989437,-0.02134714461863041
0.02761629782617092,0.021299760788679123,-0.007501631043851376,-0.054671987891197205,0.008899062871932983,-0.02192768268287182
0.027008796110749245,0.021086737513542175,-0.006832132115960121,-0.05384179949760437,0.009130832739174366,-0.021402040496468544
0.027484524995088577,0.021532559767365456,-0.006172515451908112,-0.05198964849114418,0.008782876655459404,-0.021285392343997955
0.027957379817962646,0.02212098054587841,-0.006160795222967863,-0.0523194782435894,0.008379057981073856,-0.02179356850683689
0.027883902192115784,0.022134101018309593,-0.007116819266229868,-0.054581765085458755,0.009010636247694492,-0.022078199312090874
0.027718020603060722,0.022278495132923126,-0.007734115235507488,-0.05443669483065605,0.009000806137919426,-0.0212240107357502
0.02702193893492222,0.02238793484866619,-0.006775649264454842,-0.05233633890748024,0.008842860348522663,-0.020908214151859283
0.027648458257317543,0.02224830538034439,-0.006418957374989986,-0.05275304615497589,0.008449258282780647,-0.020675957202911377
0.028244948014616966,0.022366853430867195,-0.007312703877687454,-0.054704468697309494,0.009140430949628353,-0.021652961149811745
0.028244948014616966,0.022366853430867195,-0.007312703877687454,-0.054704468697309494,0.009140430949628353,-0.021652961149811745
0.028611406683921814,0.02301657758653164,-0.007463659159839153,-0.05547648295760155,0.008805468678474426,-0.022142594680190086
0.028604991734027863,0.022997703403234482,-0.006852646823972464,-0.056419674307107925,0.008750127628445625,-0.02219928428530693
0.028544936329126358,0.02326120249927044,-0.006261408794671297,-0.055184606462717056,0.009128428995609283,-0.022036561742424965
0.028943626210093498,0.02311733365058899,-0.006606635637581348,-0.05538896098732948,0.008833415806293488,-0.021719329059123993
0.028531523421406746,0.022488635033369064,-0.007160765118896961,-0.05573667213320732,0.008771464228630066,-0.021604793146252632
0.02887650951743126,0.023261765018105507,-0.006445104721933603,-0.05612723156809807,0.009036201052367687,-0.021692002192139626
0.029265260323882103,0.023244956508278847,-0.00617508590221405,-0.05578601360321045,0.009021450765430927,-0.02276783250272274
0.02932135947048664,0.023313265293836594,-0.006296515930444002,-0.05649071931838989,0.008632758632302284,-0.021397482603788376
0.029474886134266853,0.022981848567724228,-0.007005882915109396,-0.05687447637319565,0.008848962374031544,-0.02105548605322838
0.02965824492275715,0.02289624884724617,-0.006916801445186138,-0.05673697590827942,0.009145609103143215,-0.021576225757598877
0.02996218390762806,0.023785291239619255,-0.006114114075899124,-0.05684114247560501,0.008989975787699223,-0.022287340834736824
0.029789971187710762,0.02444954589009285,-0.0060449885204434395,-0.05761967971920967,0.009091674350202084,-0.02222566306591034
0.029990272596478462,0.02466881088912487,-0.006778869312256575,-0.05966333672404289,0.00863899476826191,-0.022285494953393936
0.029990272596478462,0.02466881088912487,-0.006778869312256575,-0.05966333672404289,0.00863899476826191,-0.022285494953393936
0.030294574797153473,0.02417166158556938,-0.00703789945691824,-0.05720546469092369,0.009190985932946205,-0.022656923159956932
0.030557353049516678,0.023759540170431137,-0.00671245064586401,-0.057942572981119156,0.008726730942726135,-0.022152546793222427
0.030646296218037605,0.024060998111963272,-0.00630119489505887,-0.06095299869775772,0.008401092141866684,-0.022321980446577072
0.030380886048078537,0.024428362026810646,-0.006912127137184143,-0.057103972882032394,0.00861078780144453,-0.02271323837339878
0.031069820746779442,0.02482096664607525,-0.006691438611596823,-0.059371501207351685,0.00880385097116232,-0.02264533005654812
0.03208334743976593,0.025691676884889603,-0.007158988621085882,-0.059844814240932465,0.009119327180087566,-0.02185974083840847
0.03169875219464302,0.025236105546355247,-0.006500811781734228,-0.05954260379076004,0.008632449433207512,-0.02144128456711769
0.028848648071289062,0.024366287514567375,-0.006570715922862291,-0.059326786547899246,0.008835027925670147,-0.021963492035865784
0.03127532824873924,0.02501966618001461,-0.006926386617124081,-0.05984560772776604,0.009394598193466663,-0.022736789658665657
0.032027628272771835,0.024721872061491013,-0.006598394829779863,-0.059178780764341354,0.009156587533652782,-0.02288665808737278
0.03127632290124893,0.025050783529877663,-0.0065209404565393925,-0.05914737284183502,0.009261338971555233,-0.022605622187256813
0.03149767965078354,0.025823194533586502,-0.0066652498207986355,-0.058837663382291794,0.009254759177565575,-0.022661497816443443
0.032221317291259766,0.02604864537715912,-0.007222998421639204,-0.05824419856071472,0.00892941839993,-0.02309984341263771
0.03226545453071594,0.02607940509915352,-0.006787384860217571,-0.06054157391190529,0.008549515157938004,-0.023388227447867393
0.03121350146830082,0.02613665722310543,-0.006828442215919495,-0.05924111604690552,0.00885933917015791,-0.022548872977495193
0.0313052199780941,0.02644934691488743,-0.006732132751494646,-0.059527620673179626,0.008611243218183517,-0.022401021793484688
0.03256230428814888,0.025861728936433792,-0.007448082324117422,-0.0585530623793602,0.008786460384726524,-0.021580969914793968
0.03262588754296303,0.026071112602949142,-0.006987328641116619,-0.06163918972015381,0.009259287267923355,-0.02236204408109188
0.03200164809823036,0.026298947632312775,-0.0066352104768157005,-0.05938131362199783,0.009184344671666622,-0.02334083616733551
0.031975988298654556,0.026718979701399803,-0.00658697634935379,-0.06054050102829933,0.009370132349431515,-0.02336958609521389
0.032216884195804596,0.0266648568212986,-0.007045058999210596,-0.061735253781080246,0.008610355667769909,-0.023370832204818726
0.03215843439102173,0.02627621591091156,-0.007025324273854494,-0.061902329325675964,0.00882946141064167,-0.023359667509794235
0.032629892230033875,0.02698279172182083,-0.006567171774804592,-0.0621853806078434,0.009396675042808056,-0.02358243428170681
0.03293778747320175,0.027028938755393028,-0.0063750166445970535,-0.06264069676399231,0.009921126067638397,-0.023841839283704758
0.03316308930516243,0.02777337096631527,-0.006609815638512373,-0.06284333020448685,0.009680740535259247,-0.024130485951900482
0.033245816826820374,0.028081625699996948,-0.007268098182976246,-0.06310625374317169,0.009340525604784489,-0.02407507225871086
0.032908905297517776,0.027226164937019348,-0.006984217558056116,-0.06363742798566818,0.009371647611260414,-0.024104680866003036
0.03271682560443878,0.02702246606349945,-0.006299497094005346,-0.06343642622232437,0.009318388067185879,-0.023864032700657845
0.03293110057711601,0.027969209477305412,-0.0064254868775606155,-0.06409101188182831,0.00900434423238039,-0.02418367937207222
0.03319565951824188,0.028480486944317818,-0.006969337351620197,-0.06429349631071091,0.009245425462722778,-0.02451108768582344
0.03349749371409416,0.0282392930239439,-0.007003188133239746,-0.06406042724847794,0.010341724380850792,-0.02393644116818905
0.03349749371409416,0.0282392930239439,-0.007003188133239746,-0.06406042724847794,0.010341724380850792,-0.02393644116818905
0.032987333834171295,0.029177559539675713,-0.006606664974242449,-0.06598418951034546,0.009825055487453938,-0.024283066391944885
0.03319832310080528,0.02926058880984783,-0.006226526107639074,-0.06407701224088669,0.009392465464770794,-0.024490993469953537
0.03341106325387955,0.02878584712743759,-0.006512296851724386,-0.06367244571447372,0.009408676065504551,-0.02434111200273037
0.033121395856142044,0.028146710246801376,-0.007379243150353432,-0.06538265198469162,0.009606349281966686,-0.024575207382440567
0.033687736839056015,0.029015114530920982,-0.006198656279593706,-0.0637480840086937,0.009226556867361069,-0.024511557072401047
0.03218851611018181,0.02984880656003952,-0.0062312413938343525,-0.06476107984781265,0.00936727225780487,-0.024680860340595245
0.03403431177139282,0.02945611998438835,-0.006851984653621912,-0.06523563712835312,0.009628604166209698,-0.023954235017299652
0.03490842133760452,0.029457267373800278,-0.007388279773294926,-0.06569982320070267,0.009874367155134678,-0.024135641753673553
0.034679584205150604,0.02919195033609867,-0.006941913161426783,-0.06486793607473373,0.009845421649515629,-0.024464262649416924
0.03383859619498253,0.02905658446252346,-0.006357698235660791,-0.0645533949136734,0.009498109109699726,-0.024563195183873177
0.03352869302034378,0.029726723209023476,-0.0063959937542676926,-0.06532570719718933,0.009502118453383446,-0.0249718576669693
0.034753404557704926,0.029603295028209686,-0.0068959505297243595,-0.06668176501989365,0.010233137756586075,-0.024709302932024002
0.03414076566696167,0.02947245165705681,-0.006685665342956781,-0.06678776443004608,0.010064883157610893,-0.02458946220576763
0.034782957285642624,0.029874641448259354,-0.00625836243852973,-0.06663520634174347,0.00964717660099268,-0.02459542080760002
0.03555159270763397,0.02957630716264248,-0.006131419911980629,-0.06945062428712845,0.009560473263263702,-0.024958547204732895
0.034695278853178024,0.02973112277686596,-0.006590158678591251,-0.06776231527328491,0.009400521405041218,-0.024995241314172745
0.033955447375774384,0.030149610713124275,-0.006720355246216059,-0.0667848289012909,0.009682395495474339,-0.025231730192899704
0.03418394550681114,0.03005867265164852,-0.006474715191870928,-0.06884125620126724,0.009775431826710701,-0.025531381368637085
0.03504197299480438,0.03057604469358921,-0.006518935784697533,-0.06882374733686447,0.009975242428481579,-0.025373969227075577
0.03525186702609062,0.030046286061406136,-0.006451522000133991,-0.06737019121646881,0.010278343223035336,-0.025339994579553604
0.03472980484366417,0.02982156164944172,-0.006972906179726124,-0.06925740838050842,0.01007190439850092,-0.025324830785393715
0.034762192517519,0.030509592965245247,-0.006865155417472124,-0.06989967823028564,0.009957344271242619,-0.02525091916322708
0.034758854657411575,0.030041338875889778,-0.005645065568387508,-0.07033026218414307,0.010176214389503002,-0.025309927761554718
0.03482775017619133,0.030034080147743225,-0.00639751274138689,-0.06953766942024231,0.009644798934459686,-0.02570369839668274
0.0347590409219265,0.03054795227944851,-0.007615615613758564,-0.06995487213134766,0.009567425586283207,-0.025949746370315552
0.034575093537569046,0.030367117375135422,-0.0073814960196614265,-0.07034368813037872,0.010153439827263355,-0.02550927735865116
