davideferrari95/blind_handover_controller/data/Test 259 - [2024-02-08 -- 12-47-25]/joint_states_data.csv
shoulder_pan_joint,shoulder_lift_joint,elbow_joint,wrist_1_joint,wrist_2_joint,wrist_3_joint
0.002734017325565219,0.009590675123035908,-0.007845843210816383,0.0014746531378477812,-0.0,0.0025438512675464153
0.0028077266179025173,0.009189175441861153,-0.00764474319294095,0.001472813542932272,-0.0,0.0025081951171159744
0.0028077266179025173,0.009189175441861153,-0.00764474319294095,0.001472813542932272,-0.0,0.0025081951171159744
0.0032330506946891546,0.008946267887949944,-0.008316727355122566,0.0013683544239029288,-0.0,0.002856040373444557
0.003407395211979747,0.00864536501467228,-0.008301983587443829,0.0012843551812693477,-0.0,0.0029225721955299377
0.0032918129581958055,0.00936087779700756,-0.007569049950689077,0.0012329817982390523,-0.0,0.002772432053461671
0.0033376843202859163,0.009236880578100681,-0.007991625927388668,0.0011787505354732275,-0.0,0.002519043395295739
0.0033376843202859163,0.009236880578100681,-0.007991625927388668,0.0011787505354732275,-0.0,0.002519043395295739
0.003217794233933091,0.008413420058786869,-0.008442310616374016,0.001095726271159947,-0.0,0.002513634040951729
0.0030253625009208918,0.009377915412187576,-0.008115961216390133,0.0010624047135934234,-0.0,0.002408234402537346
0.0030130331870168447,0.0091799795627594,-0.007589280139654875,0.0010249927872791886,-0.0,0.002563889604061842
0.002896370366215706,0.009189978241920471,-0.008412693627178669,0.0009576592710800469,-0.0,0.0027772653847932816
0.0026117239613085985,0.008740455843508244,-0.008162449114024639,0.0008935634978115559,-0.0,0.0027650606352835894
0.0024164211936295033,0.0092683807015419,-0.00828167237341404,0.0007989871082827449,-0.0,0.002855967730283737
0.0024085002951323986,0.00888405367732048,-0.007719289045780897,0.0007995027117431164,-0.0,0.0027788239531219006
0.0023511936888098717,0.00833189208060503,-0.008402672596275806,0.0008117636316455901,-0.0,0.002698172116652131
0.002493243897333741,0.008965350687503815,-0.008531522937119007,0.0008219729061238468,-0.0,0.0024525329936295748
0.0026942468248307705,0.008506594225764275,-0.008006637915968895,0.0009290214511565864,-0.0,0.0022978433407843113
0.002795311389490962,0.007958323694765568,-0.007717093452811241,0.0010204087011516094,-0.0,0.002203961368650198
0.00260310061275959,0.00846547819674015,-0.007778748404234648,0.0009443900198675692,-0.0,0.0025548385456204414
0.002559032291173935,0.009183046407997608,-0.007876832038164139,0.000934559793677181,-0.0,0.0029598274268209934
0.002249668352305889,0.007973229512572289,-0.007895713672041893,0.0009422277216799557,-0.0,0.0030659479089081287
0.002361319726333022,0.007731293793767691,-0.008694511838257313,0.0009326857980340719,-0.0,0.002825671574100852
0.002627147827297449,0.008275315165519714,-0.008023685775697231,0.0008346440154127777,-0.0,0.002431868575513363
0.002683608327060938,0.008020350709557533,-0.007991132326424122,0.0007910099811851978,-0.0,0.002390333916991949
0.002697177929803729,0.007671162486076355,-0.008169963955879211,0.0007536429911851883,-0.0,0.002731629414483905
0.0023444409016519785,0.008228837512433529,-0.008487389422953129,0.0006875583785586059,-1.6056902722993982e-06,0.0028756391257047653
0.002310963347554207,0.00804089941084385,-0.008335051126778126,0.0006064806948415935,-1.0484010459776982e-07,0.0028929091058671474
0.0024394856300204992,0.0076621831394732,-0.007806897163391113,0.0006268115248531103,-6.845309652447895e-09,0.002727632177993655
0.002453804947435856,0.0075447135604918,-0.008235076442360878,0.0006186658283695579,-4.469497827397362e-10,0.0027558591682463884
0.002740107011049986,0.007906954735517502,-0.00805274210870266,0.0006016510888002813,-2.9182628535906474e-11,0.0028054756112396717
0.002846733434125781,0.007993496023118496,-0.0076494114473462105,0.0006248777499422431,-1.9054170134064075e-12,0.0027340285014361143
0.0025036598090082407,0.008157426491379738,-0.007951628416776657,0.0006566144875250757,-1.244101122035296e-13,0.002724811900407076
0.0025036598090082407,0.008157426491379738,-0.007951628416776657,0.0006566144875250757,-1.244101122035296e-13,0.002724811900407076
0.002520678099244833,0.007901890203356743,-0.008883992210030556,0.0006382716237567365,-8.123090856914945e-15,0.0027656147722154856
0.0024461480788886547,0.00814507994800806,-0.008106231689453125,0.0006674786563962698,-5.30379791379088e-16,0.002718275645747781
0.0023921173997223377,0.008046782575547695,-0.007583856116980314,0.0006863343296572566,-3.463001229748356e-17,0.002489382866770029
0.002794671803712845,0.007528887130320072,-0.008203302510082722,0.0006731384200975299,-2.2610924141494133e-18,0.002604223322123289
0.002944713458418846,0.008244511671364307,-0.008306069299578667,0.0006520353490486741,-1.476331665510242e-19,0.00315340724773705
0.002729593776166439,0.008465281687676907,-0.008365684188902378,0.0006554795545525849,-9.639390940847587e-21,0.00316634145565331
0.0025436433497816324,0.007982339709997177,-0.008402206934988499,0.000622649909928441,-6.293833709827899e-22,0.0029879698995500803
0.0025190419983118773,0.007666121702641249,-0.00828496739268303,0.00064462999580428,-4.109423526531766e-23,0.0029320337343961
0.0026729637756943703,0.008105013519525528,-0.007887267507612705,0.0006345221772789955,-2.683159499461148e-24,0.002894171280786395
0.002769931685179472,0.008364690467715263,-0.007689726073294878,0.0006155860610306263,-1.7519116660380725e-25,0.0026258353609591722
0.0028652369510382414,0.008535167202353477,-0.008369851857423782,0.000622288032900542,-1.1438731185481508e-26,0.0026337571907788515
0.002829577773809433,0.007980450056493282,-0.008344129659235477,0.0005896961665712297,-7.468674472311064e-28,0.002719139214605093
0.00280319107696414,0.008122697472572327,-0.007679251953959465,0.0006097652367316186,-4.8765111933805976e-29,0.002725479658693075
0.002764342352747917,0.008063584566116333,-0.007939339615404606,0.000558684638235718,-3.1840132117446244e-30,0.0026113949716091156
0.002834708895534277,0.007739129476249218,-0.009021320380270481,0.0005906999576836824,-2.0789329943868753e-31,0.0029039005748927593
0.003104973351582885,0.008094321005046368,-0.008602974005043507,0.0005379291251301765,-1.3573947547723439e-32,0.002988608554005623
0.0027019958943128586,0.00798159558326006,-0.007869655266404152,0.000578077684622258,-5.786786497542825e-35,0.0029825863894075155
0.002794752363115549,0.007739077787846327,-0.00868041068315506,0.0005511247436515987,-3.7783580436384624e-36,0.0028711126651614904
0.0031232491601258516,0.00824335403740406,-0.008088981732726097,0.0005853604525327682,-2.466997829454818e-37,0.0028134374879300594
0.003116907551884651,0.008135320618748665,-0.008077907375991344,0.0005409987061284482,-1.610773386952416e-38,0.0028407846111804247
0.003019446274265647,0.00823743361979723,-0.008161654695868492,0.0005741982022300363,-1.0517193390266336e-39,0.002861835528165102
0.002835536142811179,0.0083945756778121,-0.00860840268433094,0.0005664994241669774,-6.866922994577334e-41,0.003118762280791998
0.002850197721272707,0.008303789421916008,-0.008386988192796707,0.0005550094647333026,-4.4841550858394146e-42,0.003279242431744933
0.003068493213504553,0.008278130553662777,-0.008320337161421776,0.0005477914237417281,-2.9287137904388677e-43,0.0032121529802680016
0.003113020211458206,0.00842504296451807,-0.008695836178958416,0.0005391888553276658,-1.961817850054744e-44,0.002837967360392213
0.003058644710108638,0.008516499772667885,-0.008612209931015968,0.0005479851388372481,-1.401298464324817e-45,0.002471526386216283
0.003058644710108638,0.008516499772667885,-0.008612209931015968,0.0005479851388372481,-1.401298464324817e-45,0.002471526386216283
0.0027572354301810265,0.00874317716807127,-0.008568589575588703,0.0005279628676362336,-0.0,0.002450235653668642
0.0029508282896131277,0.007879089564085007,-0.009146004915237427,0.000556786369998008,-0.0,0.002916096244007349
0.0030518847052007914,0.008113246411085129,-0.008561785332858562,0.000514910789206624,-0.0,0.0032593009527772665
0.0030376382637768984,0.008175043389201164,-0.008457310497760773,0.0005282112397253513,-0.0,0.0035309880040585995
0.0027883374132215977,0.008036057464778423,-0.008801350370049477,0.0005037800292484462,-0.0,0.003239833749830723
0.0028760097920894623,0.007753857411444187,-0.009329806081950665,0.0004999239463359118,-0.0,0.0030364186968654394
0.002984361257404089,0.008222225122153759,-0.008635631762444973,0.0004952244344167411,-0.0,0.0028336751274764538
0.0030003362335264683,0.008312255144119263,-0.00884733535349369,0.00046745696454308927,-0.0,0.0028572597075253725
0.003331808838993311,0.007618027273565531,-0.009127476252615452,0.0004866694798693061,-0.0,0.0030948990024626255
0.0030471531208604574,0.007909516803920269,-0.008774818852543831,0.0005081469425931573,-0.0,0.003258886281400919
0.003188177477568388,0.008237834088504314,-0.008729353547096252,0.00048294843873009086,-0.0,0.003444983158260584
0.0033265165984630585,0.008261418901383877,-0.009462954476475716,0.0004988394794054329,-0.0,0.003520537167787552
0.0031840712763369083,0.008406141772866249,-0.009066205471754074,0.00047790826647542417,-0.0,0.0034008233342319727
0.003455360885709524,0.008083979599177837,-0.008809584192931652,0.00047609469038434327,-0.0,0.00315122795291245
0.0032335720025002956,0.008242676965892315,-0.009443143382668495,0.00047316093696281314,-0.0,0.0030276020988821983
0.003096283646300435,0.007896790280938148,-0.009335617534816265,0.00044571535545401275,-0.0,0.0033510637003928423
0.003123159985989332,0.007603959180414677,-0.009343608282506466,0.0004917897167615592,-0.0,0.0037252730689942837
0.0031667917501181364,0.008725859224796295,-0.009251782670617104,0.00045419225352816284,-0.0,0.003371749771758914
0.003370347199961543,0.007923999801278114,-0.009506309404969215,0.00047374391579069197,-0.0,0.0032524336129426956
0.0034367130137979984,0.007542169187217951,-0.008623626083135605,0.00047008213005028665,-0.0,0.003274250077083707
0.003481191350147128,0.008173070847988129,-0.009056899696588516,0.0004523096140474081,-0.0,0.0034328235778957605
0.003218012396246195,0.007898513227701187,-0.00906360987573862,0.00046742751146666706,-0.0,0.003608059836551547
0.0034099079202860594,0.008147399872541428,-0.008532139472663403,0.00045199913438409567,-0.0,0.0036503260489553213
0.003107128432020545,0.008421296253800392,-0.00920779723674059,0.0004261478316038847,-0.0,0.003650939092040062
0.0033158310689032078,0.008196809329092503,-0.007975849322974682,0.00045054766815155745,-0.0,0.0033196108415722847
0.0034604547545313835,0.007916128262877464,-0.009012753143906593,0.0004256595566403121,-0.0,0.0029758657328784466
0.0034329111222177744,0.007850832305848598,-0.009651703760027885,0.0004571267345454544,-0.0,0.0028696602676063776
0.0035656271502375603,0.008410298265516758,-0.008835019543766975,0.0004299282154534012,-0.0,0.0028822319582104683
0.0033609454985708,0.008443213067948818,-0.008233102969825268,0.00045613833935931325,-0.0,0.003360329894348979
0.0033609454985708,0.008443213067948818,-0.008233102969825268,0.00045613833935931325,-0.0,0.003360329894348979
0.0038922822568565607,0.007862492464482784,-0.007863697595894337,0.0004326583002693951,-0.0,0.003761692438274622
0.0042074513621628284,0.007872650399804115,-0.008747612126171589,0.000455369969131425,-0.0,0.003801332786679268
0.003576359013095498,0.00835029873996973,-0.008398249745368958,0.0004347340436652303,-0.0,0.003380744718015194
0.00351128657348454,0.00791153684258461,-0.008256400935351849,0.0004720742581412196,-0.0,0.003001876873895526
0.003704214468598366,0.008153238333761692,-0.009029793553054333,0.0004804747295565903,-0.0,0.003156640799716115
0.00396211352199316,0.008541966788470745,-0.009013735689222813,0.0005129429628141224,-0.0,0.0036362395621836185
0.003518352983519435,0.008404811844229698,-0.008060886524617672,0.00047798952437005937,-0.0,0.003557672956958413
0.0035650136414915323,0.007761057000607252,-0.007828125730156898,0.0005078026442788541,-0.0,0.0033321778755635023
0.003664053976535797,0.007837233133614063,-0.008702203631401062,0.0005069031030870974,-0.0,0.0032522620167583227
0.004285431932657957,0.008285650052130222,-0.008296981453895569,0.0005018727970309556,-0.0,0.0031230479944497347
0.0035791615955531597,0.008171995170414448,-0.008360148407518864,0.00047101217205636203,-0.0,0.0034520879853516817
0.0035486940760165453,0.007950346916913986,-0.008559081703424454,0.0005168876377865672,-0.0,0.0032590823248028755
0.003706722753122449,0.007798057980835438,-0.008788149803876877,0.00048716686433181167,-0.0,0.003433997742831707
0.003867421066388488,0.008768120780587196,-0.0079541876912117,0.0005170180811546743,-0.0,0.003552007721737027
0.003857227275148034,0.00852290540933609,-0.008302831090986729,0.00048131836229003966,-0.0,0.003509526839479804
0.003849780187010765,0.00826677493751049,-0.008277523331344128,0.0004768456274177879,-0.0,0.0032214599195867777
0.0038779887836426497,0.008930899202823639,-0.007619140204042196,0.0005024601123295724,-0.0,0.003406653879210353
0.0037613287568092346,0.008516700007021427,-0.00898799579590559,0.0004750603111460805,-0.0,0.0036824988201260567
0.0037129216361790895,0.007905840873718262,-0.008169349282979965,0.0005262319464236498,-0.0,0.003819340607151389
0.004286609590053558,0.008621691726148129,-0.007958258502185345,0.0005471651675179601,-0.0,0.0038795580621808767
0.0035830058623105288,0.00805706437677145,-0.008242934010922909,0.0005166646442376077,-0.0,0.004114884417504072
0.003501118626445532,0.00803239643573761,-0.00933169573545456,0.0005407380522228777,-0.0,0.004280105233192444
0.0037027793005108833,0.008329960517585278,-0.008182343095541,0.0005416335188783705,-0.0,0.004092259798198938
0.00381567538715899,0.00833840761333704,-0.007813259959220886,0.0005340224597603083,-0.0,0.003954246640205383
0.00381567538715899,0.00833840761333704,-0.007813259959220886,0.0005340224597603083,-0.0,0.003954246640205383
0.004411827772855759,0.008037149906158447,-0.008036306127905846,0.0006306263385340571,-0.0,0.003995001781731844
0.004078240133821964,0.008429755456745625,-0.008782497607171535,0.0006267713033594191,-0.0,0.004028979688882828
0.004376047756522894,0.008698386140167713,-0.008406502194702625,0.0006064499029889703,-0.0,0.003994392231106758
0.004225335083901882,0.008439900353550911,-0.007918308489024639,0.0005481083644554019,-0.0,0.003583198646083474
0.004075046628713608,0.008136921562254429,-0.008233725093305111,0.0005747269024141133,-0.0,0.00352669321000576
0.003980327397584915,0.007809747476130724,-0.008376913145184517,0.0005967325414530933,-0.0,0.004183630459010601
0.004054720979183912,0.00823928415775299,-0.008249209262430668,0.000559565145522356,-0.0,0.004125273320823908
0.0040495991706848145,0.008326089009642601,-0.007988477125763893,0.0005665600183419883,-0.0,0.0038963332772254944
0.004275867249816656,0.007757325656712055,-0.00857427716255188,0.0005194218829274178,-0.0,0.0038414476439356804
0.0040558441542088985,0.007800002116709948,-0.008897790685296059,0.0005469496827572584,-0.0,0.00369846704415977
0.004275611601769924,0.008428197354078293,-0.00803063903003931,0.0005065561854280531,-0.0,0.0035254312679171562
0.004041216801851988,0.008424501866102219,-0.008440142497420311,0.000535503204446286,-0.0,0.0038895076140761375
0.004260701593011618,0.007830075919628143,-0.008883778005838394,0.0005323452642187476,-0.0,0.004256875719875097
0.004279141314327717,0.008239219896495342,-0.00862308032810688,0.0005252381088212132,-0.0,0.004081448074430227
0.004531932063400745,0.008167559280991554,-0.008223066106438637,0.0005741680506616831,-0.0,0.00388211477547884
0.004296980798244476,0.008238616399466991,-0.008568978868424892,0.0006139561883173883,-0.0,0.0038662871811538935
0.004251061473041773,0.008335201069712639,-0.008342847228050232,0.0006446422194130719,-0.0,0.0037100715562701225
0.004527413751929998,0.008361426182091236,-0.008220678195357323,0.0006476729176938534,-0.0,0.003555973758921027
0.0042502437718212605,0.007984695956110954,-0.008498676121234894,0.0006302612600848079,-0.0,0.00358854909427464
0.0046279337257146835,0.007895014248788357,-0.008082780055701733,0.0008264142088592052,-0.0,0.004200741648674011
0.00432058610022068,0.007776261772960424,-0.008320220746099949,0.0008214576519094408,-0.0,0.004029192496091127
0.004381243139505386,0.007406874559819698,-0.008827664889395237,0.0007515144534409046,-0.0,0.00402826489880681
0.004526861011981964,0.007323417346924543,-0.008648882620036602,0.0007620831020176411,-0.0,0.003951217979192734
0.004754832945764065,0.00813182070851326,-0.008361084386706352,0.000769403821323067,-0.0,0.0038368136156350374
0.004804945085197687,0.008374245837330818,-0.008225727826356888,0.0007832102128304541,-0.0,0.0037760145496577024
0.004804945085197687,0.008374245837330818,-0.008225727826356888,0.0007832102128304541,-0.0,0.0037760145496577024
0.004378788638859987,0.0078261224552989,-0.008421497419476509,0.0007118724170140922,-0.0,0.003535811323672533
0.004555006977170706,0.007846596650779247,-0.00841486919671297,0.0007280416903086007,-0.0,0.003943050280213356
0.005097982473671436,0.007859619334340096,-0.008554362691938877,0.000739280367270112,-0.0,0.0046089524403214455
0.0048291683197021484,0.007482451852411032,-0.008277181535959244,0.000799109460785985,-0.0,0.004747220780700445
0.004707007668912411,0.007412186823785305,-0.00830908864736557,0.0008396754274144769,-0.0,0.00423010066151619
0.004574906080961227,0.007396327331662178,-0.007899852469563484,0.0009172468562610447,-0.0,0.004299397114664316
0.004583256784826517,0.007655578199774027,-0.008944356814026833,0.0008751587010920048,-0.0,0.0041295732371509075
0.004697850439697504,0.007523737382143736,-0.008419527672231197,0.0011563043808564544,-0.0,0.003934954758733511
0.00516884820535779,0.007444141432642937,-0.0077246734872460365,0.0011271836701780558,-0.0,0.003842054633423686
0.005319636780768633,0.007037841249257326,-0.007855451665818691,0.0010925886454060674,-0.0,0.0041588786989450455
0.004762047436088324,0.007415704429149628,-0.009272518567740917,0.0010523410746827722,-0.0,0.004552120808511972
0.0050482358783483505,0.008041052147746086,-0.0084835821762681,0.0010749753564596176,-0.0,0.0047009713016450405
0.005040581803768873,0.007100807037204504,-0.008265684358775616,0.001059274305589497,-0.0,0.004565536510199308
0.004902520217001438,0.007386473938822746,-0.008651110343635082,0.0010438610333949327,-0.0,0.004385724663734436
0.005266731139272451,0.007674819324165583,-0.008497742936015129,0.0012183208018541336,-0.0,0.004323225934058428
0.005426308140158653,0.007518978323787451,-0.007925686426460743,0.0011937706731259823,-0.0,0.004163028206676245
0.004729125648736954,0.007670991588383913,-0.00840556900948286,0.0011482093250378966,-0.0,0.004739972297102213
0.005015240516513586,0.007114311680197716,-0.009258446283638477,0.001075371983461082,-0.0,0.004878158215433359
0.005009123589843512,0.008071761578321457,-0.008363376371562481,0.0010621099499985576,-0.0,0.004212840460240841
0.004855041857808828,0.007765248417854309,-0.008756056427955627,0.0010332645615562797,-6.998482717790466e-07,0.004419582895934582
0.0051284898072481155,0.007032875902950764,-0.008625071495771408,0.0010231819469481707,-4.569509570728769e-08,0.004479436203837395
0.005210626870393753,0.007095352280884981,-0.00841525662690401,0.0010190352331846952,-2.9835629522523277e-09,0.004503678996115923
0.004932768177241087,0.007356222253292799,-0.008750461041927338,0.0010008701356127858,-1.9480535240479213e-10,0.004634625744074583
0.0047457353211939335,0.007132539059966803,-0.008798359893262386,0.0009867751505225897,-1.271939758379359e-11,0.004638083279132843
0.004810487851500511,0.007034848909825087,-0.00860509928315878,0.00109894759953022,-8.304856910675007e-13,0.004807142540812492
0.005674819462001324,0.007376628462225199,-0.00797110702842474,0.001081747584976256,-5.4224786011185244e-14,0.004740236792713404
0.005278482101857662,0.007218844722956419,-0.008835526183247566,0.0010898180771619081,-3.5404909933716214e-15,0.0048549785278737545
0.005278482101857662,0.007218844722956419,-0.008835526183247566,0.0010898180771619081,-3.5404909933716214e-15,0.0048549785278737545
0.005010055843740702,0.007115008309483528,-0.008572300896048546,0.0010891332058236003,-2.311687379537362e-16,0.004788051825016737
0.005217437166720629,0.006948260590434074,-0.008181530982255936,0.0011343996739014983,-1.5093665553289827e-17,0.004824996460229158
0.004924621433019638,0.0071786027401685715,-0.00862821377813816,0.001109359785914421,-9.85508565264812e-19,0.005061659496277571
0.005146979819983244,0.007575695868581533,-0.00900115817785263,0.0010825295466929674,-6.434666419383559e-20,0.004854502622038126
0.00565060181543231,0.0071294233202934265,-0.008930918760597706,0.0011647678911685944,-4.2013775586436216e-21,0.004747228696942329
0.005593704525381327,0.00676391227170825,-0.008707799948751926,0.0011220286833122373,-2.743199805509437e-22,0.0048970249481499195
0.0055788359604775906,0.006949780974537134,-0.00937637872993946,0.001122947782278061,-1.7911132606975576e-23,0.0048575494438409805
0.005172667093575001,0.007288496010005474,-0.009119615890085697,0.0011216759448871017,-1.1694689370502351e-24,0.005149022210389376
0.005379475653171539,0.00730183906853199,-0.008600335568189621,0.0012010211357846856,-7.635796388419085e-26,0.005057550501078367
0.005270832218229771,0.00741862878203392,-0.009290818125009537,0.0011962085263803601,-4.9856294247599715e-27,0.004970458336174488
0.005886194761842489,0.007775965146720409,-0.008862115442752838,0.0013893350260332227,-3.2552595143355336e-28,0.004835170228034258
0.005412379279732704,0.00742603512480855,-0.008862180635333061,0.0013669537147507071,-2.1254517727274463e-29,0.00477944640442729
0.005339302588254213,0.00708600552752614,-0.009386230260133743,0.0013079737545922399,-1.3877681299593143e-30,0.004717877600342035
0.0055108885280787945,0.006983159575611353,-0.010178452357649803,0.0012275294866412878,-9.061134809598839e-32,0.0050649140030145645
0.005340652074664831,0.0072765410877764225,-0.008920987136662006,0.001260097953490913,-0.00017698414740152657,0.005219852551817894
0.006007205229252577,0.007563314866274595,-0.008349507115781307,0.001242592465132475,-0.00019074711599387228,0.004908865783363581
0.005501753184944391,0.006950758397579193,-0.009330613538622856,0.0013506856048479676,-0.00018432282377034426,0.004403817001730204
0.005355963483452797,0.007215963210910559,-0.008858012966811657,0.0013287138426676393,-0.0001771561219356954,0.004705311730504036
0.005048796068876982,0.00757196731865406,-0.008826034143567085,0.0012774589704349637,-0.0001704505120869726,0.004825187847018242
0.005562506150454283,0.0071317958645522594,-0.00872538611292839,0.0013323841849341989,-0.00018985042697750032,0.005008019506931305
0.006082295905798674,0.007337271701544523,-0.008253731764853,0.0012874840758740902,-0.0001836486189858988,0.005144007038325071
0.005476243328303099,0.007680319715291262,-0.008838290348649025,0.0014462119434028864,-0.00017762364586815238,0.004875798709690571
0.005103554576635361,0.007664429023861885,-0.009349721483886242,0.0014767625834792852,-0.00017196782573591918,0.005392249673604965
0.005630199331790209,0.0066497232764959335,-0.00813946034759283,0.0014241411117836833,-0.00016665978182572871,0.005366915371268988
0.005554258357733488,0.006550413090735674,-0.007981163449585438,0.0015083462931215763,-0.00016166978457476944,0.005138224456459284
0.006053476128727198,0.007072786800563335,-0.00898123998194933,0.0014721597544848919,-0.00015696987975388765,0.005624830722808838
0.005692371632903814,0.007876291871070862,-0.008553334511816502,0.001596661750227213,-0.00017624969768803567,0.0052977451123297215
0.005692371632903814,0.007876291871070862,-0.008553334511816502,0.001596661750227213,-0.00017624969768803567,0.0052977451123297215
0.0057576969265937805,0.007372349966317415,-0.008314124308526516,0.0015937089920043945,-0.00017295755969826132,0.004967363551259041
0.006079227663576603,0.006807500962167978,-0.00908689759671688,0.0015283934772014618,-0.00016843409684952348,0.005330262240022421
0.005744114983826876,0.007163040805608034,-0.007734303362667561,0.0015873935772106051,-0.00016405429050792009,0.005282096564769745
0.0065010772086679935,0.007581170182675123,-0.008844159543514252,0.0016575207700952888,-0.00015989082749001682,0.0056359730660915375
0.005838809534907341,0.007328808773308992,-0.009067467413842678,0.0017903634579852223,-0.00017244549235329032,0.005758931860327721
0.005783600267022848,0.0071876696310937405,-0.009104117751121521,0.0018255930626764894,-0.00017352843133267015,0.005517355166375637
0.005768345203250647,0.0071846540085971355,-0.008758352138102055,0.0018425841117277741,-0.00016977847553789616,0.0050620827823877335
0.005779177416115999,0.00767997931689024,-0.00857373233884573,0.0017160242423415184,-0.00016588909784331918,0.005341632757335901
0.006206260062754154,0.007018620613962412,-0.009638060815632343,0.0015517964493483305,-0.00016215427604038268,0.005363555625081062
0.005890147294849157,0.0068304515443742275,-0.008871836587786674,0.0014857363421469927,-0.000158582697622478,0.005978703498840332
0.006373279262334108,0.007059033494442701,-0.008351537398993969,0.0014111003838479519,-0.00015516512212343514,0.005612477194517851
0.00595249654725194,0.007612728048115969,-0.009112998843193054,0.0014269400853663683,-0.00015219130727928132,0.0056140669621527195
0.005932216066867113,0.0075095295906066895,-0.008886555209755898,0.001475249882787466,-0.00016706649330444634,0.005344135221093893
0.006511741317808628,0.00690670870244503,-0.00883350521326065,0.0015866822795942426,-0.00016237891395576298,0.0053726257756352425
0.006219153292477131,0.007346664555370808,-0.008833948522806168,0.0016756047261878848,-0.00015680762589909136,0.005691723432391882
0.006375711876899004,0.006890712305903435,-0.009542088955640793,0.0018384682480245829,-0.00015153233835007995,0.005608175881206989
0.006341137923300266,0.007119458634406328,-0.008767962455749512,0.0017641199519857764,-0.00014659577573183924,0.0055575985461473465
0.0057815746404230595,0.006692921742796898,-0.008443047292530537,0.0017086465377360582,-0.00015589594841003418,0.005507658235728741
0.0066380370408296585,0.007055708672851324,-0.008799227885901928,0.0018011454958468676,-0.00016019002941902727,0.005527820438146591
0.006604592781513929,0.007486581336706877,-0.00827924907207489,0.00204939185641706,-0.00015562849876005203,0.005908846855163574
0.0061164237558841705,0.007507442031055689,-0.00881938450038433,0.002090382156893611,-0.00015127235383260995,0.006154599599540234
0.006361999548971653,0.007048056460916996,-0.009146708063781261,0.0020498577505350113,-0.00014715007273480296,0.005575026385486126
0.0069917417131364346,0.007385992910712957,-0.008802657946944237,0.001778637757524848,-0.00015497082495130599,0.005380166694521904
0.006990944966673851,0.0071314359083771706,-0.009444858878850937,0.0017725999932736158,-0.00016200855316128582,0.005560864228755236
0.006528234574943781,0.006986064370721579,-0.009179330430924892,0.00178150599822402,-0.00015864877786953002,0.006070285569876432
0.0061943018808960915,0.0070042903535068035,-0.009019841440021992,0.0020325230434536934,-0.00015479735156986862,0.006034537684172392
0.00672448193654418,0.006609636824578047,-0.009110317565500736,0.002131882356479764,-0.00015108783554751426,0.006127503234893084
0.007434631697833538,0.00716877868399024,-0.00978727638721466,0.0020959360990673304,-0.0001475493481848389,0.005958434194326401
0.0070588234812021255,0.0071168988943099976,-0.008800368756055832,0.0021374914795160294,-0.00014417261991184205,0.005911188665777445
0.00639316625893116,0.006888855714350939,-0.009035855531692505,0.0020850757136940956,-0.00014094692596700042,0.006229738239198923
0.00639316625893116,0.006888855714350939,-0.009035855531692505,0.0020850757136940956,-0.00014094692596700042,0.006229738239198923
0.006921225693076849,0.006624680943787098,-0.009694449603557587,0.0022521563805639744,-0.0001524687686469406,0.006128158885985613
0.006861579138785601,0.006949704606086016,-0.009431511163711548,0.00207168678753078,-0.00015385079314000905,0.0060729580000042915
0.00713050551712513,0.007328378036618233,-0.009044459089636803,0.0020917707588523626,-0.00015092876856215298,0.005955368746072054
0.006970186717808247,0.0071640098467469215,-0.009395509958267212,0.0019498163601383567,-0.00014784920495003462,0.005862631369382143
0.007397905457764864,0.006868470460176468,-0.009361987002193928,0.0019637427758425474,-0.0001448755501769483,0.0061317491345107555
0.007334275636821985,0.006860708352178335,-0.008936078287661076,0.002011322882026434,-0.0001420177868567407,0.006071000825613737
0.0072417412884533405,0.0070312670432031155,-0.009657788090407848,0.0020488929003477097,-0.00013927074905950576,0.006236970890313387
0.006728502921760082,0.007007898297160864,-0.009210123680531979,0.002188371028751135,-0.00013662783021572977,0.006275153253227472
0.007284711580723524,0.007037135772407055,-0.00908957701176405,0.0021245204843580723,-0.00013408342783804983,0.006028336938470602
0.007637651637196541,0.006899500731378794,-0.009141388349235058,0.0020656695123761892,-0.00013163195399101824,0.006309416610747576
0.006862093694508076,0.007211239542812109,-0.009948059916496277,0.0021004246082156897,-0.000139474737807177,0.00672598322853446
0.0064775897189974785,0.007507442031055689,-0.009135107509791851,0.002274326281622052,-0.00014478637604042888,0.006773240398615599
0.00702644931152463,0.006767888553440571,-0.009870093315839767,0.0022382866591215134,-0.00014089334581512958,0.006323763635009527
0.007373913656920195,0.006570309866219759,-0.00931381806731224,0.0023698369041085243,-0.0001366560027236119,0.006325915455818176
0.007066640537232161,0.00713212788105011,-0.00938047468662262,0.002382287522777915,-0.00013263066648505628,0.00599287636578083
0.007010567467659712,0.006960082333534956,-0.00975929293781519,0.0024160470347851515,-0.00012524738849606365,0.006091960705816746
0.007437841035425663,0.006759015843272209,-0.009035184979438782,0.0024582373443990946,-0.00012185545347165316,0.006146191153675318
0.007397911511361599,0.007378359325230122,-0.009073016233742237,0.0023926456924527884,-0.00011864265979966149,0.006843146868050098
0.007462154142558575,0.00750897079706192,-0.009639246389269829,0.0023395323660224676,-0.00011559474660316482,0.006743093486875296
0.007096014451235533,0.006660247687250376,-0.009524556808173656,0.0021724372636526823,-0.00011269959941273555,0.0067421137355268
0.00759052624925971,0.0065391710959374905,-0.009572960436344147,0.002427482744678855,-0.00010994594049407169,0.006156341638416052
0.007419021800160408,0.006975085008889437,-0.009671034291386604,0.0028150631114840508,-0.00010732360533438623,0.007096294313669205
0.007255382835865021,0.007197731640189886,-0.009230031631886959,0.0032818573527038097,-0.00010482349898666143,0.006717754062265158
0.007405200973153114,0.007054369430989027,-0.009114406071603298,0.003185196314007044,-0.00010243714496027678,0.006299531552940607
0.007779198233038187,0.006834129802882671,-0.01006722915917635,0.00283777411095798,-0.00011885083222296089,0.0064359609968960285
0.0076126051135361195,0.007530903909355402,-0.009700313210487366,0.002584073692560196,-0.00011748419638024643,0.0066422331146895885
0.007556666154414415,0.007019392214715481,-0.008868152275681496,0.0025954542215913534,-0.00011506048031151295,0.006784361321479082
0.007573336828500032,0.0069274017587304115,-0.009492937475442886,0.002515077590942383,-0.00011266508226981387,0.006583207752555609
0.008274853229522705,0.007189723663032055,-0.009224873036146164,0.0027104297187179327,-0.0001103627000702545,0.00650482764467597
0.008274853229522705,0.007189723663032055,-0.009224873036146164,0.0027104297187179327,-0.0001103627000702545,0.00650482764467597
0.007783984299749136,0.007187350187450647,-0.009067765437066555,0.0026590493507683277,-0.00010815237328642979,0.006518766283988953
0.007520290091633797,0.007210835348814726,-0.010716017335653305,0.00256590498611331,-0.00010398693848401308,0.0072200121358036995
0.007520290091633797,0.007210835348814726,-0.010716017335653305,0.00256590498611331,-0.00010398693848401308,0.0072200121358036995
0.008094096556305885,0.006837217137217522,-0.009403298608958721,0.002575380029156804,-0.00010202229168498889,0.006772290915250778
0.00839363131672144,0.007015574723482132,-0.009678051806986332,0.0030631227418780327,-0.00010013046994572505,0.006416143849492073
0.007598883006721735,0.007129548583179712,-0.009809255599975586,0.003167769405990839,-9.830750786932185e-05,0.006204078905284405
0.00801841914653778,0.007298985496163368,-0.009446291252970695,0.003334126668050885,-9.654980385676026e-05,0.007098914589732885
0.008126454427838326,0.00705731613561511,-0.010042967274785042,0.003282351652160287,-9.485389455221593e-05,0.007471255958080292
0.007744927424937487,0.006541355978697538,-0.01043704617768526,0.003057199763134122,-0.00010474795271875337,0.006857804022729397
0.007738206535577774,0.006822008173912764,-0.00930012296885252,0.002848242176696658,-0.00010664550791261718,0.0066077010706067085
0.008569316938519478,0.006822183728218079,-0.009884344413876534,0.002666548825800419,-0.00010510609718039632,0.007058809511363506
0.007503972388803959,0.006917966529726982,-0.009164283983409405,0.003015622030943632,-0.00010339668369852006,0.007543471641838551
0.007991509512066841,0.0068937973119318485,-0.009044727310538292,0.00313485786318779,-0.000101728095614817,0.00744269322603941
0.008124171756207943,0.006959601771086454,-0.009793644770979881,0.0028010918758809566,-9.854564996203408e-05,0.006936178542673588
0.008230973966419697,0.006338299717754126,-0.009363433346152306,0.002795703709125519,-9.702793613541871e-05,0.0074385651387274265
0.00812612660229206,0.006543316412717104,-0.01032011117786169,0.0028326918836683035,-9.555624274071306e-05,0.006936192978173494
0.008304208517074585,0.006650692317634821,-0.00950447004288435,0.0028381922747939825,-9.412851795786992e-05,0.006896238308399916
0.00853443518280983,0.007547010201960802,-0.00929527822881937,0.0027007341850548983,-9.274284821003675e-05,0.0068468437530100346
0.007843918167054653,0.006677666679024696,-0.00992282759398222,0.002742426935583353,-9.782966662896797e-05,0.007295157760381699
0.007868926972150803,0.006378375459462404,-0.009797343984246254,0.0027286740951240063,-0.00010252793435938656,0.007287994492799044
0.008262169547379017,0.006953027565032244,-0.009462486021220684,0.002874588593840599,-0.000101480633020401,0.007313255220651627
0.008460666984319687,0.006997482385486364,-0.01084109116345644,0.0028563051018863916,-0.00010009579273173586,0.0070437900722026825
0.008477424271404743,0.006789383478462696,-0.010045408271253109,0.0029776610899716616,-9.872498776530847e-05,0.007307731080800295
0.008099600672721863,0.006290141958743334,-0.009296893142163754,0.0031426195055246353,-9.738967492012307e-05,0.007596324197947979
0.008758584037423134,0.0064596510492265224,-0.010355480015277863,0.0034996885806322098,-9.608999243937433e-05,0.007695624139159918
0.008994286879897118,0.006607690826058388,-0.009874221868813038,0.0033412897028028965,-9.482449968345463e-05,0.007498024497181177
0.008102823048830032,0.007288935594260693,-0.009629094041883945,0.0030998026486486197,-9.478689753450453e-05,0.007517165970057249
0.008015128783881664,0.006774349603801966,-0.010221047326922417,0.0028651393949985504,-9.331384353572503e-05,0.007473875768482685
0.008015128783881664,0.006774349603801966,-0.010221047326922417,0.0028651393949985504,-9.331384353572503e-05,0.007473875768482685
0.008681475184857845,0.006410037167370319,-0.010542366653680801,0.0030442653223872185,-9.144959767581895e-05,0.007668142206966877
0.008800946176052094,0.00653094332665205,-0.009312806650996208,0.0033203563652932644,-8.963023719843477e-05,0.007633681409060955
0.008197580464184284,0.007177891209721565,-0.010541995987296104,0.0032542147673666477,-8.787996921455488e-05,0.00765081774443388
0.008536380715668201,0.00759095000103116,-0.010163217782974243,0.0034707696177065372,-8.619656000519171e-05,0.007441430818289518
0.008794182911515236,0.006950310431420803,-0.010413403622806072,0.003743560519069433,-9.712834435049444e-05,0.00749031500890851
0.008471316657960415,0.006534100975841284,-0.010265728458762169,0.0034013402182608843,-9.933444380294532e-05,0.007426218129694462
0.008657085709273815,0.0063617778941988945,-0.010237564332783222,0.003559867851436138,-9.779629908734933e-05,0.007931902073323727
0.00873951893299818,0.007076004985719919,-0.01001740712672472,0.003302826778963208,-9.607331594452262e-05,0.007543510291725397
0.008766254410147667,0.006896390579640865,-0.01055017951875925,0.0033873706124722958,-9.439507266506553e-05,0.007484999485313892
0.008597633801400661,0.006758504081517458,-0.010102427564561367,0.003592332359403372,-0.00010621226829243824,0.008009913377463818
0.008736695162951946,0.0063725127838552,-0.009870813228189945,0.0036557335406541824,-0.0001062753945006989,0.008290010504424572
0.008710826747119427,0.006645880173891783,-0.010520044714212418,0.0036382474936544895,-0.00010463139915373176,0.008198579773306847
0.008781246840953827,0.0066173626109957695,-0.010415018536150455,0.003564000828191638,-0.00010127572022611275,0.007697568740695715
0.009123292751610279,0.007178971078246832,-0.01059773564338684,0.003400631481781602,-0.00011205117334611714,0.008134364150464535
0.008716002106666565,0.006601481232792139,-0.010532170534133911,0.0035320750903338194,-0.00011201680172234774,0.008244398981332779
0.008953702636063099,0.0067063276655972,-0.010996755212545395,0.0036309165880084038,-0.0001104107141145505,0.007947728969156742
0.009285440668463707,0.0066763185895979404,-0.011240304447710514,0.0037800781428813934,-0.00010875028237933293,0.00770784355700016
0.008926519192755222,0.007127102464437485,-0.010141301900148392,0.0038136648945510387,-0.00010713261872297153,0.007908306084573269
0.008841482922434807,0.00703524611890316,-0.011068308725953102,0.0034178760834038258,-0.00010559809015830979,0.007722195237874985
0.009280623868107796,0.006653239019215107,-0.010345070622861385,0.003403595881536603,-0.00019500327471178025,0.007905214093625546
0.00892800185829401,0.006541613955050707,-0.010526763275265694,0.0030651104170829058,-0.00019278776017017663,0.008246639743447304
0.00892800185829401,0.006541613955050707,-0.010526763275265694,0.0030651104170829058,-0.00019278776017017663,0.008246639743447304
0.008506959304213524,0.00652143033221364,-0.01047641970217228,0.003270158777013421,-0.00018525109044276178,0.008391669020056725
0.00936949159950018,0.0067335451021790504,-0.010126790031790733,0.003662030678242445,-0.00017795043822843581,0.008306652307510376
0.009003691375255585,0.006525757256895304,-0.011174141429364681,0.003857019590213895,-0.00017118144023697823,0.008310927078127861
0.00949193350970745,0.006813680753111839,-0.010405056178569794,0.0038375421427190304,-0.0001956537162186578,0.008319765329360962
0.009675831533968449,0.006482673343271017,-0.0108060697093606,0.003498625010251999,-0.0001843645004555583,0.007941856980323792
0.009675831533968449,0.006482673343271017,-0.0108060697093606,0.003498625010251999,-0.0001843645004555583,0.007941856980323792
0.00894854310899973,0.006591494660824537,-0.01068372093141079,0.0031475822906941175,-0.00017828508862294257,0.008648471906781197
0.009083402343094349,0.00694255530834198,-0.009823347441852093,0.00345642794854939,-0.0001994114718399942,0.010025197640061378
0.009084979072213173,0.006960476748645306,-0.010945325717329979,0.0038060324732214212,-0.00019498832989484072,0.008251920342445374
0.009164486080408096,0.006578720640391111,-0.01006772369146347,0.004361786879599094,-0.00018924506730400026,0.007873134687542915
0.00888108741492033,0.0068163261748850346,-0.009537502191960812,0.004228954669088125,-0.00020821495854761451,0.00824763160198927
0.009523658081889153,0.007343674544245005,-0.010389434173703194,0.003550616791471839,-0.000203914605663158,0.008466081693768501
0.009457693435251713,0.007753964513540268,-0.011776627041399479,0.003525045933201909,-0.0001983997062779963,0.008680447936058044
0.00958772748708725,0.007121717557311058,-0.010334263555705547,0.003719250438734889,-0.00019320643332321197,0.008876168169081211
0.009668509475886822,0.006684757769107819,-0.010071779601275921,0.004127455875277519,-0.00026214070385321975,0.008958568796515465
0.009173449128866196,0.006805837620049715,-0.010588482953608036,0.004360929597169161,-0.00025266490411013365,0.00877456832677126
0.009089840576052666,0.006940660532563925,-0.010128099471330643,0.004102110397070646,-0.00028102181386202574,0.008536135777831078
0.009661689400672913,0.006758071482181549,-0.010438810102641582,0.003874929156154394,-0.00027253536973148584,0.00854513980448246
0.009512431919574738,0.006856261286884546,-0.011007718741893768,0.0036683068610727787,-0.0002877560327760875,0.008976200595498085
0.009901677258312702,0.0073111895471811295,-0.010911901481449604,0.00402627419680357,-0.0002764134551398456,0.009183237329125404
0.009586860425770283,0.006632449571043253,-0.00985782127827406,0.0039830757305026054,-0.00028337951516732574,0.009044071659445763
0.009395538829267025,0.006396190728992224,-0.010207281447947025,0.003836002666503191,-0.00028924053185619414,0.008694327436387539
0.009781568311154842,0.006602463312447071,-0.010796604678034782,0.0038175429217517376,-0.0003642295196186751,0.008984359912574291
0.009847709909081459,0.006736938841640949,-0.010035853832960129,0.004280889872461557,-0.00041125755524262786,0.00922063086181879
0.009655232541263103,0.006544852163642645,-0.011055821552872658,0.0041724699549376965,-0.0004525871481746435,0.008648036979138851
0.009845896624028683,0.006358827464282513,-0.010389594361186028,0.0043920064345002174,-0.0004221598501317203,0.009155923500657082
0.010086615569889545,0.006568877957761288,-0.01054373849183321,0.004386204294860363,-0.00044821592746302485,0.008986731991171837
0.010086615569889545,0.006568877957761288,-0.01054373849183321,0.004386204294860363,-0.00044821592746302485,0.008986731991171837
0.009925993159413338,0.0059851896949112415,-0.010674789547920227,0.004334469325840473,-0.00042562989983707666,0.009374643675982952
0.010873817838728428,0.006593428086489439,-0.00991461519151926,0.0043078199960291386,-0.00039915437810122967,0.009075346402823925
0.009572104550898075,0.006728070788085461,-0.01107950508594513,0.004081513732671738,-0.00042529491474851966,0.008822750300168991
0.00968164298683405,0.006775205489248037,-0.011073156259953976,0.003832422662526369,-0.00040464094490744174,0.008928987197577953
0.010572578758001328,0.006172107066959143,-0.010869979858398438,0.0038665018510073423,-0.0004770047089550644,0.009220700711011887
0.009843350388109684,0.0063677201978862286,-0.011204387061297894,0.00403809268027544,-0.00044472102308645844,0.009580695070326328
0.009692437015473843,0.006760888267308474,-0.011215301230549812,0.004306729882955551,-0.000444734760094434,0.009173420257866383
0.009960072115063667,0.00684294244274497,-0.010281278751790524,0.004303815774619579,-0.00044374316348694265,0.009206632152199745
0.0107120331376791,0.006210665684193373,-0.010941310785710812,0.004239973612129688,-0.0004454834561329335,0.009977857582271099
0.010049514472484589,0.006129909306764603,-0.010892907157540321,0.003965980373322964,-0.0004446085949894041,0.00896757747977972
0.009706937707960606,0.0068486714735627174,-0.01107530202716589,0.0044029937125742435,-0.00044612199417315423,0.009167526848614216
0.009407269768416882,0.007083520293235779,-0.010995114222168922,0.004657292738556862,-0.00044526890269480646,0.00932272244244814
0.009770229458808899,0.006804950535297394,-0.010409096255898476,0.005039755720645189,-0.0004209753533359617,0.009818930178880692
0.0102394362911582,0.0059567829594016075,-0.010448724031448364,0.004635700955986977,-0.0003978206659667194,0.009195314720273018
0.00986709538847208,0.006399698089808226,-0.010503096505999565,0.0045651402324438095,-0.0004171015461906791,0.009599516168236732
0.01009640097618103,0.006647116970270872,-0.010864142328500748,0.004362599458545446,-0.00042420951649546623,0.009758624248206615
0.009613516740500927,0.006161489523947239,-0.010525235906243324,0.004593974445015192,-0.00039734429446980357,0.009466472081840038
0.010133575648069382,0.006491672247648239,-0.010452499613165855,0.0047461120411753654,-0.0004277628322597593,0.0096464017406106
0.010004859417676926,0.006229570135474205,-0.01056733913719654,0.004964587278664112,-0.00040407804772257805,0.00958898477256298
0.0102365268394351,0.0062328907661139965,-0.009875556454062462,0.004801025148481131,-0.00037994273588992655,0.00956275686621666
0.009938041679561138,0.006455549970269203,-0.010494227521121502,0.004926620051264763,-0.0004026216047350317,0.009581579826772213
0.009992637671530247,0.006596115417778492,-0.011144137941300869,0.004553395789116621,-0.0003870305954478681,0.009450064040720463
0.009992637671530247,0.006596115417778492,-0.011144137941300869,0.004553395789116621,-0.0003870305954478681,0.009450064040720463
0.009663868695497513,0.006159182637929916,-0.010610738769173622,0.004597576335072517,-0.00036910007474943995,0.009455854073166847
0.010622152127325535,0.006594760809093714,-0.011032838374376297,0.004644089378416538,-0.00042006588773801923,0.009559281170368195
0.01002639438956976,0.006996949203312397,-0.010563602671027184,0.00506496662274003,-0.00038931239396333694,0.00999834481626749
0.009853764437139034,0.006403781473636627,-0.009796863421797752,0.005092488136142492,-0.00035862671211361885,0.010396197438240051
0.00999762024730444,0.006402644794434309,-0.010918817482888699,0.005004851147532463,-0.0003939051821362227,0.009926548227667809
0.010494223795831203,0.006106846500188112,-0.010727876797318459,0.005038802977651358,-0.0003708675503730774,0.009855273179709911
0.009810966439545155,0.006725584156811237,-0.010346660390496254,0.004923042841255665,-0.0003472684766165912,0.010653715580701828
0.009978314861655235,0.006606989074498415,-0.010665515437722206,0.005216713063418865,-0.0003527567023411393,0.010041152127087116
0.010941606014966965,0.006132890470325947,-0.01059247087687254,0.005522780120372772,-0.0003571504494175315,0.010653280653059483
0.011825570836663246,0.006249263882637024,-0.01024787500500679,0.0054117655381560326,-0.000339494930813089,0.011691931635141373
0.012527208775281906,0.006311821285635233,-0.010893701575696468,0.005071527324616909,-0.0003446881892159581,0.010654461570084095
0.01163219939917326,0.006343746092170477,-0.010736939497292042,0.004818857181817293,-0.00034880609018728137,0.009642467834055424
0.012019738554954529,0.0062006935477256775,-0.010966398753225803,0.0046362015418708324,-0.0003339838585816324,0.010250372812151909
0.012334762141108513,0.00609543826431036,-0.010651208460330963,0.005186939146369696,-0.00031926031806506217,0.010875899344682693
0.012634147889912128,0.006173116620630026,-0.010077235288918018,0.005161532200872898,-0.00031800332362763584,0.010449483059346676
0.012352951802313328,0.00629807123914361,-0.010980221442878246,0.005301647819578648,-0.00030179074383340776,0.010702494531869888
0.012346619740128517,0.006708208471536636,-0.011182304471731186,0.005474625155329704,-0.0002831286983564496,0.01086607575416565
0.012420685961842537,0.006375118158757687,-0.011234002187848091,0.0051666502840816975,-0.00026638148119673133,0.010916425846517086
0.012786997482180595,0.006544546224176884,-0.010223080404102802,0.005447770468890667,-0.00027940026484429836,0.010111928917467594
0.012555599212646484,0.006512237712740898,-0.011047694832086563,0.005721930414438248,-0.0002710184489842504,0.010140360333025455
0.013186036609113216,0.006598926614969969,-0.010810665786266327,0.005403576418757439,-0.0002584148314781487,0.010592757724225521
0.01258761715143919,0.006174467969685793,-0.010697027668356895,0.005086435936391354,-0.0002466335135977715,0.011017397977411747
0.012360157445073128,0.006436782889068127,-0.011954047717154026,0.005367259960621595,-0.00023585997405461967,0.01123310811817646
0.01253106351941824,0.006638876162469387,-0.011051253415644169,0.005607557948678732,-0.0002259872417198494,0.010387279093265533
0.012379187159240246,0.006800077855587006,-0.010903974995017052,0.005868920125067234,-0.00021690764697268605,0.010062675923109055
0.012379187159240246,0.006800077855587006,-0.010903974995017052,0.005868920125067234,-0.00021690764697268605,0.010062675923109055
0.013176594860851765,0.006118591409176588,-0.011754350736737251,0.006048138719052076,-0.00020853006571996957,0.01070147193968296
0.012636775150895119,0.006186774466186762,-0.011321024969220161,0.005476677790284157,-0.00020077542285434902,0.01090368814766407
0.012766705825924873,0.006763844285160303,-0.011596733704209328,0.0058085680939257145,-0.00022365458426065743,0.010928349569439888
0.012808660045266151,0.006991667207330465,-0.011530505493283272,0.005733106285333633,-0.0002178802969865501,0.010959197767078876
0.012674683704972267,0.00667032552883029,-0.011168692260980606,0.006360276136547327,-0.00021072001254651695,0.01052927691489458
0.012771712616086006,0.005645222030580044,-0.01170019619166851,0.0059931278228759766,-0.000203907533432357,0.010647043585777283
0.012827622704207897,0.005227206274867058,-0.011187751777470112,0.005774420220404863,-0.0001975144841708243,0.01039443165063858
0.01315935980528593,0.005017664283514023,-0.012086360715329647,0.005574148613959551,-0.00019150992739014328,0.010647234506905079
0.01306189876049757,0.005406390409916639,-0.011400718241930008,0.005963848438113928,-0.0001858595642261207,0.011135675013065338
0.012982329353690147,0.006068256683647633,-0.011489983648061752,0.006105097010731697,-0.00018053296662401408,0.010958553291857243
0.01283316407352686,0.005361941643059254,-0.012341498397290707,0.0054379962384700775,-0.0001755032571963966,0.010892165824770927
0.01320642326027155,0.005458613391965628,-0.011443117633461952,0.005249455571174622,-0.00017074648349080235,0.011214244179427624
0.012946566566824913,0.005528143607079983,-0.011853042989969254,0.004924757871776819,-0.0001662404538365081,0.010917765088379383
0.013296258635818958,0.005657112691551447,-0.0117195388302207,0.005294109228998423,-0.00017333163123112172,0.010831677354872227
0.01330691296607256,0.005670852027833462,-0.011428100056946278,0.005653426982462406,-0.00017969594046007842,0.01071825623512268
0.01319501269608736,0.005391986109316349,-0.012928539887070656,0.005547190085053444,-0.00017600141291040927,0.01050556544214487
0.013351797126233578,0.005014730617403984,-0.011732849292457104,0.0055524371564388275,-0.00017184627358801663,0.011011937633156776
0.012750297784805298,0.00531970988959074,-0.012201705947518349,0.005372499581426382,-0.00016784309991635382,0.011367210187017918
0.013383855111896992,0.005477079655975103,-0.011637983843684196,0.005749903153628111,-0.0001640196132939309,0.011212396435439587
0.013278902508318424,0.0055608367547392845,-0.011951649561524391,0.006365438457578421,-0.00015687198902014643,0.011269088834524155
0.013008465059101582,0.005118487402796745,-0.01202723104506731,0.005920385476201773,-0.0001535269257146865,0.012151003815233707
0.01322371419519186,0.005489984527230263,-0.01254724245518446,0.005798996891826391,-0.00015032156079541892,0.011582957580685616
0.013403505086898804,0.0052144452929496765,-0.012089564464986324,0.005579490680247545,-0.00014724713400937617,0.011631904169917107
0.013465175405144691,0.00540655804798007,-0.012528188526630402,0.006059308536350727,-0.00013421737821772695,0.01192267332226038
0.013425419107079506,0.005637124180793762,-0.012300248257815838,0.006662930361926556,-0.00012129024980822578,0.011760013177990913
0.013383342884480953,0.0053580100648105145,-0.012174377217888832,0.006640056613832712,-0.00011751424608519301,0.011970593594014645
0.013897202908992767,0.004938580561429262,-0.012512492947280407,0.005885722581297159,-0.00011448468285379931,0.011346681043505669
0.013667626306414604,0.005200306419283152,-0.012371576391160488,0.00581482145935297,-0.00011164159514009953,0.0113479383289814
0.01378476619720459,0.005558297038078308,-0.0122189000248909,0.006506721023470163,-0.00010893859143834561,0.012773735448718071
0.013381180353462696,0.0055719721131026745,-0.011789967305958271,0.006710680201649666,-0.00010636355727910995,0.011515060439705849
0.01411384530365467,0.005621854215860367,-0.012230485677719116,0.006659156642854214,-0.00010390741954324767,0.01169661246240139
0.013657454401254654,0.0051684994250535965,-0.012076628394424915,0.006659079343080521,-0.00012051765952492133,0.012110110372304916
0.013657454401254654,0.0051684994250535965,-0.012076628394424915,0.006659079343080521,-0.00012051765952492133,0.012110110372304916
0.014224929735064507,0.005233843810856342,-0.012419089674949646,0.00655940780416131,-0.00011909605382243171,0.012490282766520977
0.01384653802961111,0.005526101682335138,-0.012703824788331985,0.006635917350649834,-0.00011660501331789419,0.012163355946540833
0.014141988940536976,0.006084612105041742,-0.011917099356651306,0.006959016900509596,-0.0001141453831223771,0.01163489744067192
0.013858661986887455,0.006016456056386232,-0.012443889863789082,0.007207963615655899,-0.00012796881492249668,0.012338473461568356
0.014285733923316002,0.005565036088228226,-0.011896716430783272,0.006800234783440828,-0.00012760872778017074,0.012429608963429928
0.013666811399161816,0.005445004906505346,-0.012106017209589481,0.006866669747978449,-0.0001252181682502851,0.01264560129493475
0.014031480997800827,0.006136618088930845,-0.012386173009872437,0.006767868530005217,-0.00013141726958565414,0.013028187677264214
0.013808701187372208,0.006089168135076761,-0.012242208234965801,0.006393157411366701,-0.00013706418394576758,0.01295148953795433
0.014036440290510654,0.005982849281281233,-0.012239867821335793,0.006100308615714312,-0.00013502599904313684,0.012339750304818153
0.014210321009159088,0.006027115508913994,-0.011617151089012623,0.006169511470943689,-0.00013257448154035956,0.012644918635487556
0.014473398216068745,0.005351892206817865,-0.012431949377059937,0.006363131105899811,-0.00022136146435514092,0.013140195980668068
0.014011378400027752,0.005418093875050545,-0.012219969183206558,0.006574149243533611,-0.00022331757645588368,0.012746639549732208
0.0145295150578022,0.005809905473142862,-0.012364688329398632,0.006408369168639183,-0.00021356339857447892,0.012713601812720299
0.014471609145402908,0.006578029599040747,-0.012608281336724758,0.005968650337308645,-0.00024193624267354608,0.012867189012467861
0.014468435198068619,0.00607574125751853,-0.011855478398501873,0.006011950317770243,-0.00023393456649500877,0.012931877747178078
0.014866229146718979,0.005825398024171591,-0.012281958013772964,0.006588827818632126,-0.0002567860938142985,0.013078288175165653
0.015353565104305744,0.005755120422691107,-0.011838177219033241,0.007064982317388058,-0.0002510123886168003,0.013428815640509129
0.015241580083966255,0.0062807472422719,-0.01244222093373537,0.006475002970546484,-0.0003880389267578721,0.013519634492695332
0.014965132810175419,0.006028349045664072,-0.012211487628519535,0.0068083894439041615,-0.0005072660278528929,0.013433464802801609
0.015550738200545311,0.006045532878488302,-0.012418955564498901,0.007607949897646904,-0.0005077897221781313,0.013104602694511414
0.015210154466331005,0.0058665149845182896,-0.011945176869630814,0.007612216752022505,-0.0005341218784451485,0.01304574217647314
0.015420790761709213,0.005910325795412064,-0.012861480936408043,0.007482910994440317,-0.0005535491509363055,0.012895071879029274
0.015290321782231331,0.006061453837901354,-0.012029590085148811,0.008207091130316257,-0.0005335289752110839,0.013659561984241009
0.01582413911819458,0.005968822166323662,-0.012501022778451443,0.00789935514330864,-0.0007765382179059088,0.013590824790298939
0.015982070937752724,0.006006014067679644,-0.012434926815330982,0.007560820784419775,-0.0008062561973929405,0.014106004498898983
0.01609998382627964,0.006270457059144974,-0.011985652148723602,0.0076078083366155624,-0.0007659987895749509,0.013931511901319027
0.01602843403816223,0.005722591653466225,-0.012517178431153297,0.007736162282526493,-0.0007578068180009723,0.013823093846440315
0.015393273904919624,0.006579504813998938,-0.011478794738650322,0.008181837387382984,-0.0007075689500197768,0.01354803703725338
0.016346633434295654,0.006206007208675146,-0.01210244931280613,0.007766581606119871,-0.0007467393879778683,0.013795049861073494
0.016057869419455528,0.0059257615357637405,-0.012546755373477936,0.007633482106029987,-0.0008310292032547295,0.013964046724140644
0.016057869419455528,0.0059257615357637405,-0.012546755373477936,0.007633482106029987,-0.0008310292032547295,0.013964046724140644
0.016764992848038673,0.0060314033180475235,-0.012815657071769238,0.007689482066780329,-0.0008439893717877567,0.013904457911849022
0.016270745545625687,0.005767925176769495,-0.012743676081299782,0.007624010089784861,-0.0008022563997656107,0.01384363230317831
0.016668623313307762,0.006215705070644617,-0.012078228406608105,0.007371930871158838,-0.0009011493530124426,0.013522477820515633
0.016456037759780884,0.005835306365042925,-0.012587053701281548,0.007822380401194096,-0.000909145746845752,0.013589628040790558
0.01608898676931858,0.00591136422008276,-0.012005859985947609,0.008244337514042854,-0.0008909603348001838,0.014620745554566383
0.01630050130188465,0.00562217878177762,-0.012460852973163128,0.007737501058727503,-0.0008070076582953334,0.013764350675046444
0.01587577536702156,0.00576881505548954,-0.012380748987197876,0.007164672948420048,-0.0008049547323025763,0.012973397970199585
0.016636934131383896,0.006546861492097378,-0.012826899066567421,0.007365544326603413,-0.0007347440696321428,0.013178371824324131
0.016832968220114708,0.006117131561040878,-0.012594267725944519,0.007610504049807787,-0.0006673435564152896,0.01341184787452221
0.016637684777379036,0.005890814587473869,-0.01245239656418562,0.007496310863643885,-0.0005843622493557632,0.01408972404897213
0.016591403633356094,0.006009692791849375,-0.012792340479791164,0.006978840101510286,-0.0005162947927601635,0.013749620877206326
0.016677461564540863,0.0057378713972866535,-0.012427108362317085,0.0070151337422430515,-0.0004630180192179978,0.014191556721925735
0.016969971358776093,0.006267446093261242,-0.012959917075932026,0.007499324157834053,-0.0004812074766959995,0.013881638646125793
0.017009755596518517,0.005820256657898426,-0.012939167208969593,0.007570391055196524,-0.0004243456060066819,0.013890707865357399
0.01693764328956604,0.005584372207522392,-0.012538456358015537,0.007499678526073694,-0.00039348265272565186,0.014160563237965107
0.016955673694610596,0.005674005951732397,-0.013355934992432594,0.007590974681079388,-0.0003667460987344384,0.014116897247731686
0.01705276407301426,0.006299509666860104,-0.01310320571064949,0.008073322474956512,-0.0003966527874581516,0.014262600801885128
0.016777340322732925,0.005825727712363005,-0.012525185942649841,0.00823008269071579,-0.00037641680683009326,0.014182246290147305
0.017038369551301003,0.005796974059194326,-0.013439605943858624,0.008304220624268055,-0.0003554002323653549,0.014355435036122799
0.017093921080231667,0.0056031979620456696,-0.012915477156639099,0.00870607327669859,-0.00033642860944382846,0.014352831058204174
0.017093921080231667,0.0056031979620456696,-0.012915477156639099,0.00870607327669859,-0.00033642860944382846,0.014352831058204174
0.01737925410270691,0.005628097336739302,-0.013582291081547737,0.008804814890027046,-0.0003193692828062922,0.014850824140012264
0.017227454110980034,0.0060517266392707825,-0.013797177001833916,0.008763187564909458,-0.00028996216133236885,0.014895549044013023
0.0176641084253788,0.005622304975986481,-0.013262294232845306,0.008725125342607498,-0.0003064527700189501,0.014373530633747578
0.0176641084253788,0.005622304975986481,-0.013262294232845306,0.008725125342607498,-0.0003064527700189501,0.014373530633747578
0.017433853819966316,0.0056429291144013405,-0.012187634594738483,0.009100541472434998,-0.0002911277115345001,0.014677675440907478
0.01765400543808937,0.0057919817045331,-0.013704976998269558,0.008562473580241203,-0.0002798495697788894,0.014881725423038006
0.01722118631005287,0.006242760457098484,-0.013845679350197315,0.008079406805336475,-0.00026937981601804495,0.014474485069513321
0.01722118631005287,0.006242760457098484,-0.013845679350197315,0.008079406805336475,-0.00026937981601804495,0.014474485069513321
0.01814388297498226,0.005561120342463255,-0.013787911273539066,0.008182642050087452,-0.00025966347311623394,0.014792999252676964
0.017865436151623726,0.005397224798798561,-0.013562002219259739,0.0086072301492095,-0.00025062356144189835,0.01492979470640421
0.017339060083031654,0.005727341864258051,-0.014288951642811298,0.00833969097584486,-0.00024219210899900645,0.015219138003885746
0.017893608659505844,0.005698298569768667,-0.013958802446722984,0.008324823342263699,-0.00023430946748703718,0.015114277601242065
0.017732946202158928,0.005763831082731485,-0.014207011088728905,0.008571991696953773,-0.00022692351194564253,0.015146752819418907
0.018197165802121162,0.005254366435110569,-0.013994614593684673,0.008470037020742893,-0.0001873189175967127,0.015151016414165497
0.018034344539046288,0.005605136975646019,-0.013738884590566158,0.00839694682508707,-0.00017007307906169444,0.015380016528069973
0.017664501443505287,0.0054760463535785675,-0.013811152428388596,0.00931653194129467,-0.00016323785530403256,0.015186025761067867
0.018190760165452957,0.005919078830629587,-0.013602986000478268,0.00895557552576065,-0.00015748092846479267,0.015239677391946316
0.01796417497098446,0.005429291632026434,-0.014012123458087444,0.008835820481181145,-0.00015215259918477386,0.015529612079262733
0.018190236762166023,0.005426882300525904,-0.014074817299842834,0.008758842013776302,-0.00017462372488807887,0.015429104678332806
0.018625160679221153,0.005357466172426939,-0.014110050164163113,0.009301328100264072,-0.00017088688036892563,0.015642855316400528
0.01757538691163063,0.005638341885060072,-0.013349860906600952,0.009172804653644562,-0.0001657578395679593,0.016356516629457474
0.018503589555621147,0.005871071480214596,-0.013542324304580688,0.008947683498263359,-0.00015617693134117872,0.014659780077636242
0.01853404939174652,0.005485064350068569,-0.014147767797112465,0.008767216466367245,-0.00015178666217252612,0.015270440839231014
0.018545377999544144,0.005830775946378708,-0.013091927394270897,0.008455458097159863,-0.00016899764887057245,0.01533612608909607
0.018600311130285263,0.005337924230843782,-0.014259078539907932,0.008755011484026909,-0.00016744667664170265,0.015686500817537308
0.01871364191174507,0.005337458569556475,-0.013873405754566193,0.008922498673200607,-0.00016329837671946734,0.016046611592173576
0.018709711730480194,0.00558922765776515,-0.014342276379466057,0.008982392959296703,-0.00015918436110951006,0.016406141221523285
0.018189316615462303,0.006173113826662302,-0.013963297009468079,0.008574498817324638,-0.00017170375213027,0.016638342291116714
0.019382329657673836,0.005554513074457645,-0.01421629823744297,0.009177060797810555,-0.00017279951134696603,0.0163570586591959
0.01932811178267002,0.005401988979429007,-0.013446600176393986,0.008872587233781815,-0.00016908238467294723,0.01656336896121502
0.01907850243151188,0.005543275736272335,-0.014083742164075375,0.008744487538933754,-0.00016522441001143306,0.016200726851820946
0.01907850243151188,0.005543275736272335,-0.014083742164075375,0.008744487538933754,-0.00016522441001143306,0.016200726851820946
0.018325675278902054,0.005800037179142237,-0.013633688911795616,0.009204523637890816,-0.00022210726456250995,0.015853052958846092
0.01956675946712494,0.005893192254006863,-0.014308445155620575,0.009064393118023872,-0.00021999349701218307,0.015840010717511177
0.019185293465852737,0.006018139887601137,-0.013979155570268631,0.008934061974287033,-0.0002102824510075152,0.016298020258545876
0.019271543249487877,0.005378957837820053,-0.014558735303580761,0.009569178335368633,-0.00023574326769448817,0.0162059273570776
0.019782312214374542,0.005892548244446516,-0.013848908245563507,0.009687311947345734,-0.00023045812849886715,0.01669052615761757
0.019489256665110588,0.0054780603386461735,-0.014057498425245285,0.009489726275205612,-0.00022132342564873397,0.01685733161866665
0.01850546896457672,0.005947693716734648,-0.013821106404066086,0.01047608070075512,-0.000245656818151474,0.016044145449995995
0.01907552406191826,0.005899371579289436,-0.014257175847887993,0.01018657349050045,-0.00023851047444622964,0.016467610374093056
0.01938508450984955,0.005576662719249725,-0.014163583517074585,0.009119869209825993,-0.00022994441678747535,0.016376251354813576
0.019380735233426094,0.005505670327693224,-0.014150302857160568,0.00886292289942503,-0.00023738306481391191,0.016891947016119957
0.019924849271774292,0.005551113281399012,-0.014301888644695282,0.009564559906721115,-0.00024386764562223107,0.016902605071663857
0.01972723938524723,0.005504059139639139,-0.014515718445181847,0.009349596686661243,-0.00023679601144976914,0.016763580963015556
0.019489353522658348,0.006025082431733608,-0.014214390888810158,0.009463225491344929,-0.0002293150027981028,0.016418157145380974
0.01984192058444023,0.005766920745372772,-0.014227692037820816,0.009349886327981949,-0.0003136310842819512,0.01610950008034706
0.01969236694276333,0.005719941575080156,-0.014333036728203297,0.008809218183159828,-0.00030570183298550546,0.01659158430993557
0.019231531769037247,0.006175025831907988,-0.014093977399170399,0.009339123964309692,-0.00028706793091259897,0.01644255220890045
0.01970668137073517,0.005625951569527388,-0.014044973067939281,0.0095925098285079,-0.00030965814949013293,0.01619900017976761
0.01960788294672966,0.005163958761841059,-0.014195726253092289,0.009495417587459087,-0.000330828275764361,0.017039325088262558
0.01997312530875206,0.00463755102828145,-0.014176527038216591,0.009503467008471489,-0.0003197945188730955,0.017359809949994087
0.020413601770997047,0.004620844963937998,-0.014659162610769272,0.009483285248279572,-0.0003423969610594213,0.016804983839392662
0.020119991153478622,0.005232241470366716,-0.014207771047949791,0.009277631528675556,-0.0003318055532872677,0.016878919675946236
0.019846292212605476,0.005080353934317827,-0.013899298384785652,0.009777531959116459,-0.0003184722154401243,0.01655682735145092
0.020391568541526794,0.005501141771674156,-0.013746004551649094,0.009674259461462498,-0.0004134557966608554,0.016778483986854553
0.0203932486474514,0.005124965682625771,-0.01418992318212986,0.009669501334428787,-0.0004527838318608701,0.017772236838936806
0.019799374043941498,0.004626637790352106,-0.013948705978691578,0.010069225914776325,-0.00042659862083382905,0.0165987741202116
0.019799374043941498,0.004626637790352106,-0.013948705978691578,0.010069225914776325,-0.00042659862083382905,0.0165987741202116
0.020165489986538887,0.005021680146455765,-0.014330165460705757,0.009874851442873478,-0.0004528996651060879,0.016619274392724037
0.020226847380399704,0.005348878912627697,-0.014477983117103577,0.01000014878809452,-0.0004297983250580728,0.016929319128394127
0.02033054456114769,0.0054943072609603405,-0.014426992274820805,0.010457022115588188,-0.0005334808374755085,0.016932107508182526
0.020471645519137383,0.005286216735839844,-0.014726903289556503,0.010345282033085823,-0.0005641112802550197,0.017000364139676094
0.020471645519137383,0.005286216735839844,-0.014726903289556503,0.010345282033085823,-0.0005641112802550197,0.017000364139676094
0.020496906712651253,0.005334710236638784,-0.014880110509693623,0.009561714716255665,-0.0006250316509976983,0.01715138368308544
0.020496906712651253,0.005334710236638784,-0.014880110509693623,0.009561714716255665,-0.0006250316509976983,0.01715138368308544
0.02099638618528843,0.005294576287269592,-0.014333452098071575,0.009843637235462666,-0.0006392495124600828,0.01752801239490509
0.020702149718999863,0.0049896505661308765,-0.014618723653256893,0.010548928752541542,-0.0007340306183323264,0.017327385023236275
0.02090415358543396,0.0052517675794661045,-0.014735635370016098,0.009798248298466206,-0.0008451358880847692,0.017411677166819572
0.02122357301414013,0.005024622194468975,-0.01506231538951397,0.009843227453529835,-0.0007657684618607163,0.01798246242105961
0.02164642885327339,0.004895966034382582,-0.015409200452268124,0.01014637015759945,-0.0007766218041069806,0.017811397090554237
0.021124858409166336,0.005187429022043943,-0.015030440874397755,0.010419749654829502,-0.0006974632269702852,0.017601652070879936
0.021154966205358505,0.004990034271031618,-0.015215021558105946,0.00927777960896492,-0.0007054780144244432,0.017878666520118713
0.02138092741370201,0.00512009346857667,-0.01507982611656189,0.009836753830313683,-0.0006535463617183268,0.01768728345632553
0.02164567820727825,0.005330478772521019,-0.015067975968122482,0.010182937607169151,-0.0006236267508938909,0.01770883798599243
0.02162392996251583,0.00502249738201499,-0.014909999445080757,0.010337376035749912,-0.0006457042181864381,0.0176350437104702
0.02172151952981949,0.00482924422249198,-0.015398149378597736,0.010583717375993729,-0.000659982324577868,0.017723683267831802
0.022450564429163933,0.00515945116057992,-0.01573779620230198,0.010767530649900436,-0.0006030348595231771,0.018216479569673538
0.02233985625207424,0.00515781668946147,-0.015391455963253975,0.010748377069830894,-0.0005890550673939288,0.018458925187587738
0.022222423925995827,0.005448887124657631,-0.015601987950503826,0.010122849605977535,-0.0006266304408200085,0.018411414697766304
0.021834373474121094,0.0054772039875388145,-0.014958973973989487,0.010472280904650688,-0.0006601757486350834,0.017790434882044792
0.022498538717627525,0.005055584479123354,-0.015931522473692894,0.009983770549297333,-0.0006127683445811272,0.017515985295176506
0.02178560197353363,0.004925158340483904,-0.01577436923980713,0.010652604512870312,-0.0006190871936269104,0.01809949055314064
0.02118023857474327,0.005038523580878973,-0.016286581754684448,0.01035380084067583,-0.0005825790576636791,0.018365520983934402
0.021838132292032242,0.005364095792174339,-0.016070198267698288,0.009738053195178509,-0.000600301893427968,0.018661096692085266
0.021838132292032242,0.005364095792174339,-0.016070198267698288,0.009738053195178509,-0.000600301893427968,0.018661096692085266
0.022718656808137894,0.005581679753959179,-0.01614745333790779,0.01007799245417118,-0.0005624222103506327,0.019311197102069855
0.021990614011883736,0.005242696963250637,-0.016136763617396355,0.010384006425738335,-0.0005221929168328643,0.01864483766257763
0.021811138838529587,0.004839253146201372,-0.0155751071870327,0.009790548123419285,-0.0005289104301482439,0.0183920469135046
0.022334342822432518,0.004844071809202433,-0.016673307865858078,0.010452667251229286,-0.0004806168144568801,0.018343212082982063
0.02324472740292549,0.0053669060580432415,-0.01584864780306816,0.010600457899272442,-0.0004765623598359525,0.01880362071096897
0.022584188729524612,0.005290326662361622,-0.016347408294677734,0.009699961170554161,-0.00047270371578633785,0.018996939063072205
0.022479940205812454,0.005656134337186813,-0.01630055159330368,0.010593529790639877,-0.0004369143571238965,0.018260587006807327
0.022376924753189087,0.005205460824072361,-0.016526659950613976,0.010857447981834412,-0.00046696909703314304,0.017973897978663445
0.0219673253595829,0.005357586313039064,-0.01660880632698536,0.010794084519147873,-0.00043854236719198525,0.01794981211423874
0.022187737748026848,0.005271938629448414,-0.015895884484052658,0.010911987163126469,-0.0004533642204478383,0.019076697528362274
0.022605951875448227,0.0056040226481854916,-0.016354650259017944,0.010734902694821358,-0.00043917339644394815,0.017812633886933327
0.02293957769870758,0.005793869961053133,-0.015954578295350075,0.01112865936011076,-0.00041474690078757703,0.01789803057909012
0.022507881745696068,0.00511745223775506,-0.01651865430176258,0.011782084591686726,-0.00039445431320928037,0.018561841920018196
0.022791685536503792,0.005118175409734249,-0.016131164506077766,0.0108744315803051,-0.00038765030330978334,0.01933078095316887
0.023240506649017334,0.005119119770824909,-0.01651153713464737,0.010957814753055573,-0.00035852674045599997,0.0190822072327137
0.02324579283595085,0.004930099006742239,-0.016607418656349182,0.01110471785068512,-0.00038096352363936603,0.019094964489340782
0.02300383523106575,0.00537667004391551,-0.016312729567289352,0.011417269706726074,-0.000370030349586159,0.019309839233756065
0.022728048264980316,0.0053143915720283985,-0.016168346628546715,0.011500650085508823,-0.00032629375346004963,0.019145486876368523
0.023700635880231857,0.005060332827270031,-0.0164394099265337,0.012104745022952557,-0.00035205797757953405,0.01933291181921959
0.023168914020061493,0.00484613049775362,-0.0160243920981884,0.011589252389967442,-0.00033916864776983857,0.018964771181344986
0.02297374978661537,0.005069683771580458,-0.016651783138513565,0.011521372012794018,-0.00032221272704191506,0.019131049513816833
0.02296922728419304,0.005601136479526758,-0.016512630507349968,0.012002866715192795,-0.00030655524460598826,0.01942460425198078
0.02296922728419304,0.005601136479526758,-0.016512630507349968,0.012002866715192795,-0.00030655524460598826,0.01942460425198078
0.023542454466223717,0.005123389884829521,-0.01668926700949669,0.012149171903729439,-0.0003190846764482558,0.0196890477091074
0.023542454466223717,0.005123389884829521,-0.01668926700949669,0.012149171903729439,-0.0003190846764482558,0.0196890477091074
0.02361753024160862,0.0049435789696872234,-0.016292713582515717,0.012054543942213058,-0.0003056995046790689,0.020296785980463028
0.022379616275429726,0.005096720531582832,-0.016723277047276497,0.011968686245381832,-0.0002943954896181822,0.020316539332270622
0.02392568625509739,0.005364471115171909,-0.016413461416959763,0.012406185269355774,-0.0002991592918988317,0.01996878907084465
0.024034732952713966,0.005354052875190973,-0.016453081741929054,0.01209382526576519,-0.00028199743246659636,0.01995094306766987
0.02378871664404869,0.00568997161462903,-0.016549216583371162,0.01221892423927784,-0.0002654586860444397,0.020020617172122
0.023945610970258713,0.0050843339413404465,-0.016638251021504402,0.011552378535270691,-0.0002940464473795146,0.019618501886725426
0.023916613310575485,0.0049441480077803135,-0.017018131911754608,0.01174271572381258,-0.0002844872942660004,0.019720686599612236
0.02377677895128727,0.005346831865608692,-0.01655486226081848,0.011956887319684029,-0.0003096683358307928,0.020303772762417793
0.023588893935084343,0.005090591497719288,-0.016915110871195793,0.011304466053843498,-0.0003002791490871459,0.020268592983484268
0.024282431229948997,0.005490426905453205,-0.016500897705554962,0.012482940219342709,-0.0003251422313041985,0.020267514511942863
0.024715080857276917,0.005168087314814329,-0.01691563054919243,0.012484444305300713,-0.00040228330180980265,0.02046412043273449
0.024974504485726357,0.004990061745047569,-0.016921572387218475,0.012527195736765862,-0.00044678387348540127,0.020493686199188232
0.023907246068120003,0.004867656622081995,-0.016232667490839958,0.0122959204018116,-0.0004879064217675477,0.02053208462893963
0.02349494956433773,0.004765855148434639,-0.01686190441250801,0.01237083226442337,-0.00051742052892223,0.020699281245470047
0.02398848347365856,0.004793953150510788,-0.016207609325647354,0.012821934185922146,-0.0005377423949539661,0.020727941766381264
0.024404410272836685,0.005724006332457066,-0.016712967306375504,0.011656166054308414,-0.0005174187244847417,0.020261306315660477
0.02441350929439068,0.005289111286401749,-0.016385866329073906,0.01210001390427351,-0.0007234603981487453,0.02067761868238449
0.024788111448287964,0.004814637824892998,-0.0166883934289217,0.011856003664433956,-0.0006396474200300872,0.020855233073234558
0.02513555996119976,0.004876329097896814,-0.016653219237923622,0.0124116912484169,-0.0006707157008349895,0.02114926278591156
0.025135643780231476,0.005626599304378033,-0.016940591856837273,0.012404365465044975,-0.0006266890559345484,0.021226363256573677
0.024612534791231155,0.0054036593064665794,-0.016389813274145126,0.012911848723888397,-0.0006310627213679254,0.02091236785054207
0.024824637919664383,0.004796891938894987,-0.016929132863879204,0.01254909299314022,-0.0006025289767421782,0.020916670560836792
0.024881063029170036,0.004350908566266298,-0.017167726531624794,0.012997176498174667,-0.0005715613951906562,0.021046746522188187
0.025755638256669044,0.004855463746935129,-0.016835983842611313,0.012715714983642101,-0.0005097172106616199,0.020948363468050957
0.02589919976890087,0.005023344419896603,-0.0172119140625,0.013240889646112919,-0.0005428861477412283,0.0213325135409832
0.026118528097867966,0.004813252482563257,-0.016535494476556778,0.01276629138737917,-0.0005698838504031301,0.02169106900691986
0.026002617552876472,0.005201062187552452,-0.017239686101675034,0.013195613399147987,-0.0005686117801815271,0.021062878891825676
0.025802619755268097,0.00500269653275609,-0.017265545204281807,0.012981502339243889,-0.0005585909239016473,0.020788323134183884
0.025802619755268097,0.00500269653275609,-0.017265545204281807,0.012981502339243889,-0.0005585909239016473,0.020788323134183884
0.025527765974402428,0.004726629704236984,-0.017259735614061356,0.012941451743245125,-0.0006086953217163682,0.021032605320215225
0.025634467601776123,0.004910777322947979,-0.017088977620005608,0.012796709313988686,-0.0006461807643063366,0.021940797567367554
0.02402898669242859,0.004839160479605198,-0.016576485708355904,0.012794923968613148,-0.0006013440433889627,0.022391371428966522
0.02632776089012623,0.004851832054555416,-0.017435619607567787,0.0128111457452178,-0.0006265122210606933,0.02151748538017273
0.026437776163220406,0.004816211294382811,-0.018005849793553352,0.01199973002076149,-0.0006350582116283476,0.020497912541031837
0.025840753689408302,0.004730555694550276,-0.01754450984299183,0.012347162701189518,-0.0006009674980305135,0.020894087851047516
0.02620069496333599,0.004603720735758543,-0.01765800639986992,0.012602544389665127,-0.0005601458833552897,0.022079458460211754
0.026710137724876404,0.004645244218409061,-0.017132440581917763,0.012548076920211315,-0.000594370358157903,0.022313397377729416
0.026406189426779747,0.004643870517611504,-0.017806503921747208,0.01257158163934946,-0.0006806655437685549,0.021444328129291534
0.02668358013033867,0.005167482886463404,-0.01770966313779354,0.012280628085136414,-0.0006615519523620605,0.021679086610674858
0.027107328176498413,0.005180878099054098,-0.017591925337910652,0.012625481933355331,-0.0006815323722548783,0.023302078247070312
0.02711622230708599,0.004925786983221769,-0.018288513645529747,0.012674896977841854,-0.0006275165360420942,0.02356700599193573
0.02641286887228489,0.004721312317997217,-0.017811721190810204,0.01259818859398365,-0.0007014503353275359,0.02215457148849964
0.026798928156495094,0.0051183439791202545,-0.017450617626309395,0.01293931994587183,-0.0007070719148032367,0.021282581612467766
0.02732784114778042,0.004964714404195547,-0.01769128069281578,0.012697970494627953,-0.0006757962983101606,0.021419411525130272
0.02690616250038147,0.004960302263498306,-0.017563924193382263,0.013037466444075108,-0.0006903678295202553,0.02228500321507454
0.027326302602887154,0.00484771654009819,-0.01866789348423481,0.012962257489562035,-0.0006328895105980337,0.02318599447607994
0.02742043510079384,0.004787043668329716,-0.017919281497597694,0.012930353172123432,-0.0006021694862283766,0.022722817957401276
0.027650397270917892,0.004907470196485519,-0.01856180466711521,0.013767270371317863,-0.0005945989978499711,0.022783100605010986
0.02744876779615879,0.004887057468295097,-0.017518246546387672,0.013539765030145645,-0.0005394158069975674,0.022428611293435097
0.028150375932455063,0.004795500077307224,-0.018122313544154167,0.014057531021535397,-0.0004825399082619697,0.022578030824661255
0.028238162398338318,0.00463081244379282,-0.018398411571979523,0.013480117544531822,-0.0005166634800843894,0.02265004813671112
0.028024282306432724,0.004735959693789482,-0.01828545704483986,0.013805118389427662,-0.00047633310896344483,0.02262090891599655
0.028184562921524048,0.004747008439153433,-0.018565917387604713,0.013745096512138844,-0.0004733308160211891,0.022991519421339035
0.028184562921524048,0.004747008439153433,-0.018565917387604713,0.013745096512138844,-0.0004733308160211891,0.022991519421339035
0.029434436932206154,0.004544476512819529,-0.018043220043182373,0.014405481517314911,-0.0004937400226481259,0.022752264514565468
0.029434436932206154,0.004544476512819529,-0.018043220043182373,0.014405481517314911,-0.0004937400226481259,0.022752264514565468
0.02915174886584282,0.004628782160580158,-0.018523862585425377,0.01463103573769331,-0.000472703279228881,0.023323673754930496
0.026012873277068138,0.004703769460320473,-0.018240850418806076,0.014028774574398994,-0.0004774905974045396,0.02319159358739853
0.028751013800501823,0.004788242280483246,-0.018226860091090202,0.014204931445419788,-0.0005098202964290977,0.022750509902834892
0.02962154895067215,0.004728571977466345,-0.018556058406829834,0.01389541756361723,-0.00047531817108392715,0.023037174716591835
0.028901657089591026,0.004584707319736481,-0.017671773210167885,0.014326103031635284,-0.0004909582203254104,0.023442456498742104
0.02929803915321827,0.0045933169312775135,-0.018472205847501755,0.01387372612953186,-0.0004708734340965748,0.02357577532529831
0.030003171414136887,0.004616095218807459,-0.01905415952205658,0.013953618705272675,-0.0004933111486025155,0.023486996069550514
0.029829690232872963,0.004663011059165001,-0.018035033717751503,0.013535710982978344,-0.0005479076062329113,0.023555206134915352
0.028911717236042023,0.005191380623728037,-0.018139926716685295,0.013959084637463093,-0.000612372939940542,0.02346782013773918
0.028603030368685722,0.005174639634788036,-0.01824575662612915,0.01416514627635479,-0.0005977610126137733,0.023657940328121185
0.029514072462916374,0.0045008352026343346,-0.01832004263997078,0.014269502833485603,-0.0006072469986975193,0.023039227351546288
0.030015980824828148,0.0049742525443434715,-0.019033411517739296,0.014135568402707577,-0.0005725474911741912,0.022947803139686584
0.029728403314948082,0.00502512464299798,-0.01824074238538742,0.01435157936066389,-0.0005260458565317094,0.023530246689915657
0.02964065968990326,0.004801847971975803,-0.018243221566081047,0.014532893896102905,-0.0005500076804310083,0.02391771785914898
0.02992420643568039,0.004626831971108913,-0.018714774399995804,0.014419923536479473,-0.0005148658528923988,0.02401682361960411
0.02946503832936287,0.005078832618892193,-0.018279407173395157,0.014220586977899075,-0.0005368011188693345,0.023696836084127426
0.02982698380947113,0.00445019593462348,-0.018532533198595047,0.01422365102916956,-0.0005368692218326032,0.022845963016152382
0.029947148635983467,0.004171916749328375,-0.018108775839209557,0.01434650644659996,-0.0005508766626007855,0.024021580815315247
0.030177021399140358,0.004332128446549177,-0.01851375214755535,0.014271587133407593,-0.0005237537552602589,0.02444060519337654
0.03017866052687168,0.004571313504129648,-0.018686071038246155,0.014196734875440598,-0.000549006974324584,0.024100888520479202
0.030323665589094162,0.0047023724764585495,-0.018146362155675888,0.014302801340818405,-0.0005159040447324514,0.024320965632796288
0.030324820429086685,0.0047336723655462265,-0.0189475379884243,0.014368296600878239,-0.0006090727401897311,0.024739371612668037
0.030324820429086685,0.0047336723655462265,-0.0189475379884243,0.014368296600878239,-0.0006090727401897311,0.024739371612668037
0.0301760733127594,0.004064202308654785,-0.018105745315551758,0.0139799565076828,-0.0005828822031617165,0.024388860911130905
0.03021661750972271,0.004248745273798704,-0.018593238666653633,0.014107046648859978,-0.000609082926530391,0.02367893047630787
0.03021661750972271,0.004248745273798704,-0.018593238666653633,0.014107046648859978,-0.000609082926530391,0.02367893047630787
0.030084166675806046,0.0050462521612644196,-0.018779268488287926,0.014300023205578327,-0.0005602994351647794,0.023905616253614426
0.03098190203309059,0.004567311145365238,-0.019098063930869102,0.014590260572731495,-0.0005831418675370514,0.02473624423146248
0.03180443122982979,0.0046570152044296265,-0.01964525692164898,0.014761247672140598,-0.0005435674102045596,0.025113318115472794
0.030921468511223793,0.00503388000652194,-0.018733734264969826,0.014585591852664948,-0.0005528992041945457,0.025131674483418465
0.029494788497686386,0.0048660049214959145,-0.01837565004825592,0.014126189053058624,-0.0005081386771053076,0.024540763348340988
0.03031286410987377,0.004377027507871389,-0.019073009490966797,0.01437467709183693,-0.0005424358532764018,0.024450378492474556
0.03156454861164093,0.0044257850386202335,-0.019042519852519035,0.014379001222550869,-0.0005695243598893285,0.024474965408444405
0.030746247619390488,0.004202425945550203,-0.0196782685816288,0.014179560355842113,-0.0005682898918166757,0.024809828028082848
0.030829934403300285,0.004002831876277924,-0.01959422044456005,0.013971371576189995,-0.0005582973244599998,0.024714838713407516
0.03153887018561363,0.0042955102398991585,-0.018712986260652542,0.014347822405397892,-0.0006425342289730906,0.024744102731347084
0.03175118565559387,0.004589627962559462,-0.019605407491326332,0.014228828251361847,-0.0007111388258635998,0.02508385293185711
0.031070826575160027,0.004058812744915485,-0.020472917705774307,0.014789827167987823,-0.0007356929127126932,0.025290781632065773
0.030997384339571,0.00434414017945528,-0.019415205344557762,0.014850670471787453,-0.0007531653973273933,0.02527727000415325
0.031470172107219696,0.004175935406237841,-0.018989088013768196,0.014721879735589027,-0.0009139521280303597,0.025351570919156075
0.03144614025950432,0.004456146154552698,-0.020319901406764984,0.015028273686766624,-0.0009447319898754358,0.025283413007855415
0.03167836368083954,0.004209596198052168,-0.019628191366791725,0.015056902542710304,-0.0009051403612829745,0.02630710043013096
0.03157604858279228,0.0039741708897054195,-0.018799815326929092,0.014932969585061073,-0.0008445217390544713,0.024904435500502586
0.031186139211058617,0.004130005836486816,-0.019523151218891144,0.014999255537986755,-0.0008259184542112052,0.02504037320613861
0.03159337863326073,0.0038325709756463766,-0.019585292786359787,0.014600047841668129,-0.0007587818545289338,0.025426331907510757
0.032174594700336456,0.003688778728246689,-0.01966167613863945,0.015087774023413658,-0.0007185115828178823,0.025788888335227966
0.03202224150300026,0.004243746399879456,-0.019526593387126923,0.014884797856211662,-0.000714960799086839,0.02565433457493782
0.03227867931127548,0.004203082527965307,-0.019275536760687828,0.014836032874882221,-0.0006637041224166751,0.02564275823533535
0.03252192214131355,0.004035291261970997,-0.019822074100375175,0.014286442659795284,-0.0006756509537808597,0.025820476934313774
0.03304443135857582,0.0038587397430092096,-0.01999324932694435,0.015014126896858215,-0.000626978580839932,0.026058755815029144
0.03210499882698059,0.0037872204557061195,-0.019259560853242874,0.015483714640140533,-0.0006512005347758532,0.02586684748530388
0.03295936807990074,0.003777541220188141,-0.019629543647170067,0.014946999959647655,-0.0006741241086274385,0.02578953467309475
0.0326901338994503,0.004285038448870182,-0.020144306123256683,0.015781385824084282,-0.0006859434652142227,0.026172135025262833
0.0326901338994503,0.004285038448870182,-0.020144306123256683,0.015781385824084282,-0.0006859434652142227,0.026172135025262833
0.033116716891527176,0.003926656674593687,-0.01987280324101448,0.01596679724752903,-0.0006431567016988993,0.02590312622487545
0.033116716891527176,0.003926656674593687,-0.01987280324101448,0.01596679724752903,-0.0006431567016988993,0.02590312622487545
0.03339308500289917,0.003814853960648179,-0.020310629159212112,0.01584237813949585,-0.0006108995876275003,0.025971978902816772
0.033260032534599304,0.0043020183220505714,-0.01970222406089306,0.015809472650289536,-0.0006579437176696956,0.026000456884503365
0.03322724252939224,0.00425376882776618,-0.01948060654103756,0.016044005751609802,-0.0006895875558257103,0.026455873623490334
0.03351357579231262,0.00401854095980525,-0.019981639459729195,0.01619873195886612,-0.0006183068617247045,0.027193041518330574
0.033605821430683136,0.0038436793256551027,-0.01984413154423237,0.015581991523504257,-0.0006409929483197629,0.027140328660607338
0.0338723286986351,0.003840602468699217,-0.01957770809531212,0.015583628788590431,-0.0006271564052440226,0.026001250371336937
0.03372100368142128,0.0041375188156962395,-0.02020013891160488,0.015200764872133732,-0.0006108859670348465,0.025275327265262604
0.033943191170692444,0.0041802553460001945,-0.020001035183668137,0.016035202890634537,-0.0006398560362868011,0.026078838855028152
0.033613819628953934,0.004418375436216593,-0.01975814625620842,0.016062570735812187,-0.0006780006224289536,0.027052661404013634
0.0334620326757431,0.0041599757969379425,-0.019929541274905205,0.016698459163308144,-0.0006835405365563929,0.02679423987865448
0.034695129841566086,0.004399774596095085,-0.01991729624569416,0.01629573665559292,-0.0006375358789227903,0.02682509273290634
0.03568384423851967,0.004064822103828192,-0.019640833139419556,0.01619529537856579,-0.0006572186830453575,0.02763419970870018
0.033730290830135345,0.004350284580141306,-0.02017945796251297,0.01649356819689274,-0.0007360568852163851,0.027241531759500504
0.03347229212522507,0.00424441322684288,-0.019908931106328964,0.016496602445840836,-0.0007874576840549707,0.024988777935504913
0.03482099249958992,0.004116909112781286,-0.020205818116664886,0.016675949096679688,-0.0007250537164509296,0.027589663863182068
0.035974498838186264,0.004383893683552742,-0.020371345803141594,0.01674262061715126,-0.000738059519790113,0.02806239016354084
0.03493323177099228,0.004590152762830257,-0.019805697724223137,0.016736241057515144,-0.0006769036990590394,0.02762075886130333
0.033963996917009354,0.004559346940368414,-0.01980176940560341,0.016773531213402748,-0.0006872321246191859,0.027131345123052597
0.03363979980349541,0.004330467898398638,-0.02041042223572731,0.017277292907238007,-0.0006025495240464807,0.027560288086533546
0.03516183793544769,0.004217843525111675,-0.02032647281885147,0.016771530732512474,-0.0006301550311036408,0.027526557445526123
0.035759974271059036,0.00408388115465641,-0.01974085532128811,0.017021622508764267,-0.0005700115580111742,0.02778817154467106
0.03472905978560448,0.0039210449904203415,-0.020263342186808586,0.016940362751483917,-0.0005956804379820824,0.027611341327428818
0.03580298647284508,0.004380841739475727,-0.02054159715771675,0.01701093278825283,-0.0006064688786864281,0.02756216563284397
0.035766392946243286,0.0045118071138858795,-0.020410923287272453,0.016801942139863968,-0.0005784178501926363,0.027830196544528008
0.0351213738322258,0.004272506572306156,-0.020678378641605377,0.016548747196793556,-0.0005712276906706393,0.027780594304203987
0.03567740321159363,0.004338698461651802,-0.020351452752947807,0.01715165749192238,-0.0006053510587662458,0.027994949370622635
0.035309139639139175,0.004298935644328594,-0.02045397087931633,0.017280852422118187,-0.0005500818369910121,0.028283171355724335
0.03502802923321724,0.004229310899972916,-0.020971765741705894,0.01749913953244686,-0.0005768211558461189,0.02806580811738968
0.03591502085328102,0.0041954112239181995,-0.021238502115011215,0.017894646152853966,-0.0005987025215290487,0.028207600116729736
0.03591502085328102,0.0041954112239181995,-0.021238502115011215,0.017894646152853966,-0.0005987025215290487,0.028207600116729736
0.03553883358836174,0.004449488595128059,-0.021037708967924118,0.017291508615016937,-0.0007052617147564888,0.028221044689416885
0.03530122712254524,0.004050061106681824,-0.02031955122947693,0.017333941534161568,-0.0007498824852518737,0.02814207412302494
0.03529008477926254,0.0037917878944426775,-0.0205369982868433,0.016687825322151184,-0.0007413321873173118,0.028622407466173172
0.036905571818351746,0.00433169724419713,-0.020899349823594093,0.016861053183674812,-0.0007089238497428596,0.028642456978559494
0.03691212087869644,0.004161961376667023,-0.020797738805413246,0.017021939158439636,-0.0006401585415005684,0.02854042686522007
0.034801729023456573,0.004423631355166435,-0.020816447213292122,0.01711951196193695,-0.0006582983187399805,0.028250444680452347
0.03524152934551239,0.004201304167509079,-0.02054917998611927,0.017515908926725388,-0.0006568063981831074,0.028224416077136993
0.03676376864314079,0.00436937203630805,-0.021395526826381683,0.017209062352776527,-0.0006169118569232523,0.029293838888406754
0.036131978034973145,0.004490484483540058,-0.021434765309095383,0.016994617879390717,-0.0005973389488644898,0.02941201440989971
0.03696497902274132,0.004218642599880695,-0.021401088684797287,0.017015455290675163,-0.0005800408544018865,0.028835603967308998
0.03725447878241539,0.0043950448743999004,-0.021239202469587326,0.017246408388018608,-0.0005265047657303512,0.027644308283925056
0.035846494138240814,0.004337533377110958,-0.02122657187283039,0.018025845289230347,-0.0005487324087880552,0.027591407299041748
0.03563510626554489,0.004025118891149759,-0.020320085808634758,0.017873726785182953,-0.0005133965751156211,0.028813833370804787
0.03707936406135559,0.004363316111266613,-0.021373802796006203,0.017674241214990616,-0.0005383602110669017,0.028512660413980484
0.03677552938461304,0.004176808055490255,-0.021551908925175667,0.016728216782212257,-0.00047383116907440126,0.02977318875491619
0.03686904534697533,0.003935066983103752,-0.021695083007216454,0.016867762431502342,-0.0004431800334714353,0.029336152598261833
0.03677835687994957,0.0043413108214735985,-0.02126442641019821,0.017204241827130318,-0.00047945132246240973,0.029258940368890762
0.036909319460392,0.004562146961688995,-0.0215244572609663,0.017992252483963966,-0.0004992028698325157,0.028635570779442787
0.03683684766292572,0.004367528483271599,-0.021486686542630196,0.01862393319606781,-0.0004785591154359281,0.029129071161150932
0.03703844174742699,0.00436001643538475,-0.02123734913766384,0.018418507650494576,-0.000500787456985563,0.030304890125989914
0.03699713945388794,0.004337983671575785,-0.021617243066430092,0.018985314294695854,-0.0006079803570173681,0.02975854091346264
0.03794902563095093,0.004259337205439806,-0.021980110555887222,0.019032230600714684,-0.0007083633681759238,0.029551459476351738
0.03725298494100571,0.004067189991474152,-0.021609215065836906,0.018682092428207397,-0.0006822935538366437,0.030003968626260757
0.03729010000824928,0.003934800624847412,-0.02086845226585865,0.019063657149672508,-0.0006581094930879772,0.029710495844483376
0.03787091746926308,0.004402433522045612,-0.021429290995001793,0.019166631624102592,-0.0006355635705403984,0.02937527373433113
0.037380486726760864,0.0045707374811172485,-0.02191908098757267,0.01880718022584915,-0.0006567941745743155,0.029723141342401505
0.037380486726760864,0.0045707374811172485,-0.02191908098757267,0.01880718022584915,-0.0006567941745743155,0.029723141342401505
0.03767884150147438,0.004362905863672495,-0.021952670067548752,0.01883571222424507,-0.000697364448569715,0.0302463136613369
0.03865163028240204,0.00457649165764451,-0.02156764641404152,0.018773289397358894,-0.000741826428566128,0.03039775975048542
0.03815312311053276,0.004295889288187027,-0.021694855764508247,0.018599733710289,-0.0007624115678481758,0.03036828525364399
0.03799167647957802,0.004218681715428829,-0.021747330203652382,0.019069097936153412,-0.0007648597820661962,0.030298922210931778
0.03841876611113548,0.00404154509305954,-0.021489610895514488,0.018867049366235733,-0.000720416137482971,0.03028828464448452
0.03838217258453369,0.004374926444143057,-0.02135002426803112,0.01860692724585533,-0.0008138202829286456,0.030704064294695854
0.03892519325017929,0.004240822046995163,-0.022267058491706848,0.018900414928793907,-0.0008312021964229643,0.030650939792394638
0.03886263072490692,0.004511554725468159,-0.022114409133791924,0.018382985144853592,-0.0008323481306433678,0.030675822868943214
0.03833611309528351,0.00473247142508626,-0.0219785925000906,0.01832003705203533,-0.0008259530877694488,0.030834674835205078
0.03855575993657112,0.0045399232767522335,-0.02188885770738125,0.018791407346725464,-0.0007674823864363134,0.030873626470565796
0.0387130081653595,0.004271491430699825,-0.02160251885652542,0.01865168660879135,-0.0008170731598511338,0.031010117381811142
0.040156733244657516,0.004390833433717489,-0.021564366295933723,0.01869766041636467,-0.0007695459644310176,0.031043609604239464
0.03928487002849579,0.004141532815992832,-0.022370684891939163,0.01862911693751812,-0.0007818797021172941,0.03099297732114792
0.03790287300944328,0.0044618034735322,-0.021984368562698364,0.018545353785157204,-0.000794743828009814,0.030041906982660294
0.03859971836209297,0.004639118909835815,-0.021806327626109123,0.019168449565768242,-0.0008608243661001325,0.031381964683532715
0.04015121981501579,0.004474109970033169,-0.02249237336218357,0.019251899793744087,-0.0008819824433885515,0.031352460384368896
0.04015121981501579,0.004474109970033169,-0.02249237336218357,0.019251899793744087,-0.0008819824433885515,0.031352460384368896
0.038492701947689056,0.004374141804873943,-0.021985294297337532,0.019598204642534256,-0.0009666280238889158,0.03226662799715996
0.03786106035113335,0.004577958025038242,-0.022097231820225716,0.019253283739089966,-0.0009890805231407285,0.031087379902601242
0.0396592915058136,0.004470726940780878,-0.021989136934280396,0.019213128834962845,-0.0009772013872861862,0.03085651993751526
0.03979302570223808,0.004634401760995388,-0.02206275425851345,0.019242456182837486,-0.0009506457136012614,0.032013729214668274
0.03940301015973091,0.0049463906325399876,-0.021979691460728645,0.019219299778342247,-0.0008646270143799484,0.031759459525346756
0.03966095298528671,0.004829424433410168,-0.02189764566719532,0.019599974155426025,-0.0008163549355231225,0.03259899467229843
0.03959393873810768,0.00430277269333601,-0.022256385535001755,0.01990518905222416,-0.0007763609755784273,0.0331450030207634
0.03976675122976303,0.004187081009149551,-0.02332448959350586,0.01952873170375824,-0.000731324777007103,0.032654110342264175
0.03976675122976303,0.004187081009149551,-0.02332448959350586,0.01952873170375824,-0.000731324777007103,0.032654110342264175
0.03944506496191025,0.004298867657780647,-0.022968435660004616,0.019526852294802666,-0.0007990773301571608,0.03111625835299492
0.03986399248242378,0.004431684501469135,-0.021969443187117577,0.01977366954088211,-0.00077116081956774,0.03064640425145626
0.039571307599544525,0.004697027150541544,-0.02231169492006302,0.019473915919661522,-0.000849133066367358,0.03266561031341553
0.039571307599544525,0.004697027150541544,-0.02231169492006302,0.019473915919661522,-0.000849133066367358,0.03266561031341553
0.040707699954509735,0.00440448010340333,-0.022679125890135765,0.019553344696760178,-0.0008519748225808144,0.03258481249213219
0.03998369723558426,0.004059387370944023,-0.022690877318382263,0.018814507871866226,-0.0008573989616706967,0.03228026255965233
0.03862728923559189,0.004420242737978697,-0.02290169708430767,0.01930258609354496,-0.0008395848562940955,0.03198694437742233
0.03943035751581192,0.0047252848744392395,-0.022716520354151726,0.019910944625735283,-0.0008768942207098007,0.03177241235971451
0.03912927955389023,0.004781744442880154,-0.022718340158462524,0.0206038486212492,-0.0008822003728710115,0.0320729985833168
0.04053480178117752,0.004405721090734005,-0.022605672478675842,0.019961083307862282,-0.0008560445858165622,0.03189432621002197
0.040565334260463715,0.004270546603947878,-0.02262628823518753,0.02007358893752098,-0.0008103701402433217,0.03183215111494064
0.039008285850286484,0.004087966401129961,-0.022813929244875908,0.0192665234208107,-0.0008281528134830296,0.03207007423043251
0.039115019142627716,0.004434032831341028,-0.023443490266799927,0.018597373738884926,-0.0008371532312594354,0.03262341767549515
0.04074128717184067,0.004261745139956474,-0.023329125717282295,0.019843021407723427,-0.0008458970696665347,0.03308207169175148
0.0410446897149086,0.0045311632566154,-0.022408748045563698,0.020804334431886673,-0.0008250276441685855,0.032338861376047134
