davideferrari95/blind_handover_controller/data/Test 67 - [2024-02-07 -- 15-47-46]/joint_states_data.csv
shoulder_pan_joint,shoulder_lift_joint,elbow_joint,wrist_1_joint,wrist_2_joint,wrist_3_joint
0.008525954559445381,-0.0018073237733915448,-0.009912381879985332,0.01115101296454668,0.0,0.008281953632831573
0.008525954559445381,-0.0018073237733915448,-0.009912381879985332,0.01115101296454668,0.0,0.008281953632831573
0.009232824668288231,-0.0014511198969557881,-0.010192121379077435,0.010072491131722927,0.0,0.008369967341423035
0.009657522663474083,-0.0011239384766668081,-0.009102864190936089,0.010111777111887932,0.0,0.007986876182258129
0.009657522663474083,-0.0011239384766668081,-0.009102864190936089,0.010111777111887932,0.0,0.007986876182258129
0.009454295039176941,-0.0009810357587412,-0.009671025909483433,0.010362934321165085,0.0,0.008150452747941017
0.009486638940870762,-0.0010000420734286308,-0.009815193712711334,0.009823358617722988,0.0,0.008131646551191807
0.009218434803187847,-0.0010068643605336547,-0.009335828013718128,0.010611693374812603,0.0,0.008164809085428715
0.008795253932476044,-0.0013843340566381812,-0.009800166822969913,0.010089102201163769,0.0,0.008314630948007107
0.00916648842394352,-0.001366456737741828,-0.010865507647395134,0.009287476539611816,0.0,0.008382320404052734
0.009115580469369888,-0.0017677262658253312,-0.009962545707821846,0.009756358340382576,0.0,0.00797418411821127
0.008830546401441097,-0.0015756444772705436,-0.009799055755138397,0.01054359320551157,0.0,0.007897134870290756
0.009007101878523827,-0.0012669473653659225,-0.010055211372673512,0.010118192061781883,0.0,0.008222195319831371
0.009338315576314926,-0.0012027897173538804,-0.009111215360462666,0.010661937296390533,0.0,0.007917189039289951
0.00908561609685421,-0.0009486788767389953,-0.00976555421948433,0.01027113851159811,0.0,0.00811925157904625
0.009405282326042652,-0.0007904401863925159,-0.010002633556723595,0.010322598740458488,0.0,0.008337385952472687
0.009069487452507019,-0.0006314055062830448,-0.009624142199754715,0.00975310429930687,0.0,0.007866138592362404
0.008860533125698566,-0.0006523730116896331,-0.009473355486989021,0.009916526265442371,0.0,0.007974778302013874
0.009225425310432911,-0.0006010234355926514,-0.008923335932195187,0.010692178271710873,0.0,0.008737929165363312
0.009122041054069996,-0.0005547433975152671,-0.009219495579600334,0.010129510425031185,0.0,0.008093992248177528
0.009123779833316803,-0.000515051418915391,-0.009809358045458794,0.009635858237743378,0.0,0.00797720905393362
0.009205996990203857,-0.0004806598590221256,-0.009465840645134449,0.010038550943136215,0.0,0.007862898521125317
0.009889245964586735,-0.0004505742690525949,-0.00940421037375927,0.010287314653396606,0.0,0.008202017284929752
0.008418283425271511,-0.00042403402039781213,-0.009559948928654194,0.00971783697605133,0.0,0.008210736326873302
0.008627532981336117,-0.0004004458023700863,-0.009158924221992493,0.00971988681703806,0.0,0.008376633748412132
0.00928898248821497,-0.0003793457872234285,-0.008975467644631863,0.009596421383321285,0.0,0.008047301322221756
0.008515927009284496,-0.0003603576624300331,-0.009858651086688042,0.00954494345933199,0.0,0.007914089597761631
0.008381878957152367,-0.00034317944664508104,-0.009094941429793835,0.010599293746054173,0.0,0.007983327843248844
0.009160177782177925,-0.0003275657363701612,-0.009589005261659622,0.010116378776729107,0.0,0.008386438712477684
0.008738808333873749,-0.0003133101563435048,-0.010939055122435093,0.00963615532964468,0.0,0.008521221578121185
0.008418693207204342,-0.0003002443118020892,-0.010158549062907696,0.010372690856456757,0.0,0.007874265313148499
0.009073369204998016,-0.00028822472086176276,-0.009923096746206284,0.010285611264407635,0.0,0.00796122569590807
0.0087500661611557,-0.00027713007875718176,-0.010212642140686512,0.01083439216017723,0.0,0.008133682422339916
0.008601558394730091,-0.0002668582310434431,-0.009291025809943676,0.010913596488535404,0.0,0.008389987982809544
0.008601558394730091,-0.0002668582310434431,-0.009291025809943676,0.010913596488535404,0.0,0.008389987982809544
0.008692305535078049,-0.0002573205274529755,-0.009548775851726532,0.010586575604975224,0.0,0.008399216458201408
0.008657380007207394,-0.0002484411234036088,-0.009971081279218197,0.010935469530522823,0.0,0.008616054430603981
0.009013146162033081,-0.00024015408416744322,-0.010330937802791595,0.010304195806384087,0.0,0.008574550971388817
0.00862559862434864,-0.00023240214795805514,-0.010006391443312168,0.01024307869374752,0.0,0.007765092421323061
0.008736923336982727,-0.0002251351543236524,-0.009940805844962597,0.010950910858809948,0.0,0.008001275360584259
0.008782087825238705,-0.00021830896730534732,-0.008867762051522732,0.010340262204408646,0.0,0.00793712493032217
0.008406092412769794,-0.0002118843694915995,-0.009601046331226826,0.010138681158423424,0.0,0.0085867028683424
0.008665346540510654,-0.00020627607591450214,-0.010662338696420193,0.010346892289817333,0.0,0.008341486565768719
0.008525966666638851,-0.00013357035641092807,-0.010253170505166054,0.010130268521606922,0.0,0.00792516116052866
0.008292276412248611,-0.00012885146134067327,-0.010133451782166958,0.010486376471817493,0.0,0.008235551416873932
0.008407635614275932,-0.00012186088133603334,-0.009508710354566574,0.01006355695426464,0.0,0.008413529954850674
0.008386754430830479,-0.00011864787666127086,-0.009899259544909,0.010599402710795403,0.0,0.008005054667592049
0.008255193009972572,-0.00011559994163690135,-0.009935569949448109,0.010069161653518677,0.0,0.00835140235722065
0.008309727534651756,-0.00011270472168689594,-0.009634628891944885,0.009784175083041191,0.0,0.008261090144515038
0.008382606320083141,-0.0001099508663173765,-0.010227330960333347,0.010116096585988998,0.0,0.008004171773791313
0.008814935572445393,-0.00010732844384619966,-0.01069166325032711,0.010519137606024742,0.0,0.007626617792993784
0.008063286542892456,-0.00010482826473889872,-0.009625104255974293,0.010711832903325558,0.0,0.008148392662405968
0.008645445108413696,-0.0001024418234010227,-0.010764637030661106,0.011223637498915195,0.0,0.008473783731460571
0.00867211539298296,-0.00010016171290772036,-0.009838864207267761,0.010502182878553867,0.0,0.00872719008475542
0.00861807819455862,-0.00011087046004831791,-0.009303782135248184,0.010496783070266247,0.0,0.009025600738823414
0.008755228482186794,-0.00011498143430799246,-0.010649768635630608,0.010664424858987331,0.0,0.00835944153368473
0.008803324773907661,-0.00011266937508480623,-0.010159775614738464,0.009950676932930946,0.0,0.008336530067026615
0.008435807190835476,-0.00011036770592909306,-0.009526314213871956,0.010664427652955055,0.0,0.00794620718806982
0.008095148019492626,-0.00010815718997037038,-0.010307042859494686,0.01041333470493555,0.0,0.008285949937999249
0.008095148019492626,-0.00010815718997037038,-0.010307042859494686,0.01041333470493555,0.0,0.008285949937999249
0.008870401419699192,-0.00010603349801385775,-0.01022401638329029,0.009866473264992237,0.0,0.008286907337605953
0.008521351031959057,-0.00010399154416518286,-0.00898268073797226,0.010197984054684639,0.0,0.007925095036625862
0.008154205977916718,-0.00010202673001913354,-0.009855158627033234,0.01005566120147705,0.0,0.008406361564993858
0.008291231468319893,-0.00010013483552029356,-0.01075337640941143,0.009569365531206131,0.0,0.008460602723062038
0.008721667341887951,-9.831179340835661e-05,-0.010023409500718117,0.010018459521234035,0.0,0.008440115489065647
0.008518105372786522,-9.65540311881341e-05,-0.01012031827121973,0.010342680849134922,0.0,0.008336612954735756
0.008221808820962906,-9.485785994911566e-05,-0.009584463201463223,0.010151536203920841,0.0,0.009682467207312584
0.008746426552534103,-9.3220362032298e-05,-0.00941496342420578,0.010643545538187027,0.0,0.009165084920823574
0.008523521013557911,-9.163849608739838e-05,-0.010506308637559414,0.010490414686501026,0.0,0.007964378222823143
0.008263797499239445,-9.010936628328636e-05,-0.009918049909174442,0.00974784605205059,0.0,0.008000781759619713
0.008961612358689308,-8.863034599926323e-05,-0.01002944353967905,0.010036759078502655,0.0,0.008704527281224728
0.008542068302631378,-8.581348083680496e-05,-0.009908507578074932,0.010167744010686874,0.0,0.00839502364397049
0.008414621464908123,-9.690605656942353e-05,-0.009317395277321339,0.010781611315906048,0.0,0.00893828459084034
0.008488014340400696,-9.700986265670508e-05,-0.010754957795143127,0.010312946513295174,0.0,0.008582383394241333
0.00870223343372345,-9.555977885611355e-05,-0.009933242574334145,0.009947177022695541,0.0,0.008594328537583351
0.008536840789020061,-9.413230145582929e-05,-0.009655114263296127,0.010280127637088299,0.0,0.008848030120134354
0.008438040502369404,-9.274648618884385e-05,-0.010358147323131561,0.010379482060670853,0.0,0.00868161115795374
0.008425597101449966,-9.140095789916813e-05,-0.009799170307815075,0.010660436004400253,0.0,0.008604553528130054
0.008157547563314438,-9.009384666569531e-05,-0.009779741056263447,0.01073628943413496,0.0,0.008927077054977417
0.008419575169682503,-8.882364636519924e-05,-0.009988238103687763,0.010175169445574284,0.0,0.008438288234174252
0.008947600610554218,-8.758874901104718e-05,-0.00966342631727457,0.010736380703747272,0.0,0.008489677682518959
0.008947600610554218,-8.758874901104718e-05,-0.00966342631727457,0.010736380703747272,0.0,0.008489677682518959
0.008984091691672802,-8.638776489533484e-05,-0.009403808042407036,0.010810925625264645,0.0,0.008456057868897915
0.007997507229447365,-8.521924610249698e-05,-0.009988007135689259,0.010085097514092922,0.0,0.008675496093928814
0.0084972083568573,-8.408187568420544e-05,-0.01050927396863699,0.010259888134896755,0.0,0.008735581301152706
0.008658635430037975,-8.297448221128434e-05,-0.010118612088263035,0.01052984781563282,0.0,0.008414123207330704
0.008621030487120152,-8.189591608243063e-05,-0.009875485673546791,0.00989282876253128,0.0,0.008326183073222637
0.008054870180785656,-8.084499859251082e-05,-0.009829257614910603,0.010144859552383423,0.0,0.008112397976219654
0.008817454800009727,-7.98207038315013e-05,-0.00961423572152853,0.010243707336485386,0.0,0.008412185125052929
0.009270576760172844,-7.882209320086986e-05,-0.009693407453596592,0.010199612937867641,0.0,0.008419085294008255
0.008148315362632275,-7.784811896272004e-05,-0.010134374722838402,0.010768774896860123,0.0,0.00866177212446928
0.008280308917164803,-7.68978861742653e-05,-0.009939678944647312,0.010223650373518467,0.0,0.008702045306563377
0.00896154809743166,-7.597058720421046e-05,-0.009727081283926964,0.010199190117418766,0.0,0.008378013037145138
0.008601534180343151,-7.506545080104843e-05,-0.00931105948984623,0.010398507118225098,0.0,0.008445736952126026
0.008063171058893204,-3.619182461989112e-05,-0.00905619841068983,0.009844816289842129,0.0,0.008860447444021702
0.008565346710383892,-3.399366687517613e-05,-0.009972977451980114,0.010444221086800098,0.0,0.0090439198538661
0.009010601788759232,-3.334365464979783e-05,-0.009646562859416008,0.010247521102428436,0.0,0.008739105425775051
0.008468054234981537,-4.8881745897233486e-05,-0.00962152797728777,0.009690240025520325,0.0,0.009141521528363228
0.008871003054082394,0.0001567203871672973,-0.009143835864961147,0.010430931113660336,0.0,0.008465363644063473
0.008598160929977894,0.0001357581204501912,-0.008986272849142551,0.009842331521213055,0.0,0.009257083758711815
0.0090688681229949,1.821368414312019e-06,-0.00937079917639494,0.010107661597430706,0.0,0.008756213821470737
0.008637981489300728,2.4435982126647104e-08,-0.009766992181539536,0.010355954989790916,0.0,0.00834680162370205
0.00836983136832714,3.278398941208849e-10,-0.009020702913403511,0.009969434700906277,0.0,0.008435609750449657
0.008819702081382275,4.398390505977456e-12,-0.009959669783711433,0.01077564898878336,0.0,0.008850657381117344
0.008833955973386765,5.901001394340369e-14,-0.009426594711840153,0.010420091450214386,0.0,0.008706711232662201
0.008737798780202866,7.916946436838416e-16,-0.008845902048051357,0.009924504905939102,0.0,0.008888964541256428
0.00883728452026844,1.0621593808041301e-17,-0.010331596247851849,0.01055213250219822,0.0,0.008782436139881611
0.008822819218039513,1.4250225568423728e-19,-0.009069547988474369,0.01001201756298542,0.0,0.008611545898020267
0.008558245375752449,1.91184966548642e-21,-0.008514686487615108,0.009688288904726505,0.0,0.008683828637003899
0.008788925595581532,2.5649903841126204e-23,-0.00942588783800602,0.009869326837360859,0.0,0.00842976663261652
0.008788925595581532,2.5649903841126204e-23,-0.00942588783800602,0.009869326837360859,0.0,0.00842976663261652
0.008505931124091148,3.4412614853924283e-25,-0.00994420051574707,0.010030283592641354,0.0,0.008750413544476032
0.009180555120110512,4.61689126279358e-27,-0.008784971199929714,0.010171469300985336,0.0,0.008675123564898968
0.00864339992403984,6.194148803748385e-29,-0.009197949431836605,0.010076652280986309,0.0,0.008576699532568455
0.00823182798922062,8.31024194873142e-31,-0.009248565882444382,0.010493644513189793,0.0,0.00935377273708582
0.009383940137922764,1.1149249472810552e-32,-0.009054187685251236,0.010398194193840027,0.0,0.009078074246644974
0.008566098287701607,1.4958140359452165e-34,-0.009061211720108986,0.010385957546532154,0.0,0.008771265856921673
0.008096173405647278,2.0068254940175175e-36,-0.01006347592920065,0.010155976749956608,0.0,0.008594503626227379
0.008820988237857819,2.692412269880388e-38,-0.009478374384343624,0.009578761644661427,0.0,0.00826554000377655
0.008928483352065086,3.6122111293979405e-40,-0.009366505779325962,0.010513827204704285,0.0,0.008213194087147713
0.00873479526489973,4.8456900896352174e-42,-0.009691307321190834,0.010402693413197994,0.0,0.008634389378130436
0.00861162506043911,6.445972935894159e-44,-0.009034770540893078,0.010201078839600086,0.0,0.009159325622022152
0.009167519398033619,1.401298464324817e-45,-0.008512452244758606,0.009933022782206535,0.0,0.009277728386223316
0.008922474458813667,0.0,-0.00957169197499752,0.009524296037852764,0.0,0.008907523937523365
0.008518347516655922,0.0,-0.010719233192503452,0.010046602226793766,0.0,0.00881628505885601
0.009186187759041786,0.0,-0.009822790510952473,0.010511483065783978,0.0,0.008692453615367413
0.008586909621953964,0.0,-0.00901596900075674,0.01041838712990284,0.0,0.008756323717534542
0.009768936783075333,0.0,-0.00893443450331688,0.010608132928609848,0.0,0.00890746433287859
0.008870684541761875,0.0,-0.009671935811638832,0.010247839614748955,0.0,0.009215150959789753
0.009199555963277817,0.0,-0.009566058404743671,0.010310238227248192,0.0,0.008800428360700607
0.008833222091197968,0.0,-0.009234149008989334,0.009810549207031727,0.0,0.009108207188546658
0.008973044343292713,0.0,-0.009444698691368103,0.01063236128538847,0.0,0.008802764117717743
0.008976401761174202,0.0,-0.009227790869772434,0.010451573878526688,0.0,0.008806398138403893
0.009026519022881985,0.0,-0.00930508691817522,0.009953631088137627,0.0,0.00917978584766388
0.009335302747786045,0.0,-0.009984677657485008,0.009672567248344421,0.0,0.009064550511538982
0.009158517234027386,0.0,-0.009761292487382889,0.010648267343640327,0.0,0.009945428930222988
0.008542191237211227,0.0,-0.009469118900597095,0.01079706009477377,0.0,0.009327087551355362
0.008542191237211227,0.0,-0.009469118900597095,0.01079706009477377,0.0,0.009327087551355362
0.009047534316778183,0.0,-0.009863062761723995,0.010129138827323914,0.0,0.008665591478347778
0.009816610254347324,0.0,-0.009835811331868172,0.010539265349507332,0.0,0.00875137746334076
0.008845536038279533,0.0,-0.00823415070772171,0.010105125606060028,0.0,0.009513546712696552
0.009700627997517586,0.0,-0.010372903198003769,0.01034488994628191,0.0,0.009531354531645775
0.008718861266970634,0.0,-0.010325140319764614,0.010299443267285824,0.0,0.0095289945602417
0.00860015582293272,0.0,-0.009604277089238167,0.010271536186337471,0.0,0.009239321574568748
0.008947804570198059,0.0,-0.009888313710689545,0.010338695719838142,0.0,0.009425661526620388
0.009241392835974693,0.0,-0.009889336302876472,0.010776656679809093,0.0,0.009222128428518772
0.009287383407354355,0.0,-0.009550186805427074,0.00987125001847744,0.0,0.009208891540765762
0.009184304624795914,0.0,-0.010366695933043957,0.010123015381395817,0.0,0.008823340758681297
0.009222188033163548,0.0,-0.010064375586807728,0.010684727691113949,0.0,0.008700486272573471
0.009290737099945545,0.0,-0.009811864234507084,0.01033781562000513,0.0,0.009012958034873009
0.008972915820777416,0.0,-0.011001287028193474,0.010848606936633587,0.0,0.009223813191056252
0.009227464906871319,0.0,-0.010058068670332432,0.0106919901445508,0.0,0.009148857556283474
0.009191293269395828,0.0,-0.009393077343702316,0.009948715567588806,0.0,0.009304501116275787
0.009337610565125942,0.0,-0.010069705545902252,0.010054843500256538,0.0,0.009685521945357323
0.009136511944234371,0.0,-0.010018141008913517,0.010352014563977718,0.0,0.009210099466145039
0.009136511944234371,0.0,-0.010018141008913517,0.010352014563977718,0.0,0.009210099466145039
0.008806591853499413,0.0,-0.010170540772378445,0.010017194785177708,0.0,0.008742962963879108
0.009207453578710556,0.0,-0.009996652603149414,0.01061697956174612,0.0,0.008755307644605637
0.008989999070763588,0.0,-0.011146488599479198,0.010636615566909313,0.0,0.008726716972887516
0.009175652638077736,0.0,-0.010273662395775318,0.009784218855202198,0.0,0.009254984557628632
0.008972414769232273,0.0,-0.009934783913195133,0.01004415936768055,0.0,0.009125931188464165
0.008973505347967148,0.0,-0.010522047989070415,0.01055907178670168,0.0,0.009278766810894012
0.008966119028627872,0.0,-0.01011292077600956,0.010273411870002747,0.0,0.00951339304447174
0.009202481247484684,0.0,-0.010657704435288906,0.01025276817381382,0.0,0.009992350824177265
0.009202481247484684,0.0,-0.010657704435288906,0.01025276817381382,0.0,0.009992350824177265
0.009203276596963406,0.0,-0.010904197581112385,0.010631467215716839,0.0,0.009247693233191967
0.008839783258736134,0.0,-0.009929449297487736,0.010113373398780823,0.0,0.009580736979842186
0.009070690721273422,0.0,-0.010273453779518604,0.010241253301501274,2.8565659704327118e-06,0.009192779660224915
0.009594826027750969,0.0,-0.010316788218915462,0.010284856893122196,1.8651333277830418e-07,0.009436513297259808
0.009277600795030594,0.0,-0.00995722133666277,0.009932190179824829,1.2177989283657098e-08,0.00957428477704525
0.009833598509430885,0.0,-0.011076752096414566,0.010664043016731739,7.951356795210529e-10,0.009291066788136959
0.009671025909483433,0.0,-0.010356348007917404,0.010242365300655365,5.191667928894361e-11,0.009148434735834599
0.008985758759081364,0.0,-0.009638138115406036,0.009731468744575977,3.3897882330963247e-12,0.009382762014865875
0.009267193265259266,0.0,-0.010232113301753998,0.010057833977043629,2.2132895017602794e-13,0.009460602886974812
0.009533168748021126,0.0,-0.010260343551635742,0.009954501874744892,1.4451198619919517e-14,0.009184477850794792
0.0101838493719697,0.0,-0.010463282465934753,0.010400769300758839,6.160773042612476e-17,0.009255735203623772
0.010667677968740463,0.0,-0.010131892748177052,0.009949547238647938,4.022544990849953e-18,0.009355166926980019
0.010000986978411674,0.0,-0.010195949114859104,0.010392166674137115,2.6264344126690513e-19,0.009056410752236843
0.010173562914133072,0.0,-0.010330301709473133,0.009500096552073956,1.7148738489995708e-20,0.009457954205572605
0.010347738862037659,0.0,-0.009657380171120167,0.009515227749943733,1.1196900342605871e-21,0.009484969079494476
0.010011047124862671,0.0,-0.009983902797102928,0.009613675996661186,7.310776012200417e-23,0.009472925215959549
0.010391782969236374,0.0,-0.0106528764590621,0.0097236018627882,4.773414692432257e-24,0.009537232108414173
0.010039178654551506,0.0,-0.009940510615706444,0.00968924444168806,3.1166984710050843e-25,0.009252497926354408
0.009859619662165642,0.0,-0.010355844162404537,0.00975417997688055,2.03498133636789e-26,0.009724699892103672
0.010427040979266167,0.0,-0.009804925881326199,0.010011991485953331,1.328697335295804e-27,0.009787706658244133
0.010427040979266167,0.0,-0.009804925881326199,0.010011991485953331,1.328697335295804e-27,0.009787706658244133
0.010915075428783894,0.0,-0.009416169486939907,0.01001949142664671,8.675444721723985e-29,0.009530443698167801
0.010338126681745052,0.0,-0.010684600099921227,0.010468668304383755,5.6644454705107884e-30,0.009242113679647446
0.01069243811070919,0.0,-0.010286949574947357,0.009962337091565132,3.698477859396127e-31,0.009381121955811977
0.010541037656366825,0.0,-0.009486247785389423,0.009744541719555855,2.4148419955916232e-32,0.00940454937517643
0.01003243774175644,0.0,-0.00996359158307314,0.010160410776734352,1.576719409103728e-33,0.008993781171739101
0.010401862673461437,0.0,-0.010044319555163383,0.010485109873116016,1.029484980686327e-34,0.009948276914656162
0.010236604139208794,0.0,-0.00954927783459425,0.010678274556994438,6.721801566069499e-36,0.00939273089170456
0.010738757438957691,0.0,-0.00982454139739275,0.011265088804066181,4.388856028293121e-37,0.009433479979634285
0.01110779494047165,0.0,-0.009585492312908173,0.01062425971031189,2.865609396954621e-38,0.009649396874010563
0.010279279202222824,0.0,-0.009122290648519993,0.010496984235942364,1.8710375316403893e-39,0.009397474117577076
0.010735626332461834,0.0,-0.010006670840084553,0.010538582690060139,1.2216520011983755e-40,0.01066646445542574
0.010846318677067757,0.0,-0.010592457838356495,0.01040442381054163,7.976190858936859e-42,0.010192843154072762
0.009906814433634281,0.0,-0.009363916702568531,0.010221689008176327,5.2128302872883195e-43,0.008708312176167965
0.010736029595136642,0.0,-0.009825784713029861,0.010561930015683174,3.363116314379561e-44,0.00875459611415863
0.010200591757893562,0.0,-0.009388252161443233,0.010146556422114372,0.0,0.01006318163126707
0.011180868372321129,0.0,-0.009627585299313068,0.009881866164505482,0.0,0.010178353637456894
0.010243671014904976,0.0,-0.01053739432245493,0.009855441749095917,0.0,0.01014875527471304
0.010362586937844753,0.0,-0.009751475416123867,0.009599986486136913,0.0,0.009917715564370155
0.010800989344716072,0.0,-0.009541511535644531,0.010105423629283905,0.0,0.009626464918255806
0.010616814717650414,0.0,-0.00928864162415266,0.010079480707645416,0.0,0.009980401955544949
0.010616814717650414,0.0,-0.00928864162415266,0.010079480707645416,0.0,0.009980401955544949
0.010654221288859844,0.0,-0.009820988401770592,0.010601759888231754,0.0,0.009738673456013203
0.010224360972642899,0.0,-0.009632643312215805,0.010197793133556843,0.0,0.009933428838849068
0.010146506130695343,0.0,-0.00921331625431776,0.01055848691612482,0.0,0.010029854252934456
0.010146506130695343,0.0,-0.00921331625431776,0.01055848691612482,0.0,0.010029854252934456
0.010477527976036072,0.0,-0.009197114035487175,0.010028032585978508,0.0,0.010392196476459503
0.010105879977345467,0.0,-0.009700979106128216,0.009907734580338001,0.0,0.00997209083288908
0.010560537688434124,0.0,-0.00958932749927044,0.010848253965377808,0.0,0.009779217652976513
0.010035925544798374,0.0,-0.010048458352684975,0.010422597639262676,0.0,0.010034976527094841
0.009714502841234207,0.0,-0.010160758160054684,0.009712643921375275,0.0,0.010699453763663769
0.010343498550355434,0.0,-0.009363858960568905,0.009927595034241676,0.0,0.009970691986382008
0.01003879401832819,0.0,-0.009330240078270435,0.009864403866231441,0.0,0.009717022068798542
0.010000184178352356,0.0,-0.01043851301074028,0.010368390940129757,0.0,0.010094942525029182
0.010537076741456985,0.0,-0.009928327053785324,0.010434259660542011,0.0,0.010448147542774677
0.010652214288711548,0.0,-0.010086328722536564,0.010252534411847591,0.0,0.010100319981575012
0.0113785769790411,0.0,-0.009930695407092571,0.009821014478802681,0.0,0.010317616164684296
0.010620232671499252,0.0,-0.009653485380113125,0.010266970843076706,0.0,0.010275003500282764
0.010244547389447689,0.0,-0.010116718709468842,0.009806585498154163,0.0,0.010568221099674702
0.010538601316511631,0.0,-0.009709569625556469,0.009943617507815361,0.0,0.010159611701965332
0.01020105555653572,0.0,-0.010589750483632088,0.010358942672610283,0.0,0.010586753487586975
0.010720619931817055,0.0,-0.008672622963786125,0.010465621948242188,0.0,0.01078600250184536
0.010675019584596157,0.0,-0.010132028721272945,0.010877375490963459,0.0,0.0102390106767416
0.011957465671002865,0.0,-0.011031517758965492,0.010080537758767605,0.0,0.010141415521502495
0.0106250224635005,0.0,-0.010152323171496391,0.010043507441878319,0.0,0.01008529681712389
0.010238510556519032,0.0,-0.009661290794610977,0.01075494010001421,0.0,0.010108265094459057
0.010336706414818764,0.0,-0.010634783655405045,0.010228418745100498,0.0,0.010677835904061794
0.010939748957753181,0.0,-0.0098854536190629,0.010768372565507889,0.0,0.010832635685801506
0.010559514164924622,0.0,-0.009459968656301498,0.010298365727066994,0.0,0.011016453616321087
0.010780781507492065,5.916050668020034e-06,-0.010289558209478855,0.009532587602734566,0.0,0.010565652512013912
0.010776259936392307,7.937136814462065e-08,-0.010209002532064915,0.010112476535141468,0.0,0.01042131707072258
0.01016074325889349,1.0648681936231696e-09,-0.00996697973459959,0.01042159367352724,0.0,0.010480716824531555
0.01062200777232647,1.4286566721311011e-11,-0.010924995876848698,0.01005724910646677,0.0,0.010549405589699745
0.010740106925368309,1.9167251065401597e-13,-0.00989620666950941,0.01057604793459177,0.0,0.010290151461958885
0.011032573878765106,2.571531676766564e-15,-0.009536144323647022,0.010522834025323391,0.0,0.010331944562494755
0.011363324709236622,3.45003798606067e-17,-0.010575308464467525,0.010289444588124752,0.0,0.010622785426676273
0.011363324709236622,3.45003798606067e-17,-0.010575308464467525,0.010289444588124752,0.0,0.010622785426676273
0.011071104556322098,4.6286659273964e-19,-0.009822901338338852,0.010593343526124954,0.0,0.009922154247760773
0.011427745223045349,6.20994616543605e-21,-0.009790927171707153,0.010152670554816723,0.0,0.010055169463157654
0.011285745538771152,8.331435805811571e-23,-0.010190713219344616,0.010631824843585491,0.0,0.010543230921030045
0.011004526168107986,1.1177684724362473e-24,-0.010362718254327774,0.010798593983054161,0.0,0.010793468914926052
0.011153725907206535,1.4996290489826144e-26,-0.011269125156104565,0.010198205709457397,0.0,0.011008556932210922
0.011266562156379223,2.0119437812628927e-28,-0.0101473368704319,0.010692327283322811,0.0,0.010683857835829258
0.011317721568048,2.699279214233893e-30,-0.009458179585635662,0.010907953605055809,0.0,0.011312383227050304
0.011399013921618462,3.6214277311827787e-32,-0.01040942594408989,0.010164257138967514,0.0,0.010593559592962265
0.011426607146859169,4.858607433761412e-34,-0.010728360153734684,0.01058353390544653,0.0,0.010038571432232857
0.011668871156871319,6.51844190433502e-36,-0.00974448025226593,0.010131390765309334,0.0,0.01012081652879715
0.01142121758311987,8.745322107570207e-38,-0.010167126543819904,0.010583414696156979,0.0,0.010423008352518082
0.011378658004105091,1.1732959937914547e-39,-0.01038600504398346,0.010319017805159092,0.0,0.010604461655020714
0.011452030390501022,1.574078564976067e-41,-0.009779410436749458,0.009962614625692368,0.0,0.01104431226849556
0.011572453193366528,2.802596928649634e-45,-0.010150996036827564,0.010448208078742027,0.0,0.010802250355482101
0.011978953145444393,0.0,-0.009881350211799145,0.010562573559582233,0.0,0.011195963248610497
0.011973908171057701,0.0,-0.010573551058769226,0.010319921188056469,0.0,0.010805037803947926
0.011873780749738216,0.00016727721958886832,-0.010383442975580692,0.010684053413569927,0.0,0.010312486439943314
0.012029975652694702,0.00017781773931346834,-0.010224401019513607,0.010104441083967686,0.0,0.010851026512682438
0.0121085736900568,0.00017127933097071946,-0.01062662061303854,0.010244827717542648,-0.00016173960466403514,0.010927323251962662
0.012184018269181252,0.0001650017948122695,-0.010816795751452446,0.010458958335220814,-0.0002667969965841621,0.010997830890119076
0.011832608841359615,0.0001591658656252548,-0.010428931564092636,0.009767239913344383,-0.00025894021382555366,0.010678378865122795
0.01257860567420721,0.00018084989278577268,-0.010728327557444572,0.010167920961976051,-0.0002909899048972875,0.010605230927467346
0.011860786937177181,0.00017833152378443629,-0.010731750167906284,0.010200637392699718,-0.00027896621031686664,0.01101432740688324
0.012143975123763084,0.00017267528164666146,-0.011294526979327202,0.009838741272687912,-0.0002654456766322255,0.010889490135014057
0.012308391742408276,0.00016732561925891787,-0.010919660329818726,0.009972319938242435,-0.00029229704523459077,0.010894687846302986
0.011833451688289642,0.0001622964337002486,-0.010283213108778,0.010081194341182709,-0.0003014694375451654,0.011036509647965431
0.011849106289446354,0.00018345793068874627,-0.011065321043133736,0.00997541006654501,-0.00030708848498761654,0.011005586013197899
0.01172477938234806,0.00017860447405837476,-0.010993020609021187,0.010449344292283058,-0.0003900350129697472,0.010880491696298122
0.011937588453292847,0.00017368591215927154,-0.011291006579995155,0.010538676753640175,-0.000441143085481599,0.010885635390877724
0.012155607342720032,0.00019033707212656736,-0.011947626248002052,0.009541119448840618,-0.00044641783460974693,0.010477625764906406
0.012155607342720032,0.00019033707212656736,-0.011947626248002052,0.009541119448840618,-0.00044641783460974693,0.010477625764906406
0.011883963830769062,0.0001880869676824659,-0.010385814122855663,0.00995074212551117,-0.0004456095630303025,0.010765481740236282
0.012348577380180359,0.00018333418120164424,-0.0119101507589221,0.01030036248266697,-0.00044723181053996086,0.010937832295894623
0.012053314596414566,0.00017926434520632029,-0.011421297676861286,0.010716050863265991,-0.00044623517896980047,0.010755125433206558
0.012859504669904709,0.0002548196353018284,-0.010354901663959026,0.010400822386145592,-0.0004625878937076777,0.011205729097127914
0.012327468954026699,0.0002422529796604067,-0.011921824887394905,0.009992487728595734,-0.00044766938663087785,0.011343983933329582
0.012754088267683983,0.0002298912004334852,-0.011369908228516579,0.009919178672134876,-0.00042230842518620193,0.011388059705495834
0.012143642641603947,0.00021871706121601164,-0.011317458935081959,0.010470250621438026,-0.0003989580145571381,0.011485645547509193
0.011712166480720043,0.0002497074310667813,-0.011212507262825966,0.010637721978127956,-0.00041097914800047874,0.011823354288935661
0.011971255764365196,0.00023919838713482022,-0.010663960129022598,0.01033448614180088,-0.00040627585258334875,0.011547253467142582
0.011717974208295345,0.0002656810684129596,-0.011396120302379131,0.010481825098395348,-0.00037455916753970087,0.01140474434942007
0.012330117635428905,0.0002773687883745879,-0.011056740768253803,0.010189386084675789,-0.00032118751551024616,0.011308405548334122
0.012330117635428905,0.0002773687883745879,-0.011056740768253803,0.010189386084675789,-0.00032118751551024616,0.011308405548334122
0.012899945490062237,0.0002620189043227583,-0.010833940468728542,0.009698471985757351,-0.0002810438454616815,0.011769614182412624
0.01239010039716959,0.0003720634849742055,-0.011730467900633812,0.010310502722859383,-0.0002645168569870293,0.011386420577764511
0.012347705662250519,0.0003452837991062552,-0.011861947365105152,0.010179512202739716,-0.000274172198260203,0.011636249721050262
0.012005588971078396,0.0003771283372770995,-0.011471046134829521,0.010494021698832512,-0.0002823433023877442,0.011828050017356873
0.012619690038263798,0.0003591242420952767,-0.011589196510612965,0.0104383435100317,-0.000269710726570338,0.012233535759150982
0.012743019498884678,0.0003368175821378827,-0.011309618130326271,0.010708434507250786,-0.0002569691860117018,0.011506845243275166
0.01297444012016058,0.00036770032602362335,-0.011507607996463776,0.009992648847401142,-0.00024529887014068663,0.011399432085454464
0.013185907155275345,0.0003493365948088467,-0.01163597870618105,0.010253936052322388,-0.00023463803518097848,0.011733642779290676
0.013316036202013493,0.0003310070314910263,-0.010455015115439892,0.010574715211987495,-0.0002248652745038271,0.01220833882689476
0.01274192426353693,0.0003587760729715228,-0.01153717190027237,0.010818950831890106,-0.0002158741990569979,0.010955795645713806
0.012785637751221657,0.00034231218160130084,-0.011061404831707478,0.01120471116155386,-0.00023756871814839542,0.0117438780143857
0.013281527906656265,0.0004046720277983695,-0.01108026783913374,0.010482965968549252,-0.00023290399985853583,0.011456916108727455
0.012557825073599815,0.0003745350695680827,-0.011816153302788734,0.010192845948040485,-0.0002248592209070921,0.011879276484251022
0.013023262843489647,0.00041206151945516467,-0.01062280498445034,0.011183127760887146,-0.0002171262021875009,0.011960003525018692
0.01267879270017147,0.00038529644371010363,-0.0118944076821208,0.01026240922510624,-0.00020989256154280156,0.011695843189954758
0.013146303594112396,0.00041242450242862105,-0.011243291199207306,0.010181509889662266,-0.00020312453852966428,0.011908141896128654
0.012668835930526257,0.0003933045663870871,-0.010946515016257763,0.010725255124270916,-0.0001967790158232674,0.012187287211418152
0.01331509929150343,0.00042242032941430807,-0.011196073144674301,0.010509512387216091,-0.00019081875507254153,0.012529329396784306
0.01331509929150343,0.00042242032941430807,-0.011196073144674301,0.010509512387216091,-0.00019081875507254153,0.012529329396784306
0.013263425789773464,0.0005644273478537798,-0.01075961533933878,0.010970580391585827,-0.00018520845333114266,0.012113360688090324
0.012988698668777943,0.0006125772488303483,-0.011283407919108868,0.011115064844489098,-0.0001799184683477506,0.012067724950611591
0.013323483057320118,0.0006213407032191753,-0.0100081292912364,0.011032487265765667,-0.00017492263577878475,0.01230621337890625
0.012645309790968895,0.000592176744248718,-0.011364295147359371,0.011401648633182049,-0.00017019693041220307,0.011753205209970474
0.013262462802231312,0.0006157573079690337,-0.01161736436188221,0.011334308423101902,-0.00016571974265389144,0.012093130499124527
0.012844962999224663,0.0007356794667430222,-0.01169760525226593,0.0116200540214777,-0.00016147176211234182,0.011867855675518513
0.013134707696735859,0.0007270484347827733,-0.011287101544439793,0.011074434034526348,-0.00015359793906100094,0.012091758660972118
0.013156211003661156,0.000736002519261092,-0.010903116315603256,0.011115754954516888,-0.00016992965538520366,0.012652241624891758
0.0132624302059412,0.0007315570255741477,-0.011334629729390144,0.011026188731193542,-0.00016728491755202413,0.012546136043965816
0.013417151756584644,0.000695950526278466,-0.01097801886498928,0.011099515482783318,-0.00016356944979634136,0.01213688775897026
0.013448035344481468,0.0007998956716619432,-0.010946925729513168,0.010875859297811985,-0.00015994142449926585,0.012309360317885876
0.013155925087630749,0.0008146646432578564,-0.011651053093373775,0.010786240920424461,-0.00015646606334485114,0.012320003472268581
0.013568519614636898,0.0008249951060861349,-0.011458612978458405,0.011665823869407177,-0.0001531378657091409,0.012329460121691227
0.013138855807483196,0.0009918782161548734,-0.012040821835398674,0.011683164164423943,-0.00014994859520811588,0.011697795242071152
0.013518135994672775,0.001019623363390565,-0.011393511667847633,0.010935045778751373,-0.00014688950614072382,0.011728494428098202
0.013518135994672775,0.001019623363390565,-0.011393511667847633,0.010935045778751373,-0.00014688950614072382,0.011728494428098202
0.013938617892563343,0.0009026751504279673,-0.011757316067814827,0.01024556439369917,-0.0001411306147929281,0.012231525033712387
0.013408219441771507,0.0009011219954118133,-0.010877289809286594,0.010738332755863667,-0.00013841758482158184,0.012747460976243019
0.013779137283563614,0.0008699869504198432,-0.011701132170855999,0.011052771471440792,-0.00013580678205471486,0.012731200084090233
0.01366344653069973,0.0011157402768731117,-0.011295500211417675,0.010329365730285645,-0.0001332924293819815,0.012483489699661732
0.014009435661137104,0.0010889380937442183,-0.011891231872141361,0.010862504132091999,-0.00013107332051731646,0.01207716390490532
0.014009435661137104,0.0010889380937442183,-0.011891231872141361,0.010862504132091999,-0.00013107332051731646,0.01207716390490532
0.013543173670768738,0.0012799440883100033,-0.01175735704600811,0.01068972796201706,-9.954535198630765e-05,0.012129172682762146
0.013788633048534393,0.0013174534542486072,-0.011225832626223564,0.010433041490614414,-9.556035365676507e-05,0.01288551464676857
0.013721635565161705,0.0012456354452297091,-0.011551384814083576,0.011050799861550331,-9.345349826617166e-05,0.01237383671104908
0.014117898419499397,0.0011939506512135267,-0.011660403572022915,0.010867806151509285,-9.154424333246425e-05,0.013149811886250973
0.014171591959893703,0.0010819848394021392,-0.011157423257827759,0.010646538808941841,-8.971858187578619e-05,0.013102318160235882
0.01432244572788477,0.0011663894401863217,-0.0119295883923769,0.010786344297230244,-8.796470501692966e-05,0.012535227462649345
0.014093415811657906,0.001170273870229721,-0.011531608179211617,0.010087004862725735,-8.627810893813148e-05,0.012248833663761616
0.01402819063514471,0.0015183240175247192,-0.011566214263439178,0.0106906583532691,-8.46549664856866e-05,0.012334802187979221
0.014486114494502544,0.0015931881498545408,-0.011322141624987125,0.01099455077201128,-8.309187251143157e-05,0.012731124646961689
0.014303764328360558,0.0015367353335022926,-0.011498448438942432,0.010600833222270012,-9.369479812448844e-05,0.011724998243153095
0.014194426126778126,0.0014773993752896786,-0.011565365828573704,0.010865908116102219,-9.445873729418963e-05,0.01264644879847765
0.014382818713784218,0.0015104326885193586,-0.011554675176739693,0.010685359127819538,-9.285096894018352e-05,0.013265321031212807
0.014269697479903698,0.0015247738920152187,-0.01151816826313734,0.011047403328120708,-9.128243254963309e-05,0.012938562780618668
0.014240339398384094,0.0015594811411574483,-0.011808526702225208,0.010404077358543873,-8.976511162472889e-05,0.013025769963860512
0.014179379679262638,0.0016290181083604693,-0.012017365545034409,0.010610217228531837,-8.829746366245672e-05,0.013316203840076923
0.014396867714822292,0.001714919926598668,-0.011524802073836327,0.010677349753677845,-8.68767747306265e-05,0.012846828438341618
0.014335907064378262,0.0018098056316375732,-0.011902154423296452,0.009991094470024109,-8.550113125238568e-05,0.013128682039678097
0.01457679271697998,0.0018274454632773995,-0.012006180360913277,0.010737484320998192,-8.416852506343275e-05,0.012727992609143257
0.01446138322353363,0.0018866864265874028,-0.011606422252953053,0.011272996664047241,-8.287671516882256e-05,0.013097225688397884
0.014626439660787582,0.0018765960121527314,-0.012039356864988804,0.010464254766702652,-8.162396989064291e-05,0.012954442761838436
0.01463141106069088,0.0019238311797380447,-0.011816602200269699,0.010978583246469498,-9.29218003875576e-05,0.01313686091452837
0.014725449495017529,0.0019157431088387966,-0.012313582003116608,0.010821240954101086,-9.237560880137607e-05,0.013218386098742485
0.014776983298361301,0.0019534111488610506,-0.011672122403979301,0.010637168772518635,-9.109328675549477e-05,0.013176304288208485
0.01459819357842207,0.0017630161019042134,-0.011841479688882828,0.011414280161261559,-8.979831909528002e-05,0.01310964860022068
0.014897349290549755,0.0018606941448524594,-0.012147356756031513,0.011195020750164986,-8.853657345753163e-05,0.013018458150327206
0.014855500310659409,0.0017153589287772775,-0.011549549177289009,0.010136210359632969,-8.73096869327128e-05,0.013370588421821594
0.014833700843155384,0.00196294323541224,-0.012315905652940273,0.010468274354934692,-8.611622615717351e-05,0.013371896930038929
0.014833700843155384,0.00196294323541224,-0.012315905652940273,0.010468274354934692,-8.611622615717351e-05,0.013371896930038929
0.014916733838617802,0.002110871020704508,-0.012135813012719154,0.010982277803122997,-8.495488873450086e-05,0.013521089218556881
0.015079153701663017,0.0021411231718957424,-0.012461698614060879,0.011570559814572334,-8.972577779786661e-05,0.013458993285894394
0.01480490155518055,0.00200109020806849,-0.012412049807608128,0.010785809718072414,-9.414501982973889e-05,0.013513038866221905
0.01563234068453312,0.0019757146947085857,-0.012391296215355396,0.010528426617383957,-9.329032764071599e-05,0.013269755057990551
0.014934093691408634,0.002182247117161751,-0.012254261411726475,0.011028259061276913,-9.212071017827839e-05,0.013675340451300144
0.015384538099169731,0.0020957039669156075,-0.01176256500184536,0.010906282812356949,-9.095847781281918e-05,0.013336111791431904
0.015043077059090137,0.002094038063660264,-0.01254500262439251,0.010956084355711937,-8.982379222288728e-05,0.01345910131931305
0.015361247584223747,0.002028663642704487,-0.012571649625897408,0.010686718858778477,-8.871710451785475e-05,0.013668263331055641
0.014773855917155743,0.002354272408410907,-0.012844517827033997,0.010348879732191563,-8.763719961280003e-05,0.013805389404296875
0.015628652647137642,0.00238086748868227,-0.012682270258665085,0.011214427649974823,-8.658330625621602e-05,0.01379006914794445
0.015813017264008522,0.0023768607061356306,-0.012839102186262608,0.011083707213401794,-0.00011174001701874658,0.013412357307970524
0.015378708019852638,0.0022228562738746405,-0.012573879212141037,0.010867137461900711,-0.00010992418538080528,0.013560423627495766
0.015284432098269463,0.0022791919764131308,-0.012800343334674835,0.010704342275857925,-0.00010736149124568328,0.013558512553572655
0.015472384169697762,0.002512827282771468,-0.012575876899063587,0.011151490733027458,-0.00010486325481906533,0.013414783403277397
0.015700217336416245,0.002437138231471181,-0.013380504213273525,0.010920099914073944,-0.00010247539466945454,0.013670254498720169
0.016125518828630447,0.0025512094143778086,-0.01334904134273529,0.010381030850112438,-0.0001001937998807989,0.015032579191029072
0.015931230038404465,0.0026756797451525927,-0.013304970227181911,0.010886156931519508,-0.00011630524386418983,0.013613809831440449
0.015715349465608597,0.0024807697627693415,-0.0129362428560853,0.011110938154160976,-0.00011502101551741362,0.01298897061496973
0.017110584303736687,0.002497760346159339,-0.0125786317512393,0.010995442047715187,-0.0001126986462622881,0.013480172492563725
0.016422180458903313,0.002318449318408966,-0.012920813634991646,0.011076927185058594,-0.00011039949458790943,0.013700307346880436
0.015090305358171463,0.0024402455892413855,-0.012543975375592709,0.010716714896261692,-0.00010818783630384132,0.01436388399451971
0.016012042760849,0.0026711146347224712,-0.01336696557700634,0.010708773508667946,-0.00011475983774289489,0.013872788287699223
0.016012042760849,0.0026711146347224712,-0.01336696557700634,0.010708773508667946,-0.00011475983774289489,0.013872788287699223
0.016139209270477295,0.0024840470869094133,-0.012711932882666588,0.010953775607049465,-0.00012077016435796395,0.01411482598632574
0.016191309317946434,0.0025656488724052906,-0.013524935580790043,0.010904744267463684,-0.00011902472033398226,0.013788594864308834
0.016667695716023445,0.002699202159419656,-0.012694508768618107,0.011325817555189133,-0.00011685201025102288,0.014199670404195786
0.01625128649175167,0.0025133169256150723,-0.013893273659050465,0.010873925872147083,-0.00011472631740616634,0.01437599491328001
0.016607508063316345,0.0026599953416734934,-0.012766346335411072,0.010952932760119438,-0.0001126746428781189,0.014215420000255108
0.015776414424180984,0.002679357537999749,-0.012453034520149231,0.011271570809185505,-0.00011847896530525759,0.014167838729918003
0.016497405245900154,0.002720242366194725,-0.012642761692404747,0.011251029558479786,-0.00012379961844999343,0.014256423339247704
0.01647626794874668,0.0028857409488409758,-0.013659350574016571,0.011718006804585457,-0.00012017135304631665,0.014428513124585152
0.01647626794874668,0.0028857409488409758,-0.013659350574016571,0.011718006804585457,-0.00012017135304631665,0.014428513124585152
0.01651688851416111,0.0030107905622571707,-0.012578167952597141,0.010735295712947845,-0.00011820080544566736,0.014481768943369389
0.01663065515458584,0.0030421759001910686,-0.01296962983906269,0.011623580008745193,-0.0001162916305474937,0.014317669905722141
0.016663480550050735,0.0027666189707815647,-0.012919108383357525,0.011332172900438309,-0.00011444331903476268,0.014346733689308167
0.016181815415620804,0.002768969861790538,-0.013693141750991344,0.01147278118878603,-0.00011271492985542864,0.014278991147875786
0.01668030582368374,0.0026473565958440304,-0.012947347946465015,0.011325429193675518,-0.00016507355030626059,0.014546997845172882
0.016762876883149147,0.0028062635101377964,-0.012719550170004368,0.011378543451428413,-0.0001594745845068246,0.014267432503402233
0.016647111624479294,0.0028699033427983522,-0.012843477539718151,0.011174107901751995,-0.00015403142606373876,0.01448581088334322
0.016612878069281578,0.0029533051420003176,-0.012812918052077293,0.011010426096618176,-0.00014893390471115708,0.014582430943846703
0.01690015010535717,0.002842868911102414,-0.012647517956793308,0.011666939593851566,-0.00014416214253287762,0.014637219719588757
0.016594627872109413,0.002890779869630933,-0.012966222129762173,0.010990649461746216,-0.00016574148321524262,0.014337227679789066
0.016971847042441368,0.003103842493146658,-0.012528485618531704,0.011523079127073288,-0.00016245430742856115,0.014264951460063457
0.016927320510149002,0.0030794262420386076,-0.012725305743515491,0.011628756299614906,-0.00015781668480485678,0.014214746654033661
0.0167327169328928,0.002987090265378356,-0.012550964951515198,0.011057744733989239,-0.00015334240742959082,0.014247311279177666
0.016874615103006363,0.0028406104538589716,-0.012520131655037403,0.011416706256568432,-0.0001491081202402711,0.014316888526082039
0.016340220347046852,0.001920016948133707,-0.01276660431176424,0.011845936998724937,-0.00014510159962810576,0.014453326351940632
0.017064692452549934,0.0013452479615807533,-0.012333422899246216,0.011608229950070381,-0.00015875745157245547,0.014325790107250214
0.016833968460559845,0.0010345774935558438,-0.012677494436502457,0.011330269277095795,-0.00016025268996600062,0.014465698041021824
0.016833968460559845,0.0010345774935558438,-0.012677494436502457,0.011330269277095795,-0.00016025268996600062,0.014465698041021824
0.017026465386152267,0.0009488812065683305,-0.012223633006215096,0.0110292574390769,-0.0001566301507409662,0.015067115426063538
0.016942445188760757,0.0009404856245964766,-0.012569146230816841,0.011400364339351654,-0.00015285334666259587,0.014062556438148022
0.01666480302810669,0.0009728290024213493,-0.012540241703391075,0.011494044214487076,-0.00014923387789167464,0.014276589266955853
0.017017440870404243,0.0007591390749439597,-0.012744187377393246,0.011531773954629898,-0.00014578054833691567,0.014453517273068428
0.01714196242392063,0.001717176171950996,-0.011742101050913334,0.011808311566710472,-0.00015914783580228686,0.015227044001221657
0.01714196242392063,0.001717176171950996,-0.011742101050913334,0.011808311566710472,-0.00015914783580228686,0.015227044001221657
0.01716022379696369,0.00166958081535995,-0.012433582916855812,0.01247913297265768,-0.00015578533930238336,0.015169561840593815
0.016856539994478226,0.0014933185884729028,-0.012289966456592083,0.011709576472640038,-0.0001987855794141069,0.015875261276960373
0.01710025779902935,0.0012529571540653706,-0.012775116600096226,0.011655611917376518,-0.00019680218247231096,0.01538631971925497
0.016992950811982155,0.001067231991328299,-0.012243516743183136,0.011460033245384693,-0.00020746281370520592,0.015561998821794987
0.017134428024291992,0.0009461218141950667,-0.012013129889965057,0.010818453505635262,-0.0002164008910767734,0.01495408732444048
0.017213810235261917,0.0006894610123708844,-0.012676861137151718,0.011290580965578556,-0.0002091466885758564,0.014701404608786106
0.01721046306192875,0.0007138759829103947,-0.012313537299633026,0.01111612468957901,-0.00020141807908657938,0.014740842394530773
0.017140964046120644,0.0009722114191390574,-0.012495027855038643,0.011195718310773373,-0.00021453428780660033,0.015592423267662525
0.017772765830159187,0.0011733509600162506,-0.01267668604850769,0.0109025863930583,-0.00021107078646309674,0.015861785039305687
0.017540816217660904,0.0011653956025838852,-0.012389262206852436,0.011178567074239254,-0.00022608682047575712,0.015763023868203163
0.017031243070960045,0.0012876869877800345,-0.012564805336296558,0.011572422459721565,-0.00022584832913707942,0.015682557597756386
0.01690397597849369,0.0012292945757508278,-0.012618872337043285,0.01101470272988081,-0.00022015585273038596,0.015465308912098408
0.01660674251616001,0.0011679879389703274,-0.012540509924292564,0.01132319588214159,-0.000345460488460958,0.015819083899259567
0.01785755716264248,0.001125700306147337,-0.01292409561574459,0.010908761061728,-0.00032947471481747925,0.01592222973704338
0.0175080094486475,0.001134124700911343,-0.012294596992433071,0.011106920428574085,-0.00033743001404218376,0.015827851369976997
0.017309054732322693,0.0011455232743173838,-0.013337638229131699,0.01186381559818983,-0.00034342039725743234,0.015895284712314606
0.017175205051898956,0.0014537611277773976,-0.01243885513395071,0.01128037367016077,-0.00032457010820508003,0.01531206164509058
0.016750166192650795,0.0016751649091020226,-0.012843679636716843,0.01174596045166254,-0.0003062704927287996,0.015399819239974022
0.017950240522623062,0.0015633534640073776,-0.012562152929604053,0.011711472645401955,-0.0003316366928629577,0.015213074162602425
0.017950240522623062,0.0015633534640073776,-0.012562152929604053,0.011711472645401955,-0.0003316366928629577,0.015213074162602425
0.01772831380367279,0.0016017198795452714,-0.012534043751657009,0.011392082087695599,-0.00032048518187366426,0.015066508203744888
0.017602605745196342,0.0015989465173333883,-0.012521958909928799,0.011499626561999321,-0.00030532406526617706,0.015146092511713505
0.017564134672284126,0.0014749955153092742,-0.012097909115254879,0.010986660607159138,-0.0003219509089831263,0.015745501965284348
0.017227886244654655,0.0015457897679880261,-0.012973543256521225,0.01135947648435831,-0.0003174148441758007,0.016244987025856972
0.017474889755249023,0.0016499778721481562,-0.012867908924818039,0.011645764112472534,-0.00035581173142418265,0.016237955540418625
0.017087645828723907,0.0017035999335348606,-0.013062904588878155,0.011157548055052757,-0.00034592108568176627,0.017320474609732628
0.017372390255331993,0.0015972197288647294,-0.013081205077469349,0.011853059753775597,-0.00038221507566049695,0.01609554886817932
0.01757814735174179,0.0016673230566084385,-0.012992983683943748,0.011206869035959244,-0.00036065944004803896,0.014856956899166107
0.017709342762827873,0.0016536287730559707,-0.01273095142096281,0.01177244819700718,-0.0003383137518540025,0.014800135046243668
0.015958935022354126,0.0017571484204381704,-0.012988036498427391,0.01174794603139162,-0.00036426540464162827,0.015909293666481972
0.018226418644189835,0.0016369950026273727,-0.01328619010746479,0.0115088215097785,-0.0003502819745335728,0.016178695484995842
0.017778832465410233,0.0016823353944346309,-0.013378521427512169,0.011728329584002495,-0.00037640531081706285,0.016327938064932823
0.01786537654697895,0.0017733293352648616,-0.014260259456932545,0.011133215390145779,-0.00036046557943336666,0.016097992658615112
0.01766977459192276,0.0017944397404789925,-0.013390710577368736,0.011012189090251923,-0.0004295283288229257,0.016220204532146454
0.018006475642323494,0.0016625347780063748,-0.012933202087879181,0.010754747316241264,-0.00046611347352154553,0.016101062297821045
0.01766745187342167,0.00187001284211874,-0.013638212345540524,0.011862270534038544,-0.00048656511353328824,0.0159023217856884
0.018129723146557808,0.00176187080796808,-0.01284478697925806,0.01140916720032692,-0.00046723740524612367,0.01583416946232319
0.018235983327031136,0.0020733019337058067,-0.013642205856740475,0.011251432821154594,-0.0004359810263849795,0.016430627554655075
0.017801964655518532,0.002091695088893175,-0.013380920514464378,0.011414495296776295,-0.00045816306374035776,0.01583268865942955
0.01827324740588665,0.00209253397770226,-0.013434442691504955,0.011329341679811478,-0.00043721290421672165,0.0157785527408123
0.018406901508569717,0.0018162209307774901,-0.013339514844119549,0.011780725792050362,-0.0004925191751681268,0.01582893542945385
0.018330369144678116,0.0016921460628509521,-0.013570008799433708,0.011602184735238552,-0.00046873194514773786,0.016124002635478973
0.018707841634750366,0.0017163065494969487,-0.01287748571485281,0.012167421169579029,-0.00042610496166162193,0.01628272607922554
0.018251048400998116,0.0020523415878415108,-0.013626238331198692,0.012020755559206009,-0.0004616153601091355,0.016353541985154152
0.01844710297882557,0.0019255068618804216,-0.013836563564836979,0.011564899235963821,-0.000429592008003965,0.016463572159409523
0.01883295550942421,0.002178963040933013,-0.012999097816646099,0.012146971188485622,-0.00039819872472435236,0.016452590003609657
0.018630020320415497,0.002302015433087945,-0.013620699755847454,0.011752517893910408,-0.0004242421127855778,0.01658913493156433
0.018745243549346924,0.0022014344576746225,-0.013195912353694439,0.011889156885445118,-0.0004042930668219924,0.016623856499791145
0.018745243549346924,0.0022014344576746225,-0.013195912353694439,0.011889156885445118,-0.0004042930668219924,0.016623856499791145
0.018703414127230644,0.002223179442808032,-0.013798980042338371,0.012117976322770119,-0.0003803514991886914,0.016788765788078308
0.018574915826320648,0.002132152672857046,-0.013438975438475609,0.012206606566905975,-0.00038367731031030416,0.017124192789196968
0.019060255959630013,0.0023385121021419764,-0.01367788016796112,0.012025953270494938,-0.000386152823921293,0.016853472217917442
0.01914704032242298,0.002550859935581684,-0.013144416734576225,0.011809092015028,-0.0003679237561300397,0.017132753506302834
0.018704619258642197,0.0025275214575231075,-0.013854306191205978,0.011982595548033714,-0.00035492563620209694,0.01669696345925331
0.019224511459469795,0.0025102715007960796,-0.013540971092879772,0.0119586531072855,-0.0003338759997859597,0.01653135009109974
0.01921982876956463,0.0024609488900750875,-0.013752990402281284,0.011859185993671417,-0.0003111239930149168,0.016367746517062187
0.018585175275802612,0.0023341523483395576,-0.013558258302509785,0.012066756375133991,-0.00029101420659571886,0.017265908420085907
0.019463447853922844,0.002475339686498046,-0.013765922747552395,0.01205030083656311,-0.0003241943777538836,0.016949201002717018
0.019576435908675194,0.002645706757903099,-0.013430820778012276,0.012430892325937748,-0.00030895776581019163,0.017252011224627495
0.019663790240883827,0.0026375544257462025,-0.013799885287880898,0.012002775445580482,-0.00031744621810503304,0.0171219352632761
0.01964358612895012,0.0022940482012927532,-0.013329272158443928,0.012242908589541912,-0.00030743362731300294,0.017464278265833855
0.01897033303976059,0.0023696841672062874,-0.01387119758874178,0.011924483813345432,-0.00032978327362798154,0.017709502950310707
0.019459610804915428,0.002285004360601306,-0.013235463760793209,0.012300746515393257,-0.0003201194922439754,0.017918014898896217
0.019550755620002747,0.002495165914297104,-0.013988102786242962,0.011957185342907906,-0.00030680320924147964,0.017255067825317383
0.019779181107878685,0.00275296438485384,-0.013472579419612885,0.012060156092047691,-0.00035739431041292846,0.017001256346702576
0.019870150834321976,0.0031295944936573505,-0.013875661417841911,0.01178534235805273,-0.0003400887653697282,0.01735706254839897
0.020345943048596382,0.0029796084854751825,-0.013460485264658928,0.011641150340437889,-0.00031677051447331905,0.01711130328476429
0.020220888778567314,0.002543215174227953,-0.014073490165174007,0.011912239715456963,-0.00035102159017696977,0.017117587849497795
0.019867995753884315,0.002567904070019722,-0.013603140600025654,0.01147443801164627,-0.0003329622559249401,0.017666975036263466
0.01968207210302353,0.002498868154361844,-0.01398489624261856,0.011858965270221233,-0.00031383763416670263,0.017885010689496994
0.019889511168003082,0.00302247516810894,-0.013417558744549751,0.011877593584358692,-0.0003207014233339578,0.018262391909956932
0.019803958013653755,0.002865589689463377,-0.014041829854249954,0.011624802835285664,-0.0003263649414293468,0.018181174993515015
0.020549925044178963,0.0030171493999660015,-0.013509023003280163,0.011996976099908352,-0.000311672396492213,0.017809715121984482
0.020549925044178963,0.0030171493999660015,-0.013509023003280163,0.011996976099908352,-0.000311672396492213,0.017809715121984482
0.020394256338477135,0.002674663672223687,-0.014053109101951122,0.011654138565063477,-0.0002970670466311276,0.017667410895228386
0.019940823316574097,0.002524015726521611,-0.01389305293560028,0.011994156055152416,-0.00031362526351585984,0.01762695610523224
0.02059711329638958,0.002639148384332657,-0.014053630642592907,0.012079118750989437,-0.000309555180137977,0.017717482522130013
0.020475508645176888,0.0029599613044410944,-0.013861526735126972,0.012754841707646847,-0.0002973832015413791,0.018159082159399986
0.02044730819761753,0.002970091998577118,-0.014317641966044903,0.012162319384515285,-0.0002856234787032008,0.018057547509670258
0.020667141303420067,0.0027616540901362896,-0.014250429347157478,0.011637993156909943,-0.0003015011316165328,0.017965545877814293
0.020967058837413788,0.0027340261731296778,-0.013982252217829227,0.01222915668040514,-0.000286689872154966,0.01796436309814453
0.020123571157455444,0.0024961307644844055,-0.013715788722038269,0.011930417269468307,-0.0003164437075611204,0.01760582998394966
0.019801998510956764,0.0029259654693305492,-0.014418491162359715,0.012177756056189537,-0.00030496486579068005,0.017834056168794632
0.020603567361831665,0.002768302569165826,-0.014392959885299206,0.012196807190775871,-0.00032458361238241196,0.018068023025989532
0.02143610641360283,0.00306261726655066,-0.014362896792590618,0.012105196714401245,-0.0003192943404428661,0.01786600798368454
0.020801138132810593,0.003017856040969491,-0.014190824702382088,0.012310993857681751,-0.0003422693407628685,0.018744969740509987
0.02079349011182785,0.002980777295306325,-0.014143642969429493,0.011985531076788902,-0.0003317098307888955,0.01780528388917446
0.021282829344272614,0.0033220285549759865,-0.014679042622447014,0.012213549576699734,-0.0003189904382452369,0.017923623323440552
0.02119114063680172,0.0030205240473151207,-0.014837531372904778,0.01237125787883997,-0.000453057000413537,0.018388034775853157
0.021258726716041565,0.0030849387403577566,-0.014763081446290016,0.01228412427008152,-0.00046039666631259024,0.01839858666062355
0.021655654534697533,0.003292455803602934,-0.014745119959115982,0.01268438808619976,-0.00042647498776204884,0.01855691522359848
0.021348685026168823,0.0031665428541600704,-0.0148316016420722,0.013140213675796986,-0.000427343969931826,0.01813424751162529
0.021141143515706062,0.0029670626390725374,-0.014295981265604496,0.012082845903933048,-0.00042758730705827475,0.018396563827991486
0.021297546103596687,0.003136260900646448,-0.01474044844508171,0.012392310425639153,-0.00040219430229626596,0.018390903249382973
0.02145342342555523,0.0032577018719166517,-0.014245963655412197,0.012376206927001476,-0.00042488164035603404,0.01870526745915413
0.02180745266377926,0.0031841301824897528,-0.015005419962108135,0.012277343310415745,-0.0004072375304531306,0.018450090661644936
0.021280817687511444,0.0030697276815772057,-0.01495512668043375,0.01272327359765768,-0.0003858257259707898,0.018372321501374245
0.021660612896084785,0.0030173358973115683,-0.015026531182229519,0.01246880553662777,-0.0004031058051623404,0.01876084879040718
0.02213241532444954,0.003077136352658272,-0.014852436259388924,0.013063250109553337,-0.00037574672023765743,0.018632320687174797
0.022160153836011887,0.003203960368409753,-0.01502113789319992,0.011888326145708561,-0.00038078799843788147,0.018234236165881157
0.0220939964056015,0.003109849989414215,-0.014963557943701744,0.012501406483352184,-0.0003844170714728534,0.018685370683670044
0.0220939964056015,0.003109849989414215,-0.014963557943701744,0.012501406483352184,-0.0003844170714728534,0.018685370683670044
0.02180294692516327,0.0032182729337364435,-0.015374894253909588,0.012801367789506912,-0.00038995829527266324,0.018912360072135925
0.02198040299117565,0.0027786411810666323,-0.014810016378760338,0.01273145992308855,-0.00039261922938749194,0.018506603315472603
0.02206546999514103,0.0024682485964149237,-0.015544758178293705,0.012414186261594296,-0.0004103236133232713,0.018637584522366524
0.021746564656496048,0.002038466976955533,-0.015113728120923042,0.012258956208825111,-0.0003998700703959912,0.01897735334932804
0.022040877491235733,0.0021019745618104935,-0.015613364987075329,0.012636789120733738,-0.00044365698704496026,0.018709594383835793
0.022468019276857376,0.002169817453250289,-0.014983484521508217,0.012325583025813103,-0.0004594757629092783,0.018931759521365166
0.022210247814655304,0.0022606465499848127,-0.015439831651747227,0.012864516116678715,-0.0004929876886308193,0.01927727274596691
0.022191589698195457,0.002761861775070429,-0.015345779247581959,0.012553656473755836,-0.00046098153688944876,0.019121203571558
0.021959682926535606,0.002880912506952882,-0.015773525461554527,0.012455601245164871,-0.0004911732394248247,0.019059251993894577
0.02214198000729084,0.002493436448276043,-0.016026169061660767,0.01215524971485138,-0.0004915252793580294,0.01915530115365982
0.022399166598916054,0.0025032362900674343,-0.015863733366131783,0.012208612635731697,-0.0004876730963587761,0.018954135477542877
0.023033365607261658,0.0023308706004172564,-0.016054879873991013,0.012373378500342369,-0.0005354763125069439,0.019130488857626915
0.02241659350693226,0.0023463196121156216,-0.01540467794984579,0.012107516638934612,-0.0005374133470468223,0.018587391823530197
0.022127656266093254,0.0025409937370568514,-0.01516873762011528,0.011883714236319065,-0.0005274852155707777,0.018619436770677567
0.022129273042082787,0.002413082169368863,-0.016195131465792656,0.012508361600339413,-0.0005219400045461953,0.019001439213752747
0.023138172924518585,0.002480552066117525,-0.015557333827018738,0.012801741249859333,-0.0005147234187461436,0.018943695351481438
0.022532647475600243,0.002612701151520014,-0.016173044219613075,0.012720922008156776,-0.0005369196878746152,0.019558122381567955
0.022310404106974602,0.0025305505841970444,-0.01582108810544014,0.013505647890269756,-0.0005072573549114168,0.020060600712895393
0.02312198095023632,0.002835833467543125,-0.01547753531485796,0.012979613617062569,-0.0005400105728767812,0.01969822868704796
0.02279846742749214,0.0029567175079137087,-0.013790324330329895,0.01321222260594368,-0.0005838815122842789,0.020006170496344566
0.022835485637187958,0.0026488068979233503,-0.01619051955640316,0.012849869206547737,-0.0006154000875540078,0.01949133910238743
0.022882455959916115,0.002736850641667843,-0.016939738765358925,0.013068683445453644,-0.0006409983616322279,0.018679063767194748
0.022791732102632523,0.0026904235128313303,-0.01615932397544384,0.012782927602529526,-0.0007645731093361974,0.019092246890068054
0.022315625101327896,0.0027273516170680523,-0.01610439643263817,0.013476116582751274,-0.0007932239095680416,0.019573450088500977
0.02235381491482258,0.002607356756925583,-0.015196594409644604,0.013825848698616028,-0.0007823047926649451,0.019576536491513252
0.02235381491482258,0.002607356756925583,-0.015196594409644604,0.013825848698616028,-0.0007823047926649451,0.019576536491513252
0.023062219843268394,0.002909349976107478,-0.01615452952682972,0.013478892855346203,-0.0007098892820067704,0.019497495144605637
0.02330508641898632,0.0029522788245230913,-0.014943387359380722,0.013235851190984249,-0.0006290379678830504,0.01975202187895775
0.02331460826098919,0.0026338673196733,-0.015552308410406113,0.01287002395838499,-0.0006441575824283063,0.01974465511739254
0.02302824705839157,0.002657815348356962,-0.015693552792072296,0.013034647330641747,-0.0005942831630818546,0.020276106894016266
0.02288590371608734,0.002770869992673397,-0.01599511131644249,0.012799166142940521,-0.0005436640931293368,0.020048143342137337
0.023011475801467896,0.0027881162241101265,-0.01612216606736183,0.01352723315358162,-0.0005669036763720214,0.019672611728310585
0.023156480863690376,0.00287686032243073,-0.015605534426867962,0.013270210474729538,-0.0005324907251633704,0.019279882311820984
0.023339679464697838,0.002929642563685775,-0.015587655827403069,0.013653508387506008,-0.00045218784362077713,0.019374610856175423
0.023267533630132675,0.002896287012845278,-0.015330743975937366,0.013087457045912743,-0.000409244152251631,0.019525699317455292
0.023509619757533073,0.0028138821944594383,-0.01625647582113743,0.013265220448374748,-0.0004446397360879928,0.019865205511450768
0.023451300337910652,0.002631985582411289,-0.01591021940112114,0.013207492418587208,-0.0004658070392906666,0.02064020372927189
0.02322920225560665,0.0026902940589934587,-0.016222074627876282,0.013290831819176674,-0.00044869742123410106,0.020696526393294334
0.02397788316011429,0.0028066348750144243,-0.015746956691145897,0.01300844270735979,-0.00046396214747801423,0.020222550258040428
0.024078968912363052,0.0029984877910465,-0.016222985461354256,0.013201696798205376,-0.0004488566191866994,0.0203841682523489
0.02369580790400505,0.002953283255919814,-0.015916304662823677,0.013283946551382542,-0.0004905810346826911,0.02055198885500431
0.023361986503005028,0.002940921112895012,-0.016244370490312576,0.01284368522465229,-0.0005012262845411897,0.02032754383981228
0.023979999125003815,0.002703035483136773,-0.016035372391343117,0.012722558341920376,-0.0004954948672093451,0.01999305561184883
0.024080226197838783,0.0025764810852706432,-0.01662694290280342,0.012873063795268536,-0.0005194160621613264,0.02027423307299614
0.02402925305068493,0.0029683304019272327,-0.01589079201221466,0.012696821242570877,-0.000488056248286739,0.020366135984659195
0.02451799251139164,0.003372018225491047,-0.016304824501276016,0.013076050207018852,-0.0004534840991254896,0.0205508042126894
0.024011926725506783,0.003339894115924835,-0.016055885702371597,0.013002529740333557,-0.0004792549880221486,0.020703785121440887
0.02384445071220398,0.0028972402215003967,-0.016555819660425186,0.012730023823678493,-0.0004527718701865524,0.020637724548578262
0.024262506514787674,0.0027171901892870665,-0.01673312298953533,0.01276444923132658,-0.0004834682622458786,0.02068837359547615
0.024598825722932816,0.002755913883447647,-0.016285372897982597,0.012471543624997139,-0.0004455058369785547,0.020308099687099457
0.024566836655139923,0.0029286090284585953,-0.016515366733074188,0.01322203129529953,-0.00040592363802716136,0.020396774634718895
0.02455068752169609,0.003083334770053625,-0.01572445034980774,0.012758467346429825,-0.0004415109578985721,0.020466988906264305
0.024801049381494522,0.0032423031516373158,-0.016211630776524544,0.013200701214373112,-0.00041229554335586727,0.02046716958284378
0.02427004836499691,0.0029621419962495565,-0.01599229872226715,0.012980658560991287,-0.0004302645684219897,0.020634423941373825
0.024940447881817818,0.0031030012760311365,-0.0165773443877697,0.013003933243453503,-0.000416447757743299,0.020515725016593933
0.02390946075320244,0.0030794618651270866,-0.01673624850809574,0.013192304410040379,-0.0003915140696335584,0.02079061046242714
0.025352653115987778,0.003264270257204771,-0.01662272959947586,0.013191470876336098,-0.00040745726437307894,0.02069549821317196
0.02568359673023224,0.003162023378536105,-0.01730416715145111,0.013721879571676254,-0.0003971194091718644,0.020765667781233788
0.025697434321045876,0.003418487962335348,-0.016029657796025276,0.013646897859871387,-0.0003771076735574752,0.021244535222649574
0.02550993487238884,0.0031404660549014807,-0.016785545274615288,0.013409033417701721,-0.00037907977821305394,0.021512994542717934
0.02550993487238884,0.0031404660549014807,-0.016785545274615288,0.013409033417701721,-0.00037907977821305394,0.021512994542717934
0.024984799325466156,0.0032212473452091217,-0.016527937725186348,0.012578992173075676,-0.00035741031751967967,0.02157069742679596
0.024075321853160858,0.003260209457948804,-0.016859177500009537,0.012982157990336418,-0.0003316079964861274,0.02073376253247261
0.024822497740387917,0.003494879463687539,-0.016859130933880806,0.012935473583638668,-0.0003388638433534652,0.020353492349386215
0.02544187754392624,0.003346283920109272,-0.01653284765779972,0.013610994443297386,-0.00034475038410164416,0.020361417904496193
0.02493175119161606,0.0036068116314709187,-0.017027998343110085,0.013498512096703053,-0.00032574779470451176,0.02074187435209751
0.025212807580828667,0.0038408301770687103,-0.01623871922492981,0.013896320946514606,-0.0003322701377328485,0.021412476897239685
0.02627965249121189,0.003420667489990592,-0.01659437268972397,0.013629266992211342,-0.0003375188389327377,0.021014997735619545
0.025855833664536476,0.0036011969204992056,-0.01677699200809002,0.013831749558448792,-0.00032178335823118687,0.020946800708770752
0.025241807103157043,0.003237528260797262,-0.017395542934536934,0.01290810015052557,-0.00034698250237852335,0.021063903346657753
0.025259263813495636,0.003395678475499153,-0.017233027145266533,0.012926637195050716,-0.00033356595668010414,0.0215254295617342
0.02491604909300804,0.0034413225948810577,-0.01669462025165558,0.013064553029835224,-0.000356598844518885,0.021344821900129318
0.02476232871413231,0.0033918803092092276,-0.01695108227431774,0.013601779006421566,-0.0003646855184342712,0.020911484956741333
0.025876319035887718,0.003170719835907221,-0.0167806688696146,0.013996941037476063,-0.00033957630512304604,0.020630689337849617
0.025800785049796104,0.0037527941167354584,-0.017677433788776398,0.013514983467757702,-0.0003973359998781234,0.020698148757219315
0.025717787444591522,0.003822856117039919,-0.01694638468325138,0.013432771898806095,-0.0003867385385092348,0.021411610767245293
0.025951480492949486,0.003553656628355384,-0.01750817708671093,0.013946251943707466,-0.0004103474784642458,0.02190491184592247
0.025668207556009293,0.0034588067792356014,-0.017345452681183815,0.013684572651982307,-0.000505965028423816,0.021894020959734917
0.025536678731441498,0.0036298460327088833,-0.01737859845161438,0.014216727577149868,-0.0005502835847437382,0.02151191607117653
0.025353284552693367,0.0032216126564890146,-0.017548764124512672,0.013532533310353756,-0.0005442125839181244,0.02167726308107376
0.025211729109287262,0.003039407078176737,-0.01756141521036625,0.014490623027086258,-0.0005336414324119687,0.021638181060552597
0.02529454417526722,0.0028838508296757936,-0.017943166196346283,0.014064573682844639,-0.0004881881468463689,0.0217937920242548
0.025673409923911095,0.002949571469798684,-0.0175152700394392,0.01430437620729208,-0.0005171746015548706,0.02204250544309616
0.025771213695406914,0.0034272349439561367,-0.017316285520792007,0.013875759206712246,-0.0004821062902919948,0.022055650129914284
0.025694547221064568,0.003248586319386959,-0.017501529306173325,0.014864600263535976,-0.0005033686175011098,0.02177957072854042
0.026216235011816025,0.0031587700359523296,-0.016884291544556618,0.013841151259839535,-0.0004775261622853577,0.02209583669900894
0.026216235011816025,0.0031587700359523296,-0.016884291544556618,0.013841151259839535,-0.0004775261622853577,0.02209583669900894
0.02469146065413952,0.0031811294611543417,-0.01776527613401413,0.015415110625326633,-0.0004483687225729227,0.022088829427957535
0.025930317118763924,0.003213380230590701,-0.017705611884593964,0.01317954994738102,-0.0004440624616108835,0.022013967856764793
0.026486897841095924,0.0030412364285439253,-0.017656119540333748,0.013273737393319607,-0.00046610538265667856,0.022203369066119194
0.026299845427274704,0.0031762465368956327,-0.01780996471643448,0.013873466290533543,-0.00044615130173042417,0.022189663723111153
0.02577405609190464,0.002877079648897052,-0.017136096954345703,0.015187744982540607,-0.0004772160027641803,0.022669989615678787
0.026003889739513397,0.0030568630900233984,-0.01725679077208042,0.014695277437567711,-0.0004945783293806016,0.023020321503281593
0.02576911263167858,0.003444857895374298,-0.017689354717731476,0.014631733298301697,-0.00047673549852333963,0.022647446021437645
0.02665827050805092,0.0033269315026700497,-0.017665518447756767,0.014174548909068108,-0.0006025032489560544,0.022550063207745552
0.02742261439561844,0.0034354564268141985,-0.018050512298941612,0.014596150256693363,-0.0005777311744168401,0.02284664288163185
0.027271511033177376,0.0032539155799895525,-0.017545083537697792,0.014241059310734272,-0.000610424904152751,0.0227342639118433
0.02652747370302677,0.003522587940096855,-0.017511975020170212,0.014696761034429073,-0.0005541677819564939,0.02290390059351921
0.0262081790715456,0.0033116282429546118,-0.01787855289876461,0.014383153058588505,-0.0005642650066874921,0.02312985062599182
0.026883892714977264,0.0032625310122966766,-0.017527207732200623,0.014524835161864758,-0.0005352526786737144,0.022882670164108276
0.02736641839146614,0.0033697662875056267,-0.018067482858896255,0.014174261130392551,-0.0004944528336636722,0.023073842748999596
0.02669953741133213,0.003548303386196494,-0.017625533044338226,0.014458647929131985,-0.000515070219989866,0.02315629832446575
0.02699217200279236,0.0034729046747088432,-0.017650386318564415,0.01440440770238638,-0.0004878691688645631,0.023110970854759216
0.02767239883542061,0.00357819558121264,-0.018040889874100685,0.014718771912157536,-0.0004783881304319948,0.0233660526573658
0.02752360701560974,0.003801065729930997,-0.017327643930912018,0.014433608390390873,-0.00043683373951353133,0.02346886694431305
0.02691059000790119,0.0035721613094210625,-0.017835183069109917,0.01413698960095644,-0.00043884318438358605,0.02380266599357128
0.02717055007815361,0.003218630561605096,-0.017278417944908142,0.014424796216189861,-0.000464554235804826,0.023452457040548325
0.027825376018881798,0.0032828759867697954,-0.017976021394133568,0.013952767476439476,-0.00044007154065184295,0.023703493177890778
0.027859123423695564,0.0036615710705518723,-0.017458977177739143,0.014356289990246296,-0.00045510302879847586,0.0233218502253294
0.028101075440645218,0.003876139409840107,-0.017371971160173416,0.01426643319427967,-0.00044077233178541064,0.023238325491547585
0.02807379513978958,0.0038985249120742083,-0.017732758074998856,0.01461896114051342,-0.0005089386249892414,0.024019446223974228
0.02791769616305828,0.0038858770858496428,-0.01740689016878605,0.014107477851212025,-0.00047085160622373223,0.02312147431075573
0.02797897905111313,0.003925936762243509,-0.017727872356772423,0.014525250531733036,-0.000500653637573123,0.022867785766720772
0.028316056355834007,0.003979695960879326,-0.017461704090237617,0.01456982921808958,-0.0004673452058341354,0.023591095581650734
0.02837606519460678,0.0034523140639066696,-0.017637405544519424,0.015224240720272064,-0.000497392495162785,0.02450609765946865
0.02875080145895481,0.0034713337663561106,-0.01774689182639122,0.014835737645626068,-0.0004650491464417428,0.024417618289589882
0.028511647135019302,0.0036677680909633636,-0.017345597967505455,0.015082751400768757,-0.0004908938426524401,0.02312162145972252
0.028511647135019302,0.0036677680909633636,-0.017345597967505455,0.015082751400768757,-0.0004908938426524401,0.02312162145972252
0.028732914477586746,0.0033348165452480316,-0.017549259588122368,0.014588285237550735,-0.00046307872980833054,0.022685253992676735
0.028599435463547707,0.0034560230560600758,-0.017802627757191658,0.015081379562616348,-0.00047813725541345775,0.02347402833402157
0.028549114242196083,0.0035909598227590322,-0.01790436916053295,0.01436435617506504,-0.0004704878374468535,0.024388877674937248
0.028754403814673424,0.0037043881602585316,-0.018276497721672058,0.014578199945390224,-0.0005022325785830617,0.023688826709985733
0.029356716200709343,0.0041748774237930775,-0.01776830479502678,0.014053106307983398,-0.00046880298759788275,0.02367006428539753
0.029214221984148026,0.0035695722326636314,-0.018188467249274254,0.014485830441117287,-0.0004988258588127792,0.02487906441092491
0.028809303417801857,0.0032867759000509977,-0.01849258318543434,0.01435555424541235,-0.0004986110725440085,0.02523193694651127
0.029155325144529343,0.003249647095799446,-0.01770981401205063,0.014971506781876087,-0.0004942232626490295,0.024152841418981552
0.029437465593218803,0.003565785940736532,-0.01829826645553112,0.014366194605827332,-0.0004642946587409824,0.023490797728300095
0.029273977503180504,0.0033923587761819363,-0.017845625057816505,0.014413878321647644,-0.0005188998766243458,0.02331353724002838
0.029525011777877808,0.003532396163791418,-0.018847137689590454,0.014280871488153934,-0.0004911469877697527,0.02421080693602562
0.029214300215244293,0.0037542127538472414,-0.0185313131660223,0.015195217914879322,-0.0005209875525906682,0.024745076894760132
0.02993503399193287,0.003976037725806236,-0.01883719302713871,0.014961899258196354,-0.0004846945812460035,0.024790329858660698
0.029723351821303368,0.004071238450706005,-0.018941249698400497,0.014961493201553822,-0.0005143218440935016,0.024784423410892487
0.029897987842559814,0.004000863991677761,-0.0188662838190794,0.014636045321822166,-0.0005300355842337012,0.024599896743893623
0.030175242573022842,0.003476177342236042,-0.018151935189962387,0.014923308044672012,-0.0005088923498988152,0.024401938542723656
0.02989233285188675,0.003538192482665181,-0.018412794917821884,0.014613194391131401,-0.0005969689227640629,0.02438761293888092
0.03061196394264698,0.004216090776026249,-0.01841108314692974,0.01438725832849741,-0.0005735030863434076,0.025170668959617615
0.031132802367210388,0.003992024809122086,-0.018959736451506615,0.014808579348027706,-0.00059442751808092,0.024927521124482155
0.030689064413309097,0.003897208021953702,-0.019036250188946724,0.015082684345543385,-0.000590663228649646,0.02489805780351162
0.028873613104224205,0.0042331041768193245,-0.018388723954558372,0.015613473020493984,-0.0005785058601759374,0.025252074003219604
0.030980916693806648,0.004267495591193438,-0.019008884206414223,0.015591753646731377,-0.0006442595040425658,0.0249440036714077
0.03136538341641426,0.004078673664480448,-0.019208999350667,0.015508302487432957,-0.0006790258339606225,0.024728983640670776
0.030325790867209435,0.003932143561542034,-0.01896711438894272,0.015507936477661133,-0.0006910912343300879,0.025008175522089005
0.031168555840849876,0.003898917930200696,-0.01913592219352722,0.015324774198234081,-0.0006442689918912947,0.025207363069057465
0.032223138958215714,0.0039043815340846777,-0.019132938235998154,0.016141589730978012,-0.0006635367753915489,0.02511235512793064
0.03156169876456261,0.0038995707873255014,-0.01826971396803856,0.01588878408074379,-0.0008381159859709442,0.025195928290486336
0.03035396710038185,0.003865292761474848,-0.018902495503425598,0.01592118665575981,-0.0008684728527441621,0.02539486065506935
0.030967790633440018,0.004009142052382231,-0.018741315230727196,0.014227245002985,-0.0008179936558008194,0.025432642549276352
0.030967790633440018,0.004009142052382231,-0.018741315230727196,0.014227245002985,-0.0008179936558008194,0.025432642549276352
0.03186337277293205,0.003523130202665925,-0.01934133842587471,0.014290702529251575,-0.0007436418673023582,0.02494163066148758
0.03186337277293205,0.003523130202665925,-0.01934133842587471,0.014290702529251575,-0.0007436418673023582,0.02494163066148758
0.031414806842803955,0.0035659160930663347,-0.019079985097050667,0.01546949241310358,-0.0006753418711014092,0.025583479553461075
0.03155406564474106,0.003998357802629471,-0.018818682059645653,0.01516704075038433,-0.0006538332090713084,0.026023894548416138
0.031547848135232925,0.0040582166984677315,-0.01921526901423931,0.015699034556746483,-0.0005848208093084395,0.025819458067417145
0.032019779086112976,0.0038714141119271517,-0.01879732869565487,0.01595972292125225,-0.0005680752801708877,0.025067120790481567
0.032130684703588486,0.0042832158505916595,-0.01898367889225483,0.014832863584160805,-0.0005542421131394804,0.024564018473029137
0.031809251755476,0.004064027685672045,-0.01952427625656128,0.014489780180156231,-0.0005669092060998082,0.025071021169424057
0.031885940581560135,0.0044130017049610615,-0.018804922699928284,0.015718679875135422,-0.0005377070046961308,0.02645961195230484
0.03204097971320152,0.004199404735118151,-0.018895169720053673,0.015694616362452507,-0.0005486231530085206,0.0262919794768095
0.03188353404402733,0.004321740008890629,-0.01943533681333065,0.015826504677534103,-0.0005248525994829834,0.02631685510277748
0.03207175061106682,0.0043611372821033,-0.01955692656338215,0.015654578804969788,-0.0005094726220704615,0.026076212525367737
0.032171208411455154,0.004091186914592981,-0.019182918593287468,0.015414891764521599,-0.00047828059177845716,0.026247350499033928
0.0323653444647789,0.0041290284134447575,-0.019762331619858742,0.01599365472793579,-0.000508315279148519,0.02582205832004547
0.03167074918746948,0.004193010274320841,-0.019890617579221725,0.015204373747110367,-0.0005121196736581624,0.025375474244356155
0.0331977941095829,0.003948833793401718,-0.01886892504990101,0.015564290806651115,-0.0005063029238954186,0.025685695931315422
0.03300721198320389,0.004157520830631256,-0.019807549193501472,0.015970503911376,-0.0005001451354473829,0.026845544576644897
0.03175679221749306,0.004170545376837254,-0.01920955441892147,0.015926826745271683,-0.0005917457747273147,0.026519784703850746
0.032175563275814056,0.00393096636980772,-0.0198748130351305,0.015916744247078896,-0.000560376385692507,0.026118425652384758
0.0334414504468441,0.003844472346827388,-0.019880199804902077,0.015817129984498024,-0.0005737862666137516,0.02604358084499836
0.033234670758247375,0.004383213352411985,-0.0191570445895195,0.015588363632559776,-0.000539035361725837,0.026495104655623436
0.034208569675683975,0.004545615054666996,-0.01987077295780182,0.015826048329472542,-0.0004914105520583689,0.026602933183312416
0.033955395221710205,0.004320935811847448,-0.019738733768463135,0.01536720059812069,-0.00045046958257444203,0.026813799515366554
0.033168233931064606,0.004016204737126827,-0.019676625728607178,0.015528807416558266,-0.0004666366439778358,0.026944009587168694
0.03278801590204239,0.004214019980281591,-0.020265739411115646,0.01532476395368576,-0.000449151179054752,0.026985248550772667
0.033346544951200485,0.004595743026584387,-0.020649753510951996,0.015974802896380424,-0.00047208546311594546,0.02706838771700859
0.033573854714632034,0.004674212541431189,-0.019734341651201248,0.01574990712106228,-0.0004497365152928978,0.027105068787932396
0.0337006114423275,0.004402767401188612,-0.01985224150121212,0.015996571630239487,-0.00042561485315673053,0.026665838435292244
0.0337006114423275,0.004402767401188612,-0.01985224150121212,0.015996571630239487,-0.00042561485315673053,0.026665838435292244
0.03325679898262024,0.004313031677156687,-0.019752472639083862,0.01594594679772854,-0.00039700960041955113,0.02651274763047695
0.03318990394473076,0.004393467679619789,-0.01977921836078167,0.01607970893383026,-0.00039958098204806447,0.02720780111849308
0.03318990394473076,0.004393467679619789,-0.01977921836078167,0.01607970893383026,-0.00039958098204806447,0.02720780111849308
0.03321268409490585,0.0046078357845544815,-0.020505987107753754,0.01577158458530903,-0.0003739889361895621,0.027379630133509636
0.03343364596366882,0.004606383852660656,-0.020731201395392418,0.01635167747735977,-0.0003782258427236229,0.027268536388874054
0.033739667385816574,0.004848996642976999,-0.020381754264235497,0.01629565842449665,-0.00038139495882205665,0.02721981331706047
0.03374432772397995,0.004434612113982439,-0.020848160609602928,0.016780417412519455,-0.00036122649908065796,0.0270539503544569
0.03385728970170021,0.00443362258374691,-0.02104077860713005,0.016473421826958656,-0.0003777315141633153,0.02692791074514389
0.03395042195916176,0.004959965590387583,-0.020967641845345497,0.01679087243974209,-0.0003696239728014916,0.027060016989707947
0.03373663127422333,0.004498669877648354,-0.021069498732686043,0.016471702605485916,-0.0003522732586134225,0.027269823476672173
0.03429204970598221,0.004408972803503275,-0.02102782018482685,0.016182761639356613,-0.00039687432581558824,0.027371514588594437
0.03404039517045021,0.004296399652957916,-0.021058479323983192,0.016608431935310364,-0.00040971723501570523,0.027332017198204994
0.03392532467842102,0.0049829729832708836,-0.020963022485375404,0.01612546481192112,-0.00041598230018280447,0.027294477447867393
0.034198880195617676,0.004459389019757509,-0.021468663588166237,0.01566542312502861,-0.0004171030013822019,0.0273917056620121
0.03430663049221039,0.004086007364094257,-0.02195994183421135,0.016211574897170067,-0.00044149765744805336,0.027391744777560234
0.03483470529317856,0.004320526961237192,-0.02093643695116043,0.016453081741929054,-0.00042298398329876363,0.02779535762965679
0.0342535674571991,0.00431623263284564,-0.020854204893112183,0.016098827123641968,-0.0005665200878866017,0.02833309769630432
0.034570761024951935,0.00430293707177043,-0.0214390829205513,0.016085367649793625,-0.0005146465846337378,0.028382396325469017
0.034910187125205994,0.004773199092596769,-0.02156209386885166,0.01616705022752285,-0.0005070205661468208,0.027486735954880714
0.03516286611557007,0.004766413941979408,-0.02092815935611725,0.01634189672768116,-0.0005001524114049971,0.02675110474228859
0.03490172699093819,0.004365160129964352,-0.02114931493997574,0.015872493386268616,-0.00046013365499675274,0.02726934477686882
0.03477279096841812,0.004073907155543566,-0.0219419002532959,0.016617950052022934,-0.00045836492790840566,0.02817896008491516
0.03548887372016907,0.004408234264701605,-0.021947650238871574,0.016467846930027008,-0.0004563919501379132,0.0280168317258358
0.03666139394044876,0.004471324849873781,-0.021200722083449364,0.01645684987306595,-0.0004274572420399636,0.028926057741045952
0.03515008091926575,0.0043304613791406155,-0.02142261527478695,0.016910215839743614,-0.00044984964188188314,0.029190748929977417
0.03442829102277756,0.004444890655577183,-0.021994872018694878,0.016452929005026817,-0.00042975193355232477,0.028269367292523384
0.03442829102277756,0.004444890655577183,-0.021994872018694878,0.016452929005026817,-0.00042975193355232477,0.028269367292523384
0.035455722361803055,0.004701650235801935,-0.021511772647500038,0.01593231037259102,-0.0003811805509030819,0.028435902670025826
0.03617265075445175,0.004349620547145605,-0.021761611104011536,0.016751501709222794,-0.00035192276118323207,0.029146911576390266
0.035981278866529465,0.004461865872144699,-0.022238008677959442,0.01597774587571621,-0.0003827764594461769,0.029011782258749008
0.035981278866529465,0.004461865872144699,-0.022238008677959442,0.01597774587571621,-0.0003827764594461769,0.029011782258749008
0.035282451659440994,0.004448946099728346,-0.02180878072977066,0.016547460108995438,-0.000394171045627445,0.028235096484422684
0.03465590626001358,0.00458662211894989,-0.021655702963471413,0.01722242496907711,-0.00039697112515568733,0.02816118113696575
0.03611687943339348,0.0046523320488631725,-0.02178698405623436,0.017233405262231827,-0.0004214941000100225,0.028280090540647507
0.03659822419285774,0.004510062281042337,-0.02207346074283123,0.016899798065423965,-0.0005275705480016768,0.028505856171250343
0.03525521233677864,0.004650026094168425,-0.02206209860742092,0.01607656292617321,-0.0005758958868682384,0.028266863897442818
0.03647805377840996,0.004731724038720131,-0.021586380898952484,0.016791678965091705,-0.0006131822592578828,0.028192734345793724
0.03690384328365326,0.004907264374196529,-0.021809356287121773,0.017013665288686752,-0.0006013294914737344,0.028569091111421585
0.036147210747003555,0.004562918562442064,-0.022471632808446884,0.01693618856370449,-0.0005860084784217179,0.028639253228902817
0.036400482058525085,0.004847156349569559,-0.022139079868793488,0.016778241842985153,-0.0006100056343711913,0.028500014916062355
0.03613102808594704,0.004827998578548431,-0.02162114903330803,0.016004525125026703,-0.0006815602537244558,0.028578687459230423
0.03665537387132645,0.004895733669400215,-0.021012552082538605,0.01723475195467472,-0.0007350720115937293,0.028468288481235504
0.03669321909546852,0.0045800539664924145,-0.02133595198392868,0.016678079962730408,-0.0006620566709898412,0.028811030089855194
0.03636233136057854,0.004848442040383816,-0.021186308935284615,0.017283836379647255,-0.0006206520483829081,0.02912229113280773
0.036498915404081345,0.004823391791433096,-0.021207215264439583,0.016688300296664238,-0.0006402535946108401,0.02942030504345894
0.037687428295612335,0.004429117310792208,-0.021594982594251633,0.01722540706396103,-0.0006610367563553154,0.02943887561559677
0.03706379979848862,0.004387441091239452,-0.02203349396586418,0.016887109726667404,-0.0007030960987322032,0.029447976499795914
0.03600451350212097,0.004630346316844225,-0.021510696038603783,0.01714937761425972,-0.0007270335336215794,0.02905331924557686
0.03703998029232025,0.004685030318796635,-0.021223926916718483,0.017179174348711967,-0.0007093509193509817,0.029271017760038376
0.0367799811065197,0.00477054575458169,-0.021563997492194176,0.01685623824596405,-0.0006871367804706097,0.030499564483761787
0.03758440911769867,0.004482467658817768,-0.022116955369710922,0.01701311580836773,-0.0008267809171229601,0.030358070507645607
0.03798336908221245,0.004627699498087168,-0.021710747852921486,0.016673514619469643,-0.0008351105498149991,0.02959783561527729
0.03749006986618042,0.004914508666843176,-0.022075729444622993,0.017343001440167427,-0.000738248520065099,0.028429798781871796
0.03560226038098335,0.004424245562404394,-0.022338833659887314,0.01734215021133423,-0.0007506396505050361,0.028718698769807816
0.037487734109163284,0.004480421077460051,-0.022167637944221497,0.017359750345349312,-0.0007471389835700393,0.029357166960835457
0.037888169288635254,0.004625675268471241,-0.02197328954935074,0.017860526219010353,-0.0007256256067194045,0.029047522693872452
0.036908335983753204,0.005069931969046593,-0.02172614075243473,0.01750887557864189,-0.000656041840557009,0.02986258827149868
0.03748529404401779,0.00499341357499361,-0.022197915241122246,0.017374088987708092,-0.0006580360350199044,0.030757438391447067
0.03719720616936684,0.004887737799435854,-0.022847572341561317,0.01735491119325161,-0.000609301554504782,0.02965458855032921
0.037217285484075546,0.004983427934348583,-0.02279055304825306,0.017045708373188972,-0.000633816234767437,0.02919531799852848
0.037217285484075546,0.004983427934348583,-0.02279055304825306,0.017045708373188972,-0.000633816234767437,0.02919531799852848
0.03754075616598129,0.004860350862145424,-0.02182847261428833,0.017640508711338043,-0.000580957334022969,0.028742186725139618
0.03760765492916107,0.004762266296893358,-0.02214665897190571,0.017276862636208534,-0.0006028068019077182,0.029970655217766762
0.03750079870223999,0.0049490840174257755,-0.023481525480747223,0.017703281715512276,-0.0005652832332998514,0.030649416148662567
0.037456877529621124,0.004816106054931879,-0.022893022745847702,0.017757117748260498,-0.0005552181391976774,0.03002707101404667
0.038124632090330124,0.004729042761027813,-0.022092588245868683,0.017443349584937096,-0.0005454587517306209,0.02972118929028511
0.03772403299808502,0.004612825345247984,-0.021586380898952484,0.018034473061561584,-0.0005345413228496909,0.029638173058629036
0.03785049542784691,0.004441119730472565,-0.02219015546143055,0.017417583614587784,-0.0005645934143103659,0.02946067601442337
0.037952668964862823,0.004567948170006275,-0.022530334070324898,0.017690425738692284,-0.0005872753681614995,0.029811976477503777
0.036639582365751266,0.004684404470026493,-0.022987693548202515,0.017863765358924866,-0.00069294439163059,0.03015652485191822
0.03862813860177994,0.004792004358023405,-0.022464927285909653,0.017616543918848038,-0.0007540930528193712,0.029999909922480583
0.03828857094049454,0.0051413532346487045,-0.022584030404686928,0.017854182049632072,-0.0006960565224289894,0.0303514301776886
0.03767943009734154,0.004897445905953646,-0.022901626303792,0.01808781363070011,-0.0006757756345905364,0.030195118859410286
0.03825961798429489,0.004839635919779539,-0.022600838914513588,0.017725685611367226,-0.0006539753521792591,0.03064339980483055
0.03846995159983635,0.004816609434783459,-0.022131899371743202,0.01757955737411976,-0.0006654750904999673,0.030788308009505272
0.03859873116016388,0.005125151481479406,-0.02271406725049019,0.017132751643657684,-0.0006014861864969134,0.030480029061436653
0.03846951574087143,0.005075498949736357,-0.023370200768113136,0.017348304390907288,-0.0006232139421626925,0.030961716547608376
0.03848238289356232,0.005042186006903648,-0.02301483042538166,0.017697157338261604,-0.0005698252934962511,0.03101862594485283
0.0380290187895298,0.004969701170921326,-0.022699279710650444,0.018278656527400017,-0.0005901610711589456,0.030630361288785934
0.039249878376722336,0.004806853365153074,-0.02266678959131241,0.01797339878976345,-0.0005488145397976041,0.030835404992103577
0.03971250355243683,0.004899101797491312,-0.023320090025663376,0.018287664279341698,-0.000558390049263835,0.030948389321565628
0.0376114547252655,0.004948630928993225,-0.022925907745957375,0.018336648121476173,-0.0005334726301953197,0.03110509365797043
0.03753577917814255,0.005815199110656977,-0.022925809025764465,0.01760178990662098,-0.0005295368609949946,0.03037170320749283
0.03827812522649765,0.005381764844059944,-0.022990303114056587,0.017907695844769478,-0.0005261015030555427,0.0316578671336174
0.03900272399187088,0.005179395899176598,-0.02233394980430603,0.017894942313432693,-0.000517581996973604,0.03131018951535225
0.04033086821436882,0.004858917091041803,-0.022860106080770493,0.0174716804176569,-0.0005430044839158654,0.03181089088320732
0.03921683877706528,0.004806248936802149,-0.02282261848449707,0.018021324649453163,-0.0005085935699753463,0.03234819695353508
0.03736325353384018,0.005707948002964258,-0.02331671305000782,0.018092971295118332,-0.0005337093025445938,0.031220030039548874
0.039209410548210144,0.005351902451366186,-0.02269551157951355,0.018354671075940132,-0.0006565982475876808,0.03025883436203003
0.03952599689364433,0.004795074928551912,-0.02244463562965393,0.01827535219490528,-0.0006976571748964489,0.030265048146247864
0.0394119955599308,0.0047440482303500175,-0.022773724049329758,0.018358629196882248,-0.0006314656930044293,0.03194381669163704
0.039512697607278824,0.004769818391650915,-0.023645170032978058,0.01908477395772934,-0.0006350823095999658,0.03143016993999481
0.039512697607278824,0.004769818391650915,-0.023645170032978058,0.01908477395772934,-0.0006350823095999658,0.03143016993999481
0.03894491493701935,0.005096359644085169,-0.024267110973596573,0.01912035420536995,-0.0005961727583780885,0.03262118250131607
0.03964779153466225,0.005517120938748121,-0.023155147209763527,0.018310928717255592,-0.0006130757392384112,0.03249537944793701
0.03950566425919533,0.00521727604791522,-0.023073852062225342,0.01842346601188183,-0.0005773198790848255,0.031717170029878616
0.03919486701488495,0.004897844512015581,-0.022779589518904686,0.018264440819621086,-0.0005934865330345929,0.030634572729468346
0.0395176000893116,0.004748715553432703,-0.02313181944191456,0.01796896755695343,-0.0005804067477583885,0.030988866463303566
0.03929687663912773,0.004632739350199699,-0.024147918447852135,0.01811578869819641,-0.000565347436349839,0.03219509497284889
0.03966375067830086,0.004712248221039772,-0.02425260655581951,0.018146280199289322,-0.0005771947908215225,0.03254988044500351
0.04083564132452011,0.005117417778819799,-0.022764861583709717,0.01894894428551197,-0.0005466258735395968,0.032280322164297104
0.03884183242917061,0.005072503816336393,-0.023607466369867325,0.019115105271339417,-0.0005710494588129222,0.03239072114229202
0.03898444399237633,0.004781540483236313,-0.024970389902591705,0.018139788880944252,-0.0005870188469998538,0.03208797425031662
0.03947300836443901,0.004871721379458904,-0.023916609585285187,0.018635530024766922,-0.0006023735622875392,0.03195956349372864
0.04146690294146538,0.004943264182657003,-0.024061545729637146,0.018408847972750664,-0.0006291880854405463,0.0318823978304863
0.039798539131879807,0.005383507814258337,-0.02272871695458889,0.018522068858146667,-0.0006376272649504244,0.0317307710647583
0.03825347125530243,0.005235448945313692,-0.02355167642235756,0.01809334196150303,-0.0006032002274878323,0.03203142434358597
0.04032767191529274,0.004547187592834234,-0.024603957310318947,0.017740976065397263,-0.0006944449851289392,0.03252919763326645
0.04058398678898811,0.004990776069462299,-0.024196596816182137,0.018407002091407776,-0.0007280437275767326,0.03256747126579285
0.04031960293650627,0.004971637390553951,-0.024042092263698578,0.019064752385020256,-0.000735101813916117,0.03244951367378235
0.04006535932421684,0.004788567312061787,-0.023708932101726532,0.01937376707792282,-0.000752125633880496,0.03337620571255684
0.04029756411910057,0.004649517126381397,-0.02364923618733883,0.020082084462046623,-0.0007022192585282028,0.0329405814409256
0.04073009267449379,0.005055566783994436,-0.02387266792356968,0.019653337076306343,-0.000767430174164474,0.03322557732462883
0.0407845601439476,0.004469259642064571,-0.024101629853248596,0.018835602328181267,-0.0007904698722995818,0.03314511105418205
0.04028984531760216,0.004528217948973179,-0.024299947544932365,0.019794462248682976,-0.0007603721460327506,0.033504750579595566
0.04009927436709404,0.004656442441046238,-0.023863939568400383,0.01934155821800232,-0.0007238162215799093,0.03233788162469864
0.040596771985292435,0.004578587133437395,-0.023526977747678757,0.018188079819083214,-0.0007385410135611892,0.03288763388991356
0.04136558622121811,0.0045766462571918964,-0.023781688883900642,0.019155293703079224,-0.0006750800530426204,0.03425456956028938
0.040892619639635086,0.004873422905802727,-0.023925218731164932,0.019535919651389122,-0.0006703455583192408,0.03404742479324341
0.04154007136821747,0.005127963609993458,-0.0241989828646183,0.01980077102780342,-0.000694369780831039,0.03193261846899986
0.041305430233478546,0.005249804817140102,-0.024248279631137848,0.01985938474535942,-0.0007043334771879017,0.03225906193256378
0.041305430233478546,0.005249804817140102,-0.024248279631137848,0.01985938474535942,-0.0007043334771879017,0.03225906193256378
0.04146353900432587,0.004677261225879192,-0.023864541202783585,0.019627181813120842,-0.0007238849648274481,0.0336776077747345
0.041503023356199265,0.005367581266909838,-0.02372492104768753,0.020058976486325264,-0.0009204474627040327,0.0351405143737793
0.041503023356199265,0.005367581266909838,-0.02372492104768753,0.020058976486325264,-0.0009204474627040327,0.0351405143737793
0.04167623817920685,0.0053850142285227776,-0.02336018718779087,0.0199067834764719,-0.0009297615033574402,0.034523945301771164
0.041749075055122375,0.0056230295449495316,-0.02416345104575157,0.019674869254231453,-0.0009033828973770142,0.03328525274991989
0.04189659655094147,0.005233835428953171,-0.024687591940164566,0.019977455958724022,-0.000826092844363302,0.032288938760757446
0.0416860356926918,0.00530925253406167,-0.024219291284680367,0.020013626664876938,-0.0008318789186887443,0.03358006849884987
0.042105138301849365,0.005261827725917101,-0.02332581952214241,0.01951974630355835,-0.0007169194286689162,0.03422445431351662
0.04203914478421211,0.0050454530864953995,-0.023813443258404732,0.019889501854777336,-0.0007336026174016297,0.033869754523038864
0.04188793897628784,0.0052733104676008224,-0.02435583807528019,0.02018401212990284,-0.0007457330357283354,0.035034388303756714
0.04264211282134056,0.00511904526501894,-0.024221859872341156,0.019838472828269005,-0.0007492774748243392,0.03464937210083008
0.04354264587163925,0.005089929793030024,-0.02400263212621212,0.01947447657585144,-0.00070568936644122,0.03396565467119217
0.04151193052530289,0.00522131472826004,-0.0244020763784647,0.019737429916858673,-0.0006657521589659154,0.034200575202703476
0.04269500449299812,0.005279428791254759,-0.02418358437716961,0.019712846726179123,-0.0006947059882804751,0.03425934910774231
