davideferrari95/blind_handover_controller/data/Test 210 - [2024-02-08 -- 12-08-42]/joint_states_data.csv
shoulder_pan_joint,shoulder_lift_joint,elbow_joint,wrist_1_joint,wrist_2_joint,wrist_3_joint
-0.004001257941126823,-0.013064737431704998,8.835458089148136e-25,0.01275948341935873,0.0,-0.005133971106261015
-0.003433183068409562,-0.012944436632096767,1.185389542950131e-26,0.01246139220893383,0.0,-0.005663437303155661
-0.003433183068409562,-0.012944436632096767,1.185389542950131e-26,0.01246139220893383,0.0,-0.005663437303155661
-0.00292428326793015,-0.012821388430893421,-0.0020057205110788345,0.012608353048563004,0.0,-0.00625620735809207
-0.0033938917331397533,-0.012126225046813488,-0.0019619406666606665,0.012664278037846088,0.0,-0.0058703492395579815
-0.0040742880664765835,-0.01187924575060606,-0.001240238081663847,0.013302830047905445,0.0,-0.005230635870248079
-0.0038871022406965494,-0.01240523625165224,-0.0010958326747640967,0.012790124863386154,0.0,-0.005007593426853418
-0.0034256281796842813,-0.01266799308359623,-0.0009574683499522507,0.012844637967646122,0.0,-0.004761324729770422
-0.0035299279261380434,-0.01253383606672287,-0.0010348439682275057,0.01217016950249672,0.0,-0.004606103990226984
-0.0036732666194438934,-0.012556328438222408,-0.0008114161901175976,0.012192261405289173,0.0,-0.004620817024260759
-0.0037440143059939146,-0.012339036911725998,-0.0008411234011873603,0.01239712443202734,0.0,-0.004619392566382885
-0.0037400261498987675,-0.012882934883236885,-0.0008848418947309256,0.01202826015651226,0.0,-0.00496391486376524
-0.0036776806227862835,-0.012281748466193676,-0.0016244844300672412,0.012325817719101906,0.0,-0.004928726237267256
-0.0036690321285277605,-0.012610158883035183,-0.0016541093355044723,0.012125225737690926,0.0,-0.005321033298969269
-0.0037186353001743555,-0.012436090037226677,-0.0012160396436229348,0.01238851249217987,0.0,-0.005063480697572231
-0.0033036202657967806,-0.012210947461426258,-0.0006589743425138295,0.01281192060559988,0.0,-0.004676715470850468
-0.0034716404043138027,-0.012835131958127022,-0.00037102634087204933,0.012337332591414452,0.0,-0.004504087846726179
-0.0034716404043138027,-0.012835131958127022,-0.00037102634087204933,0.012337332591414452,0.0,-0.004504087846726179
-0.003642079886049032,-0.01230626367032528,-0.00040423282189294696,0.012175322510302067,0.0,-0.004495569504797459
-0.004088863730430603,-0.01222197338938713,-0.00045126688200980425,0.01173919253051281,0.0,-0.004689991939812899
-0.003569189226254821,-0.012674963101744652,-0.00040482691838406026,0.011813366785645485,0.0,-0.004552595317363739
-0.003419821849092841,-0.01225277315825224,-0.00028405035845935345,0.013141145929694176,0.0,-0.004791163373738527
-0.0035659773275256157,-0.012210429646074772,-0.00024802988627925515,0.013333873823285103,0.0,-0.004418069031089544
-0.00432954216375947,-0.01244310848414898,-0.0003016000846400857,0.013503341004252434,0.0,-0.004462776239961386
-0.00432954216375947,-0.01244310848414898,-0.0003016000846400857,0.013503341004252434,0.0,-0.004462776239961386
-0.004130985587835312,-0.011933807283639908,-0.0002792052982840687,0.013258558697998524,0.0,-0.004730897024273872
-0.00342975789681077,-0.012304386124014854,-0.0002591175143606961,0.01289491169154644,0.0,-0.004706269130110741
-0.0032723431941121817,-0.011794116348028183,-0.00024171559198293835,0.013185071758925915,0.0,-0.004954625852406025
-0.0035101701505482197,-0.011681487783789635,-0.00022650462051387876,0.012614603154361248,0.0,-0.0050112162716686726
-0.0035326112993061543,-0.01233088131994009,-0.00021309444855432957,0.012675109319388866,0.0,-0.004971387330442667
-0.0038212970830500126,-0.011896546930074692,-0.00020118415704928339,0.012251069769263268,0.0,-0.004790680017322302
-0.0038082303944975138,-0.011962865479290485,-0.00019053529831580818,0.012704850174486637,0.0,-0.004638224374502897
-0.0035494696348905563,-0.011937340721487999,-0.00018095674749929458,0.01293918676674366,0.0,-0.0043475148268043995
-0.0036164275370538235,-0.011760473251342773,-0.00017229511286132038,0.01295376755297184,0.0,-0.00447738915681839
-0.0037409148644655943,-0.011368408799171448,-0.00011542483844095841,0.01221917662769556,0.0,-0.004363115411251783
-0.003817206947132945,-0.012024293653666973,-8.885813440429047e-05,0.012490269728004932,0.0,-0.004823644179850817
-0.0038737687282264233,-0.011682730168104172,-8.440999954473227e-05,0.01201990433037281,0.0,-0.004941760096698999
-0.003924699500203133,-0.011514503508806229,-8.062524284468964e-05,0.012057106010615826,0.0,-0.004927616100758314
-0.0035070062149316072,-0.01181354746222496,-7.716834079474211e-05,0.012282075360417366,0.0,-0.004998956806957722
-0.00358865805901587,-0.011543216183781624,-0.00010948856652248651,0.012148675508797169,0.0,-0.004519797395914793
-0.0037345155142247677,-0.011990759521722794,-0.00010659062536433339,0.01247335784137249,0.0,-0.004357960075139999
-0.0037359767593443394,-0.01133087556809187,-0.00010256069072056562,0.011966446414589882,0.0,-0.004417343996465206
-0.0035978276282548904,-0.011579695157706738,-9.880749712465331e-05,0.012287135235965252,0.0,-0.005049402825534344
-0.003669584635645151,-0.011642083525657654,-9.531918476568535e-05,0.012021223083138466,0.0,-0.005407845601439476
-0.0038153482601046562,-0.010895535349845886,-9.20688034966588e-05,0.011942306533455849,0.0,-0.005230934824794531
-0.0038153482601046562,-0.010895535349845886,-9.20688034966588e-05,0.011942306533455849,0.0,-0.005230934824794531
-0.0038402036298066378,-0.011445623822510242,-0.00011829849245259538,0.011745325289666653,0.0,-0.004688610322773457
-0.0037466699723154306,-0.011751625686883926,-0.00011491515761008486,0.011214003898203373,0.0,-0.004268590826541185
-0.003638254478573799,-0.012123901396989822,-0.00011136550892842934,0.012285420671105385,0.0,-0.004388208035379648
-0.004012779798358679,-0.011332529596984386,-0.00010802366159623489,0.011181741952896118,0.0,-0.0043496559374034405
-0.004237660206854343,-0.011342943646013737,-0.00010487660620128736,0.011368708685040474,0.0,-0.004558667074888945
-0.003568886546418071,-0.011560952290892601,-0.0001270328793907538,0.011740623041987419,0.0,-0.0047049387358129025
-0.003577090334147215,-0.01108310092240572,-0.00012387344031594694,0.011898388154804707,0.0,-0.004993224050849676
-0.0038315753918141127,-0.011206994764506817,-0.00012055916886311024,0.012359215877950191,0.0,-0.004511089995503426
-0.003928343765437603,-0.011669228784739971,-0.00011741345952032134,0.011802181601524353,0.0,-0.004446100909262896
-0.003948279656469822,-0.011783774942159653,-0.00011442784307291731,0.012025564908981323,0.0,-0.0044576977379620075
-0.003941277042031288,-0.011624292470514774,-0.00011159040877828375,0.01182774268090725,0.0,-0.004382106941193342
-0.00390408537350595,-0.011242354288697243,-0.0001906410325318575,0.011539855971932411,0.0,-0.004782757721841335
-0.0038544884882867336,-0.011811008676886559,-0.00019293341028969735,0.012354220263659954,0.0,-0.00493808975443244
-0.003566651837900281,-0.011524558067321777,-0.00017782206123229116,0.012054020538926125,0.0,-0.004128276836127043
-0.00376020185649395,-0.011753297410905361,-0.00017106204177252948,0.011988826096057892,0.0,-0.0038720404263585806
-0.004254350438714027,-0.011574391275644302,-0.00016479723853990436,0.012122963555157185,0.0,-0.0038837394677102566
-0.004274113569408655,-0.011854726821184158,-0.0001894826564239338,0.012190524488687515,0.0,-0.003960505593568087
-0.0035664946772158146,-0.01188312191516161,-0.00018424305017106235,0.01174247357994318,0.0,-0.004420164506882429
-0.0035140092950314283,-0.011705252341926098,-0.0001781799946911633,0.011788553558290005,0.0,-0.0048439595848321915
-0.0038230461068451405,-0.012261423282325268,-0.00017248914809897542,0.011475038714706898,0.0,-0.004870228003710508
-0.003941914066672325,-0.01231427863240242,-0.00019388289365451783,0.011593318544328213,0.0,-0.004628678318113089
-0.0033684968948364258,-0.011989041231572628,-0.00018913770327344537,0.011966206133365631,0.0,-0.004544110503047705
-0.003298570867627859,-0.012009100057184696,-0.00018363868002779782,0.012077050283551216,0.0,-0.004625377245247364
-0.003347553312778473,-0.011814677156507969,-0.0001784378255251795,0.011899127624928951,0.0,-0.004721598234027624
-0.003614134155213833,-0.012307899072766304,-0.00017352303257212043,0.01123338844627142,0.0,-0.005189214833080769
-0.003811373608186841,-0.011877571232616901,-0.00016887149831745774,0.011243612505495548,0.0,-0.005062830168753862
-0.0033759239595383406,-0.012128707021474838,-0.0001852002606028691,0.0110626220703125,0.0,-0.004784350749105215
-0.0033759239595383406,-0.012128707021474838,-0.0001852002606028691,0.0110626220703125,0.0,-0.004784350749105215
-0.003524322062730789,-0.012041442096233368,-0.00018313915643375367,0.011462513357400894,0.0,-0.004327703267335892
-0.0032712984830141068,-0.01208789087831974,-0.00017863098764792085,0.012159401550889015,0.0,-0.004228617530316114
-0.0034236134961247444,-0.012509713880717754,-0.00017430655134376138,0.011518650688230991,0.0,-0.004412468057125807
-0.003189409151673317,-0.011540285311639309,-0.0001701867877272889,0.011572974734008312,0.0,-0.004794587381184101
-0.0031343211885541677,-0.011965637095272541,-0.00016625695570837706,0.011441973969340324,0.0,-0.004810865502804518
-0.0031759715639054775,-0.01148966047912836,-0.000186528341146186,0.01117798499763012,0.0,-0.004817988723516464
-0.0032334933057427406,-0.011662597768008709,-0.00019091228023171425,0.0122387008741498,0.0,-0.004614026751369238
-0.0033759893849492073,-0.011989930644631386,-0.0001833007700042799,0.011347378604114056,0.0,-0.004145436454564333
-0.0031586552504450083,-0.011687438935041428,-0.0001761282910592854,0.011035310104489326,0.0,-0.0043706269934773445
-0.0028886885847896338,-0.012242572382092476,-0.00020201766164973378,0.010935266502201557,0.0,-0.004632859490811825
-0.003186924383044243,-0.011885978281497955,-0.00019599158258643,0.010985799133777618,0.0,-0.0047492580488324165
-0.0035306920763105154,-0.011679538525640965,-0.00020274425332900137,0.010872519575059414,0.0,-0.004944030195474625
-0.0033294556196779013,-0.011579985730350018,-0.00020608097838703543,0.010863758623600006,0.0,-0.004424814600497484
-0.0030941402073949575,-0.012506088241934776,-0.00019968267588410527,0.01108702551573515,0.0,-0.004363302141427994
-0.0033832709304988384,-0.011686683632433414,-0.0001935504114953801,0.010393813252449036,0.0,-0.004604197572916746
-0.003130461322143674,-0.011803225614130497,-0.00018778092635329813,0.01064214762300253,0.0,-0.00511037465184927
-0.0032097462099045515,-0.011966774240136147,-0.00018234556773677468,0.010657845996320248,0.0,-0.004920327570289373
-0.0032558708917349577,-0.011858868412673473,-0.00020218327699694782,0.010674670338630676,0.0,-0.004542105831205845
-0.003114196937531233,-0.01178214605897665,-0.0001969870791072026,0.011135375127196312,0.0,-0.004750656429678202
-0.003484975779429078,-0.011292414739727974,-0.00019174526096321642,0.010520176962018013,0.0,-0.004537203814834356
-0.0032731560058891773,-0.011709607206285,-0.0001867712999228388,0.010529985651373863,0.0,-0.004585352726280689
-0.0034538412000983953,-0.011592508293688297,-0.00018204930529464036,0.011050079949200153,0.0,-0.004388941917568445
-0.0030397875234484673,-0.011614391580224037,-0.000223261522478424,0.010326333343982697,0.0,-0.004403355531394482
-0.00307290768250823,-0.011989107355475426,-0.0002345674147363752,0.010401081293821335,0.0,-0.004817051813006401
-0.00307290768250823,-0.011989107355475426,-0.0002345674147363752,0.010401081293821335,0.0,-0.004817051813006401
-0.003041673917323351,-0.010951046831905842,-0.0002232384285889566,0.010806812904775143,0.0,-0.004951522685587406
-0.0032791043631732464,-0.010883749462664127,-0.0002030905452556908,0.010527662932872772,0.0,-0.004852331709116697
-0.0032791043631732464,-0.010883749462664127,-0.0002030905452556908,0.010527662932872772,0.0,-0.004852331709116697
-0.0029677399434149265,-0.010852742940187454,-0.00019432039698585868,0.010788640938699245,0.0,-0.004397627431899309
-0.003095595631748438,-0.011483690701425076,-0.00022201568935997784,0.010211745277047157,0.0,-0.004531347658485174
-0.002986518433317542,-0.011247139424085617,-0.00021462554286699742,0.010917619802057743,0.0,-0.004166621249169111
-0.002910068491473794,-0.01153753325343132,-0.0002290207048645243,0.010443116538226604,0.0,-0.00454706558957696
-0.002738895360380411,-0.011728538200259209,-0.00023181861615739763,0.009976527653634548,0.0,-0.00538294855505228
-0.002890789182856679,-0.011128118261694908,-0.00022373624960891902,0.010672406293451786,0.0,-0.0052555399015545845
-0.0029106363654136658,-0.011599965393543243,-0.00021606471273116767,0.010989612899720669,0.0,-0.004660364240407944
-0.0028468207456171513,-0.011536246165633202,-0.00020890029554720968,0.010476444847881794,0.0,-0.004439475014805794
-0.0026445689145475626,-0.01125181932002306,-0.00023067988513503224,0.010833213105797768,0.0,-0.004772542510181665
-0.0029372526332736015,-0.010328282602131367,-0.00021714218019042164,0.010964405722916126,0.0,-0.004810640588402748
-0.0029825803358107805,-0.010909023694694042,-0.00021078504505567253,0.011258593760430813,0.0,-0.004797560628503561
-0.0027411822229623795,-0.011086140759289265,-0.0002580127911642194,0.010086813941597939,0.0,-0.0048925369046628475
-0.0027007891330868006,-0.01059843972325325,-0.0002462028351146728,0.010195670649409294,0.0,-0.004357869736850262
-0.002615125384181738,-0.010999939404428005,-0.00023345918452832848,0.010413898155093193,0.0,-0.004317932296544313
-0.0024474095553159714,-0.010670783929526806,-0.00026106153381988406,0.010176440700888634,0.0,-0.004595959093421698
-0.0025581661611795425,-0.01065007969737053,-0.00025374224060215056,0.010283495299518108,0.0,-0.004725310485810041
-0.0027503599412739277,-0.010855530388653278,-0.00024241796927526593,0.010286930948495865,0.0,-0.0049027507193386555
-0.002582459943369031,-0.010583464056253433,-0.00023200293071568012,0.00990716740489006,0.0,-0.004776989109814167
-0.002512658480554819,-0.010481709614396095,-0.0002590006624814123,0.010116515681147575,0.0,-0.004762633237987757
-0.002443514298647642,-0.010598563589155674,-0.000249244156293571,0.009901258163154125,0.0,-0.004745499696582556
-0.0022595892660319805,-0.010466861538589,-0.00023976470401976258,0.009516383521258831,0.0,-0.0048568882048130035
-0.0024829686153680086,-0.010965659283101559,-0.00026263270410709083,0.009775876067578793,0.0,-0.0046476032584905624
-0.0024829686153680086,-0.010965659283101559,-0.00026263270410709083,0.009775876067578793,0.0,-0.0046476032584905624
-0.002753037726506591,-0.011471358127892017,-0.0003412266669329256,0.009094860404729843,0.0,-0.004814963322132826
-0.002753037726506591,-0.011471358127892017,-0.0003412266669329256,0.009094860404729843,0.0,-0.004814963322132826
-0.002839465858414769,-0.01157156191766262,-0.00032886306871660054,0.009923136793076992,0.0,-0.005077431909739971
-0.0024326518177986145,-0.010172933340072632,-0.0003066198551096022,0.009572962298989296,0.0,-0.00476793060079217
-0.0025011738762259483,-0.010756079107522964,-0.00026984274154528975,0.00895613618195057,1.3558059208662598e-07,-0.004438478033989668
-0.0025011738762259483,-0.010756079107522964,-0.00026984274154528975,0.00895613618195057,1.3558059208662598e-07,-0.004438478033989668
-0.0026483896654099226,-0.01005649846047163,-0.00030476530082523823,0.009746947325766087,8.852443222906459e-09,-0.004600295331329107
-0.002568077528849244,-0.010273758322000504,-0.00028912173002026975,0.009032200090587139,5.780013134781825e-10,-0.005070216488093138
-0.0025265966542065144,-0.010630390606820583,-0.00027443456929177046,0.00977490097284317,3.773935330908529e-11,-0.005528321489691734
-0.0021862860303372145,-0.01076448429375887,-0.00026116103981621563,0.009337774477899075,2.4641100791755743e-12,-0.005254135467112064
-0.001994265941902995,-0.011264144442975521,-0.0002900474064517766,0.009483566507697105,1.608887719231622e-13,-0.004893088713288307
-0.0022725400049239397,-0.010314442217350006,-0.00027780618984252214,0.009194347076117992,1.0504886518221835e-14,-0.004624871537089348
-0.0022139803040772676,-0.0106217535212636,-0.00026608011103235185,0.009587164036929607,6.858939817037935e-16,-0.004246639087796211
-0.0025664796121418476,-0.010938847437500954,-0.0002552967343945056,0.009065127931535244,4.4783978571372095e-17,-0.004772918298840523
-0.0022312356159090996,-0.009862348437309265,-0.0002762631338555366,0.009467333555221558,2.9240735392076022e-18,-0.0047720144502818584
-0.0019147905986756086,-0.010676734149456024,-0.00026014045579358935,0.009095925837755203,1.2465783891203887e-20,-0.00551284896209836
-0.0019147905986756086,-0.010676734149456024,-0.00026014045579358935,0.009095925837755203,1.2465783891203887e-20,-0.00551284896209836
-0.0017955823568627238,-0.01045139692723751,-0.00025742498110048473,0.009051093831658363,0.0003204600070603192,-0.005142186768352985
-0.002131375251337886,-0.010671885684132576,-0.0002441987453494221,0.008781827986240387,0.00037441716995090246,-0.005064851138740778
-0.0019680585246533155,-0.009839066304266453,-0.00023163722653407604,0.008548004552721977,0.0004074766766279936,-0.005016106180846691
-0.0021888669580221176,-0.010388094931840897,-0.0002637341385707259,0.009134848602116108,0.0007447409443557262,-0.005146682728081942
-0.0023338014725595713,-0.010582460090517998,-0.0002520093403290957,0.009040691889822483,0.001052261097356677,-0.004939367063343525
-0.002020505489781499,-0.00982537679374218,-0.00027615466387942433,0.00860582198947668,0.0011278169695287943,-0.004603920038789511
-0.0018278785282745957,-0.010562044568359852,-0.0002688535605557263,0.008222123607993126,0.0012079919688403606,-0.004979172721505165
-0.0016022274503484368,-0.0101741598919034,-0.00025790740619413555,0.008391035720705986,0.0012790554901584983,-0.0048850951716303825
-0.001626653946004808,-0.009987483732402325,-0.00028266539447940886,0.008646213449537754,0.0012262482196092606,-0.004981406964361668
-0.0017129211919382215,-0.010617498308420181,-0.000272779434453696,0.008478442206978798,0.0011887869331985712,-0.00511855399236083
-0.0017129211919382215,-0.010617498308420181,-0.000272779434453696,0.008478442206978798,0.0011887869331985712,-0.00511855399236083
-0.001739845029078424,-0.010588133707642555,-0.00041647141915746033,0.008321902714669704,0.001264279242604971,-0.005339300259947777
-0.0019118789350613952,-0.00952233374118805,-0.00038327061338350177,0.008184509351849556,0.0012252213200554252,-0.005235279444605112
-0.0018915226683020592,-0.010357229970395565,-0.0004228222242090851,0.008243362419307232,0.001173090422526002,-0.0053535569459199905
-0.001796482247300446,-0.010040904395282269,-0.00039298212504945695,0.008915294893085957,0.0011027839500457048,-0.005233475472778082
-0.001581032993271947,-0.011241874657571316,-0.000400129851186648,0.00851138774305582,0.0010238999966531992,-0.0052223894745111465
-0.0015984256751835346,-0.010094535537064075,-0.0003763160784728825,0.008418325334787369,0.0009733517654240131,-0.005136922467499971
-0.0015984256751835346,-0.010094535537064075,-0.0003763160784728825,0.008418325334787369,0.0009733517654240131,-0.005136922467499971
-0.0015028903726488352,-0.009885480627417564,-0.00040374347008764744,0.00869421474635601,0.0009108427911996841,-0.005024993792176247
-0.0012603605864569545,-0.010425308719277382,-0.0003841474826913327,0.008382403291761875,0.0008463503909297287,-0.005137567408382893
-0.0010726108448579907,-0.010246490128338337,-0.00042149960063397884,0.008236397057771683,0.0008504826109856367,-0.0053066653199493885
-0.0009334217174910009,-0.010919313877820969,-0.0004118301148992032,0.0082473773509264,0.000832263205666095,-0.005435417406260967
-0.000740250397939235,-0.010418607853353024,-0.0004269088676664978,0.008749952539801598,0.0007596295326948166,-0.0051485877484083176
-0.0007372002000920475,-0.009741432964801788,-0.00041773030534386635,0.008658986538648605,0.0007502470398321748,-0.0050804875791072845
-0.0006860463181510568,-0.01040760800242424,-0.0004220484697725624,0.008573267608880997,0.0006485357298515737,-0.005276800598949194
-0.0007061793003231287,-0.009807164780795574,-0.0004327911010477692,0.008647412061691284,0.0005769320414401591,-0.005293926224112511
-0.0007061793003231287,-0.009807164780795574,-0.0004327911010477692,0.008647412061691284,0.0005769320414401591,-0.005293926224112511
-0.0006849431083537638,-0.010007359087467194,-0.0004053518932778388,0.007655599154531956,0.0005480455001816154,-0.0050865765661001205
-0.0007116883643902838,-0.009611165151000023,-0.0004864504444412887,0.008708180859684944,0.0005611693486571312,-0.005153872538357973
-0.0006301738903857768,-0.009464533068239689,-0.0005178711726330221,0.00817057490348816,0.0005327175604179502,-0.004948857240378857
-0.0006468472420237958,-0.00978132989257574,-0.00048133236123248935,0.007559259422123432,0.0005529906484298408,-0.005461015272885561
-0.0005958795081824064,-0.009857278317213058,-0.0005068219034001231,0.007579021155834198,0.0005212807445786893,-0.005422704387456179
-0.0006128609529696405,-0.00936458632349968,-0.00047657021787017584,0.0077611710876226425,0.0005362745141610503,-0.005384253803640604
-0.0005726371891796589,-0.009799331426620483,-0.0004988555447198451,0.00769033282995224,0.00048761992366053164,-0.005609474144876003
-0.0005276904557831585,-0.00955988746136427,-0.0004730647196993232,0.007267430424690247,0.0004404486680869013,-0.005281534511595964
-0.00047090384759940207,-0.00953222718089819,-0.0005498620448634028,0.007387390825897455,0.00047565490240231156,-0.005191268399357796
-0.00047090384759940207,-0.00953222718089819,-0.0005498620448634028,0.007387390825897455,0.00047565490240231156,-0.005191268399357796
-0.0005078876856714487,-0.00960711482912302,-0.0005890143802389503,0.008051288314163685,0.0004415930307004601,-0.0053945607505738735
-0.00046718341764062643,-0.00894168857485056,-0.0006127422675490379,0.0076523819006979465,0.0004672377253882587,-0.005539511330425739
-0.000430010084528476,-0.009499884210526943,-0.0005673184641636908,0.007040007505565882,0.0004424367507454008,-0.005540614016354084
-0.00039828818989917636,-0.009325738996267319,-0.0005938325193710625,0.007028106600046158,0.00046497592120431364,-0.005683889612555504
-0.00037092328420840204,-0.0092069823294878,-0.0005526744644157588,0.007414338644593954,0.0004437741881702095,-0.005237738136202097
-0.0003470777010079473,-0.00897926650941372,-0.0006621582433581352,0.007287018466740847,0.00046796404058113694,-0.005207527428865433
-0.0003261145029682666,-0.009500042535364628,-0.0006809700280427933,0.0071942731738090515,0.0004907266120426357,-0.005618525668978691
-0.00030753889586776495,-0.009082239121198654,-0.0006157850730232894,0.0074868109077215195,0.00046782250865362585,-0.0059990668669342995
-0.00032272760290652514,-0.009212890639901161,-0.0006128138047643006,0.007847065106034279,0.0004985359264537692,-0.005496076308190823
-0.00032187954639084637,-0.00913911871612072,-0.0005846554995514452,0.007232719101011753,0.0005150243523530662,-0.005107321310788393
-0.00030643149511888623,-0.008965626358985901,-0.0006025671609677374,0.0065973857417702675,0.0004984330735169351,-0.005672290921211243
-0.0002922190760727972,-0.008837942034006119,-0.0005637691356241703,0.00694029638543725,0.0007110041915439069,-0.005659028887748718
-0.00027926586335524917,-0.00890626385807991,-0.0005613904795609415,0.007488287519663572,0.0007457666215486825,-0.005788092501461506
-0.000267410883679986,-0.008840947411954403,-0.0005969734629616141,0.007494550663977861,0.0007641593110747635,-0.005475079640746117
-0.0002565216855145991,-0.008658784441649914,-0.0006273098406381905,0.00725949089974165,0.0007338462164625525,-0.005345875862985849
-0.00023720497847534716,-0.008719298057258129,-0.00060731649864465,0.0072242459282279015,0.0008867630385793746,-0.005518726073205471
-0.00022859718592371792,-0.008506941609084606,-0.0007734676473774016,0.00726075004786253,0.0008725206134840846,-0.005946442484855652
-0.0002205929922638461,-0.009266601875424385,-0.000793611048720777,0.006755628623068333,0.0008466565632261336,-0.006119988858699799
-0.00021312999888323247,-0.00864209234714508,-0.0007683387375436723,0.0067641111090779305,0.0008023972623050213,-0.0056343721225857735
-0.0002061553532257676,-0.008537220768630505,-0.0007163543486967683,0.00786755420267582,0.0007860124460421503,-0.005312678869813681
-0.00019962342048529536,-0.00887418631464243,-0.0007243268773891032,0.00663407938554883,0.0006910228985361755,-0.0051124803721904755
-0.0001934919273480773,-0.008772783912718296,-0.0006724332924932241,0.00601846631616354,0.0007113196770660579,-0.0058944858610630035
-0.00018772656039800495,-0.00890412088483572,-0.0006363933207467198,0.006109719164669514,0.0007120619993656874,-0.005973244085907936
-0.00018229424313176423,-0.009403903037309647,-0.0006681239465251565,0.006818484514951706,0.0006613076548092067,-0.006210313178598881
-0.00017716809816192836,-0.008071035146713257,-0.0006908879731781781,0.006936921272426844,0.0006793676875531673,-0.005979661829769611
-0.00017232183017767966,-0.008413666859269142,-0.0007045382517389953,0.00661486154422164,0.0006764957797713578,-0.00582936592400074
-0.0001677341788308695,-0.008312543854117393,-0.0008058048551902175,0.0062401932664215565,0.0007111435988917947,-0.005590472370386124
-0.00016338400018867105,-0.008232918567955494,-0.000846732291392982,0.006043741013854742,0.0007339664152823389,-0.005716619081795216
-0.00015925394836813211,-0.008853376843035221,-0.0008548591285943985,0.006324475165456533,0.0007392698898911476,-0.006037058774381876
-0.00015925394836813211,-0.008853376843035221,-0.0008548591285943985,0.006324475165456533,0.0007392698898911476,-0.006037058774381876
-0.00015532734687440097,-0.00849292054772377,-0.0007875796291045845,0.006448353640735149,0.0008437375072389841,-0.005858748685568571
-0.00014802839723415673,-0.008016112260520458,-0.0008492031483910978,0.006053886841982603,0.000919306359719485,-0.005308733321726322
-0.00014802839723415673,-0.008016112260520458,-0.0008492031483910978,0.006053886841982603,0.000919306359719485,-0.005308733321726322
-0.0001446300302632153,-0.00863257609307766,-0.0008696899167262018,0.005938229616731405,0.0008562360890209675,-0.005889599211513996
-0.00014138431288301945,-0.008102691732347012,-0.000863937777467072,0.00615440309047699,0.000850055308546871,-0.006009120959788561
-0.00013828113151248544,-0.008112658746540546,-0.0008682415937073529,0.006230469793081284,0.0007761927554383874,-0.006115070544183254
-0.00013531108561437577,-0.008412637747824192,-0.0009154689032584429,0.005763656925410032,0.000731235253624618,-0.005658979527652264
-0.0001324662152910605,-0.00868656113743782,-0.0009566987864673138,0.006322060711681843,0.0007418644963763654,-0.005717829801142216
-0.00012973831326235086,-0.008405688218772411,-0.0009486572816967964,0.005912229418754578,0.0007183870184235275,-0.005829362664371729
-0.00012712027819361538,-0.008143323473632336,-0.0009422230068594217,0.005849520210176706,0.0006881242734380066,-0.005931834224611521
-0.00012460634752642363,-0.00851539894938469,-0.0009689598227851093,0.005840317811816931,0.0006997738964855671,-0.00643535889685154
-4.0623814129503444e-05,-0.008388799615204334,-0.0009955872083082795,0.005989566911011934,0.00071608682628721,-0.0053876107558608055
-3.968632881878875e-05,-0.008455752395093441,-0.0009825762826949358,0.005603036843240261,0.0006839191191829741,-0.005758530925959349
-5.59711224923376e-05,-0.0083634527400136,-0.0010419366881251335,0.0062356372363865376,0.0007046315004117787,-0.005857547745108604
-5.698419772670604e-05,-0.007600334472954273,-0.0011484309798106551,0.005945140961557627,0.0007242097053676844,-0.006246766075491905
0.00014649545482825488,-0.008827291429042816,-0.0011102915741503239,0.0057527548633515835,0.0008311385754495859,-0.00581746781244874
0.000132651868625544,-0.008155295625329018,-0.0011602757731452584,0.005495110992342234,0.0008509806939400733,-0.00571437506005168
0.00011568929767236114,-0.007865160703659058,-0.0011606818297877908,0.005397831089794636,0.0008420262602157891,-0.005850869696587324
0.00010250437480863184,-0.007774227764457464,-0.0011277534067630768,0.0055917794816195965,0.000820683897472918,-0.006094272714108229
9.201819193549454e-05,-0.007728892844170332,-0.0010930532589554787,0.005662895739078522,0.0007850710535421968,-0.006465644109994173
8.347875700565055e-05,-0.008437898010015488,-0.001060578622855246,0.005214131902903318,0.0008818093920126557,-0.006105358246713877
8.347875700565055e-05,-0.008437898010015488,-0.001060578622855246,0.005214131902903318,0.0008818093920126557,-0.006105358246713877
7.639032264705747e-05,-0.008406621403992176,-0.00103395851328969,0.005326447077095509,0.0008242670446634293,-0.005644905846565962
7.041244680294767e-05,-0.008033755235373974,-0.0011057258816435933,0.005163153633475304,0.0008302211645059288,-0.005768734496086836
6.530203972943127e-05,-0.007883104495704174,-0.0011399973882362247,0.005168314091861248,0.0008309191325679421,-0.006173255387693644
6.0883379774168134e-05,-0.00823410227894783,-0.001153735676780343,0.00507571455091238,0.0008723501232452691,-0.006319353356957436
5.702501948690042e-05,-0.007616784423589706,-0.0010597915388643742,0.004844139330089092,0.0009098485461436212,-0.0060673924162983894
0.00010085123358294368,-0.007670632563531399,-0.0009477114654146135,0.004758183844387531,0.0009729716111905873,-0.005931397434324026
0.00010113539610756561,-0.008776707574725151,-0.0009368263999931514,0.0048094214871525764,0.0009273349423892796,-0.006417587865144014
4.8593741666991264e-05,-0.008064140565693378,-0.0008547457982786,0.0046522244811058044,0.0011311399284750223,-0.0064330073073506355
8.558981789974496e-05,-0.00762151787057519,-0.0008619946311227977,0.0044447579421103,0.00112485873978585,-0.00639720493927598
8.653628901811317e-05,-0.007726607844233513,-0.0008707711822353303,0.004823102615773678,0.0010922980727627873,-0.006106800865381956
8.263152267318219e-05,-0.008120457641780376,-0.0008757113828323781,0.0049730888567864895,0.00109378551132977,-0.005899141542613506
7.900557829998434e-05,-0.007894779555499554,-0.0011552784126251936,0.004785436205565929,0.0011547132162377238,-0.006233980879187584
7.56834851927124e-05,-0.007515441160649061,-0.0011503769783303142,0.004607592709362507,0.0011563656153157353,-0.0063281008042395115
7.262947474373505e-05,-0.007663274649530649,-0.0011116669047623873,0.004351154901087284,0.0011823367094621062,-0.006182895973324776
6.981235492276028e-05,-0.008211620151996613,-0.00108372385147959,0.004506740719079971,0.0012630041455850005,-0.005973310675472021
9.586775559000671e-05,-0.00794625747948885,-0.0010514077730476856,0.00420874310657382,0.0010954119497910142,-0.006214201916009188
9.37864970183e-05,-0.007617165334522724,-0.0010295194806531072,0.004169735591858625,0.001016271417029202,-0.006678506266325712
0.00011965018347837031,-0.00779389264062047,-0.0010150796733796597,0.004277467727661133,0.0009980134200304747,-0.006882714573293924
0.0001723689929349348,-0.007318338379263878,-0.001036788453347981,0.004066570196300745,0.001049742684699595,-0.006102471146732569
0.0001978572690859437,-0.007392379455268383,-0.0010150957386940718,0.003903453703969717,0.001078691566362977,-0.006082420703023672
0.00019453327695373446,-0.007564593572169542,-0.0009989726822823286,0.0038482535164803267,0.0010557380737736821,-0.006143861450254917
0.00018781766993924975,-0.007873390801250935,-0.0010246469173580408,0.0038200300186872482,0.0010291668586432934,-0.006143257021903992
0.0001815052964957431,-0.00708975363522768,-0.0011287882225587964,0.0038106476422399282,0.0010098036145791411,-0.006258060224354267
0.00020446428970899433,-0.007054838351905346,-0.0010942680528387427,0.0037994910962879658,0.0009454831015318632,-0.006349931936711073
0.00019841219182126224,-0.007496688049286604,-0.0009975589346140623,0.0037566532846540213,0.0010211844928562641,-0.006223393138498068
0.000218730783672072,-0.0077941566705703735,-0.0011038599768653512,0.003770751878619194,0.00102648523170501,-0.006304840091615915
0.00021331074822228402,-0.0071629248559474945,-0.0010693486547097564,0.003763654502108693,0.0010288952616974711,-0.006569535471498966
0.00020718664745800197,-0.006886855699121952,-0.0010437897872179747,0.003718125633895397,0.0014769496629014611,-0.006438093725591898
0.00020139208936598152,-0.007413347251713276,-0.0009611044079065323,0.0034002591855823994,0.0014537242241203785,-0.006241416092962027
0.00020139208936598152,-0.007413347251713276,-0.0009611044079065323,0.0034002591855823994,0.0014537242241203785,-0.006241416092962027
0.0003773279022425413,-0.007935847155749798,-0.0010608074953779578,0.003246437292546034,0.0013754252577200532,-0.0065930867567658424
0.0003551033732946962,-0.007181130815297365,-0.0010354776168242097,0.0031757133547216654,0.0013227281160652637,-0.0066612958908081055
0.0003292219480499625,-0.007053792010992765,-0.0010160926030948758,0.003068980062380433,0.0012766232248395681,-0.006458505522459745
0.00030677413451485336,-0.007291584741324186,-0.0010366927599534392,0.003097514621913433,0.0012038747081533074,-0.0063377912156283855
0.00033775679185055196,-0.007786828558892012,-0.001051872386597097,0.0028970716521143913,0.0011417412897571921,-0.0067468611523509026
0.0003238593926653266,-0.007267475593835115,-0.00102726009208709,0.0029053487814962864,0.0010068166302517056,-0.006750934291630983
0.00033896390232257545,-0.007352628279477358,-0.0010091711301356554,0.0030427363235503435,0.0009024306782521307,-0.007325483951717615
0.00037968388642184436,-0.007402900606393814,-0.0009795173536986113,0.002791286213323474,0.0008964709704741836,-0.006826574914157391
0.0005612308741547167,-0.007517660036683083,-0.000990385073237121,0.002600665669888258,0.0009267418645322323,-0.006592431105673313
0.0006337061058729887,-0.007216108497232199,-0.0009765155846253037,0.0024817208759486675,0.0009593131253495812,-0.006674785632640123
0.0012415723176673055,-0.007252262439578772,-0.001052855746820569,0.0023528197780251503,0.001099501270800829,-0.006551079452037811
0.0011907430598512292,-0.007402034476399422,-0.0011603024322539568,0.0024379186797887087,0.001029481994919479,-0.006568743381649256
0.0009780469117686152,-0.007044400088489056,-0.0011199405416846275,0.0026798623148351908,0.0012255299370735884,-0.006841705646365881
0.0009170036064460874,-0.007066705264151096,-0.0010076926555484533,0.0026272351387888193,0.0012006291653960943,-0.007086435332894325
0.0008366780821233988,-0.007231047376990318,-0.0009869441855698824,0.0025483688805252314,0.0011781089706346393,-0.007070157676935196
0.0008469526655972004,-0.006926713977009058,-0.0009703082032501698,0.002481394447386265,0.0012937162537127733,-0.007166650146245956
0.0007888616528362036,-0.006673314608633518,-0.0009594321600161493,0.0022969606798142195,0.0013489634729921818,-0.006965546868741512
0.000887450238224119,-0.00716019282117486,-0.0009514885605312884,0.0021186822559684515,0.0014264181954786181,-0.007236415054649115
0.0014304097276180983,-0.007497782353311777,-0.0009654650930315256,0.0021208305843174458,0.00147593196015805,-0.00757216103374958
0.001518881879746914,-0.007533067371696234,-0.0009582876227796078,0.002292046556249261,0.0014158952981233597,-0.0067770034074783325
0.0014380612410604954,-0.007343351375311613,-0.0010372161632403731,0.00224246340803802,0.0012356496881693602,-0.006697098724544048
0.0012777209049090743,-0.006965250242501497,-0.0009615253075025976,0.002222818788141012,0.0011400782968848944,-0.0070547680370509624
0.0012777209049090743,-0.006965250242501497,-0.0009615253075025976,0.002222818788141012,0.0011400782968848944,-0.0070547680370509624
0.0012074565747752786,-0.007159131579101086,-0.001125000067986548,0.0019235319923609495,0.0010934207821264863,-0.007303920108824968
0.0012721017701551318,-0.0073464177548885345,-0.0011008200235664845,0.0016262155259028077,0.001098249456845224,-0.007322538644075394
0.0013152315514162183,-0.0066790212877094746,-0.001076109241694212,0.0015014888485893607,0.0012020108988508582,-0.006948572117835283
0.001647758879698813,-0.006179580464959145,-0.0012406868627294898,0.0013843853957951069,0.001230659312568605,-0.007216301281005144
0.002075870055705309,-0.006604896858334541,-0.001062913564965129,0.0012111031683161855,0.0012333419872447848,-0.007599541451781988
0.0020466861315071583,-0.006611309479922056,-0.0010343182366341352,0.0010691247880458832,0.0016745845787227154,-0.007989074103534222
0.0017630050424486399,-0.006378813646733761,-0.0010151929454877973,0.0010338634019717574,0.0015993040287867188,-0.007681853137910366
0.001760201877914369,-0.006083480082452297,-0.0010384656488895416,0.0009486156050115824,0.0016924069495871663,-0.007552632130682468
0.0019905101507902145,-0.006095074117183685,-0.0010521882213652134,0.0009296698844991624,0.0016619896050542593,-0.007585690822452307
0.0020649947691708803,-0.006195007357746363,-0.0010411447146907449,0.0008355783065780997,0.0015476589323952794,-0.007433988153934479
0.0028471210971474648,-0.006308897398412228,-0.0012987462105229497,0.0007311109220609069,0.0016417127335444093,-0.007015861105173826
0.003067257348448038,-0.006508738733828068,-0.0012714387848973274,0.0006301356479525566,0.001542661339044571,-0.0077566769905388355
0.0026651136577129364,-0.006639109458774328,-0.0012212716974318027,0.0006549545214511454,0.0016349944053217769,-0.007776984013617039
0.0023421081714332104,-0.00662424648180604,-0.0012544183991849422,0.0006627001566812396,0.0014649195363745093,-0.007973411120474339
0.0023945714347064495,-0.006696641910821199,-0.0011948731262236834,0.0006428221240639687,0.001475578173995018,-0.007862214930355549
0.003055376233533025,-0.006336139515042305,-0.001193336327560246,0.0005951131461188197,0.0014266666257753968,-0.007743717636913061
0.0034223459661006927,-0.0060597681440413,-0.0011823850218206644,0.0005852900794707239,0.001486652297899127,-0.0075678518041968346
0.003326785983517766,-0.006283429451286793,-0.001278597628697753,0.000521771376952529,0.00145846011582762,-0.008012313395738602
0.0030364766716957092,-0.006288007367402315,-0.0013083225348964334,0.00046773740905337036,0.0015308397123590112,-0.008062801323831081
0.002941509010270238,-0.006052713375538588,-0.0013765770709142089,0.0004966115229763091,0.001619541086256504,-0.008030758239328861
0.0028669002931565046,-0.005858207121491432,-0.0013283113949000835,0.00046382923028431833,0.001541309873573482,-0.007780816406011581
0.003992658574134111,-0.005511019378900528,-0.0012507654028013349,0.00042770980508066714,0.0015699155628681183,-0.0076194265857338905
0.004113389644771814,-0.00591273931786418,-0.0012158950557932258,0.00039633558481000364,0.0014890143647789955,-0.007671671453863382
0.004113389644771814,-0.00591273931786418,-0.0012158950557932258,0.00039633558481000364,0.0014890143647789955,-0.007671671453863382
0.003948731813579798,-0.006540532223880291,-0.001162701053544879,0.0003692208556458354,0.001400672597810626,-0.008148846216499805
0.003949461970478296,-0.006109146401286125,-0.0011415014741942286,0.00034557818435132504,0.001364004798233509,-0.008267714641988277
0.004044954665005207,-0.005692844279110432,-0.001210164511576295,0.0003511285176500678,0.0013250558404251933,-0.00797188375145197
0.004008207004517317,-0.005600271746516228,-0.0011677599977701902,0.00035559458774514496,0.0012871826766058803,-0.008147075772285461
0.003957940731197596,-0.005729143042117357,-0.0013357611605897546,0.00033809561864472926,0.0015587745001539588,-0.008179012686014175
0.0044751837849617004,-0.0056602791883051395,-0.0014689525123685598,0.0003209680726286024,0.0015505175106227398,-0.007760267239063978
0.004764314275234938,-0.005551335867494345,-0.0014059917302802205,0.00030541018350049853,0.0019489824771881104,-0.007566293701529503
0.004578044638037682,-0.005510240327566862,-0.001383419381454587,0.0002912863565143198,0.0018721156520769,-0.00815372634679079
0.004643972963094711,-0.006062827538698912,-0.0014326805248856544,0.0002784100652206689,0.001965891569852829,-0.008336768485605717
0.0047706495970487595,-0.005682461895048618,-0.0013719404814764857,0.0002666249347385019,0.0017923872219398618,-0.008319327607750893
0.0048704929649829865,-0.005882134661078453,-0.0012694684555754066,0.000255797611316666,0.0015006284229457378,-0.008009294047951698
0.004604529123753309,-0.005368601065129042,-0.001332221319898963,0.00024581493926234543,0.0015191106358543038,-0.008178787305951118
0.005055319517850876,-0.005743628833442926,-0.0012931620003655553,0.0002370267902733758,0.0014377301558852196,-0.008066195994615555
0.005439127795398235,-0.005242663435637951,-0.001457956270314753,9.58894524956122e-05,0.0014814944006502628,-0.007899072021245956
0.00518043851479888,-0.005516199395060539,-0.001422383706085384,8.300610352307558e-05,0.0014991424977779388,-0.008221268653869629
0.005439029540866613,-0.005512231029570103,-0.001559429569169879,7.881668716436252e-05,0.0014925056602805853,-0.008361857384443283
0.004953718278557062,-0.005256070755422115,-0.001367126009427011,7.243474101414904e-05,0.0014869833830744028,-0.008007848635315895
0.005831349641084671,-0.005208219401538372,-0.001309182494878769,6.96321003488265e-05,0.0015856755198910832,-0.008275163359940052
0.005489949136972427,-0.005518164485692978,-0.0012728783767670393,6.703825783915818e-05,0.001607801066711545,-0.008294177241623402
0.0059001995250582695,-0.005580019671469927,-0.0013330375077202916,6.463083991548046e-05,0.001753461197949946,-0.008629092946648598
0.005549176130443811,-0.005600842647254467,-0.0014283766504377127,3.330512481625192e-05,0.0017882889369502664,-0.008350612595677376
0.005863039754331112,-0.005440625362098217,-0.001529145985841751,3.0287827030406334e-05,0.0018912063678726554,-0.008599214255809784
0.006084966938942671,-0.005600471515208483,-0.0014426785055547953,2.9181650461396202e-05,0.0018113699043169618,-0.008878971450030804
0.006085802800953388,-0.00505479471758008,-0.0015630897833034396,2.8257221856620163e-05,0.0018199924379587173,-0.009151373989880085
0.005958158057183027,-0.005291908513754606,-0.0015699273208156228,2.7396503355703317e-05,0.0016886689700186253,-0.009198467247188091
0.005816914141178131,-0.005601281765848398,-0.0013703870354220271,3.5121288419759367e-06,0.0016812037210911512,-0.008387290872633457
0.006142541766166687,-0.0055612362921237946,-0.0013282087165862322,2.2931691034955293e-07,0.0016966568073257804,-0.008573614992201328
0.006398053374141455,-0.005375282373279333,-0.0012579831527546048,1.4972755479902844e-08,0.0015955655835568905,-0.008588074706494808
0.006049059797078371,-0.00493355980142951,-0.0013574196491390467,9.776139897610392e-10,0.0016711232019588351,-0.008543981239199638
0.006304863840341568,-0.005149675998836756,-0.0014641396701335907,6.383121115005608e-11,0.0017258686712011695,-0.008767470717430115
0.006304863840341568,-0.005149675998836756,-0.0014641396701335907,6.383121115005608e-11,0.0017258686712011695,-0.008767470717430115
0.00636659748852253,-0.005221278872340918,-0.0014166963519528508,4.167721723291606e-12,0.002148732775822282,-0.008930093608796597
0.007319184951484203,-0.005331633146852255,-0.0016675502993166447,2.721224395992039e-13,0.001964285271242261,-0.008750869892537594
0.00672941654920578,-0.005321272648870945,-0.001709109521470964,1.776765109280827e-14,0.001832011272199452,-0.009309551678597927
0.006301687564700842,-0.005490049719810486,-0.0017410869477316737,1.1601006656033444e-15,0.0018220230704173446,-0.008704062551259995
0.006822188384830952,-0.004995608236640692,-0.0016022345516830683,-0.000522141286637634,0.001758973696269095,-0.008703446947038174
0.006988612003624439,-0.004638688173145056,-0.0015108613297343254,-0.0008693989366292953,0.0018231564899906516,-0.00873992033302784
0.007667182479053736,-0.005026766564697027,-0.001485771150328219,-0.0009104824857786298,0.001969298580661416,-0.008651923388242722
0.007543565239757299,-0.005505617707967758,-0.0015077006537467241,-0.001158947590738535,0.0020227483473718166,-0.009309381246566772
0.007538443896919489,-0.00503305671736598,-0.0016417144797742367,-0.0016078497283160686,0.0022774680983275175,-0.009013664908707142
0.006761090364307165,-0.004798136185854673,-0.001536786905489862,-0.002142699435353279,0.0021280781365931034,-0.009077472612261772
0.007287831511348486,-0.004668448120355606,-0.001635703956708312,-0.002299884334206581,0.0020825755782425404,-0.008784370496869087
0.0073098368011415005,-0.004831003490835428,-0.0016894511645659804,-0.0025993320159614086,0.0018986286595463753,-0.008924471214413643
0.00725390762090683,-0.004900357685983181,-0.0015702657401561737,-0.0023822898510843515,0.0018516232958063483,-0.009082530625164509
0.0074829841032624245,-0.005076788831502199,-0.0016353345708921552,-0.0028677755035459995,0.002005578251555562,-0.00918692909181118
0.008078549057245255,-0.0048094242811203,-0.0015415339730679989,-0.0035874140448868275,0.00195726053789258,-0.00874089915305376
0.00764036038890481,-0.004462405573576689,-0.0015948826912790537,-0.003780350321903825,0.0019820937886834145,-0.008766169659793377
0.007546148728579283,-0.004449973348528147,-0.0015107612125575542,-0.0038040007930248976,0.0018806365551427007,-0.009139100089669228
0.008237919770181179,-0.004632549826055765,-0.0015862190630286932,-0.004350831266492605,0.0018882506992667913,-0.009247341193258762
0.008130659349262714,-0.0047283899039030075,-0.001639384194277227,-0.005152393132448196,0.0018444015877321362,-0.009158933535218239
0.007645472418516874,-0.004791350569576025,-0.001834749709814787,-0.0051263771019876,0.0018315501511096954,-0.008858077228069305
0.007544949650764465,-0.005062599200755358,-0.0017816363833844662,-0.004855242557823658,0.001706704031676054,-0.009438196197152138
0.008795186877250671,-0.004401054233312607,-0.0018283067038282752,-0.005168853793293238,0.001663109171204269,-0.009573251008987427
0.008595447987318039,-0.004395660012960434,-0.0018364879069849849,-0.005470226518809795,0.0016273634973913431,-0.009401995688676834
0.00788883026689291,-0.004228287376463413,-0.0017523901769891381,-0.005928139202296734,0.0018234882736578584,-0.009425678290426731
0.008323779329657555,-0.004233561921864748,-0.0017695819260552526,-0.006191526539623737,0.0018768833251670003,-0.009459649212658405
0.008663834072649479,-0.004261349327862263,-0.0017612376250326633,-0.005755299236625433,0.0022594728507101536,-0.009097939357161522
0.008345303125679493,-0.004408176522701979,-0.0017631606897339225,-0.006322176195681095,0.002084844745695591,-0.009144020266830921
0.008118560537695885,-0.004504850599914789,-0.0016400815220549703,-0.006143417675048113,0.0019356879638507962,-0.01001758873462677
0.00851085502654314,-0.004472206346690655,-0.0016860305331647396,-0.005950605496764183,0.0018603283679112792,-0.00824944768100977
0.008792282082140446,-0.0042960685677826405,-0.001717400155030191,-0.0064575872384011745,0.0015509889926761389,-0.009720669128000736
0.008792282082140446,-0.0042960685677826405,-0.001717400155030191,-0.0064575872384011745,0.0015509889926761389,-0.009720669128000736
0.008529704064130783,-0.004044193308800459,-0.0018371747573837638,-0.00676063634455204,0.001560797798447311,-0.010425575077533722
0.009777422994375229,-0.00408443296328187,-0.0018352066399529576,-0.0064682913944125175,0.0016242830315604806,-0.009333488531410694
0.009180781431496143,-0.0040000565350055695,-0.0019017785089090466,-0.006255440879613161,0.0017649775836616755,-0.009397135116159916
0.008834554813802242,-0.0038888531271368265,-0.0018818470416590571,-0.006332890596240759,0.0020373875740915537,-0.009471644647419453
0.009370988234877586,-0.004296605475246906,-0.0018310567829757929,-0.0062362682074308395,0.0021399222314357758,-0.009696575812995434
0.007409415207803249,-0.004161583725363016,-0.0016780119622126222,-0.006523848976939917,0.0022658694069832563,-0.009606731124222279
0.0067970529198646545,-0.003591491375118494,-0.0016313486266881227,-0.006877682637423277,0.002162621822208166,-0.009268570691347122
0.007291228510439396,-0.0033476396929472685,-0.001650215475820005,-0.006945934612303972,0.0020304180216044188,-0.009410755708813667
0.008149960078299046,-0.0034717239905148745,-0.001564493984915316,-0.006967264227569103,0.001992356264963746,-0.010500051081180573
0.007949233055114746,-0.0035884070675820112,-0.0018384152790531516,-0.007230402436107397,0.0022001322358846664,-0.010175209492444992
0.007898373529314995,-0.0034686352591961622,-0.0017617619596421719,-0.007625412195920944,0.0023637604899704456,-0.009839940816164017
0.007990742102265358,-0.003271572757512331,-0.0019014152931049466,-0.00721387704834342,0.0024914811365306377,-0.009771141223609447
0.008101457729935646,-0.003579234704375267,-0.00172516203019768,-0.007397537585347891,0.0022110112477093935,-0.009813576005399227
0.008190260268747807,-0.0033388512674719095,-0.001721972250379622,-0.008024492301046848,0.002136384602636099,-0.009934863075613976
0.007755566854029894,-0.0031008718069642782,-0.0016331927618011832,-0.008272036910057068,0.0019013076089322567,-0.0103828776627779
0.008165495470166206,-0.003063119249418378,-0.0016734955133870244,-0.007757939863950014,0.0017992665525525808,-0.010072116740047932
0.008297528140246868,-0.0032436815090477467,-0.002007309580221772,-0.007884415797889233,0.0017247010255232453,-0.009873487055301666
0.008150842972099781,-0.003161656903102994,-0.0019650731701403856,-0.007705433759838343,0.001865970902144909,-0.009988132864236832
0.008294080384075642,-0.002931311959400773,-0.0018938235007226467,-0.007903601042926311,0.0019717025570571423,-0.010590068064630032
0.008365835063159466,-0.0031766039319336414,-0.0018771174363791943,-0.008244394324719906,0.002378172241151333,-0.010251352563500404
0.008763869293034077,-0.0029555391520261765,-0.0019037602469325066,-0.008437243290245533,0.002423622412607074,-0.010326985269784927
0.008546303026378155,-0.00317872641608119,-0.001947777345776558,-0.008261634036898613,0.0023464614059776068,-0.010232933796942234
0.009183296002447605,-0.003323508659377694,-0.00228894897736609,-0.008606662973761559,0.002394162816926837,-0.009687745943665504
0.009133649058640003,-0.003120390698313713,-0.002077979501336813,-0.009072254411876202,0.002223675837740302,-0.010582122020423412
0.008997634053230286,-0.002648727037012577,-0.002137213945388794,-0.00936400331556797,0.002274881349876523,-0.01045780349522829
0.009305871091783047,-0.002629809780046344,-0.0019808700308203697,-0.00952497124671936,0.0023490060120821,-0.009688341058790684
0.009434327483177185,-0.0027197380550205708,-0.0020542906131595373,-0.01008250005543232,0.0023274102713912725,-0.009813131764531136
0.009434327483177185,-0.0027197380550205708,-0.0020542906131595373,-0.01008250005543232,0.0023274102713912725,-0.009813131764531136
0.00891890749335289,-0.0032826177775859833,-0.001987890340387821,-0.0095576923340559,0.0024967603385448456,-0.009781520813703537
0.00931214727461338,-0.0032426766119897366,-0.0019845860078930855,-0.009591259993612766,0.0025876672007143497,-0.009745250456035137
0.009488179348409176,-0.0030487787444144487,-0.002131096553057432,-0.009771175682544708,0.0024711003061383963,-0.009955273941159248
0.009921174496412277,-0.0028908245731145144,-0.0020840477664023638,-0.010282957926392555,0.0022064773365855217,-0.010716198943555355
0.00933411717414856,-0.0025373268872499466,-0.0022264644503593445,-0.010003672912716866,0.0020899849478155375,-0.010243717581033707
0.009699796326458454,-0.002595615340396762,-0.0021235079038888216,-0.009861910715699196,0.002143747406080365,-0.010194027796387672
0.009639788419008255,-0.0027339535299688578,-0.0022485575173050165,-0.009917951188981533,0.002220507711172104,-0.010451321490108967
0.009784726426005363,-0.002830116543918848,-0.0020546684972941875,-0.008765093982219696,0.002398800104856491,-0.009874348528683186
0.010306918993592262,-0.0027252964209765196,-0.0021344940178096294,-0.009391417726874352,0.002398925833404064,-0.010582786984741688
0.009910929016768932,-0.002550669014453888,-0.002349397400394082,-0.01016139890998602,0.0022864958737045527,-0.010371057316660881
0.010742495767772198,-0.0025292274076491594,-0.002284375485032797,-0.009896975941956043,0.002331311581656337,-0.010267366655170918
0.010255381464958191,-0.00240074610337615,-0.0021275558974593878,-0.010017328895628452,0.002326248912140727,-0.010856201872229576
0.010776516050100327,-0.002186409430578351,-0.0021543242037296295,-0.010031950660049915,0.0024900559801608324,-0.010568380355834961
0.010982009582221508,-0.002112646121531725,-0.0020922983530908823,-0.010993961244821548,0.0027592454571276903,-0.010374696925282478
0.010871311649680138,-0.0021781609393656254,-0.0020738635212183,-0.010777613148093224,0.00273997918702662,-0.010484262369573116
0.011592636816203594,-0.0019766062032431364,-0.002257256768643856,-0.010819747112691402,0.002683458849787712,-0.010737857781350613
0.010946746915578842,-0.0021167818922549486,-0.0021882064174860716,-0.010688763111829758,0.002649132627993822,-0.011062362231314182
0.01110757701098919,-0.0024265374522656202,-0.0021215558517724276,-0.010600904002785683,0.0024292226880788803,-0.010277104564011097
0.01113700307905674,-0.00235197925940156,-0.0021126754581928253,-0.010477375239133835,0.00229038973338902,-0.010210157372057438
0.010796291753649712,-0.002453083172440529,-0.0020822936203330755,-0.010420737788081169,0.002176431706175208,-0.010563801042735577
0.011110813356935978,-0.002176940208300948,-0.002008984098210931,-0.010547813028097153,0.0023461126256734133,-0.010547553189098835
0.010980497114360332,-0.002060425467789173,-0.0021412381902337074,-0.011255357414484024,0.0025100307539105415,-0.010041609406471252
0.011190688237547874,-0.0018903890158981085,-0.0019725910387933254,-0.011012355796992779,0.0024650180712342262,-0.010503120720386505
0.012156695127487183,-0.0019376877462491393,-0.0021753553301095963,-0.010886338539421558,0.002455581910908222,-0.01105294469743967
0.011097479611635208,-0.0017916415818035603,-0.0023707423824816942,-0.011209435760974884,0.0025120938662439585,-0.010452485643327236
0.011736497282981873,-0.0019682268612086773,-0.002340200822800398,-0.011071614921092987,0.00251408270560205,-0.010554940439760685
0.011736497282981873,-0.0019682268612086773,-0.002340200822800398,-0.011071614921092987,0.00251408270560205,-0.010554940439760685
0.011541048064827919,-0.0017859172075986862,-0.0024792186450213194,-0.01150559913367033,0.002894572215154767,-0.010453029535710812
0.01154946256428957,-0.0017030350863933563,-0.0021815586369484663,-0.011720837093889713,0.0027123400941491127,-0.010903405956923962
0.011750390753149986,-0.0015599416801705956,-0.0021832771599292755,-0.011671297252178192,0.0025735122617334127,-0.01140004675835371
0.0113563546910882,-0.0014424502151086926,-0.00213180435821414,-0.011444127187132835,0.0024960492737591267,-0.011105339042842388
0.01182662881910801,-0.0013518419582396746,-0.002304250840097666,-0.011097997426986694,0.0024061030708253384,-0.011084132827818394
0.011575807817280293,-0.0013026560191065073,-0.0026072205509990454,-0.011083927936851978,0.0023704387713223696,-0.01065609697252512
0.011419856920838356,-0.0012711100280284882,-0.002464543329551816,-0.01068637240678072,0.0027516072150319815,-0.011467751115560532
0.011799206025898457,-0.0014354957966133952,-0.0025594839826226234,-0.01058223471045494,0.002940478967502713,-0.011298310942947865
0.011464232578873634,-0.0014695487916469574,-0.0026842609513550997,-0.010804891586303711,0.0026430522557348013,-0.011678515933454037
0.011923696845769882,-0.0014078725362196565,-0.002362978644669056,-0.01093173399567604,0.0026157598476856947,-0.011510041542351246
0.0119712445884943,-0.001486695953644812,-0.0025255559012293816,-0.011148323304951191,0.002660962985828519,-0.011164474301040173
0.01149306632578373,-0.001413799705915153,-0.0027747019194066525,-0.011138117872178555,0.0029223053716123104,-0.011342852376401424
0.01171438954770565,-0.0012316774809733033,-0.002701248973608017,-0.011101516894996166,0.003162330947816372,-0.011449719779193401
0.011538377963006496,-0.001174515695311129,-0.0026332270354032516,-0.01101100817322731,0.0030326335690915585,-0.011972596868872643
0.011538038030266762,-0.001131148193962872,-0.002363046631217003,-0.011392733082175255,0.002840439323335886,-0.012126085348427296
0.011714834719896317,-0.0009972057305276394,-0.0025225416757166386,-0.011895444244146347,0.00274902512319386,-0.011263132095336914
0.011980992741882801,-0.0009769019670784473,-0.0026581676211208105,-0.011372335255146027,0.0026529862079769373,-0.011473063379526138
0.011566894128918648,-0.0009649397688917816,-0.002404554979875684,-0.01160346157848835,0.002890929114073515,-0.011838072910904884
0.011740517802536488,-0.0009562132763676345,-0.002467600628733635,-0.011779114603996277,0.0028857658617198467,-0.012583605945110321
0.011714021675288677,-0.0009603563812561333,-0.0023251306265592575,-0.011782481335103512,0.002655018586665392,-0.012129268608987331
0.011760125868022442,-0.0009594576549716294,-0.0021966153290122747,-0.012415667995810509,0.002771466039121151,-0.011684179306030273
0.012089521624147892,-0.00095048185903579,-0.0023725968785583973,-0.012097963131964207,0.002869014162570238,-0.011755303479731083
0.011839965358376503,-0.0008303479989990592,-0.0025722074788063765,-0.012352459132671356,0.003086320823058486,-0.011764315888285637
0.012059934437274933,-0.0008368566050194204,-0.002454844769090414,-0.012260586023330688,0.0030759864021092653,-0.012321310117840767
0.011683118529617786,-0.0007589051965624094,-0.0025731557980179787,-0.012234452180564404,0.003047818085178733,-0.012278207577764988
0.011849426664412022,-0.0006867549964226782,-0.0025589598808437586,-0.012484144419431686,0.0030798062216490507,-0.012362943030893803
0.012137511745095253,-0.0007102923118509352,-0.002354877069592476,-0.012737708166241646,0.0031713962089270353,-0.012683789245784283
0.01171572133898735,-0.0007000325713306665,-0.002494991756975651,-0.012958516366779804,0.003072909312322736,-0.01221117377281189
0.011936244554817677,-0.0006593010039068758,-0.0027539220172911882,-0.012559918686747551,0.0029537829104810953,-0.012295170687139034
0.011936244554817677,-0.0006593010039068758,-0.0027539220172911882,-0.012559918686747551,0.0029537829104810953,-0.012295170687139034
0.012048301286995411,-0.0006789068575017154,-0.0026677639689296484,-0.01336628757417202,0.0027007453609257936,-0.012460947036743164
0.01245245523750782,-0.0006233666790649295,-0.0026258728466928005,-0.013417673297226429,0.0027038701809942722,-0.012757191434502602
0.011935429647564888,-0.0005737193278037012,-0.002542271977290511,-0.014003670774400234,0.0030186516232788563,-0.012551765888929367
0.011763468384742737,-0.0005313690053299069,-0.002473732689395547,-0.013659746386110783,0.0030298717319965363,-0.012553136795759201
0.012482245452702045,-0.0004966174019500613,-0.002779669128358364,-0.014089090749621391,0.0028317999094724655,-0.012753035873174667
0.012058369815349579,-0.00044898525811731815,-0.0029198192059993744,-0.013957521878182888,0.002691705012694001,-0.012786466628313065
0.012170662172138691,-0.0004082574159838259,-0.0028838927391916513,-0.013982749544084072,0.002739377785474062,-0.012524149380624294
0.011721627786755562,-0.0003742874541785568,-0.002766328863799572,-0.0141049325466156,0.0026669069193303585,-0.012481415644288063
0.012297467328608036,-0.00034554203739389777,-0.002767109079286456,-0.014753519557416439,0.002886417554691434,-0.012671474367380142
0.012673413380980492,-0.00032089310116134584,-0.0028116980101913214,-0.01489679142832756,0.0029060090892016888,-0.012540847063064575
0.013164084404706955,-0.0002808328135870397,-0.0026352866552770138,-0.014808799140155315,0.00283535523340106,-0.012507570907473564
0.012479499913752079,-0.0002643346961122006,-0.002693652408197522,-0.015515334904193878,0.0029259691946208477,-0.01301313005387783
0.012840130366384983,-0.0002496676752343774,-0.0026704827323555946,-0.015056508593261242,0.003104211762547493,-0.01280224695801735
0.012539946474134922,-0.00023654184769839048,-0.0026179621927440166,-0.015423833392560482,0.003189259907230735,-0.01263953186571598
0.01305467076599598,-0.00022472826822195202,-0.002793488558381796,-0.014582892879843712,0.0033981730230152607,-0.01280786283314228
0.012522080913186073,-0.00021403809660114348,-0.002869320334866643,-0.01555369608104229,0.0035822929348796606,-0.0128346998244524
0.012706412933766842,-0.00020431891607586294,-0.00285531347617507,-0.015592333860695362,0.003637892659753561,-0.013133950531482697
0.013043984770774841,-0.0001954443723661825,-0.00259864772669971,-0.01639699377119541,0.003691948251798749,-0.013321300968527794
0.013080672360956669,-0.00018730934243649244,-0.0025564394891262054,-0.016651621088385582,0.0032957938965409994,-0.013385137543082237
0.01314138900488615,-0.0001798235607566312,-0.0027513483073562384,-0.016364365816116333,0.002997688250616193,-0.013167020864784718
0.012519310228526592,-0.00017291349649894983,-0.0027962327003479004,-0.016405079513788223,0.00297931139357388,-0.013027260079979897
0.013152498751878738,-0.00016651538317091763,-0.002878292463719845,-0.016350453719496727,0.002961191814392805,-0.012906987220048904
0.012534989975392818,-0.00016057303582783788,-0.0027639553882181644,-0.017350299283862114,0.0030297900084406137,-0.013294090516865253
0.013804864138364792,-0.000155040601384826,-0.002771182917058468,-0.017237961292266846,0.003205453511327505,-0.012988139875233173
0.013339197263121605,-0.0001498769997851923,-0.0028643982950598,-0.016903314739465714,0.0040750461630523205,-0.013254107907414436
0.013417583890259266,-9.815159137360752e-05,-0.002920348197221756,-0.016812419518828392,0.0036625550128519535,-0.013362747617065907
0.013356375508010387,0.00011764953524107113,-0.002889452036470175,-0.016577579081058502,0.003544052131474018,-0.013337735086679459
0.013670469634234905,0.0001843774225562811,-0.0028414418920874596,-0.016923241317272186,0.003159640356898308,-0.013966201804578304
0.013748954981565475,0.002036936115473509,-0.003172138938680291,-0.017220480367541313,0.003182759741321206,-0.013965226709842682
0.013748954981565475,0.002036936115473509,-0.003172138938680291,-0.017220480367541313,0.003182759741321206,-0.013965226709842682
0.013856255449354649,0.0012868820922449231,-0.0029940560925751925,-0.018012141808867455,0.003341627772897482,-0.013667063787579536
0.014122008346021175,0.0007934815366752446,-0.003298260737210512,-0.0187807809561491,0.0035765620414167643,-0.013772930018603802
0.013651772402226925,0.0006435179966501892,-0.003302508033812046,-0.018013713881373405,0.003977936692535877,-0.014010037295520306
0.014045980758965015,0.0005477791419252753,-0.003046601777896285,-0.018105190247297287,0.003923418466001749,-0.014129073359072208
0.014055438339710236,0.0002847201831173152,-0.002970470581203699,-0.0181337408721447,0.0037535117007791996,-0.014197491109371185
0.014434165321290493,0.0003783157735597342,-0.0028016790747642517,-0.018125317990779877,0.003686232026666403,-0.014116695150732994
0.01412908360362053,0.0004344244080130011,-0.0030607732478529215,-0.01845576986670494,0.003499948652461171,-0.014276412315666676
0.014384353533387184,0.0003984795475844294,-0.003298564348369837,-0.01875283755362034,0.0035828277468681335,-0.013996081426739693
0.014421536587178707,0.0003588956606108695,-0.003267919644713402,-0.019390961155295372,0.0037977141328155994,-0.014136248268187046
0.01425831951200962,0.00032634969102218747,-0.0030130555387586355,-0.018737176433205605,0.0038709482178092003,-0.013995802961289883
0.014769097790122032,0.0005691476399078965,-0.0028581253718584776,-0.01941526308655739,0.003385627642273903,-0.014192644506692886
0.014424022287130356,0.0005940374685451388,-0.003106174524873495,-0.020152049139142036,0.0034032033290714025,-0.014751875773072243
0.01491257268935442,0.0005450181779451668,-0.0034259825479239225,-0.01974232867360115,0.003240120830014348,-0.01525927521288395
0.014535102061927319,0.0005676766741089523,-0.00320895086042583,-0.01974407769739628,0.003512050025165081,-0.015279245562851429
0.015420953743159771,0.0005290239932946861,-0.002989936852827668,-0.02035951055586338,0.003965644631534815,-0.014789152890443802
0.015684103593230247,0.0005568633787333965,-0.0033620158210396767,-0.020382318645715714,0.004189733415842056,-0.01467030867934227
0.01585330441594124,0.0005598004790954292,-0.003136781742796302,-0.02034798264503479,0.004094970412552357,-0.014733552932739258
0.015850543975830078,0.0006072642863728106,-0.0033415607176721096,-0.02061428129673004,0.003540953854098916,-0.015068434178829193
0.015738511458039284,0.0006375769153237343,-0.0033036237582564354,-0.02018248662352562,0.0035274678375571966,-0.014917224645614624
0.016057448461651802,0.0006621116772294044,-0.0030186797957867384,-0.020308978855609894,0.0036760461516678333,-0.014993997290730476
0.01592831313610077,0.0006185459205880761,-0.0028748034965246916,-0.021191712468862534,0.0038453994784504175,-0.015204173512756824
0.016380328685045242,0.0008411981980316341,-0.0032954392954707146,-0.020958608016371727,0.004396699368953705,-0.015436818823218346
0.015996158123016357,0.000852725759614259,-0.0030239324551075697,-0.020600277930498123,0.004205123521387577,-0.015383186750113964
0.01643224060535431,0.0008591260993853211,-0.0031258694361895323,-0.020222334191203117,0.004117185715585947,-0.015244307927787304
0.016445431858301163,0.0008609449141658843,-0.0029987050220370293,-0.02054022252559662,0.004129128996282816,-0.015368042513728142
0.016481993719935417,0.0008846817654557526,-0.0029880525544285774,-0.020668279379606247,0.004301173612475395,-0.01540025882422924
0.016704194247722626,0.0009990964317694306,-0.003238726407289505,-0.02108733169734478,0.004370888229459524,-0.015430204570293427
0.016704194247722626,0.0009990964317694306,-0.003238726407289505,-0.02108733169734478,0.004370888229459524,-0.015430204570293427
0.016708390787243843,0.0010331448866054416,-0.003019538940861821,-0.021651221439242363,0.004395153373479843,-0.015448817983269691
0.01697191223502159,0.0015011037467047572,-0.0030413102358579636,-0.02200969122350216,0.004206011537462473,-0.015550387091934681
0.016723675653338432,0.0015251011354848742,-0.0029088074807077646,-0.02169271558523178,0.004249580204486847,-0.015404799953103065
0.016960887238383293,0.0014912241604179144,-0.0029460866935551167,-0.02210819162428379,0.004102600738406181,-0.01577412337064743
0.017200279980897903,0.0015160056063905358,-0.0032231174409389496,-0.02292810007929802,0.004024351015686989,-0.01587933674454689
0.01683521270751953,0.001435519428923726,-0.003017687238752842,-0.02324911393225193,0.00392804155126214,-0.015978096053004265
0.017037544399499893,0.0014737098244950175,-0.0030350997112691402,-0.022460194304585457,0.003985023591667414,-0.015368178486824036
0.01670515164732933,0.0014079012908041477,-0.003006462939083576,-0.022151054814457893,0.00404478469863534,-0.015779707580804825
0.017349760979413986,0.0016103043453767896,-0.0032208904158324003,-0.022249987348914146,0.004014192149043083,-0.01596294343471527
0.017281481996178627,0.0017624945612624288,-0.0031589216087013483,-0.022748079150915146,0.00437024375423789,-0.01599903404712677
0.017576737329363823,0.0018785365391522646,-0.0030448944307863712,-0.023380957543849945,0.004398008808493614,-0.015912728384137154
0.017266450449824333,0.0018337100045755506,-0.003186263144016266,-0.023488983511924744,0.004395599011331797,-0.016202209517359734
0.017615973949432373,0.0018728581489995122,-0.0035372180864214897,-0.0236909631639719,0.004218200221657753,-0.01631125435233116
0.017116345465183258,0.002218346344307065,-0.003370542312040925,-0.023815494030714035,0.00437419256195426,-0.016433347016572952
0.01674535684287548,0.0022997756022959948,-0.0031306229066103697,-0.02340932935476303,0.004596655257046223,-0.016220595687627792
0.017439186573028564,0.0027516428381204605,-0.003019027877599001,-0.02355000004172325,0.004640626255422831,-0.016288070008158684
0.017526306211948395,0.002464976627379656,-0.003081508679315448,-0.02416374161839485,0.004160399083048105,-0.016172584146261215
0.01844838634133339,0.0023774164728820324,-0.003434874350205064,-0.02435949258506298,0.0042905500158667564,-0.016231335699558258
0.01801617071032524,0.0026745619252324104,-0.0036392512265592813,-0.024021891877055168,0.004463893827050924,-0.01653403975069523
0.017088694497942924,0.0029776718001812696,-0.003394825616851449,-0.0234073456376791,0.0045609669759869576,-0.016848580911755562
0.01851850189268589,0.0031630860175937414,-0.003459615632891655,-0.023640533909201622,0.0043087671510875225,-0.01685701683163643
0.018586307764053345,0.0032981117255985737,-0.0032849914859980345,-0.024418991059064865,0.004409120883792639,-0.016514480113983154
0.018635470420122147,0.002905764849856496,-0.0036372379399836063,-0.024492613971233368,0.004212301690131426,-0.016385650262236595
0.018917620182037354,0.003014217596501112,-0.0034043528139591217,-0.024230465292930603,0.0043021985329687595,-0.016343075782060623
0.018479151651263237,0.003054206259548664,-0.003503326093778014,-0.024138329550623894,0.0046539600007236,-0.01575692743062973
0.01864483952522278,0.0031953833531588316,-0.004084565211087465,-0.024172527715563774,0.00429114606231451,-0.01657794415950775
0.018375489860773087,0.0034905606880784035,-0.004324728157371283,-0.023722685873508453,0.004447317216545343,-0.016979148611426353
0.01836458593606949,0.004249883349984884,-0.0035377752501517534,-0.02389894612133503,0.004573501646518707,-0.01754755526781082
0.01908819004893303,0.004447005223482847,-0.003433697856962681,-0.024332411587238312,0.0051714153960347176,-0.01748991757631302
0.01908819004893303,0.004447005223482847,-0.003433697856962681,-0.024332411587238312,0.0051714153960347176,-0.01748991757631302
0.019708458334207535,0.004325351677834988,-0.0030825037974864244,-0.02452915906906128,0.004867310170084238,-0.017298026010394096
0.019017711281776428,0.004039311781525612,-0.0034163116943091154,-0.02471853420138359,0.004456275142729282,-0.017360378056764603
0.019256459549069405,0.0041759684681892395,-0.004238729830831289,-0.024971013888716698,0.004611829295754433,-0.017656927928328514
0.01980537176132202,0.004685025196522474,-0.0036427024751901627,-0.025293510407209396,0.005005541257560253,-0.01819475181400776
0.019499702379107475,0.005184450186789036,-0.0034399593714624643,-0.025441590696573257,0.005003251135349274,-0.018086649477481842
0.01974954456090927,0.004628414753824472,-0.0034765168093144894,-0.02641083486378193,0.004850321915000677,-0.017301447689533234
0.019944291561841965,0.005068321246653795,-0.0036346979904919863,-0.025863345712423325,0.004726086743175983,-0.017213867977261543
0.01976933516561985,0.005479088053107262,-0.0036045447923243046,-0.02528643049299717,0.004484496545046568,-0.016947835683822632
0.02008691616356373,0.00529052596539259,-0.0034566291142255068,-0.0259032491594553,0.004358861595392227,-0.01744828186929226
0.020334118977189064,0.005602785851806402,-0.003855278482660651,-0.026311105117201805,0.004808739293366671,-0.01909570023417473
0.02019588090479374,0.005697858054190874,-0.0038789883255958557,-0.0262315571308136,0.005443610716611147,-0.01772032119333744
0.02105555683374405,0.0064300899393856525,-0.0038419223856180906,-0.026732057332992554,0.005353777669370174,-0.017422687262296677
0.020781055092811584,0.0057471739128232,-0.0038090748712420464,-0.02662593685090542,0.004963184241205454,-0.017444949597120285
0.020634017884731293,0.005919487681239843,-0.0037960847839713097,-0.026618197560310364,0.004520283546298742,-0.017807230353355408
0.020944250747561455,0.005692855920642614,-0.0037758166436105967,-0.02642356976866722,0.004134166985750198,-0.018124224618077278
0.021249467507004738,0.0057195439003407955,-0.003951787482947111,-0.02644273079931736,0.004427140112966299,-0.01811135932803154
0.021425139158964157,0.005736193619668484,-0.0038258580025285482,-0.027757015079259872,0.005189902149140835,-0.01832749880850315
0.021082812920212746,0.006137108895927668,-0.003562130266800523,-0.028810061514377594,0.0055400836281478405,-0.01823396049439907
0.021154768764972687,0.006590341217815876,-0.0035845458041876554,-0.028569815680384636,0.00511944992467761,-0.018376583233475685
0.021852295845746994,0.006353036034852266,-0.0037552290596067905,-0.027872974053025246,0.005034568719565868,-0.018042942509055138
0.021943649277091026,0.006251221988350153,-0.0038533711340278387,-0.027667485177516937,0.004802510142326355,-0.01831303909420967
0.02206307090818882,0.006679188925772905,-0.004144070204347372,-0.0291343592107296,0.0049567450769245625,-0.018711281940340996
0.02183293178677559,0.007327484432607889,-0.00414316076785326,-0.029556317254900932,0.005304323509335518,-0.01849164441227913
0.022120796144008636,0.00707159424200654,-0.0038387486711144447,-0.02930065616965294,0.0056383186019957066,-0.01887970231473446
0.0222631823271513,0.007269577123224735,-0.0035878231283277273,-0.03002024255692959,0.0052026063203811646,-0.019182894378900528
0.022484151646494865,0.0069758230820298195,-0.003628307720646262,-0.029950350522994995,0.004647655878216028,-0.01888640597462654
0.022056819871068,0.006865320261567831,-0.003798752324655652,-0.029187191277742386,0.004383085761219263,-0.018764110282063484
0.022056819871068,0.006865320261567831,-0.003798752324655652,-0.029187191277742386,0.004383085761219263,-0.018764110282063484
0.0226054098457098,0.007398344576358795,-0.004276367370039225,-0.02860931120812893,0.004759148228913546,-0.01892964355647564
0.02302108332514763,0.007275367621332407,-0.0040222834795713425,-0.028949523344635963,0.0047882902435958385,-0.019077159464359283
0.02387857437133789,0.007325494661927223,-0.004346126224845648,-0.029769916087388992,0.005338907241821289,-0.01900404505431652
0.023080792278051376,0.00740433344617486,-0.004150994122028351,-0.029908251017332077,0.005170073825865984,-0.019275683909654617
0.02272227220237255,0.007965018972754478,-0.004460742697119713,-0.0294550359249115,0.004988155327737331,-0.01919739879667759
0.022108888253569603,0.007505429908633232,-0.004228942561894655,-0.028874864801764488,0.0049326554872095585,-0.019198892638087273
0.022739611566066742,0.0076400949619710445,-0.0042336685582995415,-0.029131954535841942,0.004937100689858198,-0.019591037184000015
0.024226464331150055,0.007751367054879665,-0.004006699193269014,-0.03035624511539936,0.005293009802699089,-0.01942524127662182
0.022515226155519485,0.0077504003420472145,-0.0046899630688130856,-0.029606685042381287,0.005640745162963867,-0.019197611138224602
0.023686198517680168,0.007604275830090046,-0.004442856181412935,-0.029777096584439278,0.0057148742489516735,-0.019476378336548805
0.02403564751148224,0.007813812233507633,-0.004502384457737207,-0.03040405549108982,0.005205933470278978,-0.01945045404136181
0.024036679416894913,0.008447332307696342,-0.00419652508571744,-0.03118925727903843,0.005160682834684849,-0.019362593069672585
0.02375858463346958,0.008347518742084503,-0.003966458607465029,-0.03042426146566868,0.005100390873849392,-0.019357727840542793
0.022629529237747192,0.007786302361637354,-0.0040404400788247585,-0.030637113377451897,0.005485900677740574,-0.01926143653690815
0.022796232253313065,0.008416221477091312,-0.004303552210330963,-0.030714191496372223,0.005353773944079876,-0.01955658569931984
0.023680375888943672,0.008451061323285103,-0.004374464508146048,-0.03127381205558777,0.004937495104968548,-0.019794581457972527
0.024173401296138763,0.007913663052022457,-0.004434805829077959,-0.0324653722345829,0.004783500451594591,-0.019786160439252853
0.023925531655550003,0.008888142183423042,-0.00411615613847971,-0.032172560691833496,0.005158776883035898,-0.019544940441846848
0.023785581812262535,0.008622287772595882,-0.003961233887821436,-0.03091929294168949,0.005537314806133509,-0.01941058412194252
0.023588145151734352,0.008388439193367958,-0.004257394932210445,-0.030649786815047264,0.005561231169849634,-0.01957007870078087
0.0235141534358263,0.008304820396006107,-0.004262445028871298,-0.0312119759619236,0.005186907015740871,-0.01953178271651268
0.02431357465684414,0.008693552576005459,-0.004445349797606468,-0.030878446996212006,0.005675210617482662,-0.019567495211958885
0.024501288309693336,0.009329850785434246,-0.004604579880833626,-0.030811036005616188,0.005382773466408253,-0.01957867108285427
0.024270793423056602,0.008687037974596024,-0.0040827179327607155,-0.032440055161714554,0.00506128603592515,-0.01991361752152443
0.024063799530267715,0.008563355542719364,-0.003825152525678277,-0.03172866255044937,0.0057045030407607555,-0.019467903301119804
0.024619843810796738,0.008901743218302727,-0.004279439337551594,-0.03044758178293705,0.00561738945543766,-0.020666245371103287
0.024478694424033165,0.008669734001159668,-0.004770949482917786,-0.030497927218675613,0.005525003653019667,-0.02050091326236725
0.0246500913053751,0.00875417422503233,-0.00446449825540185,-0.0315420888364315,0.00526452949270606,-0.01989247463643551
0.0246500913053751,0.00875417422503233,-0.00446449825540185,-0.0315420888364315,0.00526452949270606,-0.01989247463643551
0.024890342727303505,0.009217426180839539,-0.004396216012537479,-0.03177574649453163,0.005048881750553846,-0.01992599293589592
0.024815382435917854,0.00882747769355774,-0.004525731783360243,-0.031678907573223114,0.005417018197476864,-0.020063046365976334
0.024741217494010925,0.009084227494895458,-0.0042383610270917416,-0.031974680721759796,0.005272349342703819,-0.019834736362099648
0.025005439296364784,0.009527796879410744,-0.003977332264184952,-0.03316931053996086,0.0056856293231248856,-0.019677521660923958
0.024857625365257263,0.009156919084489346,-0.004434697795659304,-0.031178422272205353,0.005617265589535236,-0.020272495225071907
0.02470317669212818,0.008899307809770107,-0.004607893992215395,-0.031087644398212433,0.005364190321415663,-0.021066265180706978
0.02481744810938835,0.009341779164969921,-0.0044664060696959496,-0.031279485672712326,0.0050040646456182,-0.020986245945096016
0.025236155837774277,0.009448337368667126,-0.004198715090751648,-0.03204650059342384,0.005616112612187862,-0.020366745069622993
0.025094959884881973,0.00922765675932169,-0.003908881451934576,-0.03199970722198486,0.005516932345926762,-0.020848307758569717
0.02548041194677353,0.008917679078876972,-0.004590688738971949,-0.032578736543655396,0.00583381624892354,-0.021318452432751656
0.02492854930460453,0.00787802878767252,-0.004928213078528643,-0.03226914256811142,0.0059958696365356445,-0.020628638565540314
0.024791046977043152,0.007774271536618471,-0.004508994519710541,-0.03240654617547989,0.005393456667661667,-0.02082173153758049
0.02522740326821804,0.007880576886236668,-0.004174035973846912,-0.032204415649175644,0.005379787180572748,-0.020152850076556206
0.025268783792853355,0.008441493846476078,-0.0045692697167396545,-0.032301075756549835,0.005390006583184004,-0.020198572427034378
0.025190778076648712,0.00791727565228939,-0.0043025207705795765,-0.032803673297166824,0.005807932000607252,-0.020844576880335808
0.024552898481488228,0.009025688283145428,-0.004505559802055359,-0.03315647691488266,0.005782723892480135,-0.021360406652092934
0.02580556832253933,0.00848471000790596,-0.004639003425836563,-0.03343914449214935,0.005568987224251032,-0.02127668634057045
0.0264139324426651,0.008271116763353348,-0.004510009195655584,-0.0337514653801918,0.0052587478421628475,-0.02117065340280533
0.026308562606573105,0.007893720641732216,-0.0044285012409091,-0.03375846892595291,0.00538772065192461,-0.021287385374307632
0.02577049471437931,0.008958441205322742,-0.0044179572723805904,-0.033762942999601364,0.00563305988907814,-0.02163097821176052
0.02591269090771675,0.008252219296991825,-0.004559576045721769,-0.03419960290193558,0.005960877984762192,-0.021425941959023476
0.024906599894165993,0.00858132354915142,-0.004682071506977081,-0.035212766379117966,0.005508005153387785,-0.021471498534083366
0.025543488562107086,0.00871780700981617,-0.004734446294605732,-0.0350569449365139,0.0051331836730241776,-0.021799804642796516
0.026542149484157562,0.00928050372749567,-0.005229386501014233,-0.03462161123752594,0.00518423318862915,-0.02200264111161232
0.026063112542033195,0.008914169855415821,-0.004963991232216358,-0.034513067454099655,0.0054854447953403,-0.021811634302139282
0.02577962912619114,0.008478526026010513,-0.004439345560967922,-0.03620963171124458,0.005995492916554213,-0.02192235179245472
0.02577962912619114,0.008478526026010513,-0.004439345560967922,-0.03620963171124458,0.005995492916554213,-0.02192235179245472
0.027216674759984016,0.008957340382039547,-0.004480544477701187,-0.03556690737605095,0.005877027288079262,-0.02217630296945572
0.02698211371898651,0.009181560948491096,-0.005176019389182329,-0.034277550876140594,0.0057269250974059105,-0.0223185196518898
0.02628137171268463,0.00860618893057108,-0.004986177664250135,-0.034506574273109436,0.005368639715015888,-0.022818008437752724
0.02616986818611622,0.009315167553722858,-0.00452843215316534,-0.03612557798624039,0.00552995502948761,-0.02207936905324459
0.026512037962675095,0.00929455365985632,-0.004609478171914816,-0.03619704023003578,0.00544391293078661,-0.021556926891207695
0.026642268523573875,0.00985712930560112,-0.004974870942533016,-0.036706674844026566,0.005731456447392702,-0.022224338725209236
0.026529110968112946,0.009418693371117115,-0.0049491454847157,-0.036848027259111404,0.00605868361890316,-0.022499868646264076
0.026769591495394707,0.009671292267739773,-0.004775770008563995,-0.03554429113864899,0.0057193078100681305,-0.022662580013275146
0.02685774862766266,0.009694661013782024,-0.004698948934674263,-0.03486236184835434,0.00586845725774765,-0.022427676245570183
0.026836678385734558,0.01037265919148922,-0.005213262978941202,-0.0360172800719738,0.005846309009939432,-0.02251383103430271
0.02730509825050831,0.009944644756615162,-0.0050229234620928764,-0.037008874118328094,0.005686392076313496,-0.022907881066203117
0.027021780610084534,0.009705650620162487,-0.004888282623142004,-0.036528151482343674,0.005849904380738735,-0.022692495957016945
0.026982931420207024,0.01102015282958746,-0.004752722103148699,-0.03660440072417259,0.005863125901669264,-0.02283860743045807
0.027195816859602928,0.009795931167900562,-0.004763022530823946,-0.03690113499760628,0.0062188501469790936,-0.022153586149215698
0.027239063754677773,0.010783667676150799,-0.004778603091835976,-0.0375334732234478,0.006230195518583059,-0.022234419360756874
0.027278752997517586,0.01027387659996748,-0.0052341572009027,-0.037550415843725204,0.0060769785195589066,-0.022277118638157845
0.027058424428105354,0.010529850609600544,-0.004768099170178175,-0.03745770826935768,0.005937547888606787,-0.023052280768752098
0.02725488878786564,0.011022820137441158,-0.005007585510611534,-0.03790471330285072,0.006034072022885084,-0.022846750915050507
0.026055356487631798,0.010564561933279037,-0.005019401200115681,-0.03853512555360794,0.006337156519293785,-0.023264205083251
0.02786853536963463,0.01070340070873499,-0.004867915995419025,-0.03711995854973793,0.006046605762094259,-0.023391880095005035
0.027809077873826027,0.010867643170058727,-0.005123758222907782,-0.03688713163137436,0.006036745849996805,-0.023826897144317627
0.02765623852610588,0.010789792984724045,-0.005393035709857941,-0.03792731091380119,0.006182391662150621,-0.02319405786693096
0.027266088873147964,0.011105271987617016,-0.004883483983576298,-0.0386650525033474,0.006072138901799917,-0.022401850670576096
0.027507612481713295,0.01106315664947033,-0.004925333429127932,-0.038733597844839096,0.0061882734298706055,-0.022272836416959763
0.027430593967437744,0.011096898466348648,-0.005561499390751123,-0.036680709570646286,0.005713318474590778,-0.022638093680143356
0.028424829244613647,0.011298884637653828,-0.005202974192798138,-0.03730357810854912,0.006300287786871195,-0.023246966302394867
0.028682533651590347,0.010903649032115936,-0.005215452518314123,-0.03770746663212776,0.006793278735131025,-0.02335626445710659
0.028682533651590347,0.010903649032115936,-0.005215452518314123,-0.03770746663212776,0.006793278735131025,-0.02335626445710659
0.028993874788284302,0.01113740261644125,-0.005142710637301207,-0.038161084055900574,0.006445498671382666,-0.02424255758523941
0.027323802933096886,0.011465981602668762,-0.005206756759434938,-0.03876661881804466,0.0062505886889994144,-0.023046575486660004
0.028018634766340256,0.010798144154250622,-0.005416410509496927,-0.03738389536738396,0.005950787104666233,-0.022201161831617355
0.029162591323256493,0.011230459436774254,-0.005046092439442873,-0.03637973591685295,0.006281911861151457,-0.022681741043925285
0.02904980443418026,0.011073830537497997,-0.004760253708809614,-0.03801928088068962,0.006669049151241779,-0.023366780951619148
0.029342737048864365,0.011026175692677498,-0.005072330590337515,-0.03832627832889557,0.006997059565037489,-0.023615606129169464
0.030189216136932373,0.011638402938842773,-0.005098140332847834,-0.03839357942342758,0.006699977442622185,-0.023504212498664856
0.02973848767578602,0.0119007034227252,-0.004779452923685312,-0.03854072839021683,0.006433730013668537,-0.02353038638830185
0.029506871476769447,0.011693659238517284,-0.00463277380913496,-0.038521990180015564,0.006226533558219671,-0.023452546447515488
0.029496310278773308,0.011264508590102196,-0.005110377911478281,-0.03938152641057968,0.00651197275146842,-0.023557312786579132
0.02987898886203766,0.010953471064567566,-0.005504830274730921,-0.039653901010751724,0.006803302094340324,-0.023625949397683144
0.030381958931684494,0.011423081159591675,-0.005047566723078489,-0.039676468819379807,0.00644223066046834,-0.023546136915683746
0.03061586245894432,0.011629858054220676,-0.004988494329154491,-0.03959795832633972,0.006725755054503679,-0.024146419018507004
0.03034891001880169,0.011589182540774345,-0.005055811256170273,-0.039336785674095154,0.006325528025627136,-0.023845573887228966
0.03084765374660492,0.01100165769457817,-0.0051698689348995686,-0.03985966742038727,0.006500731687992811,-0.023937594145536423
0.031177081167697906,0.011693067848682404,-0.004839018918573856,-0.03972281143069267,0.006658829282969236,-0.02386203221976757
0.031119361519813538,0.011326810345053673,-0.004827035125344992,-0.04036873206496239,0.006757880561053753,-0.024303624406456947
0.031789544969797134,0.011323533020913601,-0.0051416512578725815,-0.040558598935604095,0.006614724174141884,-0.024588752537965775
0.03167222812771797,0.011413423344492912,-0.005367610603570938,-0.040573250502347946,0.006468577776104212,-0.024473771452903748
0.031578484922647476,0.010922790504992008,-0.005233751609921455,-0.04034888744354248,0.00625094398856163,-0.02421703189611435
0.031181195750832558,0.011739982292056084,-0.0053385039791464806,-0.039978574961423874,0.006739096250385046,-0.0240444578230381
0.03163876011967659,0.011005855165421963,-0.004976935684680939,-0.04089740663766861,0.006520586553961039,-0.02423183061182499
0.03188716620206833,0.012370998039841652,-0.005041481461375952,-0.04112455993890762,0.006546218879520893,-0.026039976626634598
0.03247663751244545,0.010956840589642525,-0.005386160686612129,-0.040577586740255356,0.006566239055246115,-0.024343853816390038
0.03247663751244545,0.010956840589642525,-0.005386160686612129,-0.040577586740255356,0.006566239055246115,-0.024343853816390038
0.03173717111349106,0.01071547158062458,-0.005405783653259277,-0.0421077124774456,0.006682656705379486,-0.024068888276815414
0.03228141367435455,0.01135801337659359,-0.0055395388044416904,-0.04266449436545372,0.006870765704661608,-0.024558061733841896
0.03243333846330643,0.01179230771958828,-0.005092041101306677,-0.04071818292140961,0.006314176134765148,-0.024965355172753334
0.032671842724084854,0.01123251672834158,-0.005197946447879076,-0.04113972559571266,0.00673985481262207,-0.025390544906258583
0.032610584050416946,0.011705990880727768,-0.00548091484233737,-0.04215019568800926,0.007159622386097908,-0.02503330446779728
0.03266870230436325,0.011462748982012272,-0.005335077177733183,-0.0436711348593235,0.006792447529733181,-0.024931279942393303
0.032586950808763504,0.011277548037469387,-0.005341385491192341,-0.043039001524448395,0.0064867641776800156,-0.02558513917028904
0.032944802194833755,0.011292165145277977,-0.005521345883607864,-0.04067807272076607,0.006448103580623865,-0.025628618896007538
0.03326837718486786,0.011713430285453796,-0.005535250063985586,-0.04121183604001999,0.006257649511098862,-0.024953313171863556
0.03323204070329666,0.011783292517066002,-0.005120194051414728,-0.04316245764493942,0.006814980413764715,-0.02457781508564949
0.03322930261492729,0.01130707561969757,-0.004731145221740007,-0.043083928525447845,0.007165871094912291,-0.025042204186320305
0.0335717611014843,0.011334598995745182,-0.005437265150249004,-0.042560841888189316,0.00696221087127924,-0.025923846289515495
0.03399137035012245,0.01145165879279375,-0.005799415055662394,-0.042611368000507355,0.0073368968442082405,-0.02527698688209057
0.03329135477542877,0.012181798927485943,-0.00507667800411582,-0.04242972284555435,0.007706041447818279,-0.024803102016448975
0.03497549146413803,0.01165719237178564,-0.004757054150104523,-0.04220160096883774,0.006789244245737791,-0.024930085986852646
0.03428424522280693,0.011608690023422241,-0.005090978927910328,-0.042000237852334976,0.006437120493501425,-0.02555851824581623
0.0343921035528183,0.012189552187919617,-0.005533231887966394,-0.04279507324099541,0.00685205077752471,-0.026484224945306778
0.03565751761198044,0.01128201000392437,-0.006252244580537081,-0.042231447994709015,0.00764009915292263,-0.026607627049088478
0.03564337641000748,0.011667946353554726,-0.0055936588905751705,-0.041700806468725204,0.007208589464426041,-0.025911930948495865
0.03377728536725044,0.011582881212234497,-0.005097358021885157,-0.041342899203300476,0.006673519499599934,-0.02623889036476612
0.03415142744779587,0.011532600969076157,-0.004933653399348259,-0.041545942425727844,0.006411480251699686,-0.02622136101126671
0.03513558954000473,0.012059582397341728,-0.005350803025066853,-0.043336156755685806,0.007058422081172466,-0.025545941665768623
0.03545108065009117,0.011628096923232079,-0.006429020315408707,-0.043298300355672836,0.007436542306095362,-0.025335010141134262
0.03519156947731972,0.011803066357970238,-0.006545708980411291,-0.04091858118772507,0.0073010060004889965,-0.02585522085428238
0.03476685285568237,0.01168840192258358,-0.005203078500926495,-0.04311109334230423,0.006775999441742897,-0.02629215642809868
0.03478372097015381,0.011629374697804451,-0.004884965717792511,-0.04156345874071121,0.006719527766108513,-0.025962933897972107
0.03478372097015381,0.011629374697804451,-0.004884965717792511,-0.04156345874071121,0.006719527766108513,-0.025962933897972107
0.03535950556397438,0.011801122687757015,-0.005772127769887447,-0.04457322135567665,0.006974330171942711,-0.025529956445097923
0.03535950556397438,0.011801122687757015,-0.005772127769887447,-0.04457322135567665,0.006974330171942711,-0.025529956445097923
0.03540138527750969,0.012310095131397247,-0.0063139284029603004,-0.04262787103652954,0.007356559857726097,-0.026007018983364105
0.034903962165117264,0.011651589535176754,-0.005829013418406248,-0.04366886615753174,0.006944477092474699,-0.025857264176011086
0.034607768058776855,0.01208628248423338,-0.005395299755036831,-0.04449957609176636,0.006834850646555424,-0.025842931121587753
0.034966710954904556,0.012172247283160686,-0.0055778115056455135,-0.04450030252337456,0.007085639517754316,-0.026130931451916695
0.03523929789662361,0.012099107727408409,-0.005265148356556892,-0.04466889798641205,0.006890987977385521,-0.0262905340641737
0.033748868852853775,0.012345240451395512,-0.005567735526710749,-0.044299136847257614,0.007049670442938805,-0.026455126702785492
0.035365380346775055,0.011740555055439472,-0.005910380277782679,-0.04470383748412132,0.007022663950920105,-0.02606946788728237
0.036166977137327194,0.01233277190476656,-0.005987356882542372,-0.04469235986471176,0.0068114460445940495,-0.02629893831908703
0.036419060081243515,0.012172738090157509,-0.005564316641539335,-0.044790323823690414,0.007117035798728466,-0.027437204495072365
0.03472656011581421,0.01273312233388424,-0.005584688391536474,-0.045190002769231796,0.006994134280830622,-0.026082444936037064
0.03576124832034111,0.01217086985707283,-0.006507579702883959,-0.04592777043581009,0.0070866309106349945,-0.025784529745578766
0.03585200384259224,0.012631147168576717,-0.006245293654501438,-0.045570582151412964,0.0070113190449774265,-0.026837939396500587
0.03650950267910957,0.012573483400046825,-0.005880046635866165,-0.04575413092970848,0.0072829583659768105,-0.027611341327428818
0.03594513610005379,0.012451372109353542,-0.005295254290103912,-0.04587157815694809,0.007749828975647688,-0.02681148611009121
0.03526702895760536,0.012249298393726349,-0.005611422471702099,-0.045919060707092285,0.007343023084104061,-0.025401970371603966
0.0353328101336956,0.012684379704296589,-0.006480738520622253,-0.04652983695268631,0.006827910430729389,-0.025831157341599464
0.03595812991261482,0.012522617354989052,-0.006150621455162764,-0.045940909534692764,0.0071711125783622265,-0.026321958750486374
0.03605501353740692,0.012332412414252758,-0.005765476264059544,-0.04744194820523262,0.007485825102776289,-0.026577798649668694
0.0358116589486599,0.012771417386829853,-0.005202913656830788,-0.04504977539181709,0.007412558887153864,-0.026004264131188393
0.035908497869968414,0.012243163771927357,-0.005734311416745186,-0.04387662932276726,0.007079096511006355,-0.026423119008541107
0.03573143854737282,0.012875910848379135,-0.005999197252094746,-0.045404043048620224,0.006949391681700945,-0.027553223073482513
0.03592997044324875,0.012905536219477654,-0.0061792489141225815,-0.04631301015615463,0.00782894529402256,-0.026347268372774124
0.0359690822660923,0.012783998623490334,-0.005914734210819006,-0.04749839007854462,0.007346151862293482,-0.02548205479979515
0.0359690822660923,0.012783998623490334,-0.005914734210819006,-0.04749839007854462,0.007346151862293482,-0.02548205479979515
0.03596304729580879,0.012887958437204361,-0.005710366182029247,-0.045835383236408234,0.007613825146108866,-0.02574235573410988
0.03633825480937958,0.01294039934873581,-0.005448737181723118,-0.04464614391326904,0.006836383603513241,-0.026367640122771263
0.0364917628467083,0.012765790335834026,-0.005678857676684856,-0.046225517988204956,0.006513111758977175,-0.026789527386426926
0.03502056002616882,0.01311586145311594,-0.006134673021733761,-0.04623294249176979,0.006972142960876226,-0.027384422719478607
0.036912258714437485,0.01348152570426464,-0.005702706053853035,-0.04605070874094963,0.007248064503073692,-0.02636229619383812
0.036757197231054306,0.012983162887394428,-0.005852859932929277,-0.04620853438973427,0.007128815166652203,-0.026625962927937508
0.036095477640628815,0.01362303551286459,-0.005788061302155256,-0.04626932367682457,0.007360068149864674,-0.027098821476101875
0.036392904818058014,0.012924889102578163,-0.006182529032230377,-0.046087075024843216,0.007632324006408453,-0.027235016226768494
0.03707020357251167,0.01327382493764162,-0.00565244909375906,-0.04605923220515251,0.007675512228161097,-0.027025409042835236
0.03673605993390083,0.0130793247371912,-0.00566224055364728,-0.04593825712800026,0.0077437362633645535,-0.02708400785923004
0.036671996116638184,0.013349784538149834,-0.00661438750103116,-0.04597136005759239,0.00778111070394516,-0.02724498324096203
0.03694000467658043,0.013268953189253807,-0.007584399543702602,-0.04695640131831169,0.007186485454440117,-0.027511799708008766
0.03731920197606087,0.014445419423282146,-0.007134249899536371,-0.047431521117687225,0.007272782735526562,-0.027540886774659157
0.03710854426026344,0.014522721990942955,-0.006270876154303551,-0.04752565175294876,0.007441492285579443,-0.02757054567337036
0.03716108947992325,0.01490234024822712,-0.006278464570641518,-0.0476088672876358,0.007999901659786701,-0.027809282764792442
0.037290312349796295,0.01420477032661438,-0.0063703833147883415,-0.0487595796585083,0.007807299494743347,-0.027740567922592163
0.03714451193809509,0.015164677053689957,-0.007290577981621027,-0.05040157586336136,0.007469457108527422,-0.027536533772945404
0.039065852761268616,0.014996141195297241,-0.006287733092904091,-0.04836079105734825,0.007845976389944553,-0.028470328077673912
0.037333711981773376,0.014995738863945007,-0.006441309116780758,-0.0496002621948719,0.007503779139369726,-0.028423868119716644
0.03686246648430824,0.014999751932919025,-0.007197665516287088,-0.05024770274758339,0.007349126972258091,-0.029691362753510475
0.03847065195441246,0.014416423626244068,-0.007773836143314838,-0.04903794825077057,0.007850623689591885,-0.027573654428124428
0.03855663165450096,0.015304243192076683,-0.007006776053458452,-0.04846998304128647,0.008265834301710129,-0.027878426015377045
0.03960365056991577,0.014633879996836185,-0.007367248646914959,-0.04981439933180809,0.007986526936292648,-0.02836267463862896
0.03878865763545036,0.015311038121581078,-0.006630127318203449,-0.05011908710002899,0.007467692252248526,-0.02846246212720871
0.03796966373920441,0.014859668910503387,-0.007123964838683605,-0.050146330147981644,0.007887561805546284,-0.02858291193842888
0.038120925426483154,0.015778154134750366,-0.007043330930173397,-0.04994252696633339,0.007927228696644306,-0.028632428497076035
0.03919392451643944,0.01514883991330862,-0.007032349705696106,-0.05032763257622719,0.007606280967593193,-0.02873595803976059
0.03847052529454231,0.015651172026991844,-0.007023511454463005,-0.050326451659202576,0.007809445261955261,-0.029016906395554543
0.03969994932413101,0.015010843053460121,-0.0070601943880319595,-0.050445374101400375,0.00774106290191412,-0.02916020154953003
0.03969994932413101,0.015010843053460121,-0.0070601943880319595,-0.050445374101400375,0.00774106290191412,-0.02916020154953003
0.03975750133395195,0.015589508228003979,-0.006701908074319363,-0.0505804680287838,0.008049514144659042,-0.029584776610136032
0.03914555534720421,0.015590366907417774,-0.007338555064052343,-0.051660001277923584,0.008135762996971607,-0.029329469427466393
0.03995652124285698,0.015857677906751633,-0.006852304562926292,-0.05177130550146103,0.007913260720670223,-0.029299061745405197
0.03959956392645836,0.01593892090022564,-0.007112953811883926,-0.051774658262729645,0.008194948546588421,-0.029322940856218338
0.04018966853618622,0.015554102137684822,-0.00701526552438736,-0.05174630135297775,0.008256068453192711,-0.02903131954371929
0.04054541513323784,0.01579238660633564,-0.006539047230035067,-0.051382046192884445,0.008210448548197746,-0.02921205945312977
0.040245432406663895,0.015612623654305935,-0.006413095165044069,-0.05167500674724579,0.00831170380115509,-0.02984313853085041
0.0399431437253952,0.016046158969402313,-0.0072817192412912846,-0.0536738745868206,0.008449235931038857,-0.030765479430556297
0.0421663261950016,0.015596721321344376,-0.007726804818958044,-0.051293544471263885,0.008257310837507248,-0.029448136687278748
0.04170065000653267,0.015897123143076897,-0.0075787813402712345,-0.05089326575398445,0.00790468044579029,-0.02802490070462227
0.04004622623324394,0.015581090934574604,-0.006610795855522156,-0.05125046893954277,0.0075899953953921795,-0.028493843972682953
0.04147575795650482,0.015951422974467278,-0.006504138931632042,-0.05364495515823364,0.007644160185009241,-0.02991916611790657
0.041204746812582016,0.015925267711281776,-0.007326987572014332,-0.0510241836309433,0.008128677494823933,-0.02996305748820305
0.04260368272662163,0.01610325276851654,-0.007197107188403606,-0.0525716207921505,0.008121072314679623,-0.03103233501315117
0.040638186037540436,0.01574176549911499,-0.006952998694032431,-0.05303224176168442,0.008395377546548843,-0.029907038435339928
0.04121064767241478,0.01577034406363964,-0.007391715422272682,-0.053012121468782425,0.008117137476801872,-0.028742242604494095
0.04317191243171692,0.015360558405518532,-0.006857362110167742,-0.053385913372039795,0.00821899063885212,-0.028952017426490784
0.04196232184767723,0.01618364080786705,-0.006732825189828873,-0.05379154533147812,0.008507899940013885,-0.03042810969054699
0.0425424762070179,0.01569944992661476,-0.007169042713940144,-0.05412963777780533,0.00864177756011486,-0.030994156375527382
0.042360641062259674,0.01614254154264927,-0.0075234281830489635,-0.05419105291366577,0.0084987822920084,-0.03091861680150032
