davideferrari95/blind_handover_controller/data/Test 170 - [2024-02-08 -- 11-12-31]/joint_states_data.csv
shoulder_pan_joint,shoulder_lift_joint,elbow_joint,wrist_1_joint,wrist_2_joint,wrist_3_joint
0.012518713250756264,-0.026549795642495155,-0.008638152852654457,0.02772890403866768,-0.01284368708729744,0.011484723538160324
0.012039302848279476,-0.02687784656882286,-0.009526620618999004,0.02766834944486618,-0.01261676661670208,0.01150523778051138
0.012039302848279476,-0.02687784656882286,-0.009526620618999004,0.02766834944486618,-0.01261676661670208,0.01150523778051138
0.011463557370007038,-0.027651751413941383,-0.009478318504989147,0.028031708672642708,-0.012438606470823288,0.010867035947740078
0.011194935068488121,-0.027552321553230286,-0.009254522621631622,0.02918766438961029,-0.012514517642557621,0.011008808389306068
0.011705032549798489,-0.026802152395248413,-0.009116115979850292,0.02847297117114067,-0.012499792501330376,0.010826009325683117
0.010949963703751564,-0.026220500469207764,-0.009122785180807114,0.02801908366382122,-0.012401179410517216,0.010748447850346565
0.01094424445182085,-0.02628840133547783,-0.009163400158286095,0.027413856238126755,-0.012051825411617756,0.01041127648204565
0.010743330232799053,-0.02748381718993187,-0.010573241859674454,0.027307525277137756,-0.011341617442667484,0.010387107729911804
0.010881052352488041,-0.027346109971404076,-0.00983786303550005,0.02832796797156334,-0.011292307637631893,0.010649512521922588
0.010915201157331467,-0.02715619094669819,-0.010100756771862507,0.028464624658226967,-0.011200378648936749,0.010884006507694721
0.01017958577722311,-0.02796085737645626,-0.010006061755120754,0.028301646932959557,-0.010961457155644894,0.010901778936386108
0.01073537953197956,-0.02812867797911167,-0.009749187156558037,0.02797512710094452,-0.010932410135865211,0.010783679783344269
0.010577041655778885,-0.027932114899158478,-0.010191377252340317,0.028060540556907654,-0.01064638327807188,0.010769654996693134
0.01002858579158783,-0.02689751237630844,-0.010711564682424068,0.02863161638379097,-0.010668572038412094,0.010839799419045448
0.011064432561397552,-0.02817922830581665,-0.010243806056678295,0.028669362887740135,-0.010610162280499935,0.010349965654313564
0.010152049362659454,-0.027451178058981895,-0.010550729930400848,0.0289932768791914,-0.01076473854482174,0.009922275319695473
0.010426140390336514,-0.02729628048837185,-0.010171920992434025,0.029083991423249245,-0.010352008044719696,0.009970873594284058
0.01009775698184967,-0.0277349092066288,-0.011135837994515896,0.028855379670858383,-0.01041368953883648,0.010487335734069347
0.01009775698184967,-0.0277349092066288,-0.011135837994515896,0.028855379670858383,-0.01041368953883648,0.010487335734069347
0.010345482267439365,-0.027344146743416786,-0.010703356005251408,0.028761032968759537,-0.010025442577898502,0.010219710879027843
0.010526574216783047,-0.027393246069550514,-0.010125984437763691,0.029893290251493454,-0.009590601548552513,0.010350418277084827
0.010499680414795876,-0.027679912745952606,-0.010715113952755928,0.03008117340505123,-0.00900938455015421,0.009607210755348206
0.01000183541327715,-0.02742513082921505,-0.010455121286213398,0.02970430627465248,-0.00905308686196804,0.009053241461515427
0.009839302860200405,-0.02716691978275776,-0.010766732506453991,0.0299238171428442,-0.008871165104210377,0.00938318483531475
0.01022023893892765,-0.027241215109825134,-0.011202785186469555,0.030188575387001038,-0.008085661567747593,0.00934521947056055
0.009911231696605682,-0.0272604338824749,-0.010498205199837685,0.030266137793660164,-0.007017413154244423,0.008953225798904896
0.009876852855086327,-0.02735910750925541,-0.010983193293213844,0.030060168355703354,-0.006492012646049261,0.009424490854144096
0.009392770938575268,-0.02747751958668232,-0.010323114693164825,0.030562380328774452,-0.006398795638233423,0.008931165561079979
0.009565141052007675,-0.027601856738328934,-0.010290153324604034,0.030872894451022148,-0.00677094841375947,0.008730429224669933
0.009722154587507248,-0.027688441798090935,-0.011346816085278988,0.03239552304148674,-0.0068839904852211475,0.009043926373124123
0.009607377462089062,-0.027395766228437424,-0.010998624376952648,0.03110952489078045,-0.006140507757663727,0.008964013308286667
0.009308784268796444,-0.027990039438009262,-0.01034537237137556,0.030678296461701393,-0.006024797447025776,0.009018990211188793
0.009938779287040234,-0.027277570217847824,-0.010836522094905376,0.031470343470573425,-0.006194313056766987,0.008830265142023563
0.008956799283623695,-0.027917038649320602,-0.010334611870348454,0.031262852251529694,-0.006238691974431276,0.00890334788709879
0.009822003543376923,-0.027895068749785423,-0.010216852650046349,0.031440719962120056,-0.006792969070374966,0.008931213989853859
0.009609009139239788,-0.027986889705061913,-0.010829916223883629,0.030958637595176697,-0.006490939296782017,0.008818510919809341
0.008990015834569931,-0.027147019281983376,-0.010276702232658863,0.031593210995197296,-0.005769278854131699,0.009327884763479233
0.009497222490608692,-0.027165275067090988,-0.010711731389164925,0.03157797083258629,-0.006008794531226158,0.008969439193606377
0.009349385276436806,-0.02759438194334507,-0.010797000490128994,0.031237060204148293,-0.00648645032197237,0.008833134546875954
0.008837909437716007,-0.02756376937031746,-0.010154780000448227,0.03172075375914574,-0.006512237247079611,0.008703389205038548
0.008837909437716007,-0.02756376937031746,-0.010154780000448227,0.03172075375914574,-0.006512237247079611,0.008703389205038548
0.008298019878566265,-0.027071451768279076,-0.010759023018181324,0.031841523945331573,-0.005767665337771177,0.0087386230006814
0.009107986465096474,-0.02709297090768814,-0.010176864452660084,0.032910656183958054,-0.006291206460446119,0.008459863252937794
0.00841276254504919,-0.026984019204974174,-0.010798322036862373,0.031704336404800415,-0.006004454102367163,0.008636019192636013
0.008750984445214272,-0.02669919654726982,-0.010230310261249542,0.03105723112821579,-0.005931728985160589,0.007946802303195
0.008609634824097157,-0.0265582874417305,-0.010376536287367344,0.031630758196115494,-0.006109919399023056,0.008716357871890068
0.008381284773349762,-0.026678122580051422,-0.010993016883730888,0.03177623078227043,-0.00611374294385314,0.009012941271066666
0.007976879365742207,-0.026560775935649872,-0.010611739940941334,0.032136451452970505,-0.0054341768845915794,0.008578294888138771
0.00838028360158205,-0.026294397190213203,-0.010729088447988033,0.03347954526543617,-0.005172321572899818,0.008448348380625248
0.007933960296213627,-0.026794228702783585,-0.010919366963207722,0.033093295991420746,-0.0053685433231294155,0.008543654344975948
0.008142816834151745,-0.026777716353535652,-0.010609650053083897,0.03194107487797737,-0.005514027550816536,0.00876589771360159
0.007890344597399235,-0.02598019316792488,-0.011414171196520329,0.031338032335042953,-0.0050939759239554405,0.00846265908330679
0.007610749918967485,-0.02643398940563202,-0.011331919580698013,0.03242190182209015,-0.0051863412372767925,0.008166102692484856
0.00823222752660513,-0.027233893051743507,-0.011207395233213902,0.03290323168039322,-0.005707341246306896,0.007912830449640751
0.007683431729674339,-0.02591588720679283,-0.011135819368064404,0.032180141657590866,-0.005669884383678436,0.00807399582117796
0.007536018267273903,-0.025331057608127594,-0.010833594016730785,0.03240453079342842,-0.005752640310674906,0.008355003781616688
0.007889254949986935,-0.02480575628578663,-0.010518943890929222,0.03279814496636391,-0.005503393243998289,0.0077853514812886715
0.007845252752304077,-0.02487798221409321,-0.01173283439129591,0.0328398197889328,-0.005659081041812897,0.007900876924395561
0.007420061621814966,-0.02586785890161991,-0.010552517138421535,0.03244485706090927,-0.005578697193413973,0.007790933828800917
0.007523992098867893,-0.02598617598414421,-0.010932900942862034,0.032409507781267166,-0.005469681695103645,0.008085304871201515
0.008226670324802399,-0.025797320529818535,-0.010474782437086105,0.03274111822247505,-0.0054288809187710285,0.008818358182907104
0.007637952454388142,-0.026178449392318726,-0.009780761785805225,0.03245380520820618,-0.005381814204156399,0.00811054464429617
0.0073171984404325485,-0.026386195793747902,-0.01060202531516552,0.033043064177036285,-0.004981223493814468,0.007507988717406988
0.008118812926113605,-0.025258168578147888,-0.010901741683483124,0.03361361101269722,-0.0047349329106509686,0.007806756533682346
0.007768677547574043,-0.024772504344582558,-0.010903164744377136,0.032369501888751984,-0.00500540342181921,0.007884624414145947
0.007768677547574043,-0.024772504344582558,-0.010903164744377136,0.032369501888751984,-0.00500540342181921,0.007884624414145947
0.007605073507875204,-0.024591095745563507,-0.010024542920291424,0.032813552767038345,-0.0045684752985835075,0.007721977774053812
0.007587662898004055,-0.025138013064861298,-0.011285829357802868,0.03288428485393524,-0.004311388358473778,0.007984413765370846
0.0073232450522482395,-0.024725893512368202,-0.011075255461037159,0.033660221844911575,-0.004426358267664909,0.00781274400651455
0.0073232450522482395,-0.024725893512368202,-0.011075255461037159,0.033660221844911575,-0.004426358267664909,0.00781274400651455
0.007461580913513899,-0.025215359404683113,-0.011250954121351242,0.033484939485788345,-0.004634593613445759,0.0075418041087687016
0.0077303871512413025,-0.024833491072058678,-0.010544517077505589,0.0328739695250988,-0.004434871021658182,0.007411901373416185
0.007997213862836361,-0.02432480826973915,-0.010921827517449856,0.03266260027885437,-0.004439269658178091,0.007943430915474892
0.007628926541656256,-0.02440580353140831,-0.011561481282114983,0.03399170935153961,-0.004455017391592264,0.007279159035533667
0.007267931941896677,-0.024529745802283287,-0.010600960813462734,0.03449171781539917,-0.004486709367483854,0.007118879351764917
0.007615641690790653,-0.024913853034377098,-0.0106923533603549,0.034006133675575256,-0.00435454910621047,0.007466495502740145
0.008098358288407326,-0.024845605716109276,-0.010869398713111877,0.03428011015057564,-0.004141096491366625,0.007859574630856514
0.00790406297892332,-0.024249406531453133,-0.01045326516032219,0.03453005850315094,-0.004020003601908684,0.007074651774019003
0.006940174847841263,-0.024565283209085464,-0.01102211233228445,0.034324225038290024,-0.004007176961749792,0.00706476392224431
0.008074050769209862,-0.023311082273721695,-0.010391688905656338,0.03447039797902107,-0.0036092842929065228,0.0072201574221253395
0.007875066250562668,-0.02512543834745884,-0.01020690705627203,0.03396783024072647,-0.0033459835685789585,0.007493880577385426
0.007438417058438063,-0.02525440603494644,-0.01063371542841196,0.03399484604597092,-0.0033578386064618826,0.007392393425107002
0.007519813254475594,-0.02477703057229519,-0.010696611367166042,0.03389027714729309,-0.0034366489853709936,0.007177289575338364
0.008116510696709156,-0.02367968112230301,-0.010453252121806145,0.03419298306107521,-0.003155352547764778,0.007134230807423592
0.007738904561847448,-0.023973435163497925,-0.010739974677562714,0.034462809562683105,-0.003028072416782379,0.007082319352775812
0.007595144212245941,-0.024062074720859528,-0.011091790162026882,0.03423637896776199,-0.003299814648926258,0.007132269442081451
0.0077242362312972546,-0.02350376546382904,-0.011608931235969067,0.034084632992744446,-0.003594218986108899,0.0072824107483029366
0.0076364330016076565,-0.024242648854851723,-0.011180350556969643,0.03383062779903412,-0.0037361537106335163,0.0071831741370260715
0.007471630349755287,-0.02500811591744423,-0.009991655126214027,0.033857572823762894,-0.003763822140172124,0.007401196286082268
0.0075208088383078575,-0.024882536381483078,-0.010468867607414722,0.0341784693300724,-0.003665482858195901,0.007024661172181368
0.00749089103192091,-0.02377760224044323,-0.010682490654289722,0.034198421984910965,-0.00314770033583045,0.0065998476929962635
0.00749089103192091,-0.02377760224044323,-0.010682490654289722,0.034198421984910965,-0.00314770033583045,0.0065998476929962635
0.007109099067747593,-0.022976048290729523,-0.010630381293594837,0.033735692501068115,-0.0028836396522819996,0.00695886230096221
0.00731326499953866,-0.023845108225941658,-0.01027902401983738,0.03341355547308922,-0.0024886252358555794,0.006892251316457987
0.007919026538729668,-0.025239460170269012,-0.010122562758624554,0.03366461023688316,-0.0024125135969370604,0.0066849831491708755
0.007499266415834427,-0.024302836507558823,-0.010914262384176254,0.03380692005157471,-0.0026514683850109577,0.006762802600860596
0.007267608307301998,-0.023681169375777245,-0.009435823187232018,0.033808887004852295,-0.0027063358575105667,0.006706384010612965
0.0071755871176719666,-0.02373470738530159,-0.010683179832994938,0.033370789140462875,-0.0027867089956998825,0.006554604973644018
0.0075049265287816525,-0.023767055943608284,-0.011519446969032288,0.03381562605500221,-0.002425450598821044,0.006373915821313858
0.007379953283816576,-0.0237644724547863,-0.010947034694254398,0.034303389489650726,-0.0023177301045507193,0.00667435210198164
0.007619352545589209,-0.02395240217447281,-0.01044402364641428,0.03404465317726135,-0.002020407933741808,0.006625680718570948
0.0074010929092764854,-0.02368193492293358,-0.010387099348008633,0.034053172916173935,-0.001942289643920958,0.007005453109741211
0.00713480357080698,-0.023193055763840675,-0.01050205435603857,0.033582478761672974,-0.0019008700037375093,0.006380544975399971
0.007663851138204336,-0.023407822474837303,-0.01181479450315237,0.03310642018914223,-0.0018877206603065133,0.006118000019341707
0.007501448504626751,-0.023532208055257797,-0.011022449471056461,0.033828239887952805,-0.0017392714507877827,0.006084604654461145
0.006900729611515999,-0.023532994091510773,-0.01043927762657404,0.03538193926215172,-0.0016749427886679769,0.006127896718680859
0.00752693647518754,-0.023701023310422897,-0.011043579317629337,0.03390207514166832,-0.0015884654130786657,0.0068285479210317135
0.007651964668184519,-0.02334021031856537,-0.010746193118393421,0.032371144741773605,-0.0015295230550691485,0.006953083444386721
0.007473527919501066,-0.023232024163007736,-0.011568731628358364,0.03308442234992981,-0.0015355366049334407,0.006780004594475031
0.007255761884152889,-0.023421769961714745,-0.011563841253519058,0.03318372741341591,-0.0017048411536961794,0.0063211009837687016
0.007502146065235138,-0.023970622569322586,-0.011134193278849125,0.03300761058926582,-0.0017802213551476598,0.00655888207256794
0.008232761174440384,-0.02403547242283821,-0.01129304151982069,0.034488528966903687,-0.0019060107879340649,0.006696744821965694
0.0077929189428687096,-0.02379937842488289,-0.010427061468362808,0.034039199352264404,-0.0018066985066980124,0.006402571685612202
0.007478527724742889,-0.02374381385743618,-0.011304723098874092,0.03201884403824806,-0.0017167141195386648,0.005609108600765467
0.008237320929765701,-0.023382708430290222,-0.011758150532841682,0.031978655606508255,-0.0016878403257578611,0.006394783966243267
0.007952055893838406,-0.023536719381809235,-0.010975991375744343,0.032891348004341125,-0.0015867805341258645,0.007280821446329355
0.00768717285245657,-0.023536458611488342,-0.011158178560435772,0.03354056552052498,-0.0014073883648961782,0.006782873999327421
0.007802644744515419,-0.023534663021564484,-0.011131263338029385,0.0338011272251606,-0.001365490141324699,0.005819110665470362
0.007802644744515419,-0.023534663021564484,-0.011131263338029385,0.0338011272251606,-0.001365490141324699,0.005819110665470362
0.007875071838498116,-0.023262400180101395,-0.011616965755820274,0.033388618379831314,-0.0013070733984932303,0.0053834253922104836
0.007267063949257135,-0.023106718435883522,-0.01145640667527914,0.03260478377342224,-0.001349734142422676,0.005897584371268749
0.007258664350956678,-0.02355927601456642,-0.011636167764663696,0.0321979746222496,-0.0011927522718906403,0.006125185173004866
0.0077200052328407764,-0.023809706792235374,-0.011170580051839352,0.03165967017412186,-0.0011306486558169127,0.005499883554875851
0.007828563451766968,-0.02368224412202835,-0.01092136837542057,0.0323292538523674,-0.0010042020585387945,0.005386345088481903
0.007326832041144371,-0.02322731539607048,-0.011308809742331505,0.03257914260029793,-0.0008290020050480962,0.005701294168829918
0.00725563196465373,-0.022403700277209282,-0.011073735542595387,0.03190606087446213,-0.000819676904939115,0.005710915196686983
0.007724730763584375,-0.023914549499750137,-0.01202215813100338,0.031070534139871597,-0.0007831606199033558,0.00575809832662344
0.008100884966552258,-0.02407054789364338,-0.011602401733398438,0.03134778514504433,-0.0007428534445352852,0.005433881655335426
0.007778359577059746,-0.023953214287757874,-0.011102552525699139,0.032120101153850555,-0.0007558829383924603,0.005559391342103481
0.007563694845885038,-0.02368522435426712,-0.01109567005187273,0.03228996321558952,-0.0006894250982441008,0.00547140883281827
0.008091649040579796,-0.023333339020609856,-0.010804234072566032,0.03339733928442001,-0.0006437749252654612,0.0056770071387290955
0.00772482343018055,-0.022827893495559692,-0.011255450546741486,0.03243136405944824,-0.000567499257158488,0.005986236035823822
0.007571351248770952,-0.02328449860215187,-0.011548672802746296,0.03153133764863014,-0.0005776573088951409,0.00526374951004982
0.007811254821717739,-0.02319825440645218,-0.01133839413523674,0.031232938170433044,-0.0005421553505584598,0.004867392126470804
0.00784478709101677,-0.022732630372047424,-0.01173311285674572,0.031816329807043076,-0.0004939857171848416,0.004929745569825172
0.007694728672504425,-0.022998465225100517,-0.010819408111274242,0.03292089328169823,-0.00045263036736287177,0.0052995444275438786
0.007464445661753416,-0.023032523691654205,-0.01094846986234188,0.033206552267074585,-0.00045132136438041925,0.005225501488894224
0.007904925383627415,-0.022860035300254822,-0.01121228002011776,0.03263316676020622,-0.0004498626512940973,0.005673871375620365
0.00806752685457468,-0.02242669276893139,-0.010925451293587685,0.032408878207206726,-0.00042174800182692707,0.005279401782900095
0.007683476433157921,-0.022830819711089134,-0.01179372426122427,0.031922802329063416,-0.00039539660792797804,0.004953673109412193
0.007400779519230127,-0.022699350491166115,-0.011074453592300415,0.03244101628661156,-0.000372043636161834,0.005101291928440332
0.007615710608661175,-0.02291805110871792,-0.011041964404284954,0.03221767768263817,-0.00035129106254316866,0.005024247337132692
0.00817587785422802,-0.022297002375125885,-0.011534284800291061,0.03212476894259453,-0.00033273111330345273,0.00547748152166605
0.008079028688371181,-0.022175410762429237,-0.01100135874003172,0.031988970935344696,-0.0003437208943068981,0.004901728592813015
0.008116580545902252,-0.02196265012025833,-0.011725656688213348,0.03204255551099777,-0.0003282269462943077,0.004901038017123938
0.008116580545902252,-0.02196265012025833,-0.011725656688213348,0.03204255551099777,-0.0003282269462943077,0.004901038017123938
0.008295046165585518,-0.022636571899056435,-0.010428005829453468,0.03185887262225151,-0.00031392465461976826,0.004745868965983391
0.008090314455330372,-0.02276768535375595,-0.010737278498709202,0.03140886873006821,-0.0003008070052601397,0.004788602236658335
0.008265645243227482,-0.021889904513955116,-0.010598584078252316,0.03130118548870087,-0.0002887421287596226,0.005406768061220646
0.009205663576722145,-0.021959107369184494,-0.010072454810142517,0.03087802417576313,-0.0002776067703962326,0.005254941526800394
0.008475465700030327,-0.02296868897974491,-0.010972791351377964,0.030858147889375687,-0.00026729886303655803,0.005017347168177366
0.008312242105603218,-0.022564271464943886,-0.010408353991806507,0.030534910038113594,-0.00025772981462068856,0.004975426942110062
0.008500187657773495,-0.02200883999466896,-0.009972023777663708,0.031065482646226883,-0.00024882168509066105,0.004473141394555569
0.008497991599142551,-0.02155488170683384,-0.01075027510523796,0.03088984079658985,-0.00024050887441262603,0.004517382010817528
0.008226288482546806,-0.02143830433487892,-0.010194428265094757,0.030939748510718346,-0.00023273414990399033,0.004658842459321022
0.009027705527842045,-0.02198288030922413,-0.010575013235211372,0.030734794214367867,-0.00022544575040228665,0.005112866871058941
0.00865168310701847,-0.021934157237410545,-0.010874316096305847,0.030816053971648216,-0.00021860093693248928,0.005050707142800093
0.008302115835249424,-0.021878063678741455,-0.009890185669064522,0.03114808350801468,-0.0002121584111591801,0.00474712997674942
0.008203838020563126,-0.02179277502000332,-0.01026607770472765,0.03128763288259506,-0.00020608551858458668,0.004525963682681322
0.00868197251111269,-0.02192636951804161,-0.01023032609373331,0.03134738281369209,-0.000200350652448833,0.004196676425635815
0.008542628027498722,-0.021799655631184578,-0.010642065666615963,0.030966589227318764,-0.0001949260476976633,0.004325078334659338
0.008162888698279858,-0.021559927612543106,-0.011344521306455135,0.03078104928135872,-0.00017813481099437922,0.004804340191185474
0.009246572852134705,-0.021415214985609055,-0.01028918381780386,0.030817480757832527,-0.00016258707910310477,0.004722153302282095
0.008727982640266418,-0.02170068956911564,-0.00968498270958662,0.030779927968978882,-0.00015779880050104111,0.004332468844950199
0.008558852598071098,-0.021667782217264175,-0.010434119962155819,0.031176181510090828,-0.00015389728650916368,0.004350010771304369
0.008890177123248577,-0.020913532003760338,-0.010170763358473778,0.030231140553951263,-0.00015022435400169343,0.004101824481040239
0.008773776702582836,-0.021166684105992317,-0.00976549182087183,0.030131731182336807,-0.00014672527322545648,0.003920713905245066
0.00869619008153677,-0.02245415560901165,-0.010867179371416569,0.030016545206308365,-0.0001433858269592747,0.004410051740705967
0.00835215114057064,-0.022104008123278618,-0.010041965171694756,0.02977457456290722,-0.0001401949702994898,0.004635951481759548
0.008954517543315887,-0.020938556641340256,-0.009569725021719933,0.02962888777256012,-0.00013714296801481396,0.004706846550107002
0.009293262846767902,-0.020789701491594315,-0.009851313196122646,0.030146518722176552,-0.00013422117626760155,0.004687066655606031
0.008759578689932823,-0.02079896628856659,-0.010122681967914104,0.028933631256222725,-0.00012880159192718565,0.004177755210548639
0.009030388668179512,-0.02075277268886566,-0.010068446397781372,0.02832120470702648,-4.685448948293924e-05,0.004211541265249252
0.008617624640464783,-0.021003520116209984,-0.009495686739683151,0.029024353250861168,-4.064504901180044e-05,0.004078365862369537
0.008850415237247944,-0.02096850983798504,-0.009404805488884449,0.02954048477113247,-3.941833710996434e-05,0.004407311789691448
0.008850415237247944,-0.02096850983798504,-0.009404805488884449,0.02954048477113247,-3.941833710996434e-05,0.004407311789691448
0.008676516823470592,-0.01937289908528328,-0.010229377076029778,0.028855977579951286,-3.85520797863137e-05,0.004272138234227896
0.008782248944044113,-0.020596357062458992,-0.009741028770804405,0.02930179238319397,-3.774224023800343e-05,0.004004946909844875
0.008592023514211178,-0.021440135315060616,-0.009381510317325592,0.030127109959721565,-2.3255486667039804e-05,0.004079371690750122
0.008676201105117798,-0.02120598405599594,-0.010565200820565224,0.029240990057587624,-1.8423093933961354e-05,0.003734519239515066
0.008978823199868202,-0.02040575072169304,-0.009305769577622414,0.028094429522752762,-2.3480147319787648e-06,0.0031947593670338392
0.009155702777206898,-0.020209336653351784,-0.009658725000917912,0.028008131310343742,-1.5330860492213105e-07,0.002981876954436302
0.008729193359613419,-0.019840188324451447,-0.010103872045874596,0.02886008284986019,-1.0009957307488548e-08,0.0031213012989610434
0.009114746004343033,-0.019677020609378815,-0.009868759661912918,0.02914884127676487,-6.535787466788179e-10,0.0036037229001522064
0.008908431977033615,-0.019984308630228043,-0.009666364639997482,0.029014136642217636,-4.267401709778795e-11,0.0034419710282236338
0.00919437501579523,-0.020289594307541847,-0.010563851334154606,0.029002003371715546,0.001075748004950583,0.0034015108831226826
0.008860304020345211,-0.020037362352013588,-0.008087344467639923,0.029016664251685143,0.0014181279111653566,0.003455111524090171
0.007581166923046112,-0.019609961658716202,-0.009751943871378899,0.028674935922026634,0.0013001516927033663,0.003395508509129286
0.0069380165077745914,-0.01994977332651615,-0.011026836931705475,0.028424344956874847,0.0011645518243312836,0.0035261635202914476
0.0070511396043002605,-0.019953614100813866,-0.009821807034313679,0.028055353090167046,0.0010387904476374388,0.003674350678920746
0.007874145172536373,-0.019389035180211067,-0.009222526103258133,0.028424866497516632,0.0010927256662398577,0.0033710568677634
0.007714426144957542,-0.01947660557925701,-0.010557429865002632,0.029006216675043106,0.001103208982385695,0.0032203767914325
0.007500962354242802,-0.01977752521634102,-0.009736509993672371,0.02906850539147854,0.0013893110444769263,0.0032466549891978502
0.0076837437227368355,-0.01962965354323387,-0.009383395314216614,0.02717970311641693,0.0015364250866696239,0.003003349993377924
0.007350778207182884,-0.01980266533792019,-0.010904379189014435,0.025987979024648666,0.002095456700772047,0.0030928784981369972
0.007402230519801378,-0.020039347931742668,-0.010483481921255589,0.02647729404270649,0.001951651880517602,0.0030158727895468473
0.007497443817555904,-0.019494375213980675,-0.010529684834182262,0.027467506006360054,0.0018465432804077864,0.0029892295133322477
0.008252915926277637,-0.019401416182518005,-0.01022530160844326,0.02555994689464569,0.001829496119171381,0.0028401953168213367
0.007921513170003891,-0.019715113565325737,-0.010066102258861065,0.026763103902339935,0.0019425315549597144,0.0027831585612148046
0.007460940163582563,-0.019251257181167603,-0.010731980204582214,0.02823486179113388,0.0018852060893550515,0.0027484940364956856
0.007460940163582563,-0.019251257181167603,-0.010731980204582214,0.02823486179113388,0.0018852060893550515,0.0027484940364956856
0.007854100316762924,-0.019683869555592537,-0.011060472577810287,0.02656116895377636,0.0028749285265803337,0.0030118965078145266
0.008126813918352127,-0.019331563264131546,-0.011183333583176136,0.026079079136252403,0.002781263319775462,0.0031030180398374796
0.00774011854082346,-0.01976160518825054,-0.010152000002563,0.026354029774665833,0.0029729504603892565,0.0027366713620722294
0.00774011854082346,-0.01976160518825054,-0.010152000002563,0.026354029774665833,0.0029729504603892565,0.0027366713620722294
0.008124885149300098,-0.01911267451941967,-0.01046234741806984,0.025409480556845665,0.002901386469602585,0.002435780130326748
0.007550036534667015,-0.019269676879048347,-0.010549916885793209,0.024768570438027382,0.0029506098944693804,0.002434591529890895
0.007550036534667015,-0.019269676879048347,-0.010549916885793209,0.024768570438027382,0.0029506098944693804,0.002434591529890895
0.008124745450913906,-0.019354624673724174,-0.011150422506034374,0.024827806279063225,0.003006856655701995,0.0024981345050036907
0.008588388562202454,-0.018990177661180496,-0.010687604546546936,0.024637430906295776,0.0031128141563385725,0.0027732686139643192
0.008494545705616474,-0.01920589990913868,-0.010991308838129044,0.024939069524407387,0.0031781792640686035,0.0029616851825267076
0.007833053357899189,-0.01900208555161953,-0.011220228858292103,0.024962356314063072,0.0030913210939615965,0.002805544063448906
0.00877151358872652,-0.018473545089364052,-0.010224140249192715,0.024677282199263573,0.002990929177030921,0.0026022198144346476
0.008706040680408478,-0.01892094500362873,-0.010995253920555115,0.024578489363193512,0.003079234389588237,0.0023772651329636574
0.008267931640148163,-0.018362581729888916,-0.010754099115729332,0.02467118576169014,0.0031650527380406857,0.00217036297544837
0.00868510827422142,-0.018851742148399353,-0.010638403706252575,0.02480243518948555,0.003053551772609353,0.0022217873483896255
0.008538457565009594,-0.01903999038040638,-0.010688617825508118,0.0245598703622818,0.002973436377942562,0.002104096580296755
0.008227469399571419,-0.01833391562104225,-0.010002048686146736,0.024875475093722343,0.0029650297947227955,0.002247909316793084
0.007692110259085894,-0.01823360286653042,-0.010825032368302345,0.02472885325551033,0.002998472424224019,0.0022990633733570576
0.008899406529963017,-0.018580013886094093,-0.011161350645124912,0.02443036250770092,0.0030856351368129253,0.0022519982885569334
0.00843948032706976,-0.01834694668650627,-0.010301236994564533,0.02397347427904606,0.003487048204988241,0.00235314411111176
0.00842846930027008,-0.018280254676938057,-0.010642783716320992,0.02345879189670086,0.004008968360722065,0.002176568377763033
0.009084559977054596,-0.018032362684607506,-0.010161723010241985,0.02362074889242649,0.004035193007439375,0.0021045051980763674
0.008806206285953522,-0.01779724285006523,-0.009881346486508846,0.02389206923544407,0.0037306370213627815,0.001946224714629352
0.008575629442930222,-0.018481876701116562,-0.01037820614874363,0.023889614269137383,0.0035564848221838474,0.001915993052534759
0.008870378136634827,-0.017832068726420403,-0.009832379408180714,0.023466449230909348,0.003365117125213146,0.0018462759908288717
0.00904773361980915,-0.01776697300374508,-0.00967828556895256,0.022852934896945953,0.0036025831941515207,0.002022768370807171
0.00955104362219572,-0.017912060022354126,-0.010451075620949268,0.02219410240650177,0.0038638103287667036,0.002205947879701853
0.008685093373060226,-0.017158087342977524,-0.009772815741598606,0.022269180044531822,0.003918398171663284,0.0022533887531608343
0.008934620767831802,-0.017673952504992485,-0.010375513695180416,0.022139884531497955,0.003728420939296484,0.0018260367214679718
0.00881266500800848,-0.017433539032936096,-0.009831506758928299,0.021789181977510452,0.00350474426522851,0.0016348661156371236
0.008549533784389496,-0.017765050753951073,-0.00990353710949421,0.020883822813630104,0.0036402326077222824,0.0014030527090653777
0.010019730776548386,-0.017094632610678673,-0.010056796483695507,0.022073086351156235,0.0037804434541612864,0.0012884830357506871
0.010019730776548386,-0.017094632610678673,-0.010056796483695507,0.022073086351156235,0.0037804434541612864,0.0012884830357506871
0.008932167664170265,-0.01719830557703972,-0.009651158936321735,0.022315124049782753,0.004123995080590248,0.0013517537154257298
0.008932167664170265,-0.01719830557703972,-0.009651158936321735,0.022315124049782753,0.004123995080590248,0.0013517537154257298
0.00913988333195448,-0.01672999933362007,-0.010454694740474224,0.02178874984383583,0.004225621931254864,0.0014512644847854972
0.009718858636915684,-0.016997966915369034,-0.009826193563640118,0.02145599201321602,0.004106337204575539,0.0019643986597657204
0.009419802576303482,-0.017011672258377075,-0.009763001464307308,0.021311383694410324,0.0039020422846078873,0.0018654728773981333
0.009498786181211472,-0.016895009204745293,-0.010108706541359425,0.02090148627758026,0.004279570188373327,0.0018596024019643664
0.009538858197629452,-0.016586847603321075,-0.009755026549100876,0.020806195214390755,0.004158376716077328,0.0016654670471325517
0.009051932953298092,-0.01637186110019684,-0.009974810294806957,0.02094903029501438,0.0039644138887524605,0.0015185992233455181
0.010165683925151825,-0.016544224694371223,-0.010108147747814655,0.020845819264650345,0.003958211280405521,0.0012337127700448036
0.009401571936905384,-0.016666794195771217,-0.010087825357913971,0.02060777321457863,0.003885735059157014,0.0012449073838070035
0.009424996562302113,-0.016657905653119087,-0.00974959135055542,0.020814483985304832,0.003841558936983347,0.0012289670994505286
0.009674545377492905,-0.016042089089751244,-0.010005336254835129,0.020975396037101746,0.004340370185673237,0.0013557480415329337
0.009467989206314087,-0.01642957702279091,-0.009785083122551441,0.020825931802392006,0.004164987709373236,0.0014545040903612971
0.008937878534197807,-0.015658579766750336,-0.00967931654304266,0.020564774051308632,0.003943362273275852,0.0017718469025567174
0.00961368065327406,-0.016031315550208092,-0.009848914109170437,0.020623620599508286,0.004330417141318321,0.0017126286402344704
0.009811603464186192,-0.016042381525039673,-0.009912577457726002,0.020135076716542244,0.004318551160395145,0.0015431791543960571
0.009464332833886147,-0.015089335851371288,-0.009661693125963211,0.019873645156621933,0.004189786035567522,0.0013082855148240924
0.00980248861014843,-0.015603773295879364,-0.009980252012610435,0.020429696887731552,0.003947257995605469,0.001059466041624546
0.009853317402303219,-0.015587275847792625,-0.009790213778614998,0.0211448073387146,0.0038212526123970747,0.000975672563072294
0.009641030803322792,-0.016082704067230225,-0.009838374331593513,0.02075258083641529,0.0037686836440116167,0.000978825963102281
0.009801083244383335,-0.015398145653307438,-0.009776076301932335,0.0201638862490654,0.00422228779643774,0.0009528428199701011
0.009898124262690544,-0.015478814952075481,-0.009830734692513943,0.01966669224202633,0.004168946761637926,0.0008787529659457505
0.009095445275306702,-0.01504072081297636,-0.008941328153014183,0.01920948550105095,0.00392159866169095,0.0009069785010069609
0.009711810387670994,-0.01518580038100481,-0.009802699089050293,0.01927238143980503,0.0039568436332046986,0.0008408142603002489
0.00971770565956831,-0.01526283472776413,-0.00950915738940239,0.02016379125416279,0.004510669503360987,0.0007511996082030237
0.010290177538990974,-0.015373390167951584,-0.009836913086473942,0.01967831328511238,0.004349241964519024,0.0007604092825204134
0.010290177538990974,-0.015373390167951584,-0.009836913086473942,0.01967831328511238,0.004349241964519024,0.0007604092825204134
0.01004630047827959,-0.014974530786275864,-0.009223093278706074,0.019628925248980522,0.004016004502773285,0.0006929747178219259
0.009977348148822784,-0.014826451428234577,-0.009373357519507408,0.01936168037354946,0.003819517558440566,0.0006340203108265996
0.009900247678160667,-0.014796502888202667,-0.00976499728858471,0.01951012574136257,0.0039022809360176325,0.0005637959693558514
0.00997235532850027,-0.014646017923951149,-0.00961317028850317,0.019396912306547165,0.003996516112238169,0.0005746095557697117
0.00987840723246336,-0.014837393537163734,-0.009322753176093102,0.019281843677163124,0.00398839870467782,0.0005395949701778591
0.009857880882918835,-0.015079790726304054,-0.00983573216944933,0.018243741244077682,0.0038548209704458714,0.0005314364098012447
0.009716012515127659,-0.015185843221843243,-0.009461079724133015,0.018275558948516846,0.004253904800862074,0.0005595650291070342
0.00958216842263937,-0.015293722972273827,-0.009192957542836666,0.01796012371778488,0.0041454560123384,0.000552068930119276
0.010861395858228207,-0.014759628102183342,-0.009657428599894047,0.017902787774801254,0.003677141619846225,0.0006221014773473144
0.010115198791027069,-0.015073535032570362,-0.010007762350142002,0.01866736449301243,0.0034685982391238213,0.0006443965248763561
0.009161565452814102,-0.014527757652103901,-0.00870080292224884,0.018505660817027092,0.0036159707233309746,0.0005990435602143407
0.010754677467048168,-0.014567273668944836,-0.009205126203596592,0.01778869330883026,0.00420759804546833,0.0006065865745767951
0.010311099700629711,-0.01462545245885849,-0.008125418797135353,0.018676655367016792,0.004537684377282858,0.0005718710017390549
0.009453331120312214,-0.015020285733044147,-0.009675033390522003,0.018335314467549324,0.004671207629144192,0.0005254655261524022
0.010148895904421806,-0.014259456656873226,-0.010078786872327328,0.018190748989582062,0.0042351926676929,0.0005186321213841438
0.010095269419252872,-0.014516103081405163,-0.009507648646831512,0.017827622592449188,0.004175886511802673,0.0005123706650920212
0.010350308381021023,-0.01435990072786808,-0.009647856466472149,0.017192432656884193,0.004144836682826281,0.0004801896575372666
0.010157364420592785,-0.014844655990600586,-0.009421526454389095,0.01753779873251915,0.004371389281004667,0.00045027685700915754
0.009990635327994823,-0.014397303573787212,-0.009482815861701965,0.017164109274744987,0.004447790794074535,0.00042377071804367006
0.010491758584976196,-0.014978325925767422,-0.008854761719703674,0.01762203685939312,0.004804834723472595,0.0004002062778454274
0.010149986483156681,-0.014330297708511353,-0.009473849087953568,0.016992563381791115,0.004430775996297598,0.0003791258786804974
0.010456535965204239,-0.0146511010825634,-0.009544149041175842,0.01664474606513977,0.00439057219773531,0.0003601540520321578
0.010326067917048931,-0.014116635546088219,-0.00898788683116436,0.01676005870103836,0.004083942621946335,0.00034299324033781886
0.010793490335345268,-0.014476227574050426,-0.008945656009018421,0.01577189564704895,0.004303296096622944,0.0003273931797593832
0.010428357869386673,-0.013979909010231495,-0.009074877016246319,0.016007505357265472,0.004472560249269009,0.00031314927036873996
0.010435370728373528,-0.014692460186779499,-0.008834674954414368,0.01628795824944973,0.004656424280256033,0.0003000953875016421
0.010352716781198978,-0.01443242933601141,-0.009361056610941887,0.016866054385900497,0.004458645824342966,0.000277000421192497
0.011040096171200275,-0.014097408391535282,-0.009667068719863892,0.01642659865319729,0.004649016074836254,0.0002667367516551167
0.011040096171200275,-0.014097408391535282,-0.009667068719863892,0.01642659865319729,0.004649016074836254,0.0002667367516551167
0.010590121150016785,-0.013869991526007652,-0.008801653049886227,0.0165278147906065,0.004605642519891262,0.00025720737176015973
0.010552873834967613,-0.013535231351852417,-0.009060048498213291,0.016194945201277733,0.004228497855365276,0.00024833474890328944
0.010547392070293427,-0.014257745817303658,-0.008828048594295979,0.016586080193519592,0.003985295072197914,0.00024005431623663753
0.010777279734611511,-0.01335362158715725,-0.00926660280674696,0.01564745232462883,0.004275078885257244,0.00023230760416481644
0.010809436440467834,-0.013634747825562954,-0.009542472660541534,0.015909813344478607,0.004181625321507454,0.0002250464167445898
0.010884462855756283,-0.013370082713663578,-0.00958297960460186,0.01573977991938591,0.003603729885071516,0.00021822444978170097
0.010512450709939003,-0.01360612828284502,-0.008755696006119251,0.015862444415688515,0.0034903979394584894,0.00021180491603445262
0.011091076768934727,-0.01352409552782774,-0.009266382083296776,0.015978647395968437,0.003294719848781824,0.00020575194503180683
0.011449637822806835,-0.013395240530371666,-0.0094012301415205,0.015382518991827965,0.0034384040627628565,0.0002000347012653947
0.010499685071408749,-0.01296359021216631,-0.008858954533934593,0.015560097992420197,0.003265837673097849,0.00019462760246824473
0.011433742009103298,-0.013115727342665195,-0.008926094509661198,0.015321493148803711,0.0031528391409665346,0.0001674049999564886
0.010906730778515339,-0.013636964373290539,-0.010128242895007133,0.016054561361670494,0.003196287201717496,0.0001616674126125872
0.010977331548929214,-0.012905186973512173,-0.008954184129834175,0.015755726024508476,0.003515887074172497,0.00015753098705317825
0.010540405288338661,-0.013594381511211395,-0.008564946241676807,0.015875717625021935,0.0038301667664200068,0.0001536815834697336
0.010079053230583668,-0.012907288037240505,-0.009199940599501133,0.014503228478133678,0.003882017219439149,0.0001500215585110709
0.01157515961676836,-0.013493596576154232,-0.009444329887628555,0.014452766627073288,0.0038272833917289972,0.00014653211110271513
0.011375436559319496,-0.012376779690384865,-0.008721121586859226,0.013078588992357254,0.003807448549196124,6.032178134773858e-05
0.010490695014595985,-0.012626055628061295,-0.00920108798891306,0.013499781489372253,0.00411971053108573,4.7371107939397916e-05
0.010546027682721615,-0.012988824397325516,-0.00936215091496706,0.013373960740864277,0.003676899941638112,2.4262801161967218e-05
0.011201879940927029,-0.0117200817912817,-0.009355747140944004,0.013884516432881355,0.0035115003120154142,2.2234293282963336e-05
0.01108680758625269,-0.012340519577264786,-0.009078515693545341,0.013189890421926975,0.0033055453095585108,1.4517405588776455e-06
0.010682955384254456,-0.011868292465806007,-0.009029712527990341,0.013468567281961441,0.004094568081200123,9.478828388864713e-08
0.010553775355219841,-0.012367986142635345,-0.009080115705728531,0.01290111057460308,0.0045854137279093266,6.188997314637845e-09
0.011089726351201534,-0.012281587347388268,-0.009457692503929138,0.012768005020916462,0.004585370887070894,2.6384667020651342e-11
0.011089726351201534,-0.012281587347388268,-0.009457692503929138,0.012768005020916462,0.004585370887070894,2.6384667020651342e-11
0.010873706080019474,-0.011556722223758698,-0.009169605560600758,0.01308987382799387,0.004383621271699667,-0.00033564295154064894
0.011243232525885105,-0.01240793988108635,-0.009758252650499344,0.012748073786497116,0.004139869473874569,-0.0010631089098751545
0.011243232525885105,-0.01240793988108635,-0.009758252650499344,0.012748073786497116,0.004139869473874569,-0.0010631089098751545
0.010399483144283295,-0.011834877543151379,-0.009665274992585182,0.013211148791015148,0.0042579155415296555,-0.0010353712132200599
0.010864359326660633,-0.011806103400886059,-0.009471644647419453,0.01205778494477272,0.004625821486115456,-0.0009501942549832165
0.010650700889527798,-0.011801344342529774,-0.009904204867780209,0.012086867354810238,0.00472267996519804,-0.0008294793078675866
0.010985437780618668,-0.011725973337888718,-0.00955534540116787,0.012263137847185135,0.004789544735103846,-0.0007832327974028885
0.011090250685811043,-0.011228062212467194,-0.009192750789225101,0.011548374779522419,0.004523877520114183,-0.0007528107962571084
0.010255624540150166,-0.0108239920809865,-0.010074885562062263,0.012182867154479027,0.004361170809715986,-0.0007431378471665084
0.010484847240149975,-0.01085653156042099,-0.008944311179220676,0.011719448491930962,0.00403266865760088,-0.0008659518207423389
0.010830489918589592,-0.011044004000723362,-0.009590407833456993,0.011627825908362865,0.00381361972540617,-0.0018177740275859833
0.01059352420270443,-0.01094848569482565,-0.009975127875804901,0.0111670708283782,0.0038100583478808403,-0.001816319301724434
0.010785664431750774,-0.01135594304651022,-0.00920864101499319,0.011091982945799828,0.004292362369596958,-0.0018760872771963477
0.010690253227949142,-0.011051357723772526,-0.008816512301564217,0.011126435361802578,0.004580297507345676,-0.0016358729917556047
0.01121228002011776,-0.010663986206054688,-0.009519209153950214,0.010866089724004269,0.004667266737669706,-0.0014790865825489163
0.011445560492575169,-0.011513134464621544,-0.009141233749687672,0.01130931917577982,0.004365212749689817,-0.0012807289604097605
0.010443618521094322,-0.010736173950135708,-0.008843570947647095,0.01096426136791706,0.003963084425777197,-0.0009466017945669591
0.010764459148049355,-0.01101806852966547,-0.010143590159714222,0.010635306127369404,0.0038693659007549286,-0.0009099686285480857
0.010951397009193897,-0.010773707181215286,-0.009771428070962429,0.011041649617254734,0.004751218482851982,-0.0010123845422640443
0.010200132615864277,-0.010646935552358627,-0.009289237670600414,0.010838473215699196,0.004813013132661581,-0.001590727479197085
0.010777909308671951,-0.010782518424093723,-0.010367893613874912,0.010428499430418015,0.004855725914239883,-0.003326802747324109
0.010573313571512699,-0.009948602877557278,-0.009258744306862354,0.010507158935070038,0.0047944518737494946,-0.003614610293880105
0.0102387061342597,-0.010746416635811329,-0.009678768925368786,0.010333183221518993,0.004641987849026918,-0.002811793005093932
0.010696539655327797,-0.010327555239200592,-0.010089597664773464,0.01020518597215414,0.004288970958441496,-0.002094979165121913
0.010592173784971237,-0.009735191240906715,-0.009529957547783852,0.009843973442912102,0.004040985368192196,-0.0018667744006961584
0.011101631447672844,-0.01028833631426096,-0.009151943027973175,0.00972636416554451,0.0039162179455161095,-0.0014274675631895661
0.011225949041545391,-0.010231447406113148,-0.009481914341449738,0.010145358741283417,0.004381957463920116,-0.0015198001638054848
0.010337436571717262,-0.010496139526367188,-0.009814335964620113,0.009751886129379272,0.004685141146183014,-0.002229663310572505
0.010337436571717262,-0.010496139526367188,-0.009814335964620113,0.009751886129379272,0.004685141146183014,-0.002229663310572505
0.010966618545353413,-0.009877955541014671,-0.00990986730903387,0.009184591472148895,0.00453479727730155,-0.0033509444911032915
0.010623115114867687,-0.009909405373036861,-0.009528473019599915,0.009195618331432343,0.004052898846566677,-0.002959989011287689
0.010930540971457958,-0.009921352379024029,-0.009290521964430809,0.008655264042317867,0.004045628011226654,-0.0026142578572034836
0.010750836692750454,-0.010123023763298988,-0.009670200757682323,0.008109279908239841,0.004240565933287144,-0.0026132133789360523
0.011017603799700737,-0.009487041272222996,-0.00973645132035017,0.00770637346431613,0.004558308515697718,-0.002536114538088441
0.011044461280107498,-0.009598546661436558,-0.00936917494982481,0.007230884395539761,0.004764914978295565,-0.0028846405912190676
0.01062576100230217,-0.009955503046512604,-0.009614149108529091,0.006683994084596634,0.005286995321512222,-0.00302072218619287
0.01129661500453949,-0.009479760192334652,-0.010361826978623867,0.006847371347248554,0.005201634019613266,-0.00302993250079453
0.011888525448739529,-0.00919860415160656,-0.009529651142656803,0.006888493429869413,0.0044778939336538315,-0.003003596095368266
0.011438466608524323,-0.009314076974987984,-0.009348907507956028,0.006431811023503542,0.0040361215360462666,-0.0030420415569096804
0.011456294916570187,-0.00880022905766964,-0.009418563917279243,0.005930023733526468,0.004334721714258194,-0.003182513639330864
0.011088482104241848,-0.009148415178060532,-0.009516353718936443,0.006308313459157944,0.004653367213904858,-0.0034592747688293457
0.01121816411614418,-0.009197562001645565,-0.010205144062638283,0.006110957358032465,0.005221017636358738,-0.003753076773136854
0.011404970660805702,-0.008123659528791904,-0.010296869091689587,0.005258811637759209,0.0051924497820436954,-0.003978984896093607
0.010892020538449287,-0.008220368064939976,-0.00902410689741373,0.004786195233464241,0.005286855157464743,-0.004038853105157614
0.011220624670386314,-0.008148612454533577,-0.009665693156421185,0.004875661339610815,0.004816535860300064,-0.004042380955070257
0.01126584131270647,-0.008468909189105034,-0.010554524138569832,0.0049504609778523445,0.004314373712986708,-0.004096211865544319
0.011022121645510197,-0.008244271390140057,-0.009185971692204475,0.00443643145263195,0.004364953376352787,-0.004040868487209082
0.011647816747426987,-0.007805910427123308,-0.009641875512897968,0.004419299308210611,0.0050819795578718185,-0.004091809969395399
0.01107226125895977,-0.00815883930772543,-0.00862664170563221,0.0045981393195688725,0.005268912296742201,-0.004150833934545517
0.012086240574717522,-0.007720570545643568,-0.00979102123528719,0.004698744043707848,0.005047939717769623,-0.0040534683503210545
0.011603062972426414,-0.0074431137181818485,-0.010402344167232513,0.004400499165058136,0.004733600653707981,-0.004713102243840694
0.012155965901911259,-0.007538738660514355,-0.00928184948861599,0.004262001719325781,0.004693298134952784,-0.004506991244852543
0.012778145261108875,-0.007016203831881285,-0.008879285305738449,0.004062196239829063,0.004307788796722889,-0.004353073891252279
0.01210192684084177,-0.007394987624138594,-0.010236831381917,0.0035555101931095123,0.004403268452733755,-0.004316259641200304
0.012524910271167755,-0.006480895448476076,-0.00977282039821148,0.0035307719372212887,0.004994917660951614,-0.004483398515731096
0.011480933055281639,-0.006376459263265133,-0.009130545891821384,0.003626531222835183,0.005044827237725258,-0.0046844989992678165
0.012859025038778782,-0.006965225096791983,-0.00953469518572092,0.004642341751605272,0.005183670669794083,-0.0047743734903633595
0.012906434945762157,-0.006318127736449242,-0.008718308061361313,0.004494371823966503,0.0047810813412070274,-0.004742494318634272
0.012906434945762157,-0.006318127736449242,-0.008718308061361313,0.004494371823966503,0.0047810813412070274,-0.004742494318634272
0.012870078906416893,-0.006261651869863272,-0.008445687592029572,0.004408202599734068,0.0047380863688886166,-0.005085601471364498
0.013214989565312862,-0.0059355986304581165,-0.009073329158127308,0.004201291128993034,0.005286271683871746,-0.005071714986115694
0.013546583242714405,-0.005831440445035696,-0.008978920057415962,0.00365111674182117,0.005179738625884056,-0.004953824449330568
0.012750732712447643,-0.005976100917905569,-0.008709864690899849,0.003121247747913003,0.005798050668090582,-0.005211038049310446
0.013448456302285194,-0.005364894866943359,-0.00934049766510725,0.00302012893371284,0.005578312557190657,-0.0052715386264026165
0.01322838943451643,-0.005229043308645487,-0.00866855587810278,0.0032003740780055523,0.005016612354665995,-0.005510949995368719
0.013056661002337933,-0.005474276375025511,-0.008425850421190262,0.003000603523105383,0.005205770023167133,-0.005226025357842445
0.012883193790912628,-0.004931540694087744,-0.008794490247964859,0.0026968764141201973,0.005213865078985691,-0.005314448848366737
0.013412180356681347,-0.004722936544567347,-0.008431720547378063,0.002244736300781369,0.0050996579229831696,-0.005576455499976873
0.013207961805164814,-0.004739747382700443,-0.008761429227888584,0.001763614360243082,0.005182021297514439,-0.006102222483605146
0.013009773567318916,-0.0049972557462751865,-0.008681223727762699,0.0017870537703856826,0.004976829048246145,-0.0055124713107943535
0.013404237106442451,-0.0049084629863500595,-0.008924584835767746,0.002129442524164915,0.0042163170874118805,-0.005371856037527323
0.013215524144470692,-0.0050405701622366905,-0.008321837522089481,0.0020617058034986258,0.004338160622864962,-0.0057449545711278915
0.013194676488637924,-0.004465711303055286,-0.00826503150165081,0.0021409494802355766,0.00455191545188427,-0.005640780553221703
0.013405293226242065,-0.004365178290754557,-0.009070368483662605,0.0019108066335320473,0.005022610072046518,-0.005763746798038483
0.01375770103186369,-0.004315017256885767,-0.009335368871688843,0.0015580308390781283,0.005095314234495163,-0.006041192915290594
0.013051411136984825,-0.0043581812642514706,-0.008087476715445518,0.0011538158869370818,0.00538641819730401,-0.006056651007384062
0.013789480552077293,-0.004633837845176458,-0.007890901528298855,0.0011634767288342118,0.0050816950388252735,-0.006248687859624624
0.013375785201787949,-0.004780133720487356,-0.008780482225120068,0.0011233031982555985,0.004877910949289799,-0.005759302992373705
0.013535174541175365,-0.004388386383652687,-0.00887671671807766,0.0011215786216780543,0.005187249276787043,-0.006075514946132898
0.013515658676624298,-0.004013086203485727,-0.008089259266853333,0.0010740985162556171,0.005240959580987692,-0.006186084356158972
0.013869372196495533,-0.003847462357953191,-0.008958063088357449,0.0009664816898293793,0.005444762762635946,-0.006127587519586086
0.013169117271900177,-0.003954428248107433,-0.008819137699902058,0.0009234916651621461,0.005517934914678335,-0.006117506884038448
0.013681723736226559,-0.0036145872436463833,-0.008038307540118694,0.0008129306370392442,0.0049471259117126465,-0.006919146049767733
0.01354383584111929,-0.003730650059878826,-0.00922836922109127,0.0007515412289649248,0.004866908770054579,-0.006926150526851416
0.01349303312599659,-0.0038131410256028175,-0.008304296061396599,0.000681827194057405,0.0049544875510036945,-0.006724772043526173
0.013675889931619167,-0.0034344319719821215,-0.008342412300407887,0.0006228734273463488,0.004671589005738497,-0.006302427966147661
0.013762508518993855,-0.0032624555751681328,-0.008656144142150879,0.0005732403951697052,0.0046286070719361305,-0.00651627779006958
0.01333460584282875,-0.003163110464811325,-0.008443078957498074,0.0005309351836331189,0.004570301156491041,-0.007168123032897711
0.013830987736582756,-0.0034650766756385565,-0.008205823600292206,0.00049444695468992,0.0043721930123865604,-0.006934136617928743
0.013830987736582756,-0.0034650766756385565,-0.008205823600292206,0.00049444695468992,0.0043721930123865604,-0.006934136617928743
0.013176653534173965,-0.0032938586082309484,-0.008810755796730518,0.0004631780320778489,0.004047672729939222,-0.006848945282399654
0.01367252692580223,-0.003522138809785247,-0.008694966323673725,0.00035041282535530627,0.004396728239953518,-0.00641665467992425
0.013343372382223606,-0.0033006302546709776,-0.00867406465113163,0.00032039597863331437,0.005081428214907646,-0.0065812827087938786
0.013879621401429176,-0.0030229887925088406,-0.008411883376538754,0.00029877826455049217,0.005481133237481117,-0.007165244314819574
0.013315906748175621,-0.0029154280200600624,-0.008563941344618797,0.0002280181652167812,0.005250021815299988,-0.0073554846458137035
0.01367748249322176,-0.003290183376520872,-0.00868864543735981,0.0002112293877871707,0.004993049427866936,-0.007375581655651331
0.013372168876230717,-0.0032383305951952934,-0.008496585302054882,0.00019930690177716315,0.004714631009846926,-0.007988008670508862
0.013436689972877502,-0.003116386942565441,-0.008615296334028244,0.00018883401935454458,0.004628685303032398,-0.007976828143000603
0.013527371920645237,-0.003004198893904686,-0.008426551707088947,0.0001794183481251821,0.004729331936687231,-0.007691983599215746
0.01402840856462717,-0.0029670835938304663,-0.008721435442566872,0.00017089884204324335,0.005123380571603775,-0.007539007812738419
0.014004235155880451,-0.0028387499041855335,-0.008580264635384083,0.0001631516352063045,0.00506938248872757,-0.007804643362760544
0.013810439966619015,-0.0026631252840161324,-0.0084674758836627,0.00015607615932822227,0.0049099368043243885,-0.007805525790899992
0.013873660005629063,-0.0024609307292848825,-0.008937631733715534,0.00011717817687895149,0.004915780387818813,-0.007618715055286884
0.013840164057910442,-0.002504561794921756,-0.00855459924787283,0.00010804094199556857,0.004796404857188463,-0.007731310091912746
0.01381187979131937,-0.0026446902193129063,-0.008576851338148117,0.00010360341548221186,0.004554943181574345,-0.00744859641417861
0.01445033960044384,-0.002531385747715831,-0.008391248993575573,-8.199520380003378e-06,0.004582902882248163,-0.007473742589354515
0.014579921960830688,-0.0029825393576174974,-0.008753153495490551,-0.0001067139528458938,0.004860886372625828,-0.00741366483271122
0.014476370997726917,-0.0030576579738408327,-0.008822225965559483,-0.00015324856212828308,0.004900734405964613,-0.007397230248898268
0.014200122095644474,-0.0026230053044855595,-0.008981600403785706,-0.00019523357332218438,0.00486737908795476,-0.0076537239365279675
0.014696619473397732,-0.0023826234973967075,-0.00858492311090231,-0.00023358945327345282,0.005006980150938034,-0.008051661774516106
0.014801903627812862,-0.0020706166978925467,-0.008292296901345253,-0.001107594114728272,0.004973234608769417,-0.008231348358094692
0.014848069287836552,-0.0021976337302476168,-0.009233796037733555,-0.00216461019590497,0.004826778080314398,-0.0068330611102283
0.013408507220447063,-0.002418417949229479,-0.008109649643301964,-0.002757434733211994,0.005031258333474398,-0.009139600209891796
0.015206161886453629,-0.002252069767564535,-0.009062474593520164,-0.00294835795648396,0.00497728306800127,-0.008901438675820827
0.015644118189811707,-0.0019840081222355366,-0.008637157268822193,-0.003695499151945114,0.00536851491779089,-0.008217242546379566
0.015644118189811707,-0.0019840081222355366,-0.008637157268822193,-0.003695499151945114,0.00536851491779089,-0.008217242546379566
0.014760375022888184,-0.0016792254755273461,-0.00898035243153572,-0.004520940128713846,0.0050643617287278175,-0.008586942218244076
0.014796121045947075,-0.0017237481661140919,-0.008878512308001518,-0.005421067122370005,0.005090986378490925,-0.008870185352861881
0.014796121045947075,-0.0017237481661140919,-0.008878512308001518,-0.005421067122370005,0.005090986378490925,-0.008870185352861881
0.01490217074751854,-0.0017819094937294722,-0.00847956258803606,-0.005935729946941137,0.004935558885335922,-0.009247872047126293
0.014863315969705582,-0.002079248894006014,-0.008511315099895,-0.006548380013555288,0.0049610561691224575,-0.009393990971148014
0.015061842277646065,-0.0018423772417008877,-0.009069583378732204,-0.007292849011719227,0.005517335142940283,-0.009575608186423779
0.014824151992797852,-0.001800720696337521,-0.008927697315812111,-0.006758247502148151,0.0055248006246984005,-0.00885658897459507
0.01515500620007515,-0.001803301041945815,-0.008667485788464546,-0.007134993560612202,0.005348585080355406,-0.00975035224109888
0.014717401936650276,-0.0016020599287003279,-0.00892245676368475,-0.007772678043693304,0.005099386442452669,-0.00932244397699833
0.01514261681586504,-0.0015877519035711884,-0.009480479173362255,-0.00821906328201294,0.0056600747630000114,-0.009573587216436863
0.01487836241722107,-0.0014454987831413746,-0.008541474118828773,-0.0084875812754035,0.0055238534696400166,-0.009777960367500782
0.015248050913214684,-0.0012536969734355807,-0.00833603460341692,-0.008837816305458546,0.005737966857850552,-0.009635171853005886
0.015293613076210022,-0.00098635524045676,-0.00917286891490221,-0.010171834379434586,0.005406908690929413,-0.009983440861105919
0.015683749690651894,-0.0009678764618001878,-0.009034842252731323,-0.009966250509023666,0.005303974263370037,-0.009855472482740879
0.015551161020994186,-0.0010458709439262748,-0.008730530738830566,-0.009347585029900074,0.0055532678961753845,-0.009556863456964493
0.015443105250597,-0.0009703100076876581,-0.009279315359890461,-0.009883170016109943,0.005316816736012697,-0.009460026398301125
0.015306343324482441,-0.0010943975066766143,-0.00921031553298235,-0.009377192705869675,0.005698919761925936,-0.009378243237733841
0.015224527567625046,-0.0012011125218123198,-0.008836316876113415,-0.009045131504535675,0.005479642655700445,-0.009586840867996216
0.015575330704450607,-0.0016116163460537791,-0.00963788665831089,-0.009476989507675171,0.005350285209715366,-0.009658324532210827
0.015525207854807377,-0.0014580123824998736,-0.009250683709979057,-0.010107527486979961,0.00525290472432971,-0.009720969013869762
0.01565423421561718,-0.0012354612117633224,-0.009354219771921635,-0.010344005189836025,0.0052259815856814384,-0.009375466965138912
0.015487436205148697,-0.0010333313839510083,-0.009035772643983364,-0.01091666892170906,0.005233495496213436,-0.009235801175236702
0.015521359629929066,-0.0007778755971230567,-0.008882549591362476,-0.011054863221943378,0.005818091798573732,-0.009690104983747005
0.016147231683135033,-0.000789738551247865,-0.008851535618305206,-0.010680606588721275,0.005592008586972952,-0.009772079065442085
0.01579901948571205,-0.0005906155565753579,-0.009100791066884995,-0.010595699772238731,0.005298374220728874,-0.010358107276260853
0.016177816316485405,-0.0006174657610245049,-0.009014070965349674,-0.011444788426160812,0.005062192212790251,-0.010096938349306583
0.016005154699087143,-0.0005575583782047033,-0.008490819483995438,-0.011975765228271484,0.004776647314429283,-0.009762251749634743
0.01605960726737976,-0.0005860619712620974,-0.008947499096393585,-0.011564822867512703,0.005360001232475042,-0.009703186340630054
0.01605960726737976,-0.0005860619712620974,-0.008947499096393585,-0.011564822867512703,0.005360001232475042,-0.009703186340630054
0.01622917316854,-0.000539106666110456,-0.008924143388867378,-0.011054710485041142,0.005334638059139252,-0.009799868799746037
0.016083233058452606,-0.000559028412681073,-0.008594617247581482,-0.010344159789383411,0.005401324480772018,-0.01074940338730812
0.0166915450245142,-0.0005259870667941868,-0.00974765233695507,-0.010783822275698185,0.005690433084964752,-0.010529762133955956
0.01623578742146492,-0.0004902671789750457,-0.007962077856063843,-0.01137912180274725,0.0052751703187823296,-0.01058332622051239
0.01673961617052555,-0.00045900780241936445,-0.008331811986863613,-0.010677823796868324,0.0052047916688025,-0.01043756678700447
0.016320472583174706,-0.00043149455450475216,-0.009205457754433155,-0.011474588885903358,0.005103776231408119,-0.010333427228033543
0.01619100570678711,-0.00040709375753067434,-0.009319989010691643,-0.0111205680295825,0.005822879262268543,-0.01003529317677021
0.016570592299103737,-0.00038530590245500207,-0.008510785177350044,-0.01107989065349102,0.005886982195079327,-0.009855356998741627
0.01670105569064617,-0.0003657315101008862,-0.007940003648400307,-0.011734296567738056,0.005712039303034544,-0.010470220819115639
0.01708608865737915,-0.0003480499144643545,-0.008561945520341396,-0.011792712844908237,0.005491471383720636,-0.010948589071631432
0.01697513274848461,-0.00033199950121343136,-0.008377904072403908,-0.012524041347205639,0.005591495428234339,-0.01048432756215334
0.016812486574053764,-0.0003173642617184669,-0.007524657994508743,-0.012400367297232151,0.005502164829522371,-0.010463465936481953
0.01725400611758232,-0.00030396500369533896,-0.008069832809269428,-0.012638096697628498,0.005820468533784151,-0.010330968536436558
0.017369600012898445,-0.00029165190062485635,-0.008467404171824455,-0.012132937088608742,0.005277735181152821,-0.010522687807679176
0.017751527950167656,-0.000280297186691314,-0.008307667449116707,-0.012677466496825218,0.0057043759152293205,-0.010521563701331615
0.0172195453196764,-0.00026979378890246153,-0.00790634099394083,-0.013599984347820282,0.005545809864997864,-0.009519211947917938
0.01672620140016079,-0.0002600487496238202,-0.007591692730784416,-0.013496262021362782,0.005743701942265034,-0.009742705151438713
0.01739579811692238,-0.00025098343030549586,-0.008790355175733566,-0.013907043263316154,0.0058722123503685,-0.010331382974982262
0.016906291246414185,-0.00022261744015850127,-0.008105634711682796,-0.01356484368443489,0.006082420237362385,-0.009140015579760075
0.017489390447735786,-0.00020543683785945177,-0.0075424001552164555,-0.013791392557322979,0.005752039607614279,-0.01053150650113821
0.01709844172000885,-0.00019881983462255448,-0.007953280583024025,-0.013750437647104263,0.0060555413365364075,-0.010801178403198719
0.018082020804286003,-0.0001870141422841698,-0.007482281886041164,-0.014167075045406818,0.0057467869482934475,-0.009893975220620632
0.017451511695981026,-0.0001816226722439751,-0.00710183335468173,-0.014393662102520466,0.006284687668085098,-0.009634959511458874
0.017814036458730698,-0.00017653338727541268,-0.008024636656045914,-0.014264569617807865,0.006202077027410269,-0.00993308611214161
0.01625523529946804,-0.00017172153457067907,-0.008281142450869083,-0.015199271962046623,0.005866560619324446,-0.010557236149907112
0.017855526879429817,-0.00016716487880330533,-0.00793449953198433,-0.01492278277873993,0.006025150418281555,-0.010184717364609241
0.017855526879429817,-0.00016716487880330533,-0.00793449953198433,-0.01492278277873993,0.006025150418281555,-0.010184717364609241
0.018418066203594208,-0.0001628439495107159,-0.007990839891135693,-0.015334412455558777,0.005511938128620386,-0.010636570863425732
0.01768532022833824,-0.00015874092059675604,-0.007942468859255314,-0.015920300036668777,0.005798645317554474,-0.010391207411885262
0.01836411841213703,-0.00015499065921176225,-0.007515880279242992,-0.016514789313077927,0.005634011700749397,-0.010777417570352554
0.01818142831325531,-5.3258336265571415e-05,-0.008045187219977379,-0.015541959553956985,0.00595299806445837,-0.010380898602306843
0.017746910452842712,-5.0459908379707485e-05,-0.00781787745654583,-0.015824338421225548,0.006182319484651089,-0.010546575300395489
0.018454767763614655,-2.7414422220317647e-05,-0.008158065378665924,-0.016523204743862152,0.006104698404669762,-0.01088593527674675
0.018518807366490364,-2.3920911189634353e-05,-0.007937602698802948,-0.015968292951583862,0.00605012895539403,-0.01082969643175602
0.018575754016637802,-9.358165016237763e-07,-0.007432989776134491,-0.016678599640727043,0.005696028005331755,-0.010559740476310253
0.018528753891587257,-1.255517290132957e-08,-0.0074797808192670345,-0.01691046729683876,0.0058770254254341125,-0.010293528437614441
0.01839747093617916,-1.684436479187923e-10,-0.007812499534338713,-0.01784186251461506,0.005776464473456144,-0.01071623433381319
0.01871662773191929,-2.2598867222001218e-12,-0.0081197964027524,-0.018171163275837898,0.005697191227227449,-0.01084577664732933
0.01893347129225731,-3.031926652016098e-14,-0.007668075151741505,-0.017859650775790215,0.005732444114983082,-0.010953152552247047
0.018538881093263626,-4.067716116417779e-16,-0.00827684998512268,-0.01804453134536743,0.006025331560522318,-0.010804884135723114
0.018909595906734467,-5.4573604872655524e-18,-0.007894539274275303,-0.01835051365196705,0.005758535582572222,-0.010958366096019745
0.019043106585741043,-7.321745894277936e-20,-0.007649553474038839,-0.018854793161153793,0.0059150694869458675,-0.010629463009536266
0.01855843886733055,-9.82305654078347e-22,-0.0070132105611264706,-0.018982840701937675,0.006134422495961189,-0.01060052402317524
0.019259914755821228,-1.3178885409743182e-23,-0.007850522175431252,-0.018343769013881683,0.005854107439517975,-0.010512854903936386
0.01916843093931675,0.0006820966955274343,-0.007982530631124973,-0.019052674993872643,0.005898534785956144,-0.011317223310470581
0.018894013017416,0.0007535882177762687,-0.00756573211401701,-0.018850179389119148,0.005959868431091309,-0.011128250509500504
0.019409138709306717,0.000666001345962286,-0.007329887710511684,-0.01854666694998741,0.006094783078879118,-0.010536826215684414
0.020026514306664467,0.0006795970839448273,-0.007744451519101858,-0.019215449690818787,0.006242815405130386,-0.010752500034868717
0.019604384899139404,0.0006230848375707865,-0.007484676782041788,-0.020375728607177734,0.0061284503899514675,-0.01094140950590372
0.01977252960205078,0.000619908794760704,-0.008128959685564041,-0.02013164386153221,0.0063725486397743225,-0.011152391321957111
0.0192753616720438,0.0007193477940745652,-0.007617084309458733,-0.020738521590828896,0.006089906673878431,-0.011204490438103676
0.020301681011915207,0.0008383216336369514,-0.0073870206251740456,-0.02051839791238308,0.006221359129995108,-0.011662283912301064
0.020301681011915207,0.0008383216336369514,-0.0073870206251740456,-0.02051839791238308,0.006221359129995108,-0.011662283912301064
0.020787417888641357,0.0015565298963338137,-0.007530511822551489,-0.02073533646762371,0.0060997470282018185,-0.011292888782918453
0.02017202228307724,0.0018076766282320023,-0.007572858594357967,-0.021149426698684692,0.006876660045236349,-0.011286959983408451
0.019222483038902283,0.004443206824362278,-0.0074103279039263725,-0.021616404876112938,0.006463231053203344,-0.011331362649798393
0.020208952948451042,0.005218614358454943,-0.00725399749353528,-0.021814167499542236,0.006333150435239077,-0.011287870816886425
0.020786020904779434,0.0048174564726650715,-0.007453421596437693,-0.021692318841814995,0.005527690052986145,-0.011824997141957283
0.020015515387058258,0.004116640891879797,-0.007702913600951433,-0.021480701863765717,0.005838824901729822,-0.011418982408940792
0.020485037937760353,0.00350484112277627,-0.007677349727600813,-0.023230647668242455,0.006156336050480604,-0.011542187072336674
0.020845146849751472,0.0034096604213118553,-0.007242378778755665,-0.02297550067305565,0.006091554183512926,-0.011832975782454014
0.019602732732892036,0.0037643287796527147,-0.007241572253406048,-0.022800913080573082,0.006463291123509407,-0.01195364911109209
0.0196492038667202,0.004517456516623497,-0.007416771724820137,-0.023222021758556366,0.0062500108033418655,-0.012145450338721275
0.02034689113497734,0.004843658301979303,-0.008230128325521946,-0.02376667782664299,0.006102793850004673,-0.012273065745830536
0.020872097462415695,0.00483635114505887,-0.007263679523020983,-0.02315838448703289,0.006453328300267458,-0.011162132024765015
0.020049354061484337,0.005201346706598997,-0.007186530623584986,-0.023320788517594337,0.006550155114382505,-0.012538137845695019
0.02057485096156597,0.005565616302192211,-0.007611678447574377,-0.022905590012669563,0.006249701604247093,-0.013161697424948215
0.0203709676861763,0.005247829016298056,-0.008297004736959934,-0.023515596985816956,0.006219311151653528,-0.012478891760110855
0.020019415766000748,0.005718036089092493,-0.007818249054253101,-0.02429070882499218,0.006255481392145157,-0.012262620963156223
0.020771177485585213,0.005564859602600336,-0.006937240716069937,-0.02414453774690628,0.006128501147031784,-0.012195846997201443
0.020652715116739273,0.0064146434888243675,-0.0074468981474637985,-0.02463320456445217,0.0063379667699337006,-0.012475325725972652
0.02011527679860592,0.006944231688976288,-0.008239301852881908,-0.025547415018081665,0.006381505634635687,-0.012711568735539913
0.020418530330061913,0.006929207127541304,-0.00761751551181078,-0.02587415836751461,0.006077258847653866,-0.012693856842815876
0.02080252580344677,0.00681999372318387,-0.006973189301788807,-0.025000978261232376,0.006187432911247015,-0.012945255264639854
0.02050844207406044,0.007294805720448494,-0.007412345614284277,-0.024598378688097,0.006987203378230333,-0.012969354167580605
0.020342295989394188,0.006830323953181505,-0.00774233415722847,-0.024622157216072083,0.006919601932168007,-0.012700201012194157
0.020599965006113052,0.006177584640681744,-0.007431290112435818,-0.02528863400220871,0.0063666389323771,-0.012652731500566006
0.02055123820900917,0.007472129538655281,-0.008020970039069653,-0.026958327740430832,0.006423170678317547,-0.013163386844098568
0.02055305242538452,0.007850950583815575,-0.007928929291665554,-0.026571741327643394,0.00622153514996171,-0.013199805282056332
0.020999092608690262,0.007651622407138348,-0.0074943965300917625,-0.026415711268782616,0.006363078020513058,-0.013666525483131409
0.020999092608690262,0.007651622407138348,-0.0074943965300917625,-0.026415711268782616,0.006363078020513058,-0.013666525483131409
0.021322833374142647,0.007689807564020157,-0.007491272408515215,-0.0267977062612772,0.0065193502232432365,-0.013456842862069607
0.021132389083504677,0.007963825017213821,-0.007777238264679909,-0.027157269418239594,0.006280495319515467,-0.013625768013298512
0.02088654413819313,0.00870565976947546,-0.00838079210370779,-0.02696721814572811,0.006393731106072664,-0.013512996025383472
0.02125488966703415,0.008423847146332264,-0.007468053139746189,-0.026569288223981857,0.006649862043559551,-0.013670201413333416
0.0211979728192091,0.007989558391273022,-0.00703482236713171,-0.02667856775224209,0.006718876305967569,-0.01372094638645649
0.02104230225086212,0.008864220231771469,-0.007802768610417843,-0.027317559346556664,0.0065664369612932205,-0.01409527100622654
0.021420234814286232,0.009104751981794834,-0.008365101180970669,-0.027157774195075035,0.006326202303171158,-0.013791149482131004
0.02097838930785656,0.009005695581436157,-0.008304211311042309,-0.026922006160020828,0.006571999751031399,-0.013681633397936821
0.020233027637004852,0.00942935235798359,-0.007869613356888294,-0.02583044394850731,0.006815036758780479,-0.013965477235615253
0.021243689581751823,0.009971760213375092,-0.0077900816686451435,-0.027366505935788155,0.00675839651376009,-0.014365708455443382
0.021786266937851906,0.00966834556311369,-0.007938656024634838,-0.027681322768330574,0.006226288620382547,-0.014291050843894482
0.02158506028354168,0.009712344035506248,-0.007572567090392113,-0.027332598343491554,0.006081852596253157,-0.014363029040396214
0.0211134422570467,0.009532173164188862,-0.007319021970033646,-0.026958348229527473,0.006205746438354254,-0.014062752015888691
0.02096385695040226,0.009547537192702293,-0.008035074919462204,-0.027694517746567726,0.006430147215723991,-0.013988679274916649
0.021523557603359222,0.010047568008303642,-0.008113155141472816,-0.028330128639936447,0.006771895103156567,-0.014188051223754883
0.02119298465549946,0.010457804426550865,-0.007707403507083654,-0.028315436094999313,0.00693089421838522,-0.01447069738060236
0.021036120131611824,0.010531241074204445,-0.0069281673058867455,-0.028781084343791008,0.006805016193538904,-0.014629265293478966
0.02124694362282753,0.011223805136978626,-0.008790044113993645,-0.02961786650121212,0.006588253658264875,-0.014869463630020618
0.021351071074604988,0.011104080826044083,-0.008077277801930904,-0.029969574883580208,0.007044491358101368,-0.014996280893683434
0.02148774079978466,0.01106745284050703,-0.0075295413844287395,-0.03023584745824337,0.0071687898598611355,-0.014911665581166744
0.021540915593504906,0.011298193596303463,-0.0080990269780159,-0.030019255355000496,0.006892195902764797,-0.01437982264906168
0.02135077863931656,0.011256437748670578,-0.008374624885618687,-0.030256375670433044,0.006723560392856598,-0.015563564375042915
0.02163580060005188,0.01141701452434063,-0.008111521601676941,-0.031401701271533966,0.007100020535290241,-0.015402548015117645
0.021306023001670837,0.011681672185659409,-0.008692990057170391,-0.0315629243850708,0.006996813230216503,-0.01537407748401165
0.021324124187231064,0.012243347242474556,-0.008216304704546928,-0.032277390360832214,0.006754693575203419,-0.01549681555479765
0.021357078105211258,0.011288193985819817,-0.008118999190628529,-0.032325174659490585,0.00679641542956233,-0.015312768518924713
0.021511755883693695,0.011600680649280548,-0.008515344932675362,-0.0323428176343441,0.0071998219937086105,-0.015582586638629436
0.02209870144724846,0.011645042337477207,-0.00867188535630703,-0.03189051151275635,0.0072302380576729774,-0.015719441697001457
0.02209870144724846,0.011645042337477207,-0.00867188535630703,-0.03189051151275635,0.0072302380576729774,-0.015719441697001457
0.022051138803362846,0.011255250312387943,-0.008077038452029228,-0.032338861376047134,0.007163308560848236,-0.01589059829711914
0.02205350622534752,0.01193732675164938,-0.007769168820232153,-0.03222591429948807,0.007026039529591799,-0.015389945358037949
0.021454954519867897,0.011877182871103287,-0.008816028945147991,-0.03237045556306839,0.006933965254575014,-0.01522026676684618
0.02109808474779129,0.011707434430718422,-0.008621794171631336,-0.03202858567237854,0.00708832498639822,-0.015165956690907478
0.021718157455325127,0.012122604995965958,-0.0076509336940944195,-0.033799778670072556,0.007378042209893465,-0.015724407508969307
0.022332914173603058,0.01173919253051281,-0.007940384559333324,-0.03389967232942581,0.006956111174076796,-0.015905912965536118
0.022032205015420914,0.012132101692259312,-0.008497082628309727,-0.03338669613003731,0.006739105097949505,-0.016042271628975868
0.021616222336888313,0.012338461354374886,-0.008781520649790764,-0.03166488930583,0.006714931223541498,-0.01625572144985199
0.022143125534057617,0.012531490996479988,-0.008053366094827652,-0.03366678208112717,0.006919724401086569,-0.016113227233290672
0.02294519916176796,0.012266865000128746,-0.007867269217967987,-0.03447525203227997,0.006638337858021259,-0.016246257349848747
0.022623104974627495,0.012309402227401733,-0.008766518905758858,-0.03443608433008194,0.0064008100889623165,-0.016313448548316956
0.022371439263224602,0.01204391848295927,-0.008409211412072182,-0.03563758358359337,0.0065182046964764595,-0.01573914662003517
0.021950524300336838,0.011941292323172092,-0.007939334958791733,-0.03488047420978546,0.006923501845449209,-0.015914391726255417
0.022038917988538742,0.012802906334400177,-0.007888644002377987,-0.03349858894944191,0.006933382246643305,-0.015354571864008904
0.022678209468722343,0.012462155893445015,-0.008236827328801155,-0.03391817957162857,0.006856346037238836,-0.015566805377602577
0.02341599017381668,0.012811180204153061,-0.0077702621929347515,-0.03500794246792793,0.007147209253162146,-0.015838155522942543
0.022905122488737106,0.012639399617910385,-0.00761534133926034,-0.03516475111246109,0.006911393254995346,-0.01691671460866928
0.022465677931904793,0.013085057958960533,-0.007971035316586494,-0.035478346049785614,0.006882217712700367,-0.016895856708288193
0.022766556590795517,0.013429810293018818,-0.0072269439697265625,-0.03541430085897446,0.006863791029900312,-0.016330787912011147
0.022766556590795517,0.013429810293018818,-0.0072269439697265625,-0.03541430085897446,0.006863791029900312,-0.016330787912011147
0.02332206815481186,0.013230498880147934,-0.007946304976940155,-0.036011289805173874,0.007067962549626827,-0.01683209277689457
0.02332206815481186,0.013230498880147934,-0.007946304976940155,-0.036011289805173874,0.007067962549626827,-0.01683209277689457
0.022994130849838257,0.013643225654959679,-0.007989677600562572,-0.03721886873245239,0.007278735283762217,-0.016220765188336372
0.02323659509420395,0.012996898964047432,-0.007802824955433607,-0.03706670552492142,0.007718285545706749,-0.017110271379351616
0.02323659509420395,0.012996898964047432,-0.007802824955433607,-0.03706670552492142,0.007718285545706749,-0.017110271379351616
0.02365637943148613,0.01341269537806511,-0.008603718131780624,-0.0367012619972229,0.007159306202083826,-0.016291076317429543
0.023214800283312798,0.013444974087178707,-0.007954278960824013,-0.036618150770664215,0.007315043359994888,-0.015576547011733055
0.023764973506331444,0.013956813141703606,-0.008268609642982483,-0.03834021836519241,0.007160067558288574,-0.0164166409522295
0.023764973506331444,0.013956813141703606,-0.008268609642982483,-0.03834021836519241,0.007160067558288574,-0.0164166409522295
0.024022934958338737,0.013579880818724632,-0.00814943015575409,-0.037265170365571976,0.007376379333436489,-0.016718633472919464
0.024116702377796173,0.013943785801529884,-0.007492111064493656,-0.036128703504800797,0.0076166498474776745,-0.016893420368433
0.024239569902420044,0.013931137509644032,-0.007367949467152357,-0.0372895747423172,0.007088683545589447,-0.016323070973157883
0.024795811623334885,0.014506193809211254,-0.008222007192671299,-0.03774348273873329,0.006642851512879133,-0.016315152868628502
0.02453925646841526,0.01444995030760765,-0.00826853048056364,-0.037401534616947174,0.006689440459012985,-0.016505040228366852
0.024500705301761627,0.014185954816639423,-0.007847108878195286,-0.03791505843400955,0.0069718025624752045,-0.016736634075641632
0.02382568269968033,0.01425483450293541,-0.007115508429706097,-0.03630807623267174,0.00725691020488739,-0.016999613493680954
0.024239499121904373,0.013872385025024414,-0.00761506799608469,-0.03720403462648392,0.007499304134398699,-0.016770636662840843
0.025188058614730835,0.014318279922008514,-0.006812394130975008,-0.0385170504450798,0.0069322604686021805,-0.016814637929201126
0.02521253563463688,0.014763147570192814,-0.006690098438411951,-0.03873642161488533,0.007292310707271099,-0.017032664269208908
0.024392619729042053,0.014833171851933002,-0.006847767159342766,-0.03889602795243263,0.007793771103024483,-0.017271393910050392
0.024954814463853836,0.014490816742181778,-0.007031547371298075,-0.0393795371055603,0.007781683932989836,-0.01704830676317215
0.02526601403951645,0.015203742310404778,-0.006595344748347998,-0.039852578192949295,0.007106370758265257,-0.016782887279987335
0.02530568651854992,0.015215547755360603,-0.006528089754283428,-0.0403134748339653,0.007002925034612417,-0.017303472384810448
0.02492651529610157,0.01452773716300726,-0.006612616591155529,-0.0405106320977211,0.00743135204538703,-0.017271775752305984
0.024953428655862808,0.015405560843646526,-0.00674073863774538,-0.04035233333706856,0.00808500312268734,-0.017435675486922264
0.025262441486120224,0.015320978127419949,-0.0070016998797655106,-0.04072779417037964,0.008335212245583534,-0.01793910190463066
0.025262441486120224,0.015320978127419949,-0.0070016998797655106,-0.04072779417037964,0.008335212245583534,-0.01793910190463066
0.025877613574266434,0.015395698137581348,-0.006227620877325535,-0.04078805446624756,0.00752805732190609,-0.017826860770583153
0.025624055415391922,0.01603071577847004,-0.006539648864418268,-0.041062671691179276,0.008088772185146809,-0.017862269654870033
0.025660715997219086,0.01595359295606613,-0.007053932175040245,-0.04141790047287941,0.008909093216061592,-0.017852380871772766
0.025568611919879913,0.0164277832955122,-0.006953689269721508,-0.04215692728757858,0.008481551893055439,-0.0179813951253891
0.025938713923096657,0.0156561192125082,-0.0064611718989908695,-0.04182349890470505,0.007952102459967136,-0.017730770632624626
0.02598109096288681,0.015521140769124031,-0.006222944241017103,-0.042317599058151245,0.007204911671578884,-0.017609337344765663
0.02629847824573517,0.014837718568742275,-0.006868547294288874,-0.04224544018507004,0.007719504181295633,-0.01697261445224285
0.02633705921471119,0.015284113585948944,-0.007406650111079216,-0.04291442781686783,0.007904152385890484,-0.017944497987627983
0.026628615334630013,0.016283085569739342,-0.006820698268711567,-0.04344481602311134,0.007672649342566729,-0.018690012395381927
0.026521902531385422,0.01562860980629921,-0.006741609890013933,-0.04357064142823219,0.007523704785853624,-0.018232448026537895
0.026502462103962898,0.01623968407511711,-0.007000004407018423,-0.043383944779634476,0.007467419840395451,-0.018107527866959572
0.02650790847837925,0.01590166613459587,-0.007387534249573946,-0.043901484459638596,0.00744020938873291,-0.0183769129216671
0.026517348363995552,0.016196615993976593,-0.007298889569938183,-0.04486990347504616,0.0077745383605360985,-0.01776878908276558
0.026672160252928734,0.01609877124428749,-0.00680608069524169,-0.04457422345876694,0.0076118153519928455,-0.017878511920571327
0.026659032329916954,0.016436001285910606,-0.007287745364010334,-0.04227516055107117,0.007751045748591423,-0.018291985616087914
0.026702245697379112,0.016712971031665802,-0.00690888287499547,-0.04399329796433449,0.007680333685129881,-0.01789437234401703
0.026742547750473022,0.016607753932476044,-0.006995100993663073,-0.04433480650186539,0.007583145052194595,-0.017770152539014816
0.02701541781425476,0.01647510938346386,-0.006788745988160372,-0.04585857689380646,0.007302384357899427,-0.0180681012570858
0.0270900446921587,0.016217190772294998,-0.006786550395190716,-0.04425739869475365,0.007455895654857159,-0.018789391964673996
0.026821834966540337,0.016613224521279335,-0.007105443626642227,-0.04297295957803726,0.008119471371173859,-0.018449220806360245
0.0269208662211895,0.016398800536990166,-0.007312083151191473,-0.04466528072953224,0.00824506115168333,-0.017916636541485786
0.026589728891849518,0.016361165791749954,-0.007291802205145359,-0.0446196086704731,0.008102091029286385,-0.017608491703867912
0.026869995519518852,0.01643059216439724,-0.007365608587861061,-0.04476084187626839,0.00817458052188158,-0.018404431641101837
0.026703348383307457,0.016610996797680855,-0.007827216759324074,-0.04379424825310707,0.007977650500833988,-0.017811663448810577
0.02672760747373104,0.017262667417526245,-0.007888464257121086,-0.044634997844696045,0.007960190996527672,-0.01817001774907112
0.026766952127218246,0.017100883647799492,-0.007195907179266214,-0.04359075427055359,0.008239670656621456,-0.01832689717411995
0.026766952127218246,0.017100883647799492,-0.007195907179266214,-0.04359075427055359,0.008239670656621456,-0.01832689717411995
0.026977963745594025,0.01748502068221569,-0.008315012790262699,-0.04488411545753479,0.007998829707503319,-0.019016750156879425
0.02667955309152603,0.017006302252411842,-0.007985807955265045,-0.04299592971801758,0.00793848279863596,-0.018676582723855972
0.026664769276976585,0.017026323825120926,-0.006483167875558138,-0.04422950744628906,0.007468122057616711,-0.019259706139564514
0.026887495070695877,0.017368648201227188,-0.0070539419539272785,-0.04594932124018669,0.007342148572206497,-0.01910894550383091
0.027100713923573494,0.01756456308066845,-0.007492191158235073,-0.045958198606967926,0.0071192579343914986,-0.018459824845194817
0.02717791497707367,0.01794770359992981,-0.007127333432435989,-0.04480549693107605,0.007270789239555597,-0.01840605027973652
0.02717951312661171,0.01775416173040867,-0.006711297668516636,-0.04584302008152008,0.008068264462053776,-0.0179427620023489
0.02717951312661171,0.01775416173040867,-0.006711297668516636,-0.04584302008152008,0.008068264462053776,-0.0179427620023489
0.026776278391480446,0.017125265672802925,-0.0071258083917200565,-0.046557776629924774,0.008293628692626953,-0.018238484859466553
0.02715708315372467,0.01756724715232849,-0.007379045709967613,-0.04621551185846329,0.007297073490917683,-0.017687898129224777
0.02782253921031952,0.018222982063889503,-0.007064903154969215,-0.046461306512355804,0.00727122975513339,-0.018882015720009804
0.027560533955693245,0.017970843240618706,-0.007404654286801815,-0.04705742746591568,0.008188685402274132,-0.019406694918870926
0.02695787325501442,0.018377607688307762,-0.007616756949573755,-0.04705464094877243,0.008214748464524746,-0.01927952654659748
0.026083383709192276,0.016755782067775726,-0.007636952679604292,-0.04727010428905487,0.0076531884260475636,-0.018747394904494286
0.026804640889167786,0.018055636435747147,-0.007487060036510229,-0.04731930047273636,0.007421714253723621,-0.01861897110939026
0.027674885466694832,0.018162013962864876,-0.007552393712103367,-0.047580935060977936,0.007749699056148529,-0.01902540773153305
0.026860808953642845,0.0179804265499115,-0.007129548117518425,-0.04781419783830643,0.008204790763556957,-0.018930688500404358
0.02691941149532795,0.017825569957494736,-0.007452112156897783,-0.048455823212862015,0.008113804273307323,-0.019144797697663307
0.026878857985138893,0.018302729353308678,-0.00801787804812193,-0.04808150604367256,0.007720361929386854,-0.01910184696316719
0.027848554775118828,0.018289916217327118,-0.007196277845650911,-0.04869825392961502,0.008163614198565483,-0.01916716806590557
0.026665272191166878,0.018449891358613968,-0.007201884873211384,-0.04876624047756195,0.007754317484796047,-0.01893593743443489
0.026251396164298058,0.018345048651099205,-0.008064172230660915,-0.048833951354026794,0.007384486496448517,-0.018847553059458733
0.027019958943128586,0.018445082008838654,-0.007604262791574001,-0.049653634428977966,0.007334782741963863,-0.019172638654708862
0.028098778799176216,0.01873873919248581,-0.007388700265437365,-0.04937267303466797,0.008046831004321575,-0.019643185660243034
0.027386778965592384,0.018793722614645958,-0.007545394357293844,-0.049117330461740494,0.008106705732643604,-0.0193325225263834
0.027801088988780975,0.019333383068442345,-0.007491117808967829,-0.05036851763725281,0.008366912603378296,-0.019131874665617943
0.027801088988780975,0.019333383068442345,-0.007491117808967829,-0.05036851763725281,0.008366912603378296,-0.019131874665617943
0.027801088988780975,0.019333383068442345,-0.007491117808967829,-0.05036851763725281,0.008366912603378296,-0.019131874665617943
0.02762359008193016,0.019648438319563866,-0.007374125067144632,-0.04947314038872719,0.008367477916181087,-0.019023152068257332
0.028102345764636993,0.019799193367362022,-0.007821987383067608,-0.052257850766181946,0.008540737442672253,-0.01910090446472168
0.028119143098592758,0.019292868673801422,-0.007357622031122446,-0.05141549929976463,0.00853054691106081,-0.019359547644853592
0.028118029236793518,0.019362235441803932,-0.007242165505886078,-0.0492197684943676,0.007986107841134071,-0.01954512484371662
0.028345348313450813,0.02005106396973133,-0.0074656023643910885,-0.05055996775627136,0.007962564937770367,-0.0194687582552433
0.027887722477316856,0.01981072872877121,-0.00756756030023098,-0.051904790103435516,0.0078293951228261,-0.01981734298169613
0.027948210015892982,0.019431831315159798,-0.007302026730030775,-0.05158846825361252,0.008102797903120518,-0.019732369109988213
0.028997860848903656,0.020360512658953667,-0.00738971121609211,-0.0492284782230854,0.008583419024944305,-0.019373873248696327
0.02945999801158905,0.020375598222017288,-0.007674261927604675,-0.05034659057855606,0.00836252886801958,-0.019426900893449783
0.027994440868496895,0.020185820758342743,-0.007644716650247574,-0.0512133464217186,0.00856801588088274,-0.019443510100245476
0.027769485488533974,0.02030271291732788,-0.00740561168640852,-0.05116831138730049,0.008820525370538235,-0.019283337518572807
0.028629297390580177,0.02073793113231659,-0.007580925710499287,-0.05090145394206047,0.008217583410441875,-0.019464794546365738
0.029027385637164116,0.020761098712682724,-0.007434995844960213,-0.05166057124733925,0.008603308349847794,-0.01954999379813671
0.028814053162932396,0.020945454016327858,-0.007580320816487074,-0.0508919432759285,0.008542316034436226,-0.019460158422589302
0.029479769989848137,0.02098849229514599,-0.007487952243536711,-0.05249323323369026,0.007961523719131947,-0.0204886794090271
0.0295448899269104,0.021469397470355034,-0.007514082361012697,-0.05440671369433403,0.00816863588988781,-0.020572606474161148
0.029431598260998726,0.021059364080429077,-0.008143705315887928,-0.05163361877202988,0.007947731763124466,-0.01992635615170002
0.02916543371975422,0.02130788564682007,-0.008162146434187889,-0.05263558775186539,0.008160549215972424,-0.019707638770341873
0.0288386233150959,0.021867988631129265,-0.007115418557077646,-0.05452270433306694,0.008069942705333233,-0.019945191219449043
0.029727382585406303,0.021928513422608376,-0.007932550273835659,-0.056178875267505646,0.008206822909414768,-0.020458636805415154
0.030121000483632088,0.021462339907884598,-0.008172526024281979,-0.05291711166501045,0.008466989733278751,-0.020408611744642258
0.029895754531025887,0.02183009684085846,-0.00802487414330244,-0.053728386759757996,0.008514134213328362,-0.02027219347655773
0.02975633554160595,0.02206546440720558,-0.007660847622901201,-0.055012207478284836,0.008613561280071735,-0.020190807059407234
0.029523538425564766,0.022128405049443245,-0.007451571989804506,-0.05466051399707794,0.008860379457473755,-0.01936594396829605
0.029523538425564766,0.022128405049443245,-0.007451571989804506,-0.05466051399707794,0.008860379457473755,-0.01936594396829605
0.02938847430050373,0.02205388806760311,-0.008296625688672066,-0.056344155222177505,0.008547646924853325,-0.020380137488245964
0.029730550944805145,0.022641969844698906,-0.007808410096913576,-0.056277163326740265,0.008551722392439842,-0.020452111959457397
0.0296139158308506,0.022515228018164635,-0.008106263354420662,-0.0555553063750267,0.008369403891265392,-0.02018020674586296
0.02948692999780178,0.02199104055762291,-0.008072352968156338,-0.0558772049844265,0.008204483427107334,-0.02034788578748703
0.02948692999780178,0.02199104055762291,-0.008072352968156338,-0.0558772049844265,0.008204483427107334,-0.02034788578748703
0.029552074149250984,0.022272950038313866,-0.007653332781046629,-0.0562630258500576,0.008502654731273651,-0.021083345636725426
0.029333634302020073,0.022627513855695724,-0.00860840454697609,-0.05687698349356651,0.008336971513926983,-0.02106793411076069
0.0297403484582901,0.02211838588118553,-0.008607075549662113,-0.056276217103004456,0.007445060182362795,-0.01996111311018467
0.029814215376973152,0.02213524840772152,-0.007905669510364532,-0.05591503903269768,0.00902282353490591,-0.019783567637205124
0.03003065660595894,0.022653041407465935,-0.007558606564998627,-0.05597814545035362,0.009336641058325768,-0.019756963476538658
0.029802965000271797,0.023286456242203712,-0.008675282821059227,-0.0564148873090744,0.008568075485527515,-0.02014944888651371
0.029570123180747032,0.02334866113960743,-0.008625587448477745,-0.055911507457494736,0.008256036788225174,-0.0207194946706295
0.02981298789381981,0.023299982771277428,-0.008541853167116642,-0.05599870905280113,0.008379888720810413,-0.021559521555900574
0.029795797541737556,0.02294682338833809,-0.008029095828533173,-0.05567459017038345,0.008797825314104557,-0.021100150421261787
0.02953549660742283,0.02309311553835869,-0.008257887326180935,-0.05773642659187317,0.00865450594574213,-0.020327894017100334
0.02953624166548252,0.023298317566514015,-0.007867391221225262,-0.056210972368717194,0.007952512241899967,-0.020562956109642982
0.029524585232138634,0.023265598341822624,-0.0075074671767652035,-0.05533295497298241,0.008658815175294876,-0.020665256306529045
0.029786426573991776,0.023604968562722206,-0.009054537862539291,-0.05582074820995331,0.00846689660102129,-0.020497936755418777
0.029660329222679138,0.02388056181371212,-0.008633648045361042,-0.05825057253241539,0.008451584726572037,-0.020788177847862244
0.029841093346476555,0.02327292039990425,-0.008512049913406372,-0.05638120323419571,0.008688703179359436,-0.021038495004177094
0.029747948050498962,0.0229612085968256,-0.009084003046154976,-0.05635125935077667,0.009023105725646019,-0.02079242840409279
0.029836246743798256,0.023334603756666183,-0.008260645903646946,-0.05803491920232773,0.008250783197581768,-0.019487135112285614
0.029836246743798256,0.023334603756666183,-0.008260645903646946,-0.05803491920232773,0.008250783197581768,-0.019487135112285614
0.029413966462016106,0.024018382653594017,-0.007978917099535465,-0.05865081027150154,0.008329851552844048,-0.021681714802980423
0.029879271984100342,0.024649782106280327,-0.009374530985951424,-0.05899105593562126,0.008845497854053974,-0.02117275260388851
0.029187379404902458,0.023614736273884773,-0.00867143552750349,-0.058477893471717834,0.008640297688543797,-0.0205889530479908
0.029897939413785934,0.02380814030766487,-0.007333080284297466,-0.05814424902200699,0.008735603652894497,-0.02047637850046158
0.029562458395957947,0.024946114048361778,-0.006682100240141153,-0.06025282293558121,0.008474580943584442,-0.021009450778365135
0.029602963477373123,0.025032037869095802,-0.007864050567150116,-0.05867988243699074,0.008197750896215439,-0.02117067575454712
0.02969549223780632,0.02464967593550682,-0.007723507471382618,-0.05909065157175064,0.008410858921706676,-0.021324193105101585
0.0314810536801815,0.024313554167747498,-0.007196537218987942,-0.06034382805228233,0.008422276005148888,-0.02130274288356304
0.030677709728479385,0.023412413895130157,-0.007283528335392475,-0.06284845620393753,0.008416572585701942,-0.021226665005087852
0.02956855669617653,0.023968469351530075,-0.007980777882039547,-0.06032143160700798,0.008303146809339523,-0.02078019082546234
0.02992631122469902,0.025404443964362144,-0.007279960438609123,-0.060507047921419144,0.008240390568971634,-0.02115469239652157
0.030601445585489273,0.0250667966902256,-0.006545546464622021,-0.061262961477041245,0.00857233814895153,-0.021454796195030212
0.030535992234945297,0.024910641834139824,-0.006798073649406433,-0.060977499932050705,0.009157120250165462,-0.02113090083003044
0.030758649110794067,0.024973023682832718,-0.0074521019123494625,-0.06136756390333176,0.009264887310564518,-0.020791901275515556
0.031743962317705154,0.024434048682451248,-0.0077677457593381405,-0.0602828674018383,0.008577268570661545,-0.020878899842500687
0.030838042497634888,0.02499358169734478,-0.007221391890197992,-0.06108762323856354,0.008348090574145317,-0.020967599004507065
0.03099704533815384,0.025152849033474922,-0.006643179804086685,-0.06101116165518761,0.00828223954886198,-0.02110760286450386
0.030045589432120323,0.02519054152071476,-0.007600723300129175,-0.06083148717880249,0.00832563266158104,-0.020809022709727287
0.031111320480704308,0.02543574757874012,-0.00789580587297678,-0.06052717939019203,0.00807083398103714,-0.021103600040078163
0.03158048167824745,0.025653205811977386,-0.006917604245245457,-0.0606064610183239,0.008143245242536068,-0.02187327854335308
0.031777121126651764,0.026700381189584732,-0.006920091807842255,-0.06143225356936455,0.008446822874248028,-0.02230297215282917
0.031546805053949356,0.025960197672247887,-0.007461709436029196,-0.06007027253508568,0.008493104949593544,-0.022076647728681564
0.031637970358133316,0.025573430582880974,-0.008349576033651829,-0.0601106695830822,0.008566885255277157,-0.02146257273852825
0.03194935619831085,0.025203751400113106,-0.006820563692599535,-0.06094101816415787,0.008782844059169292,-0.02106475830078125
0.03194935619831085,0.025203751400113106,-0.006820563692599535,-0.06094101816415787,0.008782844059169292,-0.02106475830078125
0.03153557702898979,0.025306696072220802,-0.007654245477169752,-0.06366661936044693,0.009295533411204815,-0.022754207253456116
0.032221719622612,0.026096757501363754,-0.007923576980829239,-0.061168741434812546,0.00915698055177927,-0.0221092589199543
0.0323643684387207,0.026217516511678696,-0.006938764825463295,-0.06170680746436119,0.009350636042654514,-0.02187643200159073
0.0323643684387207,0.026217516511678696,-0.006938764825463295,-0.06170680746436119,0.009350636042654514,-0.02187643200159073
0.031902506947517395,0.02674044668674469,-0.006689579226076603,-0.06474056094884872,0.008884915150702,-0.02251763828098774
0.030711691826581955,0.026752566918730736,-0.007256677839905024,-0.0632549598813057,0.009114883840084076,-0.022891564294695854
0.032070860266685486,0.025737285614013672,-0.007170196622610092,-0.06301679462194443,0.008934655226767063,-0.022820958867669106
0.03242591768503189,0.02576812170445919,-0.007049213629215956,-0.06383780390024185,0.009209677577018738,-0.02268153615295887
0.03222460672259331,0.02652367204427719,-0.007020040415227413,-0.06516590714454651,0.008912323974072933,-0.021721400320529938
0.03336501121520996,0.027013611048460007,-0.008207072503864765,-0.06457626074552536,0.009048671461641788,-0.02229614555835724
0.03255119547247887,0.026416568085551262,-0.0076459432020783424,-0.06423436850309372,0.00885521899908781,-0.02296176366508007
0.03205225616693497,0.0263135377317667,-0.007369293365627527,-0.06458313018083572,0.008685589767992496,-0.023354312404990196
0.03179382532835007,0.026864660903811455,-0.0069908257573843,-0.06467986106872559,0.009009822271764278,-0.022245775908231735
0.0327504500746727,0.02658049389719963,-0.007561764679849148,-0.06633122265338898,0.008610956370830536,-0.02331104315817356
0.033231209963560104,0.027070460841059685,-0.008157242089509964,-0.06582601368427277,0.008111904375255108,-0.02387923374772072
0.033079080283641815,0.027354329824447632,-0.0069958362728357315,-0.06480447202920914,0.009205847978591919,-0.02373412996530533
0.032939981669187546,0.027272721752524376,-0.007110078819096088,-0.0662911906838417,0.009528005495667458,-0.02333390899002552
0.032720897346735,0.027389073744416237,-0.00762266106903553,-0.0672607496380806,0.0090209124609828,-0.02313653565943241
0.03278350085020065,0.027929149568080902,-0.00745054055005312,-0.06473997235298157,0.008706348016858101,-0.023105662316083908
0.03256871551275253,0.027576621621847153,-0.007607590407133102,-0.06522031128406525,0.008822182193398476,-0.023247407749295235
0.03291311115026474,0.028209596872329712,-0.007839575409889221,-0.06775156408548355,0.008934437297284603,-0.02321653626859188
0.03328412026166916,0.028072280809283257,-0.007978289388120174,-0.06572422385215759,0.009099840186536312,-0.02343183383345604
0.032883767038583755,0.027797449380159378,-0.007763600442558527,-0.0648404210805893,0.009329253807663918,-0.023643450811505318
0.032883767038583755,0.027797449380159378,-0.007763600442558527,-0.0648404210805893,0.009329253807663918,-0.023643450811505318
0.03299523517489433,0.028601355850696564,-0.006975280120968819,-0.06548800319433212,0.009315650910139084,-0.02377721108496189
0.03293014317750931,0.02848116308450699,-0.008375624194741249,-0.06553719937801361,0.009733674116432667,-0.02368846721947193
0.03293014317750931,0.02848116308450699,-0.008375624194741249,-0.06553719937801361,0.009733674116432667,-0.02368846721947193
0.03352193906903267,0.028295021504163742,-0.007360413670539856,-0.06574251502752304,0.009109342470765114,-0.02394169569015503
0.033491022884845734,0.028671441599726677,-0.008058481849730015,-0.06691572070121765,0.009474493563175201,-0.02383182942867279
0.033491022884845734,0.028671441599726677,-0.008058481849730015,-0.06691572070121765,0.009474493563175201,-0.02383182942867279
0.03324653580784798,0.028292452916502953,-0.007208752911537886,-0.06765823811292648,0.00920124351978302,-0.023920102044939995
0.0334102027118206,0.02890971675515175,-0.007219789084047079,-0.06734763085842133,0.008941284380853176,-0.023752735927700996
0.03355471044778824,0.028981652110815048,-0.006934404373168945,-0.07016290724277496,0.009550231508910656,-0.023764630779623985
