davideferrari95/blind_handover_controller/data/Test 208 - [2024-02-08 -- 12-07-24]/joint_states_data.csv
shoulder_pan_joint,shoulder_lift_joint,elbow_joint,wrist_1_joint,wrist_2_joint,wrist_3_joint
-0.007474778685718775,-0.019294004887342453,-0.002027167472988367,0.020538080483675003,0.0,-0.007392790634185076
-0.007730670273303986,-0.01983376033604145,-0.002296592341735959,0.020813722163438797,0.0,-0.007116349413990974
-0.007730670273303986,-0.01983376033604145,-0.002296592341735959,0.020813722163438797,0.0,-0.007116349413990974
-0.007691110484302044,-0.019705042243003845,-0.0025362386368215084,0.020561665296554565,0.0,-0.006835727486759424
-0.006863144226372242,-0.019634351134300232,-0.0026433144230395555,0.019980279728770256,0.0,-0.007136438973248005
-0.006521136034280062,-0.020057376474142075,-0.002683325670659542,0.020782778039574623,0.0,-0.007019912824034691
-0.007123923394829035,-0.019271066412329674,-0.002686141524463892,0.0208848025649786,0.0,-0.0071259732358157635
-0.007277618627995253,-0.018738191574811935,-0.002374055562540889,0.020584678277373314,0.0,-0.0064931693486869335
-0.007094561588019133,-0.019266949966549873,-0.002476912923157215,0.02054879255592823,0.0,-0.00670052831992507
-0.0068958778865635395,-0.019233282655477524,-0.0027352040633559227,0.020820466801524162,0.0,-0.0068306224420666695
-0.0068099889904260635,-0.01989973895251751,-0.0029782771598547697,0.020815858617424965,0.0,-0.007070942781865597
-0.007196575868874788,-0.01979091390967369,-0.002921014092862606,0.020666999742388725,0.0,-0.0068445950746536255
-0.007400102447718382,-0.018931683152914047,-0.0028779879212379456,0.021080169826745987,0.0,-0.006712440401315689
-0.006770043168216944,-0.018748633563518524,-0.0024325980339199305,0.021249407902359962,0.0,-0.006913206540048122
-0.006733221467584372,-0.019629525020718575,-0.0023603790905326605,0.020802507176995277,0.0,-0.007256198674440384
-0.006733221467584372,-0.019629525020718575,-0.0023603790905326605,0.020802507176995277,0.0,-0.007256198674440384
-0.007300878409296274,-0.02005843073129654,-0.002700319979339838,0.02045033685863018,0.0,-0.007321189157664776
-0.007244507782161236,-0.01924833655357361,-0.0030857273377478123,0.020587671548128128,0.0,-0.00685742637142539
-0.006819396745413542,-0.01911170408129692,-0.0030111295636743307,0.02059810981154442,0.0,-0.006962183862924576
-0.007007721811532974,-0.018366077914834023,-0.0027397237718105316,0.020678190514445305,0.0,-0.006930477451533079
-0.007041743025183678,-0.018661368638277054,-0.0027114818803966045,0.020779307931661606,0.0,-0.007279727607965469
-0.007319102995097637,-0.019449293613433838,-0.002830056007951498,0.021016819402575493,0.0,-0.006980139296501875
-0.0074849436059594154,-0.019398655742406845,-0.00303024728782475,0.019330784678459167,0.0,-0.007422107271850109
-0.007051302585750818,-0.01917651854455471,-0.0029298902954906225,0.020554102957248688,0.0,-0.007622087374329567
-0.006631182972341776,-0.019263742491602898,-0.002886768663302064,0.02093384601175785,0.0,-0.007660056464374065
-0.006791518535465002,-0.018842250108718872,-0.0024642751086503267,0.020504895597696304,0.0,-0.006840376649051905
-0.0062595936469733715,-0.019383994862437248,-0.0026849154382944107,0.019875237718224525,0.0,-0.006878228858113289
-0.006468595936894417,-0.018913637846708298,-0.0029505586717277765,0.020348990336060524,0.0,-0.007312209345400333
-0.006802834570407867,-0.018729856237769127,-0.0025786140467971563,0.02006527967751026,0.0,-0.007088375743478537
-0.006727622356265783,-0.019122527912259102,-0.0025705676525831223,0.02010575868189335,0.0,-0.006667234003543854
-0.006684866268187761,-0.018826166167855263,-0.0027096460107713938,0.019930249080061913,0.0,-0.006526302546262741
-0.0064628468826413155,-0.018957316875457764,-0.002542990492656827,0.020095447078347206,0.0,-0.006486755795776844
-0.0063428087159991264,-0.019208723679184914,-0.002619392005726695,0.020242899656295776,0.0,-0.006925665307790041
-0.006888738367706537,-0.0190171767026186,-0.0024545383639633656,0.020791398361325264,0.0,-0.0069104633294045925
-0.006488624960184097,-0.01877029985189438,-0.002359069185331464,0.020188553258776665,0.0,-0.006819630973041058
-0.006256405264139175,-0.019457558169960976,-0.002369120018556714,0.019176706671714783,0.0,-0.007194030564278364
-0.006318145431578159,-0.018899396061897278,-0.0025613815523684025,0.019160250201821327,0.0,-0.007588278502225876
-0.006705333478748798,-0.018542345613241196,-0.0023959623649716377,0.01937311515212059,0.0,-0.006734554655849934
-0.006614613812416792,-0.019133780151605606,-0.0024608513340353966,0.019619250670075417,0.0,-0.00652707926928997
-0.006394550204277039,-0.018571017310023308,-0.0026308768428862095,0.020138265565037727,0.0,-0.006829421501606703
-0.006326924543827772,-0.018763408064842224,-0.002516865497455001,0.020150108262896538,0.0,-0.007044350728392601
-0.006639593746513128,-0.01885347068309784,-0.002711670473217964,0.019783493131399155,0.0,-0.007144159637391567
-0.0064669023267924786,-0.018547801300883293,-0.0025397830177098513,0.019822148606181145,0.0,-0.006693272385746241
-0.0064669023267924786,-0.018547801300883293,-0.0025397830177098513,0.019822148606181145,0.0,-0.006693272385746241
-0.006269576493650675,-0.018793180584907532,-0.0024519527796655893,0.020478008314967155,0.0,-0.007091316860169172
-0.0056541478261351585,-0.018736574798822403,-0.0025901428889483213,0.021031979471445084,0.0,-0.0069976565428078175
-0.006348846945911646,-0.018411999568343163,-0.0027839187532663345,0.019909502938389778,0.0,-0.006939040496945381
-0.006691902410238981,-0.018984360620379448,-0.0028796661645174026,0.019780036062002182,0.0,-0.006841068156063557
-0.006188238970935345,-0.018816526979207993,-0.002667138585820794,0.01919604279100895,0.0,-0.006695886608213186
-0.006143278907984495,-0.018301378935575485,-0.0019968801643699408,0.019138185307383537,0.0,-0.007028845138847828
-0.00643534492701292,-0.0186479389667511,-0.0013867560774087906,0.019390910863876343,0.0,-0.0067112864926457405
-0.006576112005859613,-0.01800484023988247,-0.0011380870128050447,0.01933298259973526,0.0,-0.0069851353764534
-0.006443774793297052,-0.018867405131459236,-0.0011322781210765243,0.019179757684469223,0.0,-0.007057033013552427
-0.006140863057225943,-0.01828819513320923,-0.0007988185971044004,0.01927836984395981,0.0,-0.0073624951764941216
-0.006249669939279556,-0.01828482374548912,-0.0009047273779287934,0.019349148496985435,0.0,-0.007001824676990509
-0.006378906313329935,-0.01837204024195671,-0.0009344264981336892,0.019778389483690262,0.0,-0.006518717389553785
-0.006159126292914152,-0.01792141981422901,-0.0015470822108909488,0.020119251683354378,0.0,-0.006217466667294502
-0.0061373342759907246,-0.017792772501707077,-0.0014156762044876814,0.020014412701129913,0.0,-0.0064696865156292915
-0.005934249144047499,-0.017499715089797974,-0.001315760426223278,0.020001111552119255,0.0,-0.00669422373175621
-0.005862696561962366,-0.017560476437211037,-0.0011175108375027776,0.0202537439763546,0.0,-0.00709694204851985
-0.006029162090271711,-0.017836639657616615,-0.0008934794459491968,0.0193571075797081,0.0,-0.007024968042969704
-0.006314127240329981,-0.016971958801150322,-0.0008699182071723044,0.018774667754769325,0.0,-0.0072626653127372265
-0.006105612963438034,-0.017811857163906097,-0.0008841246017254889,0.01905379816889763,0.0,-0.006936757825314999
-0.0064521413296461105,-0.017449263483285904,-0.0008956458186730742,0.019463354721665382,0.0,-0.006595833692699671
-0.005748421419411898,-0.017486315220594406,-0.0011888680746778846,0.019408514723181725,0.0,-0.006695945281535387
-0.0061164735816419125,-0.017349714413285255,-0.001153321354649961,0.019778456538915634,0.0,-0.006878269836306572
-0.00641633803024888,-0.01689063385128975,-0.0011140175629407167,0.018799427896738052,0.0,-0.006896351929754019
-0.005717290565371513,-0.017423126846551895,-0.001272744731977582,0.017922159284353256,0.0,-0.007110054139047861
-0.0058687590062618256,-0.01720474474132061,-0.0012482499005272985,0.01806197501718998,0.0,-0.00668692821636796
-0.005726355127990246,-0.017093705013394356,-0.0012027216143906116,0.018266702070832253,0.0,-0.006703019142150879
-0.005726355127990246,-0.017093705013394356,-0.0012027216143906116,0.018266702070832253,0.0,-0.006703019142150879
-0.006055132020264864,-0.017186235636472702,-0.0013694101944565773,0.01901249773800373,0.0,-0.006780861411243677
-0.006545608397573233,-0.016725296154618263,-0.0013231089105829597,0.01931307464838028,0.0,-0.006892332807183266
-0.005753477104008198,-0.0168142132461071,-0.001249181106686592,0.01751614175736904,0.0,-0.006868437863886356
-0.005303563550114632,-0.016188958659768105,-0.0011725162621587515,0.019417084753513336,0.0,-0.006567296572029591
-0.005385812371969223,-0.0163227878510952,-0.0012501104502007365,0.02015678957104683,0.0,-0.006508951541036367
-0.005798656959086657,-0.016425248235464096,-0.001505583175458014,0.01837695762515068,0.0,-0.006624989211559296
-0.005798656959086657,-0.016425248235464096,-0.001505583175458014,0.01837695762515068,0.0,-0.006624989211559296
-0.0055765812285244465,-0.016415275633335114,-0.0013438512105494738,0.017869584262371063,0.0,-0.007555533200502396
-0.0056367721408605576,-0.01703345589339733,-0.001361232833005488,0.018052054569125175,0.0,-0.007727218326181173
-0.005330570973455906,-0.016735751181840897,-0.0012683316599577665,0.017607377842068672,0.0,-0.0068731061182916164
-0.005975461099296808,-0.016665659844875336,-0.0012345421127974987,0.017454860731959343,0.0,-0.006476761307567358
-0.005809238646179438,-0.016947466880083084,-0.0012916178675368428,0.018543368205428123,0.0,-0.006831994280219078
-0.0055861519649624825,-0.01659712940454483,-0.0013446807861328125,0.01834343932569027,0.0,-0.007219749037176371
-0.005114836152642965,-0.01674477383494377,-0.00138175580650568,0.01801137812435627,0.0,-0.00748205604031682
-0.0053799753077328205,-0.016383478417992592,-0.0013550728326663375,0.018052753061056137,0.0,-0.007058647461235523
-0.0057662129402160645,-0.016616683453321457,-0.0013861003099009395,0.017343200743198395,0.0,-0.007372763007879257
-0.005581944715231657,-0.017180263996124268,-0.0013423116179183125,0.017686093226075172,0.0,-0.00675198994576931
-0.00557755259796977,-0.01619439385831356,-0.0014280382310971618,0.01765565201640129,0.0,-0.006995419505983591
-0.006068005226552486,-0.01677435263991356,-0.0013336266856640577,0.01746240258216858,0.0,-0.006649285089224577
-0.005415662657469511,-0.016806000843644142,-0.0012764965649694204,0.018004504963755608,0.0,-0.006780026014894247
-0.00512754637748003,-0.01694130338728428,-0.0012323203263804317,0.017718162387609482,0.0,-0.006932044867426157
-0.005872900597751141,-0.016600465402007103,-0.0012836141977459192,0.018243612721562386,1.3285894965520129e-05,-0.007182315457612276
-0.005394670180976391,-0.01672261953353882,-0.0012608058750629425,0.018437596037983894,8.674739433445211e-07,-0.00728966947644949
-0.005083000287413597,-0.01692434772849083,-0.0012336787767708302,0.01802082173526287,5.6639855472440104e-08,-0.006859245710074902
-0.004999861121177673,-0.0167254488915205,-0.001171699957922101,0.018537651747465134,3.698177986066753e-09,-0.006747444160282612
-0.004999861121177673,-0.0167254488915205,-0.001171699957922101,0.018537651747465134,3.698177986066753e-09,-0.006747444160282612
-0.0051293568685650826,-0.01737094111740589,-0.0011530134361237288,0.017840059474110603,2.414645705606233e-10,-0.006847340147942305
-0.00516672944650054,-0.017146974802017212,-0.001297305221669376,0.01673942431807518,1.0294012820974419e-12,-0.007005021907389164
-0.00516672944650054,-0.017146974802017212,-0.001297305221669376,0.01673942431807518,1.0294012820974419e-12,-0.007005021907389164
-0.0052531203255057335,-0.017046131193637848,-0.0013451279373839498,0.01681145280599594,6.721255225560635e-14,-0.007444377988576889
-0.005091567058116198,-0.016858065500855446,-0.0013269106857478619,0.017727628350257874,4.388499722581159e-15,-0.007094818167388439
-0.004897437058389187,-0.017329879105091095,-0.0013630178291350603,0.01734829694032669,2.8653769352897374e-16,-0.0068111359141767025
-0.005074256099760532,-0.016998810693621635,-0.001221278915181756,0.01712052896618843,1.870886338353651e-17,-0.006679135840386152
-0.005151993129402399,-0.01714879460632801,-0.001257158350199461,0.01732197217643261,1.2215549962120518e-18,-0.006791014689952135
-0.005208659451454878,-0.016946086660027504,-0.0011780660133808851,0.017038267105817795,5.207681547905593e-21,-0.0073623694479465485
-0.004812817554920912,-0.017102453857660294,-0.0012892059748992324,0.016989434137940407,3.4002439467341903e-22,-0.007121969945728779
-0.00466912193223834,-0.016896944493055344,-0.0013433265266939998,0.017429109662771225,2.2201164891124606e-23,-0.006978922989219427
-0.004792793653905392,-0.01697820983827114,-0.0013627607841044664,0.017185915261507034,1.4495774700608857e-24,-0.007174108177423477
-0.005065922625362873,-0.017253868281841278,-0.0013334844261407852,0.016597984358668327,9.464704453332706e-26,-0.00747178727760911
-0.005598215851932764,-0.016931109130382538,-0.0012478521093726158,0.017047451809048653,6.1797760941300335e-27,-0.007481229025870562
-0.005295289680361748,-0.017226969823241234,-0.0011898449156433344,0.016885042190551758,4.03495203005629e-28,-0.00711530027911067
-0.00476775411516428,-0.016812464222311974,-0.001210379763506353,0.017022766172885895,2.6345355432663087e-29,-0.007190369535237551
-0.0049036042764782906,-0.016943560913205147,-0.0011941096745431423,0.01691378280520439,1.720163325818169e-30,-0.007480722852051258
-0.004868517629802227,-0.016879921779036522,-0.0011589106870815158,0.01632947288453579,1.123143827457852e-31,-0.007402095943689346
-0.004759768024086952,-0.01668325439095497,-0.0013383014593273401,0.016760578379034996,7.333326650392625e-33,-0.00742355827242136
-0.004727231338620186,-0.01692122593522072,-0.0013000282924622297,0.016145413741469383,4.788138384139539e-34,-0.007385547738522291
-0.0049440921284258366,-0.016472311690449715,-0.0012440102873370051,0.016411537304520607,3.126312460831745e-35,-0.007914578542113304
-0.004987713880836964,-0.017058847472071648,-0.0012085370253771544,0.0160506721585989,2.0412584240906612e-36,-0.007878241129219532
-0.0044549377635121346,-0.01660957559943199,-0.0013293600641191006,0.016473418101668358,1.5291685485863127e-05,-0.007194921374320984
-0.0044227042235434055,-0.017218198627233505,-0.0012863260926678777,0.016521446406841278,0.00015120259195100516,-0.007082473021000624
-0.004973570816218853,-0.017292361706495285,-0.0014801567886024714,0.015127087943255901,0.0001548975706100464,-0.006976237520575523
-0.004891249351203442,-0.0164037998765707,-0.0015336602227762341,0.015930049121379852,0.00015030507347546518,-0.006921434309333563
-0.004441543947905302,-0.01682758331298828,-0.0016612731851637363,0.01603379100561142,0.00016702285211067647,-0.006980822421610355
-0.004441543947905302,-0.01682758331298828,-0.0016612731851637363,0.01603379100561142,0.00016702285211067647,-0.006980822421610355
-0.0044764368794858456,-0.016635790467262268,-0.0015518928412348032,0.016607843339443207,0.00016862154006958008,-0.006755363661795855
-0.004506281577050686,-0.01661837287247181,-0.001600230811163783,0.01593761146068573,0.0001639469264773652,-0.006858577951788902
-0.004492179024964571,-0.015901371836662292,-0.0016481479397043586,0.015904992818832397,0.0001591438049217686,-0.007286169566214085
-0.004610099364072084,-0.016495386138558388,-0.0015399002004414797,0.015543902292847633,0.00017695313727017492,-0.006900623440742493
-0.004667195491492748,-0.01637212373316288,-0.0016793797258287668,0.015464641153812408,0.0001751125673763454,-0.0072609009221196175
-0.004769464954733849,-0.016508061438798904,-0.0016584766563028097,0.015478674322366714,0.0001705722970655188,-0.006869496777653694
-0.004658697172999382,-0.0165218748152256,-0.0018189771799370646,0.015411695465445518,0.00018822395941242576,-0.007791850715875626
-0.004842191003262997,-0.015915056690573692,-0.0016632784390822053,0.015740036964416504,0.00018483633175492287,-0.007844511419534683
-0.004366612993180752,-0.016236571595072746,-0.0016890499973669648,0.015966881066560745,0.00028389415820129216,-0.007472998928278685
-0.004394455812871456,-0.01658846065402031,-0.0015871546929702163,0.01558290421962738,0.00029986959998495877,-0.007505608722567558
-0.00455459812656045,-0.016385311260819435,-0.001702385488897562,0.015935232862830162,0.00028327148174867034,-0.007486582268029451
-0.004635413642972708,-0.01574762351810932,-0.0017322661587968469,0.01538818422704935,0.0002925896842498332,-0.007542256731539965
-0.004690063651651144,-0.01607823185622692,-0.001851687440648675,0.01550191268324852,0.000300275394693017,-0.007955321110785007
-0.004748125560581684,-0.01605517975986004,-0.0018456109100952744,0.015278374776244164,0.00028593800379894674,-0.007855252362787724
-0.004155662842094898,-0.016272153705358505,-0.0018809408647939563,0.015391000546514988,0.0003108498640358448,-0.007450503762811422
-0.004284135065972805,-0.015899991616606712,-0.0018108794465661049,0.01524908747524023,0.0003013536042999476,-0.007315852213650942
-0.004247025586664677,-0.01633210852742195,-0.0018380029359832406,0.015090787783265114,0.0003080279566347599,-0.007666729390621185
-0.004524915479123592,-0.01624738797545433,-0.001842758385464549,0.014883698895573616,0.0003133282298222184,-0.007602442987263203
-0.004262028262019157,-0.016115225851535797,-0.001992671051993966,0.014855103567242622,0.00030143174808472395,-0.0073991697281599045
-0.004017961211502552,-0.015975387766957283,-0.0019682166166603565,0.01467219553887844,0.00038184403092600405,-0.007137364707887173
-0.003906561993062496,-0.016022343188524246,-0.002049995120614767,0.014833477325737476,0.00040018028812482953,-0.007335731294006109
-0.004040828440338373,-0.016852816566824913,-0.002002714667469263,0.015378699637949467,0.00040344311855733395,-0.007590885274112225
-0.00395420053973794,-0.016483977437019348,-0.001999259227886796,0.015250224620103836,0.0003774060751311481,-0.007066475227475166
-0.0038675684481859207,-0.016302281990647316,-0.0017970341723412275,0.015957599505782127,0.0003961470793001354,-0.007795246317982674
-0.0042661577463150024,-0.015709247440099716,-0.0017498608212918043,0.015447891317307949,0.0003854145179502666,-0.007904035970568657
-0.0042661577463150024,-0.015709247440099716,-0.0017498608212918043,0.015447891317307949,0.0003854145179502666,-0.007904035970568657
-0.003870829474180937,-0.01565628871321678,-0.002128108637407422,0.014824182726442814,0.00039161022868938744,-0.007475776132196188
-0.003870829474180937,-0.01565628871321678,-0.002128108637407422,0.014824182726442814,0.00039161022868938744,-0.007475776132196188
-0.004425975028425455,-0.01564839296042919,-0.002063832711428404,0.014807971194386482,0.0004393625713419169,-0.007857340388000011
-0.004180217627435923,-0.015915099531412125,-0.0020475464407354593,0.01410359051078558,0.00045942916767671704,-0.007898970507085323
-0.0038395512383431196,-0.015882277861237526,-0.0018057330744341016,0.014388056471943855,0.0004207057354506105,-0.0076774535700678825
-0.0037147575058043003,-0.017214443534612656,-0.0017427271232008934,0.01403826754540205,0.0004564540577121079,-0.007301907520741224
-0.0036999813746660948,-0.015046368353068829,-0.0017929248278960586,0.01460561528801918,0.00042517445399425924,-0.0072774626314640045
-0.004295045975595713,-0.015794694423675537,-0.0018595000728964806,0.014280942268669605,0.00045551059884019196,-0.007443319074809551
-0.004134084098041058,-0.015844549983739853,-0.001925920369103551,0.014686444774270058,0.0004285176983103156,-0.007376663386821747
-0.0038703912869095802,-0.01582898385822773,-0.0021180040203034878,0.01479171309620142,0.0004303402965888381,-0.007361029740422964
-0.003915464039891958,-0.016005685552954674,-0.002075550612062216,0.014293934218585491,0.00044913566671311855,-0.00752837723121047
-0.003923926502466202,-0.016050884500145912,-0.002071756636723876,0.01518707349896431,0.0004470696148928255,-0.007532280404120684
-0.003644754411652684,-0.015721896663308144,-0.0022937734611332417,0.01456708274781704,0.0004091763694304973,-0.007230095565319061
-0.0034889359958469868,-0.016116756945848465,-0.0020552892237901688,0.014555475674569607,0.0004449043481145054,-0.007244973909109831
-0.0036647950764745474,-0.015503517352044582,-0.0021826280280947685,0.014089022763073444,0.00041523229447193444,-0.007867873646318913
-0.0037552204448729753,-0.01628999225795269,-0.0019990606233477592,0.01450234092772007,0.0004331058298703283,-0.008284950628876686
-0.0037647061981260777,-0.01571124792098999,-0.0020965372677892447,0.013332923874258995,0.0004190177714917809,-0.007952563464641571
-0.0037359187845140696,-0.016100846230983734,-0.0022988440468907356,0.012904671020805836,0.00039377904613502324,-0.0076592122204601765
-0.003724413923919201,-0.015799520537257195,-0.002224212046712637,0.012420975603163242,0.00041645843884907663,-0.007725507952272892
-0.0037141642533242702,-0.01568794623017311,-0.0021390714682638645,0.012868010438978672,0.0003996036248281598,-0.007748681586235762
-0.0037162599619477987,-0.015350861474871635,-0.0021231421269476414,0.012847390957176685,0.00041038033668883145,-0.007183930836617947
-0.003690101206302643,-0.015557288192212582,-0.002315910067409277,0.013219865970313549,0.0004055179888382554,-0.007241768296808004
-0.003726395545527339,-0.01572366990149021,-0.002274049911648035,0.013446815311908722,0.00037390529178082943,-0.007939500734210014
-0.003699635621160269,-0.015135243535041809,-0.002441509161144495,0.013607700355350971,0.00040492386324331164,-0.0077215940691530704
-0.0032783260103315115,-0.015380997210741043,-0.0026918670628219843,0.012972806580364704,0.00038422850775532424,-0.007481382228434086
-0.003464032430201769,-0.015050451271235943,-0.0024869719054549932,0.013985584490001202,0.00035918812500312924,-0.007519947364926338
-0.0037576963659375906,-0.01533951424062252,-0.002538308734074235,0.014270071871578693,0.00037813393282704055,-0.00786486454308033
-0.003352510742843151,-0.014982728287577629,-0.0023470933083444834,0.013412118889391422,0.0003688971628434956,-0.007487144786864519
-0.0033726217225193977,-0.01551244780421257,-0.002302850130945444,0.013075473718345165,0.0003492828400339931,-0.007291191257536411
-0.00344681553542614,-0.01444469578564167,-0.002665250562131405,0.012501195073127747,0.00035404032678343356,-0.007202363107353449
-0.003393222577869892,-0.015161720104515553,-0.0029398833867162466,0.013407273218035698,0.00035779961035586894,-0.007751579862087965
-0.003536911914125085,-0.014334357343614101,-0.002537099178880453,0.013161072507500648,0.00034218747168779373,-0.007672194391489029
-0.003536911914125085,-0.014334357343614101,-0.002537099178880453,0.013161072507500648,0.00034218747168779373,-0.007672194391489029
-0.0032867654226720333,-0.015123671852052212,-0.0020831802394241095,0.013187400065362453,0.0003485914203338325,-0.007730505429208279
-0.0031082432251423597,-0.014679313637316227,-0.0017516037914901972,0.012934326194226742,0.00034389953361824155,-0.0076947589404881
-0.003064669668674469,-0.014549056999385357,-0.0015858345432206988,0.012806829996407032,0.00035195081727579236,-0.00863057654350996
-0.003164585679769516,-0.01393372192978859,-0.0013035007286816835,0.012704499997198582,0.0003572855785023421,-0.008268021047115326
-0.003314139787107706,-0.014430718496441841,-0.0013969263527542353,0.012220281176269054,0.00033686362439766526,-0.0074724070727825165
-0.0030759607907384634,-0.014860589988529682,-0.0018372429767623544,0.012348184362053871,0.0003490578674245626,-0.007391531951725483
-0.0029569431208074093,-0.014316086657345295,-0.0019495239248499274,0.013136744499206543,0.0003541859332472086,-0.00803402904421091
-0.002964661456644535,-0.014094321988523006,-0.0018337394576519728,0.012664983049035072,0.0003579632320906967,-0.007901377975940704
-0.0030383942648768425,-0.013478769920766354,-0.001515849377028644,0.012763278558850288,0.00034233846236020327,-0.007473063189536333
-0.0031158747151494026,-0.014025554060935974,-0.0013443737989291549,0.012710051611065865,0.00032692350214347243,-0.007367393001914024
-0.0029763428028672934,-0.01362213771790266,-0.0013860027538612485,0.012398089282214642,0.00039755384204909205,-0.007508392445743084
-0.002945251762866974,-0.01383663434535265,-0.0015606142114847898,0.012507583014667034,0.00037126781535334885,-0.0075156474485993385
-0.002761162118986249,-0.01391330361366272,-0.0014818919589743018,0.012446165084838867,0.0003433462989050895,-0.007933066226541996
-0.002903767628595233,-0.01411961205303669,-0.0016639197710901499,0.012537302449345589,0.0003783337597269565,-0.00783346313983202
-0.002963877748697996,-0.013312273658812046,-0.0017424126854166389,0.012022393755614758,0.0003571698034647852,-0.007703294977545738
-0.002889169380068779,-0.013252632692456245,-0.0016197302611544728,0.012245016172528267,0.0003352382918819785,-0.0075953952036798
-0.002866666531190276,-0.013190141879022121,-0.0015620474005118012,0.01182466559112072,0.000354408985003829,-0.008115116506814957
-0.002892676740884781,-0.013275427743792534,-0.0014608382480219007,0.011440116912126541,0.0003470090450718999,-0.007862304337322712
-0.002770249266177416,-0.013911300338804722,-0.00140812445897609,0.011421548202633858,0.00035261077573522925,-0.008102020248770714
-0.002426874591037631,-0.013937761075794697,-0.0016106858383864164,0.010779155418276787,0.0003564752696547657,-0.007928796112537384
-0.0024638862814754248,-0.013810327276587486,-0.0015701859956607223,0.011696121655404568,0.0003773520584218204,-0.008032944984734058
-0.0026172331999987364,-0.01379633042961359,-0.0017441826639696956,0.01182512566447258,0.0004177533264737576,-0.007718168199062347
-0.003162813140079379,-0.013942068442702293,-0.001688698772341013,0.011532512493431568,0.0004211790219414979,-0.00808788277208805
-0.0029100440442562103,-0.013667996972799301,-0.0014564093435183167,0.011829766444861889,0.0004537751665338874,-0.008588469587266445
-0.002230038633570075,-0.013913245871663094,-0.001523084007203579,0.011683110147714615,0.00047203124267980456,-0.008299486711621284
-0.00209900364279747,-0.013636398129165173,-0.0014558137627318501,0.012056496925652027,0.0006434409879148006,-0.007893907837569714
-0.00209900364279747,-0.013636398129165173,-0.0014558137627318501,0.012056496925652027,0.0006434409879148006,-0.007893907837569714
-0.0021898443810641766,-0.013955719769001007,-0.0017504460411146283,0.01141715981066227,0.000715624715667218,-0.007912993431091309
-0.002709528896957636,-0.013595635071396828,-0.0016502137295901775,0.011105596087872982,0.0007433553691953421,-0.007903431542217731
-0.0025955992750823498,-0.014162951149046421,-0.0017153106164187193,0.011564531363546848,0.0006606082897633314,-0.008535928092896938
-0.002494304208084941,-0.013550886884331703,-0.0016850628890097141,0.011423280462622643,0.0006799384136684239,-0.008223427459597588
-0.002425813116133213,-0.014043675735592842,-0.0014321156777441502,0.011625693179666996,0.0006616442115046084,-0.008496907539665699
-0.0022381283342838287,-0.013650153763592243,-0.001290361164137721,0.011468472890555859,0.0006415071547962725,-0.00794281717389822
-0.002158302580937743,-0.013893011957406998,-0.0013852957636117935,0.010415191762149334,0.0005962600698694587,-0.008073445409536362
-0.0022233210038393736,-0.01382135134190321,-0.0017340852646157146,0.010539580136537552,0.000582509208470583,-0.00885735172778368
-0.0019912347197532654,-0.013318568468093872,-0.0017841417575255036,0.010194278322160244,0.0006017678533680737,-0.0085772555321455
-0.0019163130782544613,-0.01355862244963646,-0.001740866107866168,0.010890267789363861,0.0005683603812940419,-0.008451646193861961
-0.001884371624328196,-0.013790369965136051,-0.0016004802891984582,0.01081540435552597,0.0005918954266235232,-0.008544852957129478
-0.0018189859110862017,-0.014311346225440502,-0.0014688343508169055,0.009849927388131618,0.0006431896472349763,-0.008490257896482944
-0.0018233193550258875,-0.01294887624680996,-0.0013893500436097383,0.00991420354694128,0.0006415570969693363,-0.008336693048477173
-0.002075353404507041,-0.013267171569168568,-0.0015769406454637647,0.010147593915462494,0.0006715211202390492,-0.00823566596955061
-0.00213625212199986,-0.01403750292956829,-0.001672248588874936,0.00993078388273716,0.0006519067683257163,-0.008242568001151085
-0.0020639996509999037,-0.013489335775375366,-0.0016110428841784596,0.00996348261833191,0.0006303823902271688,-0.008291594684123993
-0.0018595915753394365,-0.013866663910448551,-0.0018808080349117517,0.009909986518323421,0.0006519470480270684,-0.008623303845524788
-0.0016828067600727081,-0.013818693347275257,-0.0017080185934901237,0.010760130360722542,0.000662761740386486,-0.008552405051887035
-0.001708526979200542,-0.01414705254137516,-0.0016667036106809974,0.010213195346295834,0.0006315034115687013,-0.008433133363723755
-0.001708526979200542,-0.01414705254137516,-0.0016667036106809974,0.010213195346295834,0.0006315034115687013,-0.008433133363723755
-0.0018034863751381636,-0.013911670073866844,-0.0015836706152185798,0.00954222958534956,0.0006798312533646822,-0.008351918309926987
-0.001881853211671114,-0.013460596092045307,-0.0016336945118382573,0.010218425653874874,0.0006673939642496407,-0.008677728474140167
-0.0018804610008373857,-0.013949623331427574,-0.0015640328638255596,0.009599152952432632,0.000646968896035105,-0.008064876310527325
-0.0018804610008373857,-0.013949623331427574,-0.0015640328638255596,0.009599152952432632,0.000646968896035105,-0.008064876310527325
-0.0019106620457023382,-0.013352712616324425,-0.0016591628082096577,0.009516838937997818,0.0007146568968892097,-0.008108625188469887
-0.0018946980126202106,-0.013647029176354408,-0.0016743133310228586,0.010122546926140785,0.0007272643269971013,-0.008329566568136215
-0.0016779241850599647,-0.013477086089551449,-0.0017621770966798067,0.009690430946648121,0.0007200620020739734,-0.007998766377568245
-0.0017326876986771822,-0.013764179311692715,-0.0017780800117179751,0.009177550673484802,0.0006904749316163361,-0.008197162300348282
-0.0015856241807341576,-0.013219798915088177,-0.0019422097830101848,0.009078722447156906,0.0007019904442131519,-0.008333416655659676
-0.001592359971255064,-0.013149929232895374,-0.001858041388913989,0.008932731114327908,0.0007634745561517775,-0.008603374473750591
-0.0016395392594859004,-0.01306208036839962,-0.0018660473870113492,0.009075491689145565,0.0007555604097433388,-0.008409185335040092
-0.0016961192013695836,-0.01304557453840971,-0.0018616322195157409,0.008503449149429798,0.000715780071914196,-0.008521036244928837
-0.0017365182284265757,-0.013028277084231377,-0.001975024351850152,0.008357159793376923,0.0007263229344971478,-0.008903560228645802
-0.0017236063722521067,-0.012844623066484928,-0.0020571481436491013,0.007849751971662045,0.0006841251743026078,-0.008044954389333725
-0.0015957352006807923,-0.012503014877438545,-0.0019271583296358585,0.008786019869148731,0.0006851641228422523,-0.008355548605322838
-0.001510036177933216,-0.012893310748040676,-0.0019809366203844547,0.008540823124349117,0.0007046281243674457,-0.00870339572429657
-0.001520210294984281,-0.01287310104817152,-0.0019479128532111645,0.007927436381578445,0.0006486348574981093,-0.008161811158061028
-0.001421252149157226,-0.01260291039943695,-0.0020129403565078974,0.008570929057896137,0.0006703786202706397,-0.008063471876084805
-0.0014859393704682589,-0.012647447176277637,-0.001962969545274973,0.00816032662987709,0.0006864557508379221,-0.008447976782917976
-0.001418365747667849,-0.012458402663469315,-0.0019770837388932705,0.008016358129680157,0.0007249502232298255,-0.008504115045070648
-0.001534624258056283,-0.013048999011516571,-0.0019448980456218123,0.008183086290955544,0.0007999907247722149,-0.00799411442130804
-0.0014587701298296452,-0.012302378192543983,-0.002163063967600465,0.008943727239966393,0.0007864594808779657,-0.008123740553855896
-0.001369750825688243,-0.012781945988535881,-0.0019711784552782774,0.008734402246773243,0.0007469168049283326,-0.008402240462601185
-0.001466014888137579,-0.0117937121540308,-0.002048830036073923,0.008235227316617966,0.0007532155723311007,-0.00831505935639143
-0.0013458181638270617,-0.012045735493302345,-0.0020353905856609344,0.008599568158388138,0.0008071242482401431,-0.008261646144092083
-0.0012660737847909331,-0.012347130104899406,-0.0020384052768349648,0.008535080589354038,0.0008273097919300199,-0.008266479708254337
-0.001129182055592537,-0.01206178031861782,-0.0022346959449350834,0.008102850057184696,0.0007472002180293202,-0.00893103051930666
-0.0010409466922283173,-0.01238982193171978,-0.002174685476347804,0.007797409780323505,0.0007597663206979632,-0.008727638982236385
-0.0009179203771054745,-0.012444833293557167,-0.0021220967173576355,0.007660278119146824,0.0007679708651266992,-0.0083699319511652
-0.0009179203771054745,-0.012444833293557167,-0.0021220967173576355,0.007660278119146824,0.0007679708651266992,-0.0083699319511652
-0.0009087385842576623,-0.012087097391486168,-0.0020976033993065357,0.0077238320372998714,0.0007851156406104565,-0.008280263282358646
-0.0009087385842576623,-0.012087097391486168,-0.0020976033993065357,0.0077238320372998714,0.0007851156406104565,-0.008280263282358646
-0.0008402439416386187,-0.012089278548955917,-0.0020206880290061235,0.007051724009215832,0.0007987655117176473,-0.008492700755596161
-0.0007230822229757905,-0.011793740093708038,-0.0019711952190846205,0.007171902805566788,0.0007588107837364078,-0.008731404319405556
-0.0007457570172846317,-0.011776761151850224,-0.0019454634748399258,0.007337057497352362,0.0007640082621946931,-0.00884940754622221
-0.0007613608613610268,-0.012139221653342247,-0.002207206329330802,0.007116712164133787,0.0008032180485315621,-0.00853472575545311
-0.0006829543854109943,-0.011531676165759563,-0.0024739159271121025,0.007191806565970182,0.0007825304055586457,-0.008519791066646576
-0.00043654878390952945,-0.011891665868461132,-0.0023473177570849657,0.007545074447989464,0.0007964185788296163,-0.008807777427136898
-2.17439592233859e-05,-0.01159453485161066,-0.0021791853941977024,0.007373237982392311,0.0007568409200757742,-0.00816540326923132
-3.913835477931116e-09,-0.011994597502052784,-0.002263288013637066,0.006691423244774342,0.0008012675098143518,-0.008855891413986683
-5.250910470322445e-11,-0.011627156287431717,-0.002086577471345663,0.007017824333161116,0.0007982210954651237,-0.008607420139014721
-7.044766246050438e-13,-0.011830600909888744,-0.0022032049018889666,0.007212899159640074,0.0007229844341054559,-0.007986237294971943
-0.000401775207137689,-0.011603955179452896,-0.002363536972552538,0.007425255142152309,0.0007169293821789324,-0.008488401770591736
-0.0001829126413213089,-0.011215233244001865,-0.0022808776702731848,0.007032389752566814,0.0007345855119638145,-0.009586405009031296
-2.4540065624023555e-06,-0.011730681173503399,-0.0021650202106684446,0.007371468003839254,0.0006873300881125033,-0.008477217517793179
-3.292362649176539e-08,-0.011530076153576374,-0.0020637011621147394,0.007566329091787338,0.000743890879675746,-0.008350435644388199
-4.417124721545207e-10,-0.011296944692730904,-0.0021181588526815176,0.006822166033089161,0.0007706209435127676,-0.009146913886070251
-5.926136751460698e-12,-0.011419303715229034,-0.0019837135914713144,0.006457688752561808,0.0007863155333325267,-0.009538638405501842
-7.950669338391628e-14,-0.011020977050065994,-0.002394519280642271,0.006745299324393272,0.0007571606547571719,-0.00913385208696127
-1.066683837070391e-15,-0.011475177481770515,-0.002360433805733919,0.0067122201435267925,0.0009288389701396227,-0.008795145899057388
-1.4310922737604374e-17,-0.010848832316696644,-0.0022758622653782368,0.006526824086904526,0.0009331242763437331,-0.009337627328932285
-1.9199932182273263e-19,-0.010947725735604763,-0.002133840462192893,0.006289206445217133,0.0009018238633871078,-0.0090164290741086
-2.5759159561886377e-21,-0.01160838920623064,-0.0020819345954805613,0.006417362485080957,0.0008150280336849391,-0.009443917311728
-3.4559201085940064e-23,-0.010939107276499271,-0.0022026882506906986,0.006184154190123081,0.0007985720876604319,-0.009220610372722149
-3.4559201085940064e-23,-0.010939107276499271,-0.0022026882506906986,0.006184154190123081,0.0007985720876604319,-0.009220610372722149
-4.636558073606245e-25,-0.011194462887942791,-0.0020088236778974533,0.0065170032903552055,0.0007396215223707259,-0.009310917928814888
-6.220534164357112e-27,-0.010985247790813446,-0.0021194196306169033,0.006258202251046896,0.0006580344052053988,-0.00945715606212616
-8.345640052103608e-29,-0.010621609166264534,-0.002383079379796982,0.005724929738789797,0.0006575997686013579,-0.009370239451527596
-1.1196741678023039e-30,-0.01136341318488121,-0.002311637392267585,0.006104920990765095,0.0006088085356168449,-0.009168757125735283
-1.5021858306244976e-32,-0.010631551966071129,-0.002405057195574045,0.0069146170280873775,0.0006333462661132216,-0.009097310714423656
-2.015374044225273e-34,-0.010743610560894012,-0.0021236955653876066,0.006465807557106018,0.0006520453025586903,-0.008861946873366833
-2.7038816623927447e-36,-0.011144611984491348,-0.002132345689460635,0.005594462621957064,0.0007660214905627072,-0.009389113634824753
-3.6276027114703914e-38,-0.010664000175893307,-0.0021197290625423193,0.005676713306456804,0.0009447518968954682,-0.009204152971506119
0.0003397182154003531,-0.010538131929934025,-0.002319160383194685,0.005390142556279898,0.0009576487937010825,-0.009507379494607449
0.00034020081511698663,-0.010861754417419434,-0.0024004876613616943,0.005334613379091024,0.0009519800660200417,-0.00959992129355669
0.00037902125041000545,-0.010723466984927654,-0.002280219690874219,0.00533990329131484,0.0011190653312951326,-0.009526237845420837
0.0003549488610588014,-0.011098702438175678,-0.0020281069446355104,0.005109274294227362,0.0010821354808285832,-0.009522686712443829
0.00035975815262645483,-0.010874990373849869,-0.0017266781069338322,0.005067907273769379,0.0009617708856239915,-0.00983639620244503
0.00035975815262645483,-0.010874990373849869,-0.0017266781069338322,0.005067907273769379,0.0009617708856239915,-0.00983639620244503
0.00036916244425810874,-0.00992846954613924,-0.002028671558946371,0.00510904286056757,0.0008622938767075539,-0.009478890337049961
0.00035611982457339764,-0.010105014778673649,-0.0020581309217959642,0.005263458471745253,0.0007298860000446439,-0.009395774453878403
0.00045838471851311624,-0.010888352058827877,-0.0022731460630893707,0.005021284334361553,0.0006794218206778169,-0.00953066349029541
0.0005059343529865146,-0.010498017072677612,-0.0023870335426181555,0.004727420397102833,0.0006492157117463648,-0.009692579507827759
0.00047137506771832705,-0.011064087972044945,-0.0022582081146538258,0.0046380795538425446,0.0006724857958033681,-0.009425736963748932
0.0005048573948442936,-0.010348196141421795,-0.0021185711957514286,0.004559328313916922,0.000688504776917398,-0.009487650357186794
0.0005119723500683904,-0.010421178303658962,-0.0020355612505227327,0.004739238880574703,0.0006433786475099623,-0.01001118402928114
0.0004978463402949274,-0.011002253741025925,-0.00209691165946424,0.004783941898494959,0.0007011541747488081,-0.009295955300331116
0.0006067287176847458,-0.010233175940811634,-0.0020475818309932947,0.004890951327979565,0.000729478313587606,-0.009410497732460499
0.0006996436277404428,-0.010430971160531044,-0.002285589464008808,0.00437579583376646,0.0007426934316754341,-0.009571648202836514
0.0007238625548779964,-0.010916702449321747,-0.002065692562609911,0.0038737233262509108,0.0007591297617182136,-0.009537198580801487
0.0007498402846977115,-0.010244098491966724,-0.0021154237911105156,0.003698810003697872,0.0008427182910963893,-0.00982739869505167
0.0007498402846977115,-0.010244098491966724,-0.0021154237911105156,0.003698810003697872,0.0008427182910963893,-0.00982739869505167
0.000993314664810896,-0.01063858438283205,-0.002234343672171235,0.003994164988398552,0.0008901886758394539,-0.009221778251230717
0.000993314664810896,-0.01063858438283205,-0.002234343672171235,0.003994164988398552,0.0008901886758394539,-0.009221778251230717
0.0009788618190214038,-0.010571444407105446,-0.0022951532155275345,0.0036601279862225056,0.0008767740218900144,-0.009351585991680622
0.0009681204683147371,-0.011387837119400501,-0.0022383693140000105,0.0035224203020334244,0.0009144246578216553,-0.009562229737639427
0.0009412815561518073,-0.010273453779518604,-0.002325762063264847,0.003662196919322014,0.0009990219259634614,-0.009211345575749874
0.0009563622297719121,-0.009993800893425941,-0.0024129061494022608,0.00377671024762094,0.0009699613437987864,-0.00944726262241602
0.0009592417627573013,-0.010633694939315319,-0.0022763314191251993,0.0033406526781618595,0.0009594422299414873,-0.009967598132789135
0.0009701491217128932,-0.009963985532522202,-0.0025042169727385044,0.003477811813354492,0.0009658731869421899,-0.009794631041586399
0.0012651700526475906,-0.010929704643785954,-0.002429886255413294,0.00380617193877697,0.0008768223924562335,-0.009777099825441837
0.0012182159116491675,-0.010420653969049454,-0.002622484229505062,0.004013594705611467,0.0008752173162065446,-0.009670186787843704
0.0011699271854013205,-0.009872284717857838,-0.002693301299586892,0.004404522944241762,0.0008529415354132652,-0.009453222155570984
0.0013029050314798951,-0.010131222195923328,-0.0023793780710548162,0.004303106106817722,0.0007761960150673985,-0.009342614561319351
0.0013549351133406162,-0.010521678254008293,-0.0024229357950389385,0.003529016859829426,0.0007842847262509167,-0.010147564113140106
0.0018169026589021087,-0.0100325932726264,-0.002267459873110056,0.0032645384781062603,0.0007277969270944595,-0.009701012633740902
0.002091415459290147,-0.010005183517932892,-0.0025987974368035793,0.003024831647053361,0.0007478465558961034,-0.010019565932452679
0.001955528976395726,-0.00973340030759573,-0.0023997847456485033,0.003030490828678012,0.0007645993609912694,-0.009776687249541283
0.0018631370039656758,-0.009709895588457584,-0.0022913876455277205,0.003309630323201418,0.0009555608849041164,-0.00983685813844204
0.0016765124164521694,-0.009737873449921608,-0.002387630520388484,0.003300829790532589,0.0010079237399622798,-0.00991925597190857
0.0017082389676943421,-0.009844835847616196,-0.002319579478353262,0.0028158118948340416,0.0010734762763604522,-0.01040489599108696
0.001975714461877942,-0.009189192205667496,-0.0024637228343635798,0.002771104220300913,0.0012421037536114454,-0.009875261224806309
0.002255926374346018,-0.009607800282537937,-0.00262892572209239,0.002614593133330345,0.0013438282767310739,-0.010012317448854446
0.002162183867767453,-0.008800998330116272,-0.0024336932692676783,0.002399751218035817,0.0013368037762120366,-0.010038199834525585
0.002071093302220106,-0.00890754722058773,-0.0025246136356145144,0.0022763870656490326,0.0014581267023459077,-0.009954513050615788
0.0019991870503872633,-0.009223355911672115,-0.0024266443215310574,0.002315798308700323,0.0012626994866877794,-0.010252565145492554
0.0019069629488512874,-0.00964384712278843,-0.0023668156936764717,0.0023322924971580505,0.0011881026439368725,-0.00987977534532547
0.0018910042708739638,-0.009023440070450306,-0.0023739479947835207,0.0025016365107148886,0.0011411356972530484,-0.010062606073915958
0.002516229636967182,-0.00975723098963499,-0.002404916798695922,0.0024936941917985678,0.0009744598646648228,-0.009972796775400639
0.0030057451222091913,-0.009004585444927216,-0.00230024685151875,0.0023081426043063402,0.0009437024127691984,-0.009913912974298
0.0030057451222091913,-0.009004585444927216,-0.00230024685151875,0.0023081426043063402,0.0009437024127691984,-0.009913912974298
0.0033883373253047466,-0.008808810263872147,-0.002351069124415517,0.0018654195591807365,0.0009390576160512865,-0.010473725385963917
0.0033883373253047466,-0.008808810263872147,-0.002351069124415517,0.0018654195591807365,0.0009390576160512865,-0.010473725385963917
0.0029605040326714516,-0.009352321736514568,-0.0024875348899513483,0.0017228852957487106,0.0011153522646054626,-0.010056216269731522
0.0031370266806334257,-0.008426719345152378,-0.002230108482763171,0.0016290528001263738,0.0009978170273825526,-0.010118975304067135
0.0031370266806334257,-0.008426719345152378,-0.002230108482763171,0.0016290528001263738,0.0009978170273825526,-0.010118975304067135
0.0035632902290672064,-0.009057154878973961,-0.0022865275386720896,0.0017953107599169016,0.0009838591795414686,-0.009727115742862225
0.003748847171664238,-0.008473951369524002,-0.00219597271643579,0.0017355093732476234,0.0009391835774295032,-0.009675338864326477
0.003914120607078075,-0.008312860503792763,-0.002362955128774047,0.0017360309138894081,0.0010510865831747651,-0.010435564443469048
0.0043196422047913074,-0.00967912282794714,-0.002670869929715991,0.0016934925224632025,0.0010541216470301151,-0.010177746415138245
0.0036118479911237955,-0.008301173336803913,-0.0022982244845479727,0.001264789025299251,0.0013389757368713617,-0.009702113457024097
0.0036118479911237955,-0.008301173336803913,-0.0022982244845479727,0.001264789025299251,0.0013389757368713617,-0.009702113457024097
0.004130066838115454,-0.008618742227554321,-0.0023660422302782536,0.0010989498114213347,0.0012930575758218765,-0.010180206969380379
0.004199184011667967,-0.008877560496330261,-0.0022774396929889917,0.0010584356496110559,0.0013959994539618492,-0.010153592564165592
0.004469210747629404,-0.009104552678763866,-0.0026248679496347904,0.000923347775824368,0.001385918352752924,-0.010341542772948742
0.004050357732921839,-0.009085728786885738,-0.0024904259480535984,0.0007652073982171714,0.0013574426993727684,-0.010330143384635448
0.0045159547589719296,-0.00854805950075388,-0.0022451512049883604,0.0007743059541098773,0.0012689229333773255,-0.010291817598044872
0.004733966197818518,-0.00847939308732748,-0.0022275701630860567,0.0007668763282708824,0.0011856529163196683,-0.010039127431809902
0.004644013475626707,-0.008790452964603901,-0.002483369316905737,0.000706549035385251,0.0010662947315722704,-0.01050306111574173
0.004789517726749182,-0.008862110786139965,-0.0024917698465287685,0.000721102231182158,0.001011768588796258,-0.010741588659584522
0.004720313940197229,-0.00835495162755251,-0.002320901956409216,0.0007024420192465186,0.0009919371223077178,-0.010269946418702602
0.004456420429050922,-0.008366110734641552,-0.0023685216438025236,0.0006447291816584766,0.0009788909228518605,-0.010210164822638035
0.004911170341074467,-0.008359047584235668,-0.0022111814469099045,0.0006486485945060849,0.0011118164984509349,-0.01030978374183178
0.0055330367758870125,-0.008199064992368221,-0.0021250699646770954,0.0006015999242663383,0.0011596338590607047,-0.009898936375975609
0.005304879974573851,-0.008242077194154263,-0.0022337373811751604,0.000586259993724525,0.0011426039272919297,-0.010427182540297508
0.005224673077464104,-0.008478376083076,-0.0022166126873344183,0.0005723242647945881,0.001258996780961752,-0.01029970869421959
0.005354574881494045,-0.00894028227776289,-0.002478196984156966,0.0005269935936667025,0.0013069644337520003,-0.01041740458458662
0.005354574881494045,-0.00894028227776289,-0.002478196984156966,0.0005269935936667025,0.0013069644337520003,-0.01041740458458662
0.006027234718203545,-0.00845524575561285,-0.0022776250261813402,0.00045155774569138885,0.0012175574665889144,-0.010554322972893715
0.006027234718203545,-0.00845524575561285,-0.0022776250261813402,0.00045155774569138885,0.0012175574665889144,-0.010554322972893715
0.005734105594456196,-0.008510726504027843,-0.0023444383405148983,0.00047731748782098293,0.0012740654638037086,-0.010666599497199059
0.005856159143149853,-0.00846709031611681,-0.0021960013546049595,0.00045105197932571173,0.0012553140986710787,-0.010297655127942562
0.005494944751262665,-0.008124292828142643,-0.0024520617444068193,0.0004246761673130095,0.0012736546341329813,-0.010674018412828445
0.0058122058399021626,-0.0085916044190526,-0.002416417235508561,0.0004010279371868819,0.001391687197610736,-0.010952383279800415
0.005614538211375475,-0.00886639766395092,-0.0025507688988000154,0.00037986310780979693,0.0013347056228667498,-0.010912070982158184
0.005952129140496254,-0.00802783016115427,-0.002708796178922057,0.0003608212573453784,0.0013987624552100897,-0.011517503298819065
0.006266377866268158,-0.008206481114029884,-0.0024668588303029537,0.00034359723213128746,0.001362931914627552,-0.010731484740972519
0.006185103673487902,-0.008939556777477264,-0.002503161784261465,0.00032794277649372816,0.0013040979392826557,-0.010508161969482899
0.006104092579334974,-0.007823208346962929,-0.0022872001864016056,0.0003136523300781846,0.0013509159907698631,-0.01035899855196476
0.006908338982611895,-0.008157607167959213,-0.0023287946823984385,0.0003005568578373641,0.0012744128471240401,-0.010492080822587013
0.006435341667383909,-0.008309542201459408,-0.002992859808728099,0.0002773941378109157,0.0011672464897856116,-0.010402273386716843
0.006614867597818375,-0.007635451853275299,-0.002619381295517087,0.0002671015099622309,0.001158767961896956,-0.010502847842872143
0.006399490870535374,-0.00813682097941637,-0.0020264971535652876,0.0002575466933194548,0.001114979269914329,-0.01083496492356062
0.006387910805642605,-0.008402121253311634,-0.0020558869000524282,0.00024865081650204957,0.0010950175346806645,-0.011155310086905956
0.006839636713266373,-0.007662740536034107,-0.002555745653808117,0.0002403496764600277,0.001229757908731699,-0.010444787330925465
0.00683171208947897,-0.007472731173038483,-0.0029362281784415245,0.00023258441069629043,0.0011776334140449762,-0.010606510564684868
0.006875258404761553,-0.007985317148268223,-0.0026784425135701895,0.00022530564456246793,0.0011522701242938638,-0.011120392940938473
0.007274981122463942,-0.007781205233186483,-0.0024693780578672886,0.00020507014414761215,0.0013237324310466647,-0.01096712052822113
0.007280305027961731,-0.007296924013644457,-0.0024078497663140297,0.0001864385703811422,0.0012882623123005033,-0.010606329888105392
0.0071405572816729546,-0.007315760012716055,-0.0022868646774441004,0.0001802818151190877,0.001241436111740768,-0.01074531301856041
0.006949839182198048,-0.007795633748173714,-0.002412182278931141,0.0001752136740833521,0.0013030252885073423,-0.01083358470350504
0.007215551100671291,-0.00842499453574419,-0.0026046934071928263,0.00017046905122697353,0.0012277382193133235,-0.011040132492780685
0.0072275386191904545,-0.007752173114567995,-0.0023070049937814474,0.00016597725334577262,0.0012101319152861834,-0.011393001303076744
0.007399103604257107,-0.00804799236357212,-0.0023432020097970963,6.840473361080512e-05,0.001112336409278214,-0.011069387197494507
0.007491348776966333,-0.0071834372356534,-0.0023733924608677626,5.3572552133118734e-05,0.0010964162647724152,-0.011233435943722725
0.008121702820062637,-0.00723516009747982,-0.0022331506479531527,5.121148205944337e-05,0.0011483188718557358,-0.010554813779890537
0.008121702820062637,-0.00723516009747982,-0.0022331506479531527,5.121148205944337e-05,0.0011483188718557358,-0.010554813779890537
0.007980665192008018,-0.007902096956968307,-0.0024838014505803585,2.6542629711912014e-05,0.001212500617839396,-0.01077442616224289
0.007759447209537029,-0.00795680470764637,-0.002802202245220542,1.2425511158653535e-05,0.0012726285494863987,-0.010843154042959213
0.007772990968078375,-0.007692806422710419,-0.0026659152936190367,8.112971272566938e-07,0.0012206628452986479,-0.011438990943133831
0.007876412943005562,-0.007087636739015579,-0.002704129321500659,5.297190242004035e-08,0.0011718185851350427,-0.011337009258568287
0.00807544682174921,-0.007359625305980444,-0.0026181074790656567,3.4586864483543422e-09,0.0012016213731840253,-0.010937044396996498
0.00812616292387247,-0.007516148500144482,-0.0023808670230209827,2.2582750947020003e-10,0.0011482809204608202,-0.01093889307230711
0.008250253275036812,-0.0075235734693706036,-0.0022626814898103476,-0.0013539781793951988,0.0011075764195993543,-0.011670902371406555
0.008531562983989716,-0.008097397163510323,-0.0022219109814614058,-0.001690535806119442,0.0010290306527167559,-0.01136090699583292
0.008034850470721722,-0.007240034639835358,-0.002553050173446536,-0.0020916687790304422,0.0010652226628735662,-0.0113100316375494
0.008740333840250969,-0.007661239244043827,-0.002473740838468075,-0.0026053390465676785,0.0010719907004386187,-0.01149910781532526
0.008439218625426292,-0.007860803045332432,-0.002623406471684575,-0.0029896616470068693,0.0013245169539004564,-0.011515985243022442
0.008240355178713799,-0.006885648239403963,-0.0025030989199876785,-0.003419995540753007,0.0013565762201324105,-0.011099851690232754
0.008858595043420792,-0.006892325822263956,-0.0024345885030925274,-0.003819791367277503,0.0013285300228744745,-0.01099500060081482
0.008668027818202972,-0.007645847741514444,-0.0027065291069447994,-0.003903644159436226,0.0013193736085668206,-0.011137438006699085
0.008786341175436974,-0.007295537739992142,-0.002827679505571723,-0.003873846959322691,0.001338510774075985,-0.011278900317847729
0.008503411896526814,-0.0067254588939249516,-0.002789025194942951,-0.004438585136085749,0.0015009145718067884,-0.011205240152776241
0.009415245614945889,-0.00698599498718977,-0.002618200145661831,-0.005595801863819361,0.0014769273111596704,-0.010548206977546215
0.009601456113159657,-0.0069946604780852795,-0.002561722882091999,-0.0055480776354670525,0.0013706149766221642,-0.01161761675029993
0.009167056530714035,-0.0075299921445548534,-0.0025096535682678223,-0.005277938209474087,0.0012645553797483444,-0.011923610232770443
0.00932864286005497,-0.006614547688513994,-0.0023656091652810574,-0.005411016289144754,0.0013016494922339916,-0.011847888119518757
0.009490909986197948,-0.006380143575370312,-0.0025606185663491488,-0.00633997842669487,0.0012767795706167817,-0.012251523323357105
0.008978468365967274,-0.00693722115829587,-0.0026992622297257185,-0.006215532310307026,0.0013788192300125957,-0.011994503438472748
0.009018948301672935,-0.007388337980955839,-0.0025733429938554764,-0.006199545692652464,0.0013505310053005815,-0.011828028596937656
0.009412440471351147,-0.006345587316900492,-0.0027390620671212673,-0.0058561163023114204,0.0013166529824957252,-0.0116575350984931
0.009327146224677563,-0.006057846825569868,-0.0026256984565407038,-0.006047361064702272,0.0014860915252938867,-0.011700132861733437
0.009327146224677563,-0.006057846825569868,-0.0026256984565407038,-0.006047361064702272,0.0014860915252938867,-0.011700132861733437
0.009330026805400848,-0.006541150622069836,-0.002673330483958125,-0.006261157337576151,0.0014818045310676098,-0.01142441388219595
0.00994489248842001,-0.0071450648829340935,-0.002782545518130064,-0.006282198708504438,0.001477153622545302,-0.011654960922896862
0.010398618876934052,-0.006915205158293247,-0.0028245088178664446,-0.006478927098214626,0.001501730759628117,-0.011870579794049263
0.009441223926842213,-0.006657294929027557,-0.002729180036112666,-0.006211836822330952,0.0014594164676964283,-0.012403329834342003
0.00943685881793499,-0.006262530572712421,-0.002562901470810175,-0.006089995615184307,0.0014765214873477817,-0.012203674763441086
0.007963872514665127,-0.006619288120418787,-0.0025150254368782043,-0.006733639631420374,0.0014170531649142504,-0.011593124829232693
0.00718734273687005,-0.006622022949159145,-0.002537916414439678,-0.006741168908774853,0.001364268595352769,-0.011068301275372505
0.008486869744956493,-0.0064908722415566444,-0.0024662096984684467,-0.0068303970620036125,0.0013969670981168747,-0.01097172312438488
0.008719751611351967,-0.006247271317988634,-0.0027539473958313465,-0.006252781022340059,0.0014302288182079792,-0.011366263031959534
0.008397215977311134,-0.0064916894771158695,-0.0029051315505057573,-0.006479973904788494,0.001633885782212019,-0.011217483319342136
0.007699315436184406,-0.007159131579101086,-0.002586003625765443,-0.006579522043466568,0.0017274196725338697,-0.011447569355368614
0.008785483427345753,-0.005940081551671028,-0.0028191262390464544,-0.007427182514220476,0.0015138222370296717,-0.011883947066962719
0.00832527969032526,-0.0058929696679115295,-0.0027236018795520067,-0.0070585329085588455,0.00139592494815588,-0.011889559216797352
0.008161799050867558,-0.005957310553640127,-0.0025695350486785173,-0.007482034619897604,0.0013062312500551343,-0.012163147330284119
0.008627417497336864,-0.0061908503994345665,-0.002771764760836959,-0.007623683195561171,0.0011879476951435208,-0.011280103586614132
0.008411787450313568,-0.00627756305038929,-0.0029246523045003414,-0.008038879372179508,0.0011738642351701856,-0.011201765388250351
0.008595794439315796,-0.005641726776957512,-0.0026366072706878185,-0.00782045442610979,0.0011319033801555634,-0.011723749339580536
0.009463107213377953,-0.0053533888421952724,-0.0026609874330461025,-0.007785039953887463,0.0011315351584926248,-0.011950460262596607
0.009158585220575333,-0.0055074975825846195,-0.0024455711245536804,-0.008678223937749863,0.0011236313730478287,-0.012565176002681255
0.009965486824512482,-0.006164114456623793,-0.0023431824520230293,-0.008503344841301441,0.0011609051143750548,-0.01220136322081089
0.009213053621351719,-0.005795982200652361,-0.002607217524200678,-0.007871639914810658,0.0013741960283368826,-0.01173604466021061
0.009726496413350105,-0.005800627637654543,-0.0028916012961417437,-0.008072739467024803,0.0015156203880906105,-0.01153778936713934
0.009649531915783882,-0.005130911711603403,-0.003005264326930046,-0.008441248908638954,0.0018932553939521313,-0.011588864028453827
0.009643493220210075,-0.004825083538889885,-0.0027323788963258266,-0.007692767307162285,0.001812053844332695,-0.011795851401984692
0.01033976674079895,-0.005668028723448515,-0.0028223812114447355,-0.008117813616991043,0.0016939693596214056,-0.012308349832892418
0.009820027276873589,-0.005399306770414114,-0.00298207881860435,-0.009041591547429562,0.0016202451661229134,-0.012032760307192802
0.010184130631387234,-0.005401389207690954,-0.0030773498583585024,-0.008895467966794968,0.001474554417654872,-0.012037613429129124
0.01040599588304758,-0.005121972877532244,-0.0029213891830295324,-0.008063153363764286,0.0013792372774332762,-0.012151005677878857
0.01040599588304758,-0.005121972877532244,-0.0029213891830295324,-0.008063153363764286,0.0013792372774332762,-0.012151005677878857
0.010210403241217136,-0.00472114747390151,-0.0028735059313476086,-0.008611246943473816,0.0013006898807361722,-0.012204394675791264
0.010714455507695675,-0.004810267593711615,-0.002824484370648861,-0.009258796460926533,0.0013314078096300364,-0.012292676605284214
0.010127795860171318,-0.005511562339961529,-0.0033085059840232134,-0.009226662106812,0.0013561402447521687,-0.012004604563117027
0.01055943500250578,-0.0051897065714001656,-0.003250159788876772,-0.009306098334491253,0.0014850973384454846,-0.012335525825619698
0.011136137880384922,-0.004907299764454365,-0.003593480447307229,-0.009547488763928413,0.001451588235795498,-0.012194802984595299
0.009784876368939877,-0.00522325886413455,-0.0033338433131575584,-0.008659728802740574,0.0015720436349511147,-0.012403293512761593
0.010326413437724113,-0.004671584814786911,-0.003256665077060461,-0.009411142207682133,0.0014436048222705722,-0.01227816753089428
0.01066597830504179,-0.004616128280758858,-0.003187522990629077,-0.009217393584549427,0.001363035524263978,-0.01229021605104208
0.010988349094986916,-0.004954387433826923,-0.003316689282655716,-0.009325970895588398,0.001288162311539054,-0.01211664080619812
0.011118492111563683,-0.004747756756842136,-0.00373476161621511,-0.010078376159071922,0.0012443674495443702,-0.012724368833005428
0.01098784152418375,-0.004955591168254614,-0.003400936257094145,-0.009573106653988361,0.001424369285814464,-0.01232963241636753
0.011183411814272404,-0.004881846718490124,-0.0030512891244143248,-0.009642205201089382,0.001524308929219842,-0.012210546061396599
0.011059289798140526,-0.004548162687569857,-0.0030728268902748823,-0.010518611408770084,0.0016707084141671658,-0.01228784304112196
0.011062899604439735,-0.004697700031101704,-0.0033151914831250906,-0.009854882024228573,0.0016110268188640475,-0.01226545125246048
0.011058269999921322,-0.0047603752464056015,-0.0035225735045969486,-0.010038033127784729,0.0015306092100217938,-0.012999379076063633
0.011117528192698956,-0.004848264157772064,-0.0032866927795112133,-0.010819653049111366,0.001660331035964191,-0.01293913647532463
0.011839351616799831,-0.004656905774027109,-0.0029629135970026255,-0.010717307217419147,0.0015739471418783069,-0.012975486926734447
0.011688373982906342,-0.004229851998388767,-0.0033164441119879484,-0.010963390581309795,0.0017269076779484749,-0.01243017241358757
0.011688373982906342,-0.004229851998388767,-0.0033164441119879484,-0.010963390581309795,0.0017269076779484749,-0.01243017241358757
0.01168077066540718,-0.003697189735248685,-0.003072513500228524,-0.011400912888348103,0.0017522163689136505,-0.012511331588029861
0.01134433876723051,-0.004216975998133421,-0.0029405553359538317,-0.011990133672952652,0.0016408468363806605,-0.012501168064773083
0.01194848958402872,-0.003610063809901476,-0.002992030465975404,-0.011879514902830124,0.0015555784339085221,-0.012709083966910839
0.011638485826551914,-0.003431870136409998,-0.0034094650764018297,-0.011710197664797306,0.0015009408816695213,-0.012564980424940586
0.011638485826551914,-0.003431870136409998,-0.0034094650764018297,-0.011710197664797306,0.0015009408816695213,-0.012564980424940586
0.01180040929466486,-0.0034735659137368202,-0.003192110452800989,-0.010435456410050392,0.0015096208080649376,-0.012538914568722248
0.011877280659973621,-0.00369054451584816,-0.002996171126142144,-0.01083111297339201,0.0013565636472776532,-0.012501402758061886
0.011596115306019783,-0.003629537532106042,-0.0028267381712794304,-0.01179925724864006,0.001446631969884038,-0.012778088450431824
0.012013991363346577,-0.0034540491178631783,-0.0029372095596045256,-0.010928149335086346,0.0014412504388019443,-0.01287881936877966
0.01189722865819931,-0.003349486505612731,-0.003479486098513007,-0.010581047274172306,0.001866450416855514,-0.012781327590346336
0.012310720980167389,-0.0031745906453579664,-0.0031433075200766325,-0.010724478401243687,0.002034997334703803,-0.012901075184345245
0.012167750857770443,-0.003406766103580594,-0.0031266685109585524,-0.010677948594093323,0.0023125826846808195,-0.012728584930300713
0.012235719710588455,-0.0032450759317725897,-0.0029469244182109833,-0.011003759689629078,0.0025617112405598164,-0.01276545599102974
0.012395036406815052,-0.003088604426011443,-0.0031474886927753687,-0.011218821629881859,0.0022802194580435753,-0.012830249965190887
0.012036885134875774,-0.0032126756850630045,-0.003361149923875928,-0.011278060264885426,0.0019955290481448174,-0.012848514132201672
0.01237382274121046,-0.0033782697282731533,-0.0029819291085004807,-0.011273360811173916,0.0017638190183788538,-0.013076980598270893
0.012915858067572117,-0.0030342494137585163,-0.0032702945172786713,-0.011436873115599155,0.0017663732869550586,-0.013022652827203274
0.012350878678262234,-0.0028096470050513744,-0.003265413921326399,-0.011811588890850544,0.0018667512340471148,-0.012910371646285057
0.01235845498740673,-0.002634435659274459,-0.003240107325837016,-0.011635704897344112,0.001889703911729157,-0.012523212470114231
0.013032679446041584,-0.0029304521158337593,-0.0033068007323890924,-0.012219944037497044,0.001913117477670312,-0.012638079933822155
0.012892247177660465,-0.0029460459481924772,-0.0029196052346378565,-0.01160272303968668,0.0019080346683040261,-0.012568007223308086
0.013029181398451328,-0.002828429453074932,-0.0030021017882972956,-0.012045943178236485,0.001683988026343286,-0.012807315215468407
0.012728617526590824,-0.0026652724482119083,-0.0030351602472364902,-0.012696203775703907,0.0016391135286539793,-0.013219484128057957
0.012804622761905193,-0.002825496718287468,-0.003471951000392437,-0.012777606956660748,0.0015496755950152874,-0.013136191293597221
0.012434362433850765,-0.0029184981249272823,-0.003259105607867241,-0.013484103605151176,0.0016314104432240129,-0.013255936093628407
0.012704289518296719,-0.002827748889103532,-0.003010301385074854,-0.012625915929675102,0.0016299791168421507,-0.012853922322392464
0.013248099014163017,-0.002573360688984394,-0.0029254890978336334,-0.013252012431621552,0.0017443746328353882,-0.013198398984968662
0.013179249130189419,-0.0022393285762518644,-0.003253593109548092,-0.013224346563220024,0.0018590788822621107,-0.01301873754709959
0.013118143193423748,-0.0021700740326195955,-0.003719224128872156,-0.014004742726683617,0.002230253303423524,-0.012842309661209583
0.012708703055977821,-0.0022320335265249014,-0.003947173710912466,-0.012998021207749844,0.0025057755410671234,-0.013260331936180592
0.012708703055977821,-0.0022320335265249014,-0.003947173710912466,-0.012998021207749844,0.0025057755410671234,-0.013260331936180592
0.013234964571893215,-0.002501369221135974,-0.0034705211874097586,-0.013306780718266964,0.002437567338347435,-0.012779316864907742
0.012928600423038006,-0.0023825326934456825,-0.003111292840912938,-0.013344266451895237,0.0022701742127537727,-0.01327558234333992
0.013220972381532192,-0.002488831290975213,-0.0034192923922091722,-0.01352812722325325,0.0021446163300424814,-0.014662963338196278
0.01288895308971405,-0.0022259752731770277,-0.003804253414273262,-0.014283883385360241,0.002039761748164892,-0.013431615196168423
0.013029846362769604,-0.0022107604891061783,-0.0034708527382463217,-0.014385444112122059,0.001983764348551631,-0.013136346824467182
0.013316640630364418,-0.0020208549685776234,-0.0032179797999560833,-0.014254579320549965,0.001961463363841176,-0.013424241915345192
0.01319922786206007,-0.00217094412073493,-0.0031342110596597195,-0.013941765762865543,0.0018691987497732043,-0.013602672144770622
0.013263516128063202,-0.002251904457807541,-0.00311856996268034,-0.01444750465452671,0.0018195378361269832,-0.013771871104836464
0.01338957715779543,-0.002215835964307189,-0.0035204305313527584,-0.014925193041563034,0.0018262751400470734,-0.01386748906224966
0.013184260576963425,-0.0020073377527296543,-0.0034171384759247303,-0.015188630670309067,0.0019911653362214565,-0.013312092050909996
0.013559364713728428,-0.0019016993464902043,-0.00331563176587224,-0.01439384650439024,0.0020960846450179815,-0.013576303608715534
0.01324209850281477,-0.0018964328337460756,-0.003296654438599944,-0.014529394917190075,0.0020423750393092632,-0.013852426782250404
0.013547055423259735,-0.0020687661599367857,-0.0033327066339552402,-0.014416288584470749,0.0018855052767321467,-0.01419944316148758
0.013480153866112232,-0.00185621646232903,-0.003370906226336956,-0.014386560767889023,0.0019335020333528519,-0.014478827826678753
0.014051515609025955,-0.001840829267166555,-0.0031893604900687933,-0.014753458090126514,0.0019991511944681406,-0.014178243465721607
0.013347146101295948,-0.001779718673788011,-0.003569649066776037,-0.01524235587567091,0.001969581702724099,-0.013657156378030777
0.013608535751700401,-0.0015751715982332826,-0.0037153635639697313,-0.01564381830394268,0.0018706071423366666,-0.013835642486810684
0.01387957762926817,-0.0015662035439163446,-0.003408443881198764,-0.016205620020627975,0.0019269435433670878,-0.014260740950703621
0.014130929484963417,-0.0014730968978255987,-0.003338823327794671,-0.015688465908169746,0.002186437137424946,-0.01438686903566122
0.013967975974082947,-0.001469586743041873,-0.0032672539819031954,-0.016050508245825768,0.002095468807965517,-0.01425810344517231
0.014521406032145023,-0.0013475081650540233,-0.0033282204531133175,-0.016332626342773438,0.0022641546092927456,-0.014236798509955406
0.013873585499823093,-0.001265317085199058,-0.0034296412486582994,-0.017000801861286163,0.002332711359485984,-0.014186778105795383
0.014451716095209122,-0.0011810805881395936,-0.0034489149693399668,-0.016931094229221344,0.0022157118655741215,-0.013750209473073483
0.013980645686388016,-0.001137384446337819,-0.0033772578462958336,-0.016929807141423225,0.0021924693137407303,-0.013996473513543606
0.014253382571041584,-0.001095575513318181,-0.003569393651559949,-0.01724722422659397,0.0021182752680033445,-0.013514221645891666
0.013955549336969852,-0.0010661499109119177,-0.0037481607869267464,-0.01704677753150463,0.00230247899889946,-0.01390982884913683
0.014400742948055267,-0.0010266965255141258,-0.003747236914932728,-0.017428657039999962,0.00249585066922009,-0.014356240630149841
0.01413187850266695,-0.0010279545094817877,-0.0037406461779028177,-0.01715744286775589,0.0025020090397447348,-0.014702552929520607
0.014882252551615238,-0.0009739387314766645,-0.0038800144102424383,-0.017104988917708397,0.002554086735472083,-0.014742589555680752
0.014690931886434555,-0.0008816770859993994,-0.003853518282994628,-0.015863768756389618,0.002283008536323905,-0.014798430725932121
0.014690931886434555,-0.0008816770859993994,-0.003853518282994628,-0.015863768756389618,0.002283008536323905,-0.014798430725932121
0.014534150250256062,-0.0008707847446203232,-0.003360715927556157,-0.01783198118209839,0.002159972209483385,-0.014758629724383354
0.013964379206299782,-0.0007874450529925525,-0.0035510926973074675,-0.01817651279270649,0.0019682745914906263,-0.014666220173239708
0.014759548008441925,-0.0007272431976161897,-0.003869771957397461,-0.017669841647148132,0.002014575060456991,-0.01434012409299612
0.014594167470932007,-0.0007088101701810956,-0.0039328946731984615,-0.0174118559807539,0.0020550719927996397,-0.014448941685259342
0.014836005866527557,-0.0006602811627089977,-0.0033901280257850885,-0.018102223053574562,0.0022586637642234564,-0.01445436105132103
0.015325253829360008,-0.0006192743894644082,-0.003212518058717251,-0.018658820539712906,0.0024884380400180817,-0.01462612021714449
0.01601753570139408,-0.0005638742004521191,-0.0036618986632674932,-0.018724575638771057,0.0023604920133948326,-0.014533772133290768
0.015340277925133705,-0.0005825399421155453,-0.0035905076656490564,-0.0185768511146307,0.0023022498935461044,-0.014675798825919628
0.01406166609376669,-0.0005464386777020991,-0.0033824481070041656,-0.017328474670648575,0.002173236571252346,-0.014953108504414558
0.014965401962399483,-0.0005103086587041616,-0.0031031586695462465,-0.017762208357453346,0.0018918247660622,-0.014673922210931778
0.014926213771104813,-0.0004611579643096775,-0.0034966180101037025,-0.018174180760979652,0.002004255773499608,-0.014819418080151081
0.015497149899601936,-0.000498428475111723,-0.004265893716365099,-0.01911659725010395,0.002365444554015994,-0.014965045265853405
0.015392898581922054,-0.0004592171753756702,-0.004209115169942379,-0.019412051886320114,0.002671431750059128,-0.014955355785787106
0.015557614155113697,-0.0004232567152939737,-0.003649298567324877,-0.01835312321782112,0.002689351560547948,-0.01479425746947527
0.015039840713143349,-0.0004500352661125362,-0.003470180556178093,-0.018662750720977783,0.0024143264163285494,-0.01471072155982256
0.015249847434461117,-0.0004267617186997086,-0.003175040939822793,-0.019519178196787834,0.0022321748547255993,-0.01473152730613947
0.015247734263539314,-0.00039977359119802713,-0.00349217071197927,-0.019666898995637894,0.001978273969143629,-0.014853942207992077
0.01549463253468275,-0.0003759160463232547,-0.0037022405304014683,-0.019713561981916428,0.0019379679579287767,-0.016274357214570045
0.01566402241587639,-0.00035474501783028245,-0.003764639375731349,-0.019377736374735832,0.002436027629300952,-0.014867735095322132
0.015523096546530724,-0.000335834629368037,-0.0036704742815345526,-0.018847022205591202,0.0026498897932469845,-0.01479103323072195
0.016053052619099617,-0.0003188361879438162,-0.004035833291709423,-0.01911114901304245,0.002504931529983878,-0.015063750557601452
0.015657609328627586,-0.00030347617575898767,-0.0042454153299331665,-0.019532090052962303,0.002429394982755184,-0.015262145549058914
0.01587650366127491,-0.00028952816501259804,-0.004077659919857979,-0.020022161304950714,0.0022019734606146812,-0.015169625170528889
0.015507490374147892,-0.0002768062404356897,-0.0038340480532497168,-0.020330436527729034,0.0021167101804167032,-0.015688374638557434
0.016582773998379707,-0.00026515507488511503,-0.003352046012878418,-0.020670006051659584,0.0019740231800824404,-0.015455838292837143
0.016582773998379707,-0.00026515507488511503,-0.003352046012878418,-0.020670006051659584,0.0019740231800824404,-0.015455838292837143
0.01645985059440136,-0.00025444600032642484,-0.0035136861260980368,-0.02028941921889782,0.0021175453439354897,-0.015724461525678635
0.016391247510910034,-0.00011040703975595534,-0.0037270819302648306,-0.020241614431142807,0.0022200248204171658,-0.015202134847640991
0.016216982156038284,-9.909752407111228e-05,-0.004303564317524433,-0.020529408007860184,0.0022386282216757536,-0.015470080077648163
0.016143443062901497,-9.385900921188295e-05,-0.003750098869204521,-0.020796695724129677,0.0022884956561028957,-0.01555841788649559
0.01633192040026188,-0.00013317939010448754,-0.0035156530793756247,-0.02052769809961319,0.0021213307045400143,-0.015528272837400436
0.016327206045389175,-0.00012748170411214232,-0.0037291888147592545,-0.020327866077423096,0.0019782446324825287,-0.01582108996808529
0.016638312488794327,6.06504145252984e-05,-0.004255756735801697,-0.020839406177401543,0.0018347295699641109,-0.01570420153439045
0.016553062945604324,0.00013402676268015057,-0.004255904350429773,-0.021006740629673004,0.0019090230343863368,-0.015577842481434345
0.016773361712694168,0.00039828222361393273,-0.0035543821286410093,-0.0210268571972847,0.002126386621966958,-0.0149362338706851
0.01652427762746811,0.0013995171757414937,-0.0038345579523593187,-0.021419033408164978,0.002220559399574995,-0.015059237368404865
0.01717553101480007,0.0012258419301360846,-0.004016637336462736,-0.02162891998887062,0.0021902110893279314,-0.0156236682087183
0.016940567642450333,0.0010270267957821488,-0.003999670036137104,-0.02154630795121193,0.002210048260167241,-0.015890847891569138
0.017175588756799698,0.0004857334424741566,-0.0034899222664535046,-0.021447474136948586,0.002137100324034691,-0.016189027577638626
0.017198024317622185,0.00018939968140330166,-0.003458975348621607,-0.021208088845014572,0.0022313320077955723,-0.015967343002557755
0.016717717051506042,0.00040504764183424413,-0.0036222441121935844,-0.02229348197579384,0.0021146442741155624,-0.015756387263536453
0.017127709463238716,0.0005196031997911632,-0.004254414699971676,-0.021890711039304733,0.0023862109519541264,-0.015651719644665718
0.017057368531823158,0.0003831985522992909,-0.003642754163593054,-0.021746352314949036,0.0027088855858892202,-0.01592942699790001
0.017578965052962303,0.00046448895591311157,-0.0033205198124051094,-0.02174837701022625,0.002830100478604436,-0.016375821083784103
0.01725579798221588,0.0004012885910924524,-0.0032313524279743433,-0.021291524171829224,0.002675462979823351,-0.016394073143601418
0.017397206276655197,0.00034938790486194193,-0.00383407948538661,-0.02167624607682228,0.002545800292864442,-0.01599479839205742
0.017785223200917244,0.0004079891077708453,-0.004067103844136,-0.02188062109053135,0.0025982444640249014,-0.015452124178409576
0.017195090651512146,0.0003699621884152293,-0.003932642750442028,-0.021503472700715065,0.0025552816223353148,-0.01575256884098053
0.01767650432884693,0.00041583951679058373,-0.003501030383631587,-0.021510159596800804,0.0026263990439474583,-0.015627559274435043
0.017442939803004265,0.00038358333404175937,-0.003355350811034441,-0.02183140069246292,0.002575170947238803,-0.015390506945550442
0.01731325499713421,0.000513536564540118,-0.0035111503675580025,-0.022493956610560417,0.0024402847047895193,-0.015382613055408001
0.018142646178603172,0.0005488669266924262,-0.00394394900649786,-0.023150548338890076,0.0022185412235558033,-0.01593654975295067
0.01851283200085163,0.0005626237252727151,-0.0039930627681314945,-0.023455219343304634,0.0021958444267511368,-0.016294561326503754
0.018310822546482086,0.0005409694858826697,-0.0037718142848461866,-0.023157117888331413,0.0024531749077141285,-0.016267292201519012
0.018392838537693024,0.0005713803111575544,-0.0037332044448703527,-0.023206572979688644,0.002835257211700082,-0.016170987859368324
0.018392838537693024,0.0005713803111575544,-0.0037332044448703527,-0.023206572979688644,0.002835257211700082,-0.016170987859368324
0.018117299303412437,0.0008745842496864498,-0.003595685586333275,-0.02328268624842167,0.002992273773998022,-0.017296288162469864
0.018281618133187294,0.0008819135837256908,-0.0035741182509809732,-0.023719478398561478,0.0026753211859613657,-0.01570664346218109
0.019472306594252586,0.0008093832875601947,-0.00422263890504837,-0.024817729368805885,0.0023971099872142076,-0.015429378487169743
0.019352657720446587,0.0008186428458429873,-0.00410321494564414,-0.024628708139061928,0.002226349664852023,-0.016036344692111015
0.019377799704670906,0.0008402795647270977,-0.0038945903070271015,-0.024117257446050644,0.0021421608980745077,-0.016171356663107872
0.019556110724806786,0.0008525177254341543,-0.003862092038616538,-0.02425239607691765,0.0022568022832274437,-0.016358042135834694
0.018810302019119263,0.0007758354768157005,-0.004003990441560745,-0.024243153631687164,0.002281127031892538,-0.0159302968531847
0.020093120634555817,0.0009800365660339594,-0.0043975417502224445,-0.024985328316688538,0.002563182031735778,-0.016293631866574287
0.019797366112470627,0.001045454409904778,-0.004069929011166096,-0.02435957081615925,0.002466771751642227,-0.01633189618587494
0.019697658717632294,0.0011217668652534485,-0.003830515779554844,-0.02422649972140789,0.0021833947394043207,-0.016644716262817383
0.020110314711928368,0.0012423094594851136,-0.003846342209726572,-0.024352654814720154,0.0021561591420322657,-0.01656617596745491
0.01956128142774105,0.0012534598354250193,-0.00427983608096838,-0.02459459938108921,0.002488364465534687,-0.016667701303958893
0.019502637907862663,0.0012010395294055343,-0.004187778104096651,-0.024356918409466743,0.0028778098057955503,-0.016546903178095818
0.01999366469681263,0.0011526232119649649,-0.004284003749489784,-0.024124180898070335,0.003048835089430213,-0.016527432948350906
0.020284302532672882,0.0012241107178851962,-0.00411674240604043,-0.025334537029266357,0.002857886254787445,-0.01652434654533863
0.01957605965435505,0.0012215172173455358,-0.0042512910440564156,-0.025944313034415245,0.002720687072724104,-0.016194524243474007
0.020605234429240227,0.0014745017979294062,-0.004175425041466951,-0.025148754939436913,0.0023818928748369217,-0.016462871804833412
0.020144883543252945,0.001674747676588595,-0.004463802557438612,-0.025759965181350708,0.002273129764944315,-0.016308793798089027
0.019598012790083885,0.001794031006284058,-0.004358143080025911,-0.02479313313961029,0.002393383299931884,-0.01635916158556938
0.01986386999487877,0.001821243204176426,-0.0040900325402617455,-0.023387372493743896,0.0025526834651827812,-0.01636500470340252
0.0203538928180933,0.0016819466836750507,-0.003988050390034914,-0.026464777067303658,0.002529814373701811,-0.017122628167271614
0.020031027495861053,0.00166087388060987,-0.004542975220829248,-0.026806268841028214,0.002702738158404827,-0.017114028334617615
0.020442141219973564,0.001695857965387404,-0.004337049555033445,-0.026413394138216972,0.0030677560716867447,-0.016830142587423325
0.02079332061111927,0.002054209355264902,-0.004138850141316652,-0.02703035995364189,0.003103164955973625,-0.016923660412430763
0.02079332061111927,0.002054209355264902,-0.004138850141316652,-0.02703035995364189,0.003103164955973625,-0.016923660412430763
0.020511480048298836,0.001934500178322196,-0.003993275109678507,-0.027909090742468834,0.0029207756742835045,-0.016737960278987885
0.020402634516358376,0.0024608580861240625,-0.003903950797393918,-0.02714860998094082,0.002940608188509941,-0.01691330596804619
0.020785925909876823,0.0025076947640627623,-0.004463283810764551,-0.02632753923535347,0.0029344968497753143,-0.017055107280611992
0.02066922001540661,0.0024078930728137493,-0.00469726137816906,-0.026334645226597786,0.002977067371830344,-0.016680173575878143
0.02059924043715,0.002458314411342144,-0.004396024160087109,-0.026828667148947716,0.00283568212762475,-0.016804637387394905
0.020834656432271004,0.0021502943709492683,-0.003967296332120895,-0.02710462547838688,0.0029470135923475027,-0.01667226478457451
0.02114764042198658,0.0020565337035804987,-0.00372995063662529,-0.026918916031718254,0.0029824364464730024,-0.0170833021402359
0.020704109221696854,0.0019387875217944384,-0.004193698056042194,-0.027057509869337082,0.0026656065601855516,-0.016767442226409912
0.020508483052253723,0.00212909490801394,-0.004178320989012718,-0.02712942846119404,0.0027307383716106415,-0.017474256455898285
0.020887605845928192,0.0025494133587926626,-0.0043249656446278095,-0.0269854087382555,0.0028408581856638193,-0.016472289338707924
0.021362384781241417,0.0033097148407250643,-0.004487453959882259,-0.026702385395765305,0.0028398558497428894,-0.01666511595249176
0.020799841731786728,0.0034110085107386112,-0.004398549906909466,-0.026880690827965736,0.0025228250306099653,-0.0176211167126894
0.021579328924417496,0.003684425028041005,-0.00449733342975378,-0.027937836945056915,0.002411719411611557,-0.017376834526658058
0.021347034722566605,0.0038709244690835476,-0.004288260359317064,-0.028502855449914932,0.0022392948158085346,-0.017500584945082664
0.021129673346877098,0.003876840230077505,-0.004063581582158804,-0.028747940436005592,0.0023502318654209375,-0.017568815499544144
0.021397963166236877,0.003898841328918934,-0.0038840605411678553,-0.027610158547759056,0.0026801174972206354,-0.017602309584617615
0.021342849358916283,0.0038763696793466806,-0.0044418820179998875,-0.02761576883494854,0.002872947370633483,-0.01703958958387375
0.021478982642292976,0.0043939161114394665,-0.004928979091346264,-0.02863304130733013,0.0031024920754134655,-0.017421431839466095
0.02166062965989113,0.004517738241702318,-0.004775474779307842,-0.028897734358906746,0.0028646921273320913,-0.017952479422092438
0.021355075761675835,0.004377900622785091,-0.004342799074947834,-0.028220223262906075,0.0027614778373390436,-0.017926305532455444
0.021524634212255478,0.0044997138902544975,-0.003931773826479912,-0.028486713767051697,0.0028208158910274506,-0.01780829206109047
0.02168394811451435,0.004990975838154554,-0.00386287784203887,-0.029535967856645584,0.002908438676968217,-0.01773970201611519
0.021665222942829132,0.005079629365354776,-0.004454614128917456,-0.02878434583544731,0.0029005655087530613,-0.017371386289596558
0.022083768621087074,0.0054544368758797646,-0.004923585802316666,-0.027941174805164337,0.00305665354244411,-0.01791689731180668
0.022561347112059593,0.005524091888219118,-0.005162058863788843,-0.028065260499715805,0.0030376622453331947,-0.018138689920306206
0.02268405444920063,0.005194324068725109,-0.004906246438622475,-0.029016928747296333,0.0034693449269980192,-0.01848364993929863
0.02268405444920063,0.005194324068725109,-0.004906246438622475,-0.029016928747296333,0.0034693449269980192,-0.01848364993929863
0.021908918395638466,0.005329963751137257,-0.004279683344066143,-0.029163988307118416,0.003395066363736987,-0.018615420907735825
0.02128015086054802,0.005414285231381655,-0.004385584034025669,-0.028566522523760796,0.0032195006497204304,-0.017840592190623283
0.022234398871660233,0.006151438225060701,-0.004836429841816425,-0.02898816391825676,0.0028943680226802826,-0.017948124557733536
0.022408677265048027,0.005695877596735954,-0.004960488528013229,-0.029570935294032097,0.003204855602234602,-0.017873743548989296
0.022522706538438797,0.005914484150707722,-0.005279151722788811,-0.02822045609354973,0.003153738332912326,-0.01736185885965824
0.022030403837561607,0.005678207613527775,-0.004848182667046785,-0.028914282098412514,0.0030929669737815857,-0.01792008802294731
0.02289275825023651,0.006188804749399424,-0.004396150819957256,-0.029748445376753807,0.0030997288413345814,-0.017743920907378197
0.023433763533830643,0.006747896317392588,-0.004870099015533924,-0.02993176318705082,0.0029698798898607492,-0.01844482123851776
0.023064859211444855,0.006557925138622522,-0.004832087550312281,-0.030102254822850227,0.0027473634108901024,-0.01829863153398037
0.022899920120835304,0.006183271761983633,-0.004895804449915886,-0.0300913043320179,0.002589454175904393,-0.017912225797772408
0.022742044180631638,0.006482939701527357,-0.0048310053534805775,-0.030477117747068405,0.0027586298529058695,-0.018668033182621002
0.02277817577123642,0.007070835679769516,-0.004959145560860634,-0.030978107824921608,0.003373973537236452,-0.018414592370390892
0.023833096027374268,0.007344425190240145,-0.00442342646420002,-0.03137951344251633,0.00371886626817286,-0.018700791522860527
0.023338016122579575,0.006961195729672909,-0.004449222236871719,-0.03166969120502472,0.0037553131114691496,-0.01801859214901924
0.02330203540623188,0.007536210585385561,-0.004641834646463394,-0.032517045736312866,0.0036174117121845484,-0.01797349564731121
0.02362489141523838,0.008366938680410385,-0.005275342613458633,-0.0322866290807724,0.003254798473790288,-0.01792857237160206
0.0236294474452734,0.007268171291798353,-0.005563819780945778,-0.03205222263932228,0.002989924745634198,-0.018163733184337616
0.023963581770658493,0.007207241374999285,-0.00511369202286005,-0.03176265209913254,0.002985055558383465,-0.018498554825782776
0.02386322431266308,0.008126459084451199,-0.004800440743565559,-0.03214358910918236,0.0029735343996435404,-0.01881435513496399
0.0239811223000288,0.008251269347965717,-0.004618426784873009,-0.032067835330963135,0.003316404763609171,-0.01853838935494423
0.02387247234582901,0.007656892761588097,-0.004934088326990604,-0.032184820622205734,0.0031925251241773367,-0.01830105669796467
0.024064069613814354,0.0073856813833117485,-0.00541531341150403,-0.031713441014289856,0.0034372475929558277,-0.018139922991394997
0.024645736441016197,0.007902645505964756,-0.005154314450919628,-0.03186224400997162,0.0031918047461658716,-0.018257752060890198
0.02475597895681858,0.009010556153953075,-0.005149103235453367,-0.03267292678356171,0.003308279439806938,-0.018704187124967575
0.024592040106654167,0.008213317953050137,-0.005027781706303358,-0.03249860927462578,0.00343874073587358,-0.0187827218323946
0.024486269801855087,0.008050347678363323,-0.0052370610646903515,-0.03276064246892929,0.0031647062860429287,-0.01835104450583458
0.024847887456417084,0.008800446055829525,-0.005312012974172831,-0.03349604830145836,0.0029128026217222214,-0.018457025289535522
0.024847887456417084,0.008800446055829525,-0.005312012974172831,-0.03349604830145836,0.0029128026217222214,-0.018457025289535522
0.02496511861681938,0.00847629178315401,-0.005099947564303875,-0.03369990363717079,0.0026863946113735437,-0.018815793097019196
0.025009676814079285,0.008172371424734592,-0.005442946217954159,-0.03389933705329895,0.0027664215303957462,-0.01888205297291279
0.025242021307349205,0.008894331753253937,-0.0049981363117694855,-0.03411276638507843,0.0029245661571621895,-0.018910683691501617
0.02511405199766159,0.008888942189514637,-0.005242617800831795,-0.03418168053030968,0.0030324116814881563,-0.01872454769909382
0.02512495405972004,0.008584020659327507,-0.005001801066100597,-0.03442848101258278,0.0029440289363265038,-0.01871231198310852
0.025810930877923965,0.008916173130273819,-0.004879044834524393,-0.0341939702630043,0.002887238282710314,-0.018732303753495216
0.0253495741635561,0.00919211283326149,-0.0058599673211574554,-0.034804753959178925,0.002838308457285166,-0.01893974095582962
0.025563238188624382,0.009327705949544907,-0.005415576510131359,-0.03536444529891014,0.0031816947739571333,-0.019163712859153748
0.02507220208644867,0.009066732600331306,-0.004885532893240452,-0.03530726581811905,0.003189121140167117,-0.019826775416731834
0.025832634419202805,0.009611680172383785,-0.005066896788775921,-0.03423609584569931,0.002906699664890766,-0.018364502117037773
0.026669640094041824,0.009252672083675861,-0.005296885501593351,-0.03493064269423485,0.0029911829624325037,-0.018674533814191818
0.026617102324962616,0.009762612171471119,-0.005574221257120371,-0.03494470939040184,0.003230420174077153,-0.019208258017897606
0.025378959253430367,0.009520863182842731,-0.005542196333408356,-0.036241672933101654,0.0032943286933004856,-0.019333235919475555
0.025081465020775795,0.00940748956054449,-0.005580579861998558,-0.03604258969426155,0.003262946614995599,-0.019830135628581047
0.027184024453163147,0.010656686499714851,-0.005199314560741186,-0.03448913246393204,0.003031210508197546,-0.019281134009361267
0.026838749647140503,0.009642551653087139,-0.0048139323480427265,-0.03513067960739136,0.003224101383239031,-0.018613819032907486
0.026014048606157303,0.009256021119654179,-0.00524680782109499,-0.03578392043709755,0.003560728393495083,-0.018615148961544037
0.026585668325424194,0.010223186574876308,-0.005345032550394535,-0.03571399301290512,0.0035532494075596333,-0.018372775986790657
0.026361193507909775,0.009984523057937622,-0.0053044576197862625,-0.035687971860170364,0.003155572572723031,-0.018988756462931633
0.0267837755382061,0.010167906992137432,-0.004952134098857641,-0.03356640413403511,0.0029544054996222258,-0.019001202657818794
0.02637488767504692,0.010509858839213848,-0.004853894934058189,-0.03598187863826752,0.002829577075317502,-0.019671166315674782
0.02605929970741272,0.010305862873792648,-0.006316425744444132,-0.03583991527557373,0.003155298763886094,-0.019173448905348778
0.026508454233407974,0.010100336745381355,-0.005783956963568926,-0.03487905487418175,0.0035333933774381876,-0.018669631332159042
0.027456630021333694,0.010710022412240505,-0.004538096487522125,-0.03586709499359131,0.0037338687106966972,-0.019068822264671326
0.027316635474562645,0.010206026956439018,-0.004911382216960192,-0.03737664595246315,0.0037182550877332687,-0.01984332874417305
0.02709122933447361,0.008741896599531174,-0.005175859201699495,-0.03587222471833229,0.003475095145404339,-0.019938210025429726
0.027092216536402702,0.008517181500792503,-0.005332094617187977,-0.035273902118206024,0.0032512182369828224,-0.019042009487748146
0.027092216536402702,0.008517181500792503,-0.005332094617187977,-0.035273902118206024,0.0032512182369828224,-0.019042009487748146
0.02739609405398369,0.008567488752305508,-0.005238278768956661,-0.036102045327425,0.00316570233553648,-0.01868518441915512
0.027273425832390785,0.008473406545817852,-0.004568720236420631,-0.03571411222219467,0.0032075410708785057,-0.01818263716995716
0.027118317782878876,0.008952729403972626,-0.0050839828327298164,-0.03759191557765007,0.0030626326333731413,-0.019722063094377518
0.027118317782878876,0.008952729403972626,-0.0050839828327298164,-0.03759191557765007,0.0030626326333731413,-0.019722063094377518
0.027636149898171425,0.009204384870827198,-0.005009013693779707,-0.03629963472485542,0.003298576455563307,-0.020012332126498222
0.027531344443559647,0.010002171620726585,-0.00506801949813962,-0.036344293504953384,0.0036892625503242016,-0.01980297639966011
0.027773601934313774,0.009256243705749512,-0.005000565201044083,-0.03733052313327789,0.003931762184947729,-0.01973763294517994
0.027844730764627457,0.009096279740333557,-0.005250714719295502,-0.03784146159887314,0.0034824663307517767,-0.018885288387537003
0.027583574876189232,0.010137279517948627,-0.00562107702717185,-0.03850223124027252,0.003536196891218424,-0.019386399537324905
0.027811970561742783,0.010420714505016804,-0.005304241087287664,-0.03859343007206917,0.003296192269772291,-0.019789306446909904
0.02751479670405388,0.009154441766440868,-0.004784747492522001,-0.03843129053711891,0.003080509603023529,-0.01996965892612934
0.0276245828717947,0.009735015220940113,-0.0049225399270653725,-0.03922708332538605,0.0030075530521571636,-0.01988723874092102
0.02796403504908085,0.009794172830879688,-0.0054041738621890545,-0.03941404074430466,0.003269750392064452,-0.019793672487139702
0.02797100320458412,0.009994705207645893,-0.005212037358433008,-0.04040344059467316,0.0038967570289969444,-0.020228978246450424
0.02833797223865986,0.010554460808634758,-0.005283326376229525,-0.039946556091308594,0.004069528542459011,-0.020402558147907257
0.028380323201417923,0.0098385289311409,-0.005686306860297918,-0.040569230914115906,0.003911173436790705,-0.02074439637362957
0.028235841542482376,0.010239032097160816,-0.005229716654866934,-0.03998253494501114,0.003674245672300458,-0.020359694957733154
0.02873171865940094,0.010529345832765102,-0.0052857669070363045,-0.03993546962738037,0.0034198586363345385,-0.020181745290756226
0.02874414250254631,0.01008334755897522,-0.00565935717895627,-0.04056595265865326,0.0031408376526087523,-0.020036619156599045
0.02848614752292633,0.010762632824480534,-0.005503298714756966,-0.04043034464120865,0.0029727721121162176,-0.020365720614790916
0.027186179533600807,0.011125228367745876,-0.005599085707217455,-0.04045752435922623,0.0028152475133538246,-0.020464519038796425
0.02931896224617958,0.010541451163589954,-0.005600591190159321,-0.040666673332452774,0.003163696499541402,-0.02063852734863758
0.029786063358187675,0.011695045977830887,-0.005614947061985731,-0.04086657613515854,0.00363459181971848,-0.02051553688943386
0.02931520715355873,0.011412431485950947,-0.0054468740709125996,-0.041675783693790436,0.003852667286992073,-0.020581239834427834
0.029623474925756454,0.011730559170246124,-0.005861619487404823,-0.041536279022693634,0.0038088453002274036,-0.020967606455087662
0.028233511373400688,0.011459329165518284,-0.0051946439780294895,-0.04114766791462898,0.003659949405118823,-0.02098832093179226
0.028642568737268448,0.011024707928299904,-0.0048921373672783375,-0.0413125678896904,0.003455881495028734,-0.02079240418970585
0.029772713780403137,0.011646530590951443,-0.004776361398398876,-0.042031921446323395,0.0033262022770941257,-0.020949145779013634
0.028958197683095932,0.011318724602460861,-0.005143021699041128,-0.04217762500047684,0.003129779128357768,-0.022887904196977615
0.02930777706205845,0.011722389608621597,-0.005579186603426933,-0.04278057441115379,0.003494936041533947,-0.02096891589462757
0.030099637806415558,0.011661941185593605,-0.0050954027101397514,-0.04190736636519432,0.00378408282995224,-0.020424138754606247
0.029574520885944366,0.011147737503051758,-0.004725000821053982,-0.04340535029768944,0.003810125170275569,-0.02133771777153015
0.029574520885944366,0.011147737503051758,-0.004725000821053982,-0.04340535029768944,0.003810125170275569,-0.02133771777153015
0.029473772272467613,0.011486618779599667,-0.005065045319497585,-0.04233761504292488,0.0041091954335570335,-0.021707305684685707
0.029473772272467613,0.011486618779599667,-0.005065045319497585,-0.04233761504292488,0.0041091954335570335,-0.021707305684685707
0.02968120016157627,0.011760607361793518,-0.00584091991186142,-0.04222856089472771,0.00395688833668828,-0.021604713052511215
0.030456816777586937,0.012295907363295555,-0.005474646110087633,-0.043001938611269,0.003552776062861085,-0.021471966058015823
0.030514400452375412,0.011521885171532631,-0.004919559229165316,-0.04315362125635147,0.003600793657824397,-0.02171160839498043
0.030039194971323013,0.012149439193308353,-0.005198357161134481,-0.04398571327328682,0.0036835558712482452,-0.0217983927577734
0.030437663197517395,0.011994087137281895,-0.005165264941751957,-0.041877709329128265,0.0042020236141979694,-0.021960800513625145
0.030659064650535583,0.012086533010005951,-0.005340944975614548,-0.04201097786426544,0.004177912604063749,-0.02174186520278454
0.030556125566363335,0.01164419949054718,-0.005568112246692181,-0.04323221370577812,0.004299727268517017,-0.021809743717312813
0.030097080394625664,0.011980094946920872,-0.005603567231446505,-0.042881011962890625,0.004085944965481758,-0.02194342203438282
0.03015788272023201,0.01155818346887827,-0.005163343157619238,-0.0430164560675621,0.0034614482428878546,-0.02178921550512314
0.03049631416797638,0.012030644342303276,-0.005453914869576693,-0.04300502687692642,0.0035267011262476444,-0.022034918889403343
0.030883075669407845,0.011916106566786766,-0.005259013269096613,-0.04305627569556236,0.003368931356817484,-0.0222710482776165
0.03055425174534321,0.01227540336549282,-0.005175762809813023,-0.042587026953697205,0.003590038511902094,-0.021939443424344063
0.02985832281410694,0.011913057416677475,-0.005757897160947323,-0.044186100363731384,0.004195690155029297,-0.02114167995750904
0.031473394483327866,0.011830898001790047,-0.005325233098119497,-0.04560159146785736,0.004188985098153353,-0.021708019077777863
0.03131318464875221,0.01194971427321434,-0.005217743571847677,-0.043645840138196945,0.004241324961185455,-0.021978897973895073
0.030947577208280563,0.011743669398128986,-0.005091674625873566,-0.04391876235604286,0.004056206438690424,-0.023906592279672623
0.031011849641799927,0.011579001322388649,-0.004975751042366028,-0.044996488839387894,0.0038757105357944965,-0.02195047214627266
0.031294140964746475,0.011582249775528908,-0.005375509150326252,-0.046609558165073395,0.00422809598967433,-0.021199669688940048
0.03262290358543396,0.011202503927052021,-0.0052660689689219,-0.04648662731051445,0.0037939127068966627,-0.02060363069176674
0.03272724151611328,0.011938191950321198,-0.00493583595380187,-0.04389812424778938,0.0035272652748972178,-0.021782413125038147
0.03117280825972557,0.011921572498977184,-0.004830608144402504,-0.04551099240779877,0.003601409960538149,-0.022157413884997368
0.03139195218682289,0.012413197197020054,-0.00490116560831666,-0.04641513526439667,0.00412485608831048,-0.02273062989115715
0.03218137100338936,0.011560272425413132,-0.005382117815315723,-0.04598824679851532,0.0040235621854662895,-0.022210298106074333
0.03196416795253754,0.011407474055886269,-0.005680425558239222,-0.046650998294353485,0.0038621248677372932,-0.021841276437044144
0.032517943531274796,0.01225460134446621,-0.005048858001828194,-0.04710155725479126,0.0037758108228445053,-0.022109420970082283
0.033169571310281754,0.011811040341854095,-0.004651616793125868,-0.047192178666591644,0.003646508790552616,-0.02287529967725277
0.03356580063700676,0.011324182152748108,-0.005068306811153889,-0.048638783395290375,0.0036403590347617865,-0.02237771265208721
0.032441169023513794,0.011506323702633381,-0.005064328666776419,-0.04776087775826454,0.0034084473736584187,-0.0220998153090477
0.032441169023513794,0.011506323702633381,-0.005064328666776419,-0.04776087775826454,0.0034084473736584187,-0.0220998153090477
0.03334450349211693,0.011891362257301807,-0.005175735801458359,-0.0485922172665596,0.0035327794030308723,-0.0218657236546278
0.03334450349211693,0.011891362257301807,-0.005175735801458359,-0.0485922172665596,0.0035327794030308723,-0.0218657236546278
0.033046655356884,0.011290192604064941,-0.005257415119558573,-0.04821526259183884,0.003716717939823866,-0.022385766729712486
0.03348485007882118,0.012031207792460918,-0.005415397696197033,-0.04844164103269577,0.003673711558803916,-0.023014063015580177
0.03356499597430229,0.011612984351813793,-0.004920453764498234,-0.0489056259393692,0.003693889593705535,-0.023093553259968758
0.03334036096930504,0.011120104230940342,-0.004572643898427486,-0.04794643819332123,0.0036776489578187466,-0.02242659404873848
0.03367270529270172,0.011872225441038609,-0.00493424478918314,-0.04792655259370804,0.003603897988796234,-0.022178100422024727
0.03443460166454315,0.01176273450255394,-0.006099508609622717,-0.047863949090242386,0.003707035444676876,-0.02247443050146103
0.03439472243189812,0.011749939993023872,-0.005905001889914274,-0.04775654524564743,0.004242259543389082,-0.024048931896686554
0.034598398953676224,0.011745277792215347,-0.005416995380073786,-0.04812861979007721,0.004517034627497196,-0.021918267011642456
0.03455393388867378,0.01208025123924017,-0.005744068883359432,-0.047704290598630905,0.004123649559915066,-0.021918457001447678
0.034322332590818405,0.011614182963967323,-0.006119481287896633,-0.04694085940718651,0.003807973815128207,-0.022425521165132523
0.035106636583805084,0.0128164729103446,-0.0060223788022994995,-0.04876840114593506,0.003639830742031336,-0.022779110819101334
0.03491869941353798,0.011759443208575249,-0.005234923213720322,-0.04927155375480652,0.004055081866681576,-0.02261577732861042
0.0349879115819931,0.011440472677350044,-0.005261401180177927,-0.04713524878025055,0.0041343821212649345,-0.02282683178782463
