davideferrari95/blind_handover_controller/data/Test 176 - [2024-02-08 -- 11-20-12]/joint_states_data.csv
shoulder_pan_joint,shoulder_lift_joint,elbow_joint,wrist_1_joint,wrist_2_joint,wrist_3_joint
-0.008627844043076038,-0.013994790613651276,-0.0033613380510360003,0.01718089170753956,-0.0,-0.007502391003072262
-0.008627844043076038,-0.013994790613651276,-0.0033613380510360003,0.01718089170753956,-0.0,-0.007502391003072262
-0.008586689829826355,-0.013731407932937145,-0.0033193761482834816,0.01759239286184311,-0.0,-0.007834546267986298
-0.008586689829826355,-0.013731407932937145,-0.0033193761482834816,0.01759239286184311,-0.0,-0.007834546267986298
-0.00827572401612997,-0.014019805938005447,-0.0027311586309224367,0.017590945586562157,-0.0,-0.007816923782229424
-0.00893806479871273,-0.013944982551038265,-0.0023506791330873966,0.018749482929706573,-0.0,-0.00738623458892107
-0.008174671791493893,-0.013882702216506004,-0.0023737503215670586,0.017477883026003838,-0.0,-0.007752774748951197
-0.007698490284383297,-0.013804532587528229,-0.002952432259917259,0.016193371266126633,-0.0,-0.007459040731191635
-0.007386422250419855,-0.013678413815796375,-0.0030121849849820137,0.016538875177502632,-0.0,-0.007840925827622414
-0.007332896813750267,-0.013670735992491245,-0.0028374295216053724,0.016895486041903496,-0.0,-0.007895875722169876
-0.007237096782773733,-0.013881828635931015,-0.002650911221280694,0.015754032880067825,-0.0,-0.007170474622398615
-0.007096707355231047,-0.013630597852170467,-0.0027792551554739475,0.015988770872354507,-0.0,-0.006744919344782829
-0.007342245429754257,-0.014219491742551327,-0.003057554131373763,0.0158989280462265,-0.0,-0.006707929074764252
-0.007305015344172716,-0.013664687983691692,-0.003340433817356825,0.01591077260673046,-0.0,-0.0072789862751960754
-0.007084265351295471,-0.013963949866592884,-0.0031536330934613943,0.01629755087196827,-0.0,-0.0071263606660068035
-0.007159152999520302,-0.013377424329519272,-0.002817990258336067,0.01637306809425354,-0.0,-0.007403161376714706
-0.00782083161175251,-0.013779325410723686,-0.0029255158733576536,0.016574745997786522,-0.0,-0.007143695373088121
-0.007477370090782642,-0.013288021087646484,-0.0030323313549160957,0.015913100913167,-0.0,-0.007718247827142477
-0.007195448037236929,-0.013651502318680286,-0.0031647204887121916,0.016232190653681755,-0.0,-0.007841413840651512
-0.006808137521147728,-0.01343232300132513,-0.003305628662928939,0.0159669928252697,-0.0,-0.007618348114192486
-0.0073131779208779335,-0.01367797702550888,-0.0029827540274709463,0.0163000226020813,-0.0,-0.007484998553991318
-0.007264097221195698,-0.013197729364037514,-0.003086733864620328,0.015008642338216305,-0.0,-0.007571776397526264
-0.007136901840567589,-0.013550438918173313,-0.003102916292846203,0.01608939655125141,-0.0,-0.007538963109254837
-0.007138633634895086,-0.013202357105910778,-0.003263519611209631,0.016790082678198814,-0.0,-0.007649648934602737
-0.00745042460039258,-0.013172619044780731,-0.0031200044322758913,0.016099974513053894,-0.0,-0.007147548720240593
-0.007244965992867947,-0.013389285653829575,-0.0028715399093925953,0.01645701564848423,-0.0,-0.00719955749809742
-0.00697573646903038,-0.013369309715926647,-0.0031424835324287415,0.015838103368878365,-0.0,-0.007355630863457918
-0.007319588679820299,-0.013912554830312729,-0.0033584614284336567,0.016334010288119316,-0.0,-0.00740881497040391
-0.007885986939072609,-0.013202882371842861,-0.00319052510894835,0.016237331554293633,-0.0,-0.007943286560475826
-0.007136648055166006,-0.013872666284441948,-0.003015690017491579,0.016396602615714073,-0.0,-0.007879913784563541
-0.0074063800275325775,-0.013425261713564396,-0.002798992907628417,0.016327286139130592,-0.0,-0.007607695646584034
-0.0074063800275325775,-0.013425261713564396,-0.002798992907628417,0.016327286139130592,-0.0,-0.007607695646584034
-0.006730314344167709,-0.013874768279492855,-0.0030259040649980307,0.015879681333899498,-0.0,-0.007131706457585096
-0.007187324576079845,-0.013398462906479836,-0.003303790232166648,0.01641548052430153,-0.0,-0.007183190435171127
-0.0073709250427782536,-0.013558144681155682,-0.003155205398797989,0.01631714589893818,-0.0,-0.007511107716709375
-0.006759203504770994,-0.013853597454726696,-0.0029521319083869457,0.01685122400522232,-0.0,-0.007299972232431173
-0.006786726415157318,-0.01348987314850092,-0.0030153102707117796,0.016815779730677605,-0.0,-0.007280032150447369
-0.0070875114761292934,-0.013296172954142094,-0.0034138141199946404,0.01628910005092621,-0.0,-0.007856632582843304
-0.0070875114761292934,-0.013296172954142094,-0.0034138141199946404,0.01628910005092621,-0.0,-0.007856632582843304
-0.006847749929875135,-0.01348106563091278,-0.003329278901219368,0.01645467057824135,-0.0,-0.007924283854663372
-0.007249507587403059,-0.013816780410706997,-0.003386734053492546,0.015810059383511543,-0.0,-0.007206249982118607
-0.007588444277644157,-0.013638859614729881,-0.003210199996829033,0.016400868073105812,-0.0,-0.007150763180106878
-0.007697687484323978,-0.01390156615525484,-0.0034924878273159266,0.016123179346323013,-0.0,-0.007367180194705725
-0.006784460972994566,-0.013584449887275696,-0.0036587826907634735,0.01628701202571392,-0.0,-0.007992223836481571
-0.006989441346377134,-0.013640355318784714,-0.0037693853955715895,0.016060663387179375,-0.0,-0.007637022063136101
-0.007170368451625109,-0.013087352737784386,-0.0033527498599141836,0.01598188281059265,-0.0,-0.007358301896601915
-0.007075267378240824,-0.013869604095816612,-0.003327273763716221,0.01618822105228901,-0.0,-0.007249744608998299
-0.007096598856151104,-0.0131328534334898,-0.0034606633707880974,0.015767723321914673,-0.0,-0.007406080141663551
-0.00715493131428957,-0.01363218855112791,-0.003608523868024349,0.015986964106559753,-0.0,-0.007354185916483402
-0.007338656112551689,-0.01345314271748066,-0.003704456379637122,0.015500703826546669,-0.0,-0.0073324088007211685
-0.0069967457093298435,-0.013958250172436237,-0.003741385880857706,0.01623600348830223,-0.0,-0.007225775625556707
-0.006774528417736292,-0.013362474739551544,-0.0036862788256257772,0.015998320654034615,-0.0,-0.007279221434146166
-0.007110189646482468,-0.013618969358503819,-0.0034740613773465157,0.01601315662264824,-0.0,-0.006920344196259975
-0.007718586828559637,-0.013321795500814915,-0.003555396804586053,0.015808681026101112,-0.0,-0.0071372962556779385
-0.007016564253717661,-0.01337727252393961,-0.0038083726540207863,0.015977302566170692,-0.0,-0.007432261481881142
-0.006794903427362442,-0.013388716615736485,-0.003961183596402407,0.01644759066402912,-0.0,-0.007096296641975641
-0.0066688829101622105,-0.013692428357899189,-0.003489428199827671,0.015964172780513763,-0.0,-0.0068456856533885
-0.0066688829101622105,-0.013692428357899189,-0.003489428199827671,0.015964172780513763,-0.0,-0.0068456856533885
-0.006909654941409826,-0.013016656041145325,-0.0035610829945653677,0.016269633546471596,-0.0,-0.006624744739383459
-0.007193525321781635,-0.013037270866334438,-0.0037207964342087507,0.01600184291601181,-0.0,-0.006738285534083843
-0.00684582581743598,-0.013347094878554344,-0.004327873699367046,0.016322240233421326,-0.0,-0.007059179712086916
-0.006682054605334997,-0.01266490202397108,-0.0042432076297700405,0.01635308563709259,-0.0,-0.007428072392940521
-0.008004632778465748,-0.013342730700969696,-0.003543647238984704,0.016538221389055252,-0.0,-0.0065376535058021545
-0.006751661188900471,-0.013626111671328545,-0.0037489633541554213,0.016122641041874886,-0.0,-0.00644287932664156
-0.0060721798799932,-0.013159663416445255,-0.0041305795311927795,0.01647823676466942,-0.0,-0.006646620109677315
-0.007035217713564634,-0.014341712929308414,-0.004252314101904631,0.016485052183270454,-0.0,-0.006996226962655783
-0.006688554771244526,-0.012929996475577354,-0.004040536470711231,0.01646246574819088,-0.0,-0.006954140495508909
-0.006611439399421215,-0.012933596968650818,-0.003873809240758419,0.01612258143723011,-0.0,-0.0065091876313090324
-0.006900694686919451,-0.013502503745257854,-0.003760753897950053,0.016075441613793373,-0.0,-0.006513888482004404
-0.006895307917147875,-0.013441378250718117,-0.00375546095892787,0.01571423001587391,-0.0,-0.007054818794131279
-0.006875731982290745,-0.013515569269657135,-0.003986800089478493,0.015293443575501442,-0.0,-0.006960866507142782
-0.007442344445735216,-0.013145636767148972,-0.0037730857729911804,0.01579349860548973,-0.0,-0.006723606493324041
-0.006646590773016214,-0.013617984019219875,-0.003478642785921693,0.015744710341095924,-0.0,-0.0065425727516412735
-0.006428546737879515,-0.012811915948987007,-0.003617397276684642,0.016278011724352837,-0.0,-0.006755637004971504
-0.00666863564401865,-0.013333147391676903,-0.004175939597189426,0.0155976302921772,-0.0,-0.006867287214845419
-0.006740914657711983,-0.012744052335619926,-0.004465007688850164,0.015840206295251846,-0.0,-0.006968557368963957
-0.006475519854575396,-0.012942653149366379,-0.004030623938888311,0.015568438917398453,-0.0,-0.007066909223794937
-0.0066723753698170185,-0.012862266041338444,-0.003878936870023608,0.01622139662504196,-0.0,-0.007057997398078442
-0.006498036906123161,-0.013008744455873966,-0.00402048509567976,0.0166305061429739,-0.0,-0.006998598109930754
-0.006958377081900835,-0.013190330937504768,-0.004476659465581179,0.01658053509891033,-0.0,-0.007116619497537613
-0.0069515337236225605,-0.012952826917171478,-0.004404363688081503,0.01599515601992607,-2.146713995898608e-06,-0.007384335156530142
-0.006418515462428331,-0.013095484115183353,-0.0045478250831365585,0.015608693473041058,-1.4016509908287844e-07,-0.006804102566093206
-0.006521790754050016,-0.012715043500065804,-0.004242932423949242,0.01635143719613552,-9.151779778449054e-09,-0.0067197224125266075
-0.006725447718054056,-0.013201148249208927,-0.004167770966887474,0.01536565087735653,-5.97545735114835e-10,-0.006807110738009214
-0.006725447718054056,-0.013201148249208927,-0.004167770966887474,0.01536565087735653,-5.97545735114835e-10,-0.006807110738009214
-0.007314339280128479,-0.012902643531560898,-0.004054042510688305,0.015431356616318226,-3.901547140916506e-11,-0.00691963778808713
-0.006225894205272198,-0.012932371348142624,-0.004312423057854176,0.015413898043334484,-1.663290680317328e-13,-0.006443813908845186
-0.006359257735311985,-0.013017715886235237,-0.004688078071922064,0.01564555987715721,-1.0860099949048293e-14,-0.0066243610344827175
-0.0064283800311386585,-0.012820560485124588,-0.004493203014135361,0.015567664057016373,-4.6298304736217823e-17,-0.006615910213440657
-0.006379573605954647,-0.012853331863880157,-0.004030932206660509,0.015461740083992481,-3.0229480921872907e-18,-0.00647815503180027
-0.006197210401296616,-0.012870059348642826,-0.004077135119587183,0.015353446826338768,-1.9737692638251643e-19,-0.00667034974321723
-0.006539391819387674,-0.013341578654944897,-0.0041474453173577785,0.014869438484311104,-1.2887301883546412e-20,-0.0068426476791501045
-0.007209025789052248,-0.01270109973847866,-0.004353412892669439,0.015074885450303555,-8.414487208130984e-22,-0.006891354452818632
-0.006805059500038624,-0.013078931719064713,-0.004554907325655222,0.014813295565545559,-5.494059008646463e-23,-0.006843609269708395
-0.006277733016759157,-0.012868896126747131,-0.004680249840021133,0.015383160673081875,-3.587227426217673e-24,-0.006818517576903105
-0.0063630142249166965,-0.013147265650331974,-0.004628739319741726,0.015553309582173824,-2.342203215906213e-25,-0.007121073082089424
-0.007097352761775255,-0.012517894618213177,-0.004265171010047197,0.01608564518392086,-1.529291451614089e-26,-0.006712753791362047
-0.007067629601806402,-0.012952053919434547,-0.004400359466671944,0.015713132917881012,-9.985180241529952e-28,-0.00653280783444643
-0.006218493450433016,-0.01270503830164671,-0.004656950011849403,0.015348510816693306,-6.519609297637954e-29,-0.006681810133159161
-0.006345517933368683,-0.012768889777362347,-0.0047154207713902,0.015598832629621029,-4.2568385694124204e-30,-0.007046571001410484
-0.006066627334803343,-0.013153773732483387,-0.004316400270909071,0.01599215902388096,-2.7794112535362272e-31,-0.006977101322263479
-0.006102409679442644,-0.012594480067491531,-0.00500564044341445,0.01593019627034664,-1.8147569784110426e-32,-0.006648631300777197
-0.006102409679442644,-0.012594480067491531,-0.00500564044341445,0.01593019627034664,-1.8147569784110426e-32,-0.006648631300777197
-0.006634310819208622,-0.012406247667968273,-0.004303304944187403,0.0157068632543087,-7.736592982164918e-35,-0.006683049723505974
-0.005896522663533688,-0.013029026798903942,-0.0037690040189772844,0.015453972853720188,-5.051442317157297e-36,-0.006595962680876255
-0.006331589538604021,-0.012795126996934414,-0.003771513467654586,0.015583810396492481,-3.2982310387029732e-37,-0.006475856993347406
-0.006895055994391441,-0.012530173175036907,-0.004014037549495697,0.015062615275382996,-2.1535091741312894e-38,-0.0064786337316036224
-0.006561626214534044,-0.012353209778666496,-0.004063754808157682,0.014931677840650082,-1.4060881024758793e-39,-0.0067081511951982975
-0.006309713236987591,-0.012238344177603722,-0.0040070666000247,0.014515886083245277,-9.180747018870472e-41,-0.006843999028205872
-0.006057937163859606,-0.012472815811634064,-0.003956181462854147,0.015092199668288231,-5.994754830381567e-42,-0.006818433292210102
-0.006057937163859606,-0.012472815811634064,-0.003956181462854147,0.015092199668288231,-5.994754830381567e-42,-0.006818433292210102
-0.00589299900457263,-0.012087056413292885,-0.0038972445763647556,0.015026404522359371,-3.90962271546624e-43,-0.006472866050899029
-0.006605404429137707,-0.012536520138382912,-0.003439957508817315,0.01568181999027729,-2.5223372357846707e-44,-0.006321154069155455
-0.0063254451379179955,-0.012074214406311512,-0.003544967155903578,0.0156618133187294,-1.401298464324817e-45,-0.00659574382007122
-0.005908595398068428,-0.012677204795181751,-0.0037095057778060436,0.015283901244401932,-0.0,-0.006370855960994959
-0.005626673810184002,-0.01185542717576027,-0.0036986512131989002,0.015338758006691933,-0.0,-0.006098794285207987
-0.006042180582880974,-0.011947441846132278,-0.0036839887034147978,0.015596311539411545,-0.0,-0.006480776239186525
-0.00609492976218462,-0.011595075950026512,-0.004252556245774031,0.0158864576369524,-0.0,-0.006450238637626171
-0.005956907290965319,-0.011577743105590343,-0.004124639555811882,0.0161147303879261,-0.0,-0.0063109081238508224
-0.00605387007817626,-0.011723076924681664,-0.003500447142869234,0.015511040575802326,-0.0,-0.0064805299043655396
-0.005584070459008217,-0.01143657322973013,-0.0035957167856395245,0.015657346695661545,-0.0,-0.006098492536693811
-0.00595318665727973,-0.01188763976097107,-0.003846587846055627,0.014672349207103252,-0.0,-0.006580772344022989
-0.006327825132757425,-0.011499932035803795,-0.003915437962859869,0.014550261199474335,-0.0,-0.006728761363774538
-0.005892312619835138,-0.011803824454545975,-0.0038823073264211416,0.014247828163206577,-0.0,-0.006849948782473803
-0.0050493632443249226,-0.01109878346323967,-0.003898231079801917,0.015041891485452652,-0.0,-0.006473092827945948
-0.005375108681619167,-0.011115333996713161,-0.003566283732652664,0.014994286000728607,-0.0,-0.005727762822061777
-0.005618128459900618,-0.011884798295795918,-0.0035281472373753786,0.01558989379554987,-0.0,-0.006327856332063675
-0.005749636795371771,-0.011240596882998943,-0.0035887877456843853,0.015316677279770374,-0.0,-0.0062721543945372105
-0.006013430189341307,-0.011514642275869846,-0.004159023519605398,0.015066048130393028,-0.0,-0.006477580405771732
-0.005385471507906914,-0.011497189290821552,-0.003645116463303566,0.014569520950317383,-0.0,-0.006307089701294899
-0.005252421367913485,-0.010771920904517174,-0.0035340499598532915,0.014826311729848385,-0.0,-0.006397638004273176
-0.005485685542225838,-0.011998833157122135,-0.0035839960910379887,0.014676995575428009,-0.0,-0.006431268993765116
-0.005285830702632666,-0.011311664246022701,-0.004221590235829353,0.01563343033194542,-0.0,-0.006437426898628473
-0.005638778675347567,-0.010413252748548985,-0.004684859421104193,0.015176239423453808,-0.0,-0.006247676443308592
-0.005400360096246004,-0.011032129637897015,-0.004224457312375307,0.014874819666147232,-0.0,-0.0059561775997281075
-0.0052458858117461205,-0.010508215986192226,-0.003930124454200268,0.014844901859760284,-0.0,-0.006138686556369066
-0.005026846658438444,-0.010186165571212769,-0.003846388077363372,0.014773819595575333,-0.0,-0.0063011376187205315
-0.005026846658438444,-0.010186165571212769,-0.003846388077363372,0.014773819595575333,-0.0,-0.0063011376187205315
-0.00528324767947197,-0.010831757448613644,-0.004213633481413126,0.014019656926393509,-0.0,-0.006057943217456341
-0.0055366684682667255,-0.010039139539003372,-0.004282291978597641,0.013628000393509865,-0.0,-0.006127287168055773
-0.00520237535238266,-0.010462425649166107,-0.004109498113393784,0.0135256452485919,-0.0,-0.005746710579842329
-0.0051812962628901005,-0.01094015408307314,-0.003993302118033171,0.014276443980634212,-0.0,-0.005831493530422449
-0.005548351909965277,-0.01148522924631834,-0.003907537553459406,0.01523016020655632,-0.0,-0.006047021131962538
-0.005331861320883036,-0.010325338691473007,-0.003850271226838231,0.014717222191393375,-0.0,-0.006403130944818258
-0.0049877166748046875,-0.00991087593138218,-0.0038926973938941956,0.014485307037830353,-0.0,-0.005999333690851927
-0.005714247934520245,-0.010165725834667683,-0.0039386507123708725,0.014581740833818913,-0.0,-0.005935673601925373
-0.005345359910279512,-0.010274600237607956,-0.003514993702992797,0.014830955304205418,-0.0,-0.005628794897347689
-0.005437806714326143,-0.009701590985059738,-0.004116125404834747,0.014816137962043285,-0.0,-0.005930420011281967
-0.005187088157981634,-0.010061889886856079,-0.004122012760490179,0.014804563485085964,-0.0,-0.005968273151665926
-0.004901686683297157,-0.009925470687448978,-0.003953300416469574,0.014821775257587433,-0.0,-0.005579020828008652
-0.005198715720325708,-0.010504646226763725,-0.003850699169561267,0.014665767550468445,-0.0,-0.005604158155620098
-0.005186924245208502,-0.01005560252815485,-0.0038176369853317738,0.014661156572401524,-0.0,-0.005362417548894882
-0.005339368712157011,-0.009793337434530258,-0.0039042856078594923,0.014365540817379951,-0.0,-0.006106964312493801
-0.00510101905092597,-0.010132214054465294,-0.004075041972100735,0.013936564326286316,-0.0,-0.006287636235356331
-0.0048318346962332726,-0.010576392523944378,-0.003737320424988866,0.013690558262169361,-0.0,-0.005972790997475386
-0.0047009652480483055,-0.010925712063908577,-0.0038180616684257984,0.013778509572148323,-0.0,-0.005970809608697891
-0.004667282570153475,-0.01023897249251604,-0.004113255068659782,0.014177938923239708,-0.0,-0.005909639876335859
-0.004690463654696941,-0.010064569301903248,-0.004124329891055822,0.01397120114415884,0.00028518016915768385,-0.006104281637817621
-0.004713617730885744,-0.009811053052544594,-0.00400762353092432,0.014124056324362755,0.0002992275694850832,-0.005843484774231911
-0.004532059654593468,-0.010667125694453716,-0.003858793992549181,0.013585434295237064,0.0002825927804224193,-0.005685941781848669
-0.004524820484220982,-0.010191723704338074,-0.0038141170516610146,0.013333414681255817,0.00031552682048641145,-0.00543467840179801
-0.0046933488920331,-0.00959174707531929,-0.0038358699530363083,0.01301348116248846,0.0003011691733263433,-0.0057916524820029736
-0.0047233449295163155,-0.010185775347054005,-0.0038546386640518904,0.01340636145323515,0.0003086556098423898,-0.006285981275141239
-0.00455925427377224,-0.010901720263063908,-0.0038752611726522446,0.013341683894395828,0.0003147284151054919,-0.005947556812316179
-0.004828507546335459,-0.01072132121771574,-0.0038928387220948935,0.013725534081459045,0.0003010892542079091,-0.006200547330081463
-0.004675178788602352,-0.010851273313164711,-0.004322682972997427,0.013497446663677692,0.00028744086739607155,-0.006113577634096146
-0.004742713179439306,-0.010520019568502903,-0.004189713858067989,0.014063476584851742,0.00030892816721461713,-0.005683563183993101
-0.004742713179439306,-0.010520019568502903,-0.004189713858067989,0.014063476584851742,0.00030892816721461713,-0.005683563183993101
-0.004447407089173794,-0.010943897068500519,-0.0035946103744208813,0.013880609534680843,0.00030069236527197063,-0.005325131118297577
-0.004447593819350004,-0.011192441917955875,-0.00355346268042922,0.014281803742051125,0.0002889289753511548,-0.0051401276141405106
-0.004492852836847305,-0.010216428898274899,-0.004140445496886969,0.013849327340722084,0.0002777996414806694,-0.005636448971927166
-0.004520004149526358,-0.01085797417908907,-0.004028374329209328,0.01382549200206995,0.00030839181272313,-0.005653833504766226
-0.004672881215810776,-0.009933635592460632,-0.0039610243402421474,0.014447999186813831,0.0002891169860959053,-0.0054949382320046425
-0.004328472074121237,-0.010363508015871048,-0.004252597223967314,0.013734888285398483,0.00027168888482265174,-0.005898228846490383
-0.003964562434703112,-0.010378044098615646,-0.004081212915480137,0.013518777675926685,0.00028117926558479667,-0.005685336887836456
-0.0037871049717068672,-0.010912196710705757,-0.00369972363114357,0.012756955809891224,0.0002891732146963477,-0.005526481196284294
-0.0039284853264689445,-0.01059393584728241,-0.0035168116446584463,0.012753238901495934,0.0002759032940957695,-0.005406312644481659
-0.0038683528546243906,-0.010590326972305775,-0.0036123718600720167,0.013075771741569042,0.0003033374377992004,-0.005828744266182184
-0.0037738042883574963,-0.01069842092692852,-0.003752868389710784,0.01273287646472454,0.00031233401386998594,-0.005556265823543072
-0.003702170681208372,-0.010522115044295788,-0.003848803462460637,0.013250157237052917,0.00031767276232130826,-0.005451763980090618
-0.0037445900961756706,-0.01013137772679329,-0.004493020474910736,0.012974941171705723,0.00040579342748969793,-0.005051820073276758
-0.003821076825261116,-0.0103858457878232,-0.004291429650038481,0.01324579305946827,0.00045810139272361994,-0.005067481659352779
-0.003693145699799061,-0.010811787098646164,-0.004525264725089073,0.013092847540974617,0.00046204074169509113,-0.005590781569480896
-0.0035371347330510616,-0.010444645769894123,-0.004188754595816135,0.013501596637070179,0.000460150302387774,-0.005305226426571608
-0.0035285530611872673,-0.010050502605736256,-0.0035132295452058315,0.013225761242210865,0.0004880049964413047,-0.005112607963383198
-0.003646549303084612,-0.010493354871869087,-0.003591274842619896,0.013054349459707737,0.0006120571051724255,-0.004920032806694508
-0.0037571366410702467,-0.009688991121947765,-0.0044092643074691296,0.012783919461071491,0.000662876118440181,-0.004851568024605513
-0.0037715337239205837,-0.010231652297079563,-0.00459383986890316,0.012897009029984474,0.000686268846038729,-0.004947143606841564
-0.0037857459392398596,-0.010112197138369083,-0.004400665406137705,0.013473952189087868,0.0006213653832674026,-0.005067307967692614
-0.0038413635920733213,-0.009606444276869297,-0.004042753018438816,0.013076728209853172,0.0005579895223490894,-0.00502390181645751
-0.0037890267558395863,-0.009847904555499554,-0.003961061127483845,0.013206951320171356,0.0005057186936028302,-0.005087643396109343
-0.003851113608106971,-0.00904309656471014,-0.0041739786975085735,0.012629576027393341,0.000518853950779885,-0.00498519791290164
-0.003434931393712759,-0.009638047777116299,-0.004160362295806408,0.013217064552009106,0.0004955052281729877,-0.004755573812872171
-0.003434931393712759,-0.009638047777116299,-0.004160362295806408,0.013217064552009106,0.0004955052281729877,-0.004755573812872171
-0.0031183811370283365,-0.010364165529608727,-0.0038782041519880295,0.012891827151179314,0.00046041252790018916,-0.004735743161290884
-0.0033921555150300264,-0.009761050343513489,-0.0042565613985061646,0.013121564872562885,0.000429108360549435,-0.0051726833917200565
-0.0031283111311495304,-0.008879837580025196,-0.004572693258523941,0.013033313676714897,0.00044397663441486657,-0.004794851876795292
-0.0032390044070780277,-0.009494352154433727,-0.004250228870660067,0.01288643665611744,0.0004306009504944086,-0.004960108082741499
-0.003276786068454385,-0.009500524029135704,-0.004411503206938505,0.012890744023025036,0.00040710781468078494,-0.00497986888512969
-0.0031376942060887814,-0.009286805987358093,-0.004143753554672003,0.01207020040601492,0.00036398007068783045,-0.004890550393611193
-0.003205125918611884,-0.009485872462391853,-0.0038771003019064665,0.01209772378206253,0.0003401712456252426,-0.004992370028048754
-0.002846461022272706,-0.008639114908874035,-0.004049668088555336,0.01165460329502821,0.0003327274462208152,-0.004802258685231209
-0.0026292032562196255,-0.008385847322642803,-0.0041457549668848515,0.011460525915026665,0.0003629944403655827,-0.004739089868962765
-0.0024080099537968636,-0.008929036557674408,-0.004418497439473867,0.011376901529729366,0.0003923557233065367,-0.005081572104245424
-0.002570980926975608,-0.008707312867045403,-0.004027759190648794,0.012382366694509983,0.0006248602876439691,-0.004963936284184456
-0.00277300039306283,-0.008870680816471577,-0.004143711179494858,0.012037046253681183,0.0006802256102673709,-0.004663894884288311
-0.002455714624375105,-0.008890333585441113,-0.004539034329354763,0.01200744230300188,0.0006723058177158237,-0.005270771682262421
-0.002455714624375105,-0.008890333585441113,-0.004539034329354763,0.01200744230300188,0.0006723058177158237,-0.005270771682262421
-0.0024329943116754293,-0.008463285863399506,-0.004121583420783281,0.011761525645852089,0.0006605304661206901,-0.004822902847081423
-0.002723035868257284,-0.008533196523785591,-0.004175448790192604,0.012254842557013035,0.0006408904446288943,-0.004698163364082575
-0.0026199687272310257,-0.008598234504461288,-0.004525069613009691,0.011652420274913311,0.0006774201174266636,-0.004825189709663391
-0.0027494849637150764,-0.00863669440150261,-0.004256829619407654,0.01161395013332367,0.0006753852358087897,-0.004769953899085522
-0.0026469267904758453,-0.008455277420580387,-0.0044488562270998955,0.011282404884696007,0.0006484347977675498,-0.004531238228082657
-0.0025519842747598886,-0.008381403051316738,-0.004160218872129917,0.011769771575927734,0.0006654184544458985,-0.004960292484611273
-0.002487410791218281,-0.008756152354180813,-0.004380411934107542,0.012168695218861103,0.0006762759294360876,-0.005019818898290396
-0.0024981226306408644,-0.008475679904222488,-0.004120617173612118,0.011889410205185413,0.0007646526210010052,-0.004944001790136099
-0.0023620130959898233,-0.007968532852828503,-0.004240372218191624,0.011828899383544922,0.0007613883935846388,-0.0047567845322191715
-0.0024672604631632566,-0.008193776942789555,-0.004619213752448559,0.01132736075669527,0.0007785551133565605,-0.004955647978931665
-0.0026444783434271812,-0.0079636937007308,-0.004198512993752956,0.011539296247065067,0.0007419007015414536,-0.004957614466547966
-0.002437305636703968,-0.007408712059259415,-0.004390578251332045,0.011060993187129498,0.0007552236202172935,-0.0044654193334281445
-0.002253585960716009,-0.007630436681210995,-0.004820754751563072,0.010877806693315506,0.0008024812559597194,-0.004264302086085081
-0.0021851412020623684,-0.008313153870403767,-0.004358939826488495,0.012221546843647957,0.0008405350963585079,-0.0041137333028018475
-0.0022475540172308683,-0.007784843444824219,-0.004146315157413483,0.011475632898509502,0.000850237556733191,-0.004436809103935957
-0.0021338844671845436,-0.007767961360514164,-0.004055495839565992,0.011311670765280724,0.0008421813836321235,-0.0046696835197508335
-0.0020871711894869804,-0.007817861624062061,-0.004374673590064049,0.011599081568419933,0.0008834716281853616,-0.00428393529728055
-0.0019849890377372503,-0.007652624975889921,-0.004553987178951502,0.010931133292615414,0.0009094789274968207,-0.004400075878947973
-0.002151967491954565,-0.007382147945463657,-0.004096694756299257,0.011216769926249981,0.0009097029105760157,-0.0041482411324977875
-0.002151967491954565,-0.007382147945463657,-0.004096694756299257,0.011216769926249981,0.0009097029105760157,-0.0041482411324977875
-0.0018931576050817966,-0.008114009164273739,-0.004150488413870335,0.010989201255142689,0.0008609587093815207,-0.00412262137979269
-0.001798981218598783,-0.007875108160078526,-0.0041728271171450615,0.011875145137310028,0.0009616707684472203,-0.004455892834812403
-0.0018310087034478784,-0.007036158349364996,-0.0046350001357495785,0.010329375974833965,0.0009579216130077839,-0.004527993034571409
-0.0018369901226833463,-0.007176251150667667,-0.004805456846952438,0.010427404195070267,0.0009820930426940322,-0.004396028351038694
-0.001891275984235108,-0.00807220209389925,-0.004335624165832996,0.010870267637073994,0.0010781008750200272,-0.004100716207176447
-0.0018759933300316334,-0.007938443683087826,-0.004416700452566147,0.01067558117210865,0.0010871783597394824,-0.004191414453089237
-0.0018479573773220181,-0.006961471866816282,-0.004152091685682535,0.011253364384174347,0.0010686797322705388,-0.004301487468183041
-0.0016840886091813445,-0.007355584762990475,-0.004347646608948708,0.01102580688893795,0.0010465034283697605,-0.004060391336679459
-0.0016804945189505816,-0.00688948854804039,-0.00449671596288681,0.011021600104868412,0.0010266355238854885,-0.0040790424682199955
-0.0016534766182303429,-0.007226714864373207,-0.004593700636178255,0.010065541602671146,0.0010031715501099825,-0.004071939270943403
-0.001806663698516786,-0.007105312775820494,-0.004329673945903778,0.011434026062488556,0.000986543484032154,-0.003955112770199776
-0.0018278557108715177,-0.006961760111153126,-0.0044902656227350235,0.01191239058971405,0.0009661161457188427,-0.0038340433966368437
-0.001966266892850399,-0.006897869519889355,-0.004414021503180265,0.011335893534123898,0.0009146779775619507,-0.0038335376884788275
-0.00176367221865803,-0.007327721919864416,-0.004330942407250404,0.01099723856896162,0.0009146329830400646,-0.004314005840569735
-0.001589359948411584,-0.007143823429942131,-0.0048842886462807655,0.011027935892343521,0.0009217687766067684,-0.0040800003334879875
-0.0014513293281197548,-0.006982752587646246,-0.004981508478522301,0.010927014984190464,0.0009216334437951446,-0.003897004760801792
-0.001394215738400817,-0.007400669623166323,-0.004556993022561073,0.011118187569081783,0.0011538360267877579,-0.003804662963375449
-0.001483419444411993,-0.007627176586538553,-0.004380233120173216,0.01057000458240509,0.0011448453878983855,-0.0037221647799015045
-0.0014172958908602595,-0.007563153747469187,-0.004491066560149193,0.010368500836193562,0.0011087481398135424,-0.004179822281002998
-0.001436042133718729,-0.007058388087898493,-0.004708414431661367,0.010441938415169716,0.0012597364839166403,-0.0041151284240186214
-0.0012708986178040504,-0.006543581839650869,-0.004356715828180313,0.010571987368166447,0.0012604331132024527,-0.0035960001405328512
-0.0012708986178040504,-0.006543581839650869,-0.004356715828180313,0.010571987368166447,0.0012604331132024527,-0.0035960001405328512
-0.0011656350689008832,-0.006896459963172674,-0.004429410677403212,0.01068323664367199,0.0011947269085794687,-0.00415437575429678
-0.0011656350689008832,-0.006896459963172674,-0.004429410677403212,0.01068323664367199,0.0011947269085794687,-0.00415437575429678
-0.0010095847537741065,-0.006331977900117636,-0.004828533623367548,0.010386710986495018,0.0012488580541685224,-0.003977181855589151
-0.0010095847537741065,-0.006331977900117636,-0.004828533623367548,0.010386710986495018,0.0012488580541685224,-0.003977181855589151
-0.0008886614814400673,-0.0066507188603281975,-0.004471024498343468,0.010564768686890602,0.0013418170856311917,-0.0034477580338716507
-0.0007652711356058717,-0.006638391874730587,-0.004260660149157047,0.01005053985863924,0.0013005597284063697,-0.0030325930565595627
-0.0007776658749207854,-0.007243392989039421,-0.004444788210093975,0.010638536885380745,0.0014137494144961238,-0.003177047474309802
-0.0007605734281241894,-0.007079009432345629,-0.0049371556378901005,0.010245229117572308,0.0013425416545942426,-0.0035518608056008816
-0.0007158027729019523,-0.00657639279961586,-0.004451868124306202,0.01052009779959917,0.0012766674626618624,-0.0038377789314836264
-0.0006751216133125126,-0.006920309271663427,-0.004392220173031092,0.010196262039244175,0.001136748236604035,-0.003699051681905985
-0.000591362186241895,-0.006600854452699423,-0.004339795093983412,0.009720505215227604,0.001175915589556098,-0.0034918985329568386
-0.000614358636084944,-0.006840153131633997,-0.004571790341287851,0.009532670490443707,0.001134974299930036,-0.00321705499663949
-0.000561740598641336,-0.006735955830663443,-0.005073413252830505,0.00966673158109188,0.0010426482185721397,-0.0030351290479302406
-0.0005089280311949551,-0.006191763561218977,-0.004518034402281046,0.009309009648859501,0.0009626531973481178,-0.0030492497608065605
-0.0004650802875403315,-0.006218804512172937,-0.004585286136716604,0.00887115765362978,0.0009477334679104388,-0.003231040434911847
-0.0004747715429402888,-0.006542726885527372,-0.004536129999905825,0.009432229213416576,0.0009400546550750732,-0.003376287641003728
-0.0004625113506335765,-0.006533958949148655,-0.004632571712136269,0.009069066494703293,0.0009265828412026167,-0.003193511860445142
-0.0004311564262025058,-0.006910720840096474,-0.004219620954245329,0.008881590329110622,0.0009035434923134744,-0.003399481298401952
-0.00040354023803956807,-0.0065684146247804165,-0.004454303532838821,0.009151076897978783,0.0009106498910114169,-0.0032420139759778976
-0.00037924302159808576,-0.006285099312663078,-0.004651822615414858,0.009387457743287086,0.0009095533168874681,-0.0035255374386906624
-0.0003577062161639333,-0.006478590425103903,-0.005223282612860203,0.008822738192975521,0.0009088358492590487,-0.0037358372937887907
-0.00038108398439362645,-0.006735850591212511,-0.004875588696449995,0.009299133904278278,0.0011339386692270637,-0.0033537880517542362
-0.0003670376318041235,-0.006677217315882444,-0.004305871203541756,0.009413318708539009,0.0011065161088481545,-0.003096706233918667
-0.0003493021649774164,-0.006601307541131973,-0.004479529801756144,0.009054391644895077,0.0011044172570109367,-0.0026963730342686176
-0.00033313906169496477,-0.006072097923606634,-0.004581219516694546,0.009061277844011784,0.001380477799102664,-0.0026540260296314955
-0.0003184064698871225,-0.00618851650506258,-0.004805494099855423,0.009718043729662895,0.0013144391123205423,-0.0028439818415790796
-0.0003049212391488254,-0.006701073609292507,-0.004788716323673725,0.008904403075575829,0.00124377163592726,-0.0031343610025942326
-0.00029253173852339387,-0.006371402647346258,-0.004954828880727291,0.009813310578465462,0.001123415189795196,-0.0033909466583281755
-0.00028110959101468325,-0.005931748077273369,-0.0046601928770542145,0.009736496023833752,0.0010587576543912292,-0.0036285449750721455
-0.00028110959101468325,-0.005931748077273369,-0.0046601928770542145,0.009736496023833752,0.0010587576543912292,-0.0036285449750721455
-0.0002607488422654569,-0.006432718131691217,-0.004421605262905359,0.008779392577707767,0.0009089385275729001,-0.0030123363249003887
-0.0002607488422654569,-0.006432718131691217,-0.004421605262905359,0.008779392577707767,0.0009089385275729001,-0.0030123363249003887
-0.000251635821769014,-0.006532575935125351,-0.004798399284482002,0.009242233820259571,0.000907164707314223,-0.0025993715971708298
-0.00024313763424288481,-0.006452266592532396,-0.004856081213802099,0.00862219650298357,0.0009270001901313663,-0.0023513450287282467
-0.000227755619562231,-0.005899017211049795,-0.00483522517606616,0.009182785637676716,0.000976770301349461,-0.0027523660100996494
-0.00020263888291083276,-0.006233680993318558,-0.004740293137729168,0.00876121036708355,0.0013521778164431453,-0.0031258868984878063
-0.00018755512428469956,-0.006576259154826403,-0.00446176715195179,0.008654692210257053,0.001411530887708068,-0.0031091966666281223
-0.0001820149482227862,-0.00650985399261117,-0.0045039234682917595,0.008729763329029083,0.0014034875202924013,-0.00280890055000782
-5.4703166824765503e-05,-0.005818380042910576,-0.0044400873593986034,0.009031835943460464,0.0015146909281611443,-0.0026293497066944838
-7.339128842431819e-07,-0.006279245484620333,-0.004531214013695717,0.008955146186053753,0.001401941990479827,-0.002740092808380723
-9.846377935218698e-09,-0.0066993143409490585,-0.004764383193105459,0.008516146801412106,0.0012536386493593454,-0.0029191963840276003
-1.3210171845301488e-10,-0.006290297023952007,-0.00500790448859334,0.008863173425197601,0.0010697075631469488,-0.002624248154461384
-1.7723130905575313e-12,-0.006306871771812439,-0.004776091780513525,0.008637424558401108,0.0010171018075197935,-0.0025985424872487783
-2.377784113268694e-14,-0.00557250902056694,-0.004868561867624521,0.007952816784381866,0.0009775669313967228,-0.0020894736517220736
-3.1901007799050663e-16,-0.006143983453512192,-0.004370395559817553,0.008577024564146996,0.0009817647514864802,-0.0019399594748392701
-4.279927615119809e-18,-0.006419503595679998,-0.004337765742093325,0.008851219899952412,0.0010003559291362762,-0.0018285689875483513
-5.742068738727762e-20,-0.006404616869986057,-0.004750888794660568,0.008532547391951084,0.001029198756441474,-0.0018518405267968774
-7.703718231381569e-22,-0.006237776950001717,-0.005159473046660423,0.008736364543437958,0.0010391046525910497,-0.0021664900705218315
-1.0335521473851809e-23,-0.0065109399147331715,-0.004595944657921791,0.008593937382102013,0.0016853573033586144,-0.002324718050658703
-1.38664219634616e-25,-0.006958935409784317,-0.0044099693186581135,0.008268986828625202,0.0015858234837651253,-0.002695533912628889
-1.8603574223846948e-27,-0.006451438181102276,-0.004581163637340069,0.00816154945641756,0.0014646259369328618,-0.0024843248538672924
-2.4959069554060385e-29,-0.006483850535005331,-0.004864400718361139,0.008735611103475094,0.0013693434884771705,-0.00236096722073853
-3.3485780950405336e-31,-0.005654871929436922,-0.004930988419800997,0.008144346065819263,0.0012732319300994277,-0.002380160614848137
-4.492544717590928e-33,-0.005713515914976597,-0.005119025241583586,0.0075889090076088905,0.0011502918787300587,-0.0025746903847903013
-6.027322029079836e-35,-0.00665902579203248,-0.004854396916925907,0.008011536672711372,0.001047219499014318,-0.0026438531931489706
0.0002714499132707715,-0.006913361139595509,-0.004707117099314928,0.008455761708319187,0.0010238487739115953,-0.0028895733412355185
0.000269687530817464,-0.006597176194190979,-0.004746738821268082,0.008327708579599857,0.0008183257305063307,-0.002663471270352602
0.0002546216419432312,-0.006043930072337389,-0.0049160318449139595,0.0077207027934491634,0.0008777662296779454,-0.0024790745228528976
0.00028344435850158334,-0.006218623369932175,-0.0052992841228842735,0.008192305453121662,0.000913611613214016,-0.0023025893606245518
0.00027440543635748327,-0.006269857287406921,-0.005061176605522633,0.008648419752717018,0.0013401292962953448,-0.002006243448704481
0.00029065393027849495,-0.006540464237332344,-0.005057001486420631,0.008120624348521233,0.0015415947418659925,-0.0018793445779010653
0.00029065393027849495,-0.006540464237332344,-0.005057001486420631,0.008120624348521233,0.0015415947418659925,-0.0018793445779010653
0.0003169932751916349,-0.006467647850513458,-0.0049491701647639275,0.00833196472376585,0.0015760234091430902,-0.002152815693989396
0.00046762675628997386,-0.006155597511678934,-0.004974506329745054,0.007863480597734451,0.0014919738750904799,-0.0023102888371795416
0.0005601455923169851,-0.006462587509304285,-0.004807446151971817,0.007778448052704334,0.0013114337343722582,-0.0022773800883442163
0.0005363667733035982,-0.006916110869497061,-0.005027640610933304,0.00782823283225298,0.001340591930784285,-0.002243299037218094
0.0005684574716724455,-0.006065190304070711,-0.005168472416698933,0.008006458170711994,0.0013303197920322418,-0.0021335005294531584
0.0005938863614574075,-0.005957400426268578,-0.004729199688881636,0.007559369318187237,0.0015419296687468886,-0.0020211844239383936
0.0007327842176891863,-0.006285018753260374,-0.0045879618264734745,0.007174396421760321,0.0015586097724735737,-0.0019667930901050568
0.0007077723275870085,-0.006159674841910601,-0.004582284018397331,0.007116428576409817,0.0017442194512113929,-0.001904845586977899
0.0007331622764468193,-0.006349517032504082,-0.005094971973448992,0.007739007007330656,0.0018114353297278285,-0.0018833862850442529
0.0007500708452425897,-0.006304615642875433,-0.005503310356289148,0.007699147332459688,0.0016655977815389633,-0.0018723414978012443
0.0007660631090402603,-0.005962264258414507,-0.004909333772957325,0.007122738752514124,0.0016540359938517213,-0.0018633123254403472
0.0008522127754986286,-0.00635067094117403,-0.004564695991575718,0.007252474781125784,0.0015624897787347436,-0.0017769273836165667
0.0008758969488553703,-0.006656090263277292,-0.00468525430187583,0.007441279944032431,0.0013550181174650788,-0.0016293029766529799
0.00087947235442698,-0.006280991248786449,-0.005131207872182131,0.007090996950864792,0.0012402620632201433,-0.0015490060904994607
0.0008819702779874206,-0.006190865766257048,-0.005451673176139593,0.0068155620247125626,0.0012785681756213307,-0.0016021421179175377
0.0009705082047730684,-0.005647714715451002,-0.0051937950775027275,0.00695372698828578,0.0014970193151384592,-0.001526460750028491
0.0010866859229281545,-0.005854505114257336,-0.004883353598415852,0.007273253984749317,0.001616979599930346,-0.0016154575860127807
0.0010915275197476149,-0.006469940301030874,-0.005127152428030968,0.007631394546478987,0.0018605159129947424,-0.0016644656425341964
0.0011593668023124337,-0.006504191551357508,-0.004704066552221775,0.007199738174676895,0.0019166681449860334,-0.001628968631848693
0.0011878743534907699,-0.005881269462406635,-0.00499341357499361,0.006711786147207022,0.001961694099009037,-0.001674933941103518
0.0011365695390850306,-0.005798812955617905,-0.005346558056771755,0.007375873625278473,0.0018278192728757858,-0.0015569465467706323
0.0011001063976436853,-0.005865887273102999,-0.005257538054138422,0.008096220903098583,0.0016952470177784562,-0.0015418570255860686
0.0011578694684430957,-0.005934447515755892,-0.0048065828159451485,0.0076955887489020824,0.0016456488519906998,-0.001543992548249662
0.0012823597062379122,-0.005915897898375988,-0.005050400272011757,0.006938318721950054,0.0015543141635134816,-0.001504394575022161
0.0023132232017815113,-0.005371577572077513,-0.005055001471191645,0.007342484313994646,0.0015603973297402263,-0.0015147366793826222
0.0023132232017815113,-0.005371577572077513,-0.005055001471191645,0.007342484313994646,0.0015603973297402263,-0.0015147366793826222
0.002732126973569393,-0.005763993598520756,-0.005190690513700247,0.007002423517405987,0.0015621117781847715,-0.0013094485038891435
0.0020997447427362204,-0.005475846119225025,-0.0053468383848667145,0.00682548014447093,0.0016318816924467683,-0.0012268462451174855
0.0019495493033900857,-0.005769789684563875,-0.005530973896384239,0.007033732254058123,0.0015357006341218948,-0.0011428543366491795
0.0017765219090506434,-0.005530156660825014,-0.005333299282938242,0.007132518570870161,0.001371899270452559,-0.0011026430875062943
0.0018603227799758315,-0.005616248119622469,-0.005310636479407549,0.007091248407959938,0.0013818360166624188,-0.0010244959266856313
0.0028030849061906338,-0.005247620865702629,-0.005094574764370918,0.007100118324160576,0.0013794738333672285,-0.0010926342802122235
0.0032257360871881247,-0.005380970425903797,-0.005758676677942276,0.007097979541867971,0.001640115980990231,-0.0011282882187515497
0.002694572787731886,-0.005489659961313009,-0.005389771889895201,0.006967759225517511,0.0019010748947039247,-0.0014768216060474515
0.0025113895535469055,-0.005223244894295931,-0.0050709908828139305,0.007152386009693146,0.0022543573286384344,-0.0015109998639672995
0.0026360643096268177,-0.005171542521566153,-0.005609230604022741,0.006589878350496292,0.002202889183536172,-0.0013298315461724997
0.0032667757477611303,-0.005112093407660723,-0.005330822430551052,0.0066515738144516945,0.0021149725653231144,-0.0011697645531967282
0.003688165219500661,-0.004811569582670927,-0.005371733568608761,0.007143505848944187,0.0018155962461605668,-0.0011002080282196403
0.00337768392637372,-0.0048403069376945496,-0.005275990813970566,0.006884462665766478,0.001770541537553072,-0.0009319068631157279
0.003610256826505065,-0.005169913172721863,-0.005859063472598791,0.006717925425618887,0.0017146883765235543,-0.0009088899241760373
0.0033747858833521605,-0.005115980748087168,-0.0054403250105679035,0.0066650933586061,0.00169650511816144,-0.0008626497583463788
0.0035163508728146553,-0.004723839461803436,-0.00574156129732728,0.006773094180971384,0.0016215675277635455,-0.0008148980559781194
0.0036824962589889765,-0.004579943139106035,-0.005354177672415972,0.006608233787119389,0.0016776086995378137,-0.0006853729137219489
0.004298700951039791,-0.004657168406993151,-0.00556167820468545,0.006388145033270121,0.0017205006442964077,-0.0005847062566317618
0.0041097309440374374,-0.0047469851560890675,-0.005806304980069399,0.0060308570973575115,0.0017459002556279302,-0.0006123535567894578
0.003951939754188061,-0.004974385257810354,-0.0059218257665634155,0.00627193134278059,0.001787964254617691,-0.0006231754668988287
0.004266782663762569,-0.004900714382529259,-0.005390032194554806,0.006548029836267233,0.0018666534451767802,-0.0005863475380465388
0.00442993501201272,-0.004749347921460867,-0.004805578850209713,0.006107627879828215,0.0018899304559454322,-0.0005939644179306924
0.004346021451056004,-0.004618218168616295,-0.005414350423961878,0.006256278604269028,0.0017319383332505822,-0.0005648579099215567
0.004410124383866787,-0.004580657463520765,-0.005886042024940252,0.005965425167232752,0.0017961488338187337,-0.0005280640325509012
0.0046713086776435375,-0.004584089387208223,-0.0061567616648972034,0.0058370912447571754,0.0017767833778634667,-0.0005296414019539952
0.0046713086776435375,-0.004584089387208223,-0.0061567616648972034,0.0058370912447571754,0.0017767833778634667,-0.0005296414019539952
0.004995265975594521,-0.004092410206794739,-0.00543748727068305,0.00591717753559351,0.0018808189779520035,-0.00047755753621459007
0.005123815964907408,-0.0037948498502373695,-0.005335846915841103,0.0054979282431304455,0.0022139735519886017,-0.0004951279843226075
0.004906400106847286,-0.003983945120126009,-0.0064430804923176765,0.005728420801460743,0.002068185480311513,-0.00043468037620186806
0.005468267016112804,-0.0038963533006608486,-0.006068072747439146,0.005773107521235943,0.002068271627649665,-0.0004646754823625088
0.005335359368473291,-0.004274550825357437,-0.005760294385254383,0.005635533016175032,0.002020045183598995,-0.0004365319909993559
0.0061041852459311485,-0.0036402028053998947,-0.006128053180873394,0.005582574754953384,0.001910212798975408,-0.00040847956552170217
0.005649952217936516,-0.0035443513188511133,-0.005768471863120794,0.005355375818908215,0.0016805396880954504,-0.0003836104879155755
0.006397181190550327,-0.004195914603769779,-0.0064683882519602776,0.005411941092461348,0.0016251890920102596,-0.00036158470902591944
0.0061627537943422794,-0.004021847154945135,-0.005841278005391359,0.00548737496137619,0.0015386631712317467,-0.000384221610147506
0.00591602548956871,-0.0038069209549576044,-0.0059425984509289265,0.005487693008035421,0.0014825108228251338,-0.00037024414632469416
0.0068362061865627766,-0.0037367278710007668,-0.005730403587222099,0.005178735591471195,0.0015524784103035927,-0.00035249124630354345
0.006975981406867504,-0.003917185589671135,-0.005820360966026783,0.004883322864770889,0.0018484194297343493,-0.0003360589616931975
0.006504756864160299,-0.0041140178218483925,-0.006342843174934387,0.005074647255241871,0.0019220700487494469,-0.0003210703725926578
0.006517888978123665,-0.004064752720296383,-0.006323476787656546,0.005005293525755405,0.0020152083598077297,-0.00030736130429431796
0.006648130714893341,-0.003469440620392561,-0.005948849953711033,0.005146282259374857,0.0020067074801772833,-0.0002947747416328639
0.006702296901494265,-0.003393904073163867,-0.005458411760628223,0.005557436030358076,0.001987917348742485,-0.00025512525462545455
0.007170006167143583,-0.0035072050523012877,-0.005712144076824188,0.005797625984996557,0.001804811181500554,-0.00023819642956368625
0.007413317449390888,-0.003594453912228346,-0.00657466659322381,0.005625065416097641,0.0017273148987442255,-0.00022600508236791939
0.006846165284514427,-0.0034891683608293533,-0.006208292208611965,0.005057814531028271,0.001701037515886128,-0.0002151801745640114
0.008034985512495041,-0.003165235510095954,-0.005739145912230015,0.004797830246388912,0.0016254367073997855,-0.00020535709336400032
0.008034985512495041,-0.003165235510095954,-0.005739145912230015,0.004797830246388912,0.0016254367073997855,-0.00020535709336400032
0.00791146419942379,-0.003435460850596428,-0.005225067026913166,0.005141072440892458,0.0016975170001387596,-0.00019639208039734513
0.00713074067607522,-0.003627237631008029,-0.005752356257289648,0.005479285027831793,0.0017243382753804326,-0.00021599046885967255
0.007501811254769564,-0.0036489018239080906,-0.00626369146630168,0.0046915337443351746,0.0016446925001218915,-0.00020833995949942619
0.007501811254769564,-0.0036489018239080906,-0.00626369146630168,0.0046915337443351746,0.0016446925001218915,-0.00020833995949942619
0.008082342334091663,-0.0032257242128252983,-0.005758742336183786,0.00443632248789072,0.0016007230151444674,-0.0001934492029249668
0.007731902878731489,-0.0031620925292372704,-0.00621322775259614,0.004358693491667509,0.0015254702884703875,-0.000186758057679981
0.007731902878731489,-0.0031620925292372704,-0.00621322775259614,0.004358693491667509,0.0015254702884703875,-0.000186758057679981
0.007975843735039234,-0.0034275345969945192,-0.005980116315186024,0.004863215610384941,0.0016454177675768733,-0.00017467439465690404
0.007775016129016876,-0.0036345149856060743,-0.00546306511387229,0.004796743858605623,0.0018595204455778003,-0.0001692006189841777
0.008089292794466019,-0.0034340701531618834,-0.006403312087059021,0.004352156538516283,0.0019146056147292256,-0.0001640597911318764
0.00885652843862772,-0.003146184841170907,-0.00597630999982357,0.004253605846315622,0.002026886446401477,-0.00015922174497973174
0.008106177672743797,-0.0032568981405347586,-0.005928111728280783,0.004047046415507793,0.002018319210037589,-0.00015466107288375497
0.008202305063605309,-0.003657991997897625,-0.005574596580117941,0.004448112100362778,0.0019816181156784296,-0.0001503544335719198
0.008936402387917042,-0.002991544781252742,-0.005621832329779863,0.005007370840758085,0.0019526189425960183,-0.00014628125063609332
0.008648979477584362,-0.002224205294623971,-0.006054443772882223,0.004620537161827087,0.0019425651989877224,-0.00014242286852095276
0.008395226672291756,-0.0011524352012202144,-0.005784319248050451,0.004076449666172266,0.0019259083783254027,-0.00013876284356229007
0.008911196142435074,-0.0008140775025822222,-0.00571470195427537,0.003918018192052841,0.002007686998695135,-0.00013528614363167435
0.008984592743217945,-0.0006829024641774595,-0.005957921501249075,0.0040073879063129425,0.001996018225327134,-0.00011287712550256401
0.009102127514779568,-0.0003376586828380823,-0.006027835421264172,0.00358662661164999,0.001920962706208229,-0.00010754795221146196
0.00915643759071827,-0.0005502719432115555,-0.0061506954953074455,0.003573140362277627,0.0019088122062385082,-0.000104869446658995
0.009289952926337719,-0.0016466561937704682,-0.005780339241027832,0.004045252688229084,0.0020055165514349937,-0.00010247010504826903
0.00883498415350914,-0.0015285287518054247,-0.00626772828400135,0.0041534919291734695,0.001996657345443964,-0.00010018792090704665
0.009291614405810833,-0.001405786955729127,-0.006261054892092943,0.003950310871005058,0.002035167533904314,-9.800575207918882e-05
0.009912574663758278,-0.0010828363010659814,-0.006076961290091276,0.003985904157161713,0.001994088524952531,-9.591670095687732e-05
0.009912574663758278,-0.0010828363010659814,-0.006076961290091276,0.003985904157161713,0.001994088524952531,-9.591670095687732e-05
0.009420780465006828,-0.0007763574831187725,-0.005741576198488474,0.0038525480777025223,0.0019597201608121395,-9.199491614708677e-05
0.009420780465006828,-0.0007763574831187725,-0.005741576198488474,0.0038525480777025223,0.0019597201608121395,-9.199491614708677e-05
0.009289560839533806,-0.0007856074371375144,-0.005943812429904938,0.0037029043305665255,0.0019708708859980106,-8.128165791276842e-05
0.009622663259506226,-0.0007116723572835326,-0.005811900366097689,0.0037082855124026537,0.002020003739744425,-7.130306039471179e-05
0.00938421580940485,-0.0006550155230797827,-0.005883709993213415,0.0037909988313913345,0.002405711682513356,-6.93820184096694e-05
0.009867417626082897,-0.0004596846702042967,-0.005624326877295971,0.003814870258793235,0.0023980475962162018,-6.803510768804699e-05
0.00970594771206379,-0.000469614053145051,-0.0057438132353127,0.003745148191228509,0.002360457554459572,-6.677082274109125e-05
0.01017596572637558,-0.00042081085848622024,-0.006097672041505575,0.003646956756711006,0.002062743529677391,-4.842695125262253e-05
0.010213824920356274,-0.00045450968900695443,-0.005700402893126011,0.0035022941883653402,0.0020600673742592335,2.1453253793879412e-05
0.009655114263296127,-0.00042472666245885193,-0.005393994972109795,0.003578814445063472,0.0019206794677302241,4.277474363334477e-05
0.010656123980879784,-0.00043508660746738315,-0.005628051236271858,0.003718356369063258,0.001871149754151702,4.3173797166673467e-05
0.00994042120873928,-0.00042746865074150264,-0.005707606673240662,0.003778138430789113,0.0017819138010963798,5.263873390504159e-05
0.010107835754752159,-0.0004037408798467368,-0.006395410746335983,0.0034443780314177275,0.001742732711136341,6.123405910329893e-05
0.010818670503795147,-0.00042375840712338686,-0.005556840915232897,0.0031569399870932102,0.0017695414135232568,7.04234407749027e-05
0.010777460411190987,-0.00040665859705768526,-0.005265248939394951,0.0033385618589818478,0.001976386643946171,7.828570232959464e-05
0.01162372250109911,-0.0003732104378286749,-0.005615795962512493,0.003054931527003646,0.0020013696048408747,9.524705092189834e-05
0.010727494955062866,-0.000412546971347183,-0.006141963414847851,0.0030468052718788385,0.002011510543525219,0.0004201708361506462
0.010045039467513561,-0.0003841086581815034,-0.0065656546503305435,0.002996227005496621,0.0020529283210635185,0.0005667959921993315
0.008529041893780231,-0.00035860773641616106,-0.005674500484019518,0.002978014526888728,0.00208288268186152,0.0006054844707250595
0.008473469875752926,-0.00033627296215854585,-0.005992191843688488,0.0028209190350025892,0.0020258701406419277,0.0006319996900856495
0.008979886770248413,-0.0003685640695039183,-0.005680592730641365,0.0029094896744936705,0.0021230580750852823,0.0010460305493324995
0.008707583881914616,-0.0003488526272121817,-0.005919463466852903,0.002965336898341775,0.002198470989242196,0.0011126333847641945
0.009237727150321007,-0.00033055589301511645,-0.006302788853645325,0.0029448263812810183,0.0024256373289972544,0.0011040958343073726
0.009043615311384201,-0.00031407643109560013,-0.005993548780679703,0.0028040672186762094,0.0028216794598847628,0.0012792551424354315
0.008532890118658543,-0.000327174348058179,-0.005937667563557625,0.002881321357563138,0.0027752211317420006,0.0012795575894415379
0.008987112902104855,-0.00032619989360682666,-0.005462612025439739,0.002972921123728156,0.0024911127984523773,0.001238931785337627
0.008806515485048294,-0.00031223922269418836,-0.0058699846267700195,0.003050387604162097,0.0019780693110078573,0.0013487384421750903
0.008553003892302513,-0.00031337380642071366,-0.0071776267141103745,0.003170538693666458,0.0016308620106428862,0.0013541938969865441
0.009347542189061642,-0.0002949834452010691,-0.006456813775002956,0.0029074668418616056,0.0016209048917517066,0.0014604241587221622
0.009500687941908836,-0.0002768599661067128,-0.006145336665213108,0.002632442396134138,0.0015971530228853226,0.0016532732406631112
0.009090910665690899,-0.00030675085145048797,-0.005676572676748037,0.002692244714125991,0.0016468947287648916,0.0015651199501007795
0.00936345849186182,-0.0002957445103675127,-0.005881640128791332,0.0027000620029866695,0.0020640711300075054,0.0018112563993781805
0.00936345849186182,-0.0002957445103675127,-0.005881640128791332,0.0027000620029866695,0.0020640711300075054,0.0018112563993781805
0.009359555318951607,-0.00028046054649166763,-0.006521804723888636,0.0029390102718025446,0.0020002664532512426,0.0017395004397258162
0.00938407238572836,-0.00026661198353394866,-0.006273869425058365,0.002891440875828266,0.00210688728839159,0.0019314400851726532
0.00954302866011858,-0.00025406773784197867,-0.005924396216869354,0.002543874317780137,0.0020809248089790344,0.002017137361690402
0.009454183280467987,-0.00027829958708025515,-0.005576971918344498,0.002524587558582425,0.002066610148176551,0.002362064318731427
0.010021468624472618,-0.00025974694290198386,-0.00689323153346777,0.0023506905417889357,0.0021977699361741543,0.002730406355112791
0.011109713464975357,-0.0002494616201147437,-0.006196317728608847,0.0021853179205209017,0.0025677699595689774,0.002459814539179206
0.009637288749217987,-0.0002399594523012638,-0.005688422359526157,0.002006813185289502,0.00284563098102808,0.001960292924195528
0.009420298971235752,-0.0002311551506863907,-0.006030471995472908,0.002057346748188138,0.0026995870284736156,0.0017599249258637428
0.010337327606976032,-0.00022297420946415514,-0.00569161819294095,0.0022415979765355587,0.002383212326094508,0.0017632461385801435
0.010794449597597122,-0.00021535184350796044,-0.006852018181234598,0.002249514451250434,0.0021593221463263035,0.0019838951993733644
0.011192378588020802,-0.00020823339582420886,-0.006442037411034107,0.0019200276583433151,0.0020760453771799803,0.00268986145965755
0.010404716245830059,-0.00020157129620201886,-0.0059329248033463955,0.0018783058039844036,0.0018899602582678199,0.003292992478236556
0.010145694948732853,-0.00019532199075911194,-0.0060331374406814575,0.0020179899875074625,0.0018970625242218375,0.0031998478807508945
0.01051755715161562,-0.00018944779003504664,-0.006553640589118004,0.0020530610345304012,0.0017715736757963896,0.002751025604084134
0.010891374200582504,-0.00018391726189292967,-0.006366119720041752,0.002083465689793229,0.0017229854129254818,0.002342496532946825
0.010354549624025822,-0.00017870066221803427,-0.006156678311526775,0.0019171391613781452,0.0017380492063239217,0.0022890300024300814
0.010387209244072437,-0.00017377163749188185,-0.00589282950386405,0.0017628889763727784,0.0018237581243738532,0.0025439441669732332
0.010629198513925076,-0.00016910707927308977,-0.0058857472613453865,0.0016903335927054286,0.0018396062077954412,0.002778768539428711
0.010725399479269981,-0.0001646865566726774,-0.006175799760967493,0.0015866877511143684,0.0022106582764536142,0.0027670629788190126
0.010856165550649166,-0.00016049129772000015,-0.006236579734832048,0.0015348622109740973,0.0021809281315654516,0.0025978649500757456
0.010813876055181026,-0.0001565044658491388,-0.006033244542777538,0.0014105570735409856,0.0023729344829916954,0.0026380857452750206
0.011429385282099247,-0.00015271083975676447,-0.005705026909708977,0.0012291950406506658,0.0026335970032960176,0.00301612657494843
0.011429385282099247,-0.00015271083975676447,-0.005705026909708977,0.0012291950406506658,0.0026335970032960176,0.00301612657494843
0.011216429993510246,-0.00014564987213816494,-0.006228003650903702,0.001020002644509077,0.002638904843479395,0.003807477420195937
0.011216429993510246,-0.00014564987213816494,-0.006228003650903702,0.001020002644509077,0.002638904843479395,0.003807477420195937
0.011678555980324745,-0.00013921318168286234,-0.006111455615609884,0.0007624944555573165,0.00264667603187263,0.0035732530523091555
0.011678555980324745,-0.00013921318168286234,-0.006111455615609884,0.0007624944555573165,0.00264667603187263,0.0035732530523091555
0.011449072510004044,-0.00013620321988128126,-0.00667675631120801,0.0007186074508354068,0.002404887229204178,0.003448324743658304
0.011651228182017803,-0.00013332119851838797,-0.00697818910703063,0.0007358473958447576,0.0020953617058694363,0.0032695450354367495
0.011517451144754887,-0.0001279075222555548,-0.0065493714064359665,0.0006813837680965662,0.0019134182948619127,0.003395943669602275
0.011378633789718151,-0.00012536249414552003,-0.006087757647037506,0.0006272022728808224,0.0019761398434638977,0.003602657001465559
0.012095491401851177,-0.0001229166373377666,-0.0059903631918132305,0.0005724832299165428,0.002217184519395232,0.0036792217288166285
0.011517000384628773,-0.00012056440755259246,-0.006170901469886303,0.000596647325437516,0.002538142027333379,0.003511906834319234
0.010950111784040928,-0.00011830052244476974,-0.006737560965120792,0.0006148307002149522,0.002652143593877554,0.00352914328686893
0.011386544443666935,-0.00011612001981120557,-0.006716697942465544,0.0006403607549145818,0.0029071669559925795,0.0036225111689418554
0.01148415356874466,-0.00011401874508010224,-0.006240069400519133,0.0006075098062865436,0.002866750583052635,0.004209752194583416
0.011768730357289314,-0.00011221523891435936,-0.006410911679267883,0.000764725380577147,0.0025803116150200367,0.004412852227687836
0.01220143772661686,-4.2291976569686085e-05,-0.006954959128051996,0.0006682459497824311,0.002394064562395215,0.004204387776553631
0.011425785720348358,-4.043821172672324e-05,-0.007053098641335964,0.0006904343608766794,0.002336829202249646,0.004066201858222485
0.011766706593334675,-3.953782288590446e-05,-0.0065072025172412395,0.0006183607620187104,0.002270759316161275,0.003692563623189926
0.011485129594802856,-3.868784551741555e-05,-0.006360284052789211,0.0005551478243432939,0.002514040097594261,0.0035616401582956314
0.011743386276066303,-3.787390232901089e-05,-0.006619455758482218,0.0005033612251281738,0.002642433624714613,0.004166928119957447
0.011852486059069633,-3.709342490765266e-05,-0.006932264659553766,0.0004603959387168288,0.0025724153965711594,0.004469668492674828
0.011349267326295376,-1.8899630958912894e-05,-0.006651478353887796,0.0004241964779794216,0.0025653112679719925,0.004802954848855734
0.011501269415020943,-1.7822312656790018e-05,-0.006172339431941509,0.0004542075330391526,0.00253473618067801,0.004631186835467815
0.01178834680467844,-1.746703128446825e-05,-0.006087396293878555,0.0004273543891031295,0.002415536902844906,0.004378406330943108
0.012316071428358555,-1.713436904537957e-05,-0.0061873337253928185,0.00040043756598606706,0.0024475865066051483,0.004389792215079069
0.012323053553700447,-1.6814256014185958e-05,-0.006947298068553209,0.000376510142814368,0.002690097549930215,0.004111172631382942
0.012323053553700447,-1.6814256014185958e-05,-0.006947298068553209,0.000376510142814368,0.002690097549930215,0.004111172631382942
0.012377298437058926,-1.929547806867049e-06,-0.006692628376185894,0.00035527083673514426,0.0027325560804456472,0.0044556125067174435
0.012229172512888908,-2.5887343824138043e-08,-0.006680494640022516,0.0003362996212672442,0.002613647375255823,0.004673711024224758
0.011593196541070938,-3.4731179043845373e-10,-0.0064388164319098,0.00031925077200867236,0.002192168729379773,0.004693226423114538
0.012270216830074787,-4.659631187842184e-12,-0.0074165137484669685,0.00030384905403479934,0.002026911824941635,0.004854897037148476
0.012083595618605614,-6.251490075387042e-14,-0.006743030156940222,0.00028986542019993067,0.002131624147295952,0.0049156248569488525
0.01255885697901249,-1.1252461300178344e-17,-0.006823981646448374,0.0002654345880728215,0.0024404190480709076,0.005319718271493912
0.011840459890663624,-1.509661228082447e-19,-0.0069868722930550575,0.0002547011827118695,0.00227342895232141,0.0052763731218874454
0.012488145381212234,-2.025403226675981e-21,-0.0069747925736010075,0.0002448019804432988,0.002431063447147608,0.004532268270850182
0.012292014434933662,-2.717337095395075e-23,-0.006752190180122852,0.00023564486764371395,0.0023546386510133743,0.004481861367821693
0.012665270827710629,-3.645654606378094e-25,-0.006664079613983631,0.0002271471021231264,0.0023192979861050844,0.004989610053598881
0.01229211874306202,-4.891111331251257e-27,-0.0070420983247458935,0.00021924155589658767,0.0021603882778435946,0.005067993421107531
0.012124987319111824,-6.562049571374957e-29,-0.007144717965275049,0.0002118675911333412,0.0020881041418761015,0.0050418623723089695
0.012805950827896595,-8.803827324664296e-31,-0.007223695982247591,0.00020497314108069986,0.002262655645608902,0.005298855248838663
0.012277170084416866,-1.1811457603190564e-32,-0.006845889613032341,0.000198514258954674,0.0026034435722976923,0.0052337199449539185
0.01257446501404047,-1.5846577612271208e-34,-0.0072383699007332325,0.0001924497919389978,0.002563881454989314,0.0053160968236625195
0.012169289402663708,-2.1260206140162494e-36,-0.007721284404397011,0.00018674411694519222,0.0025054754223674536,0.005188820417970419
0.012971669435501099,0.0006557089509442449,-0.0074096061289310455,0.00018136801372747868,0.0024186205118894577,0.005096843466162682
0.013107018545269966,0.0008176997653208673,-0.00752450805157423,7.405138603644446e-05,0.0023885404225438833,0.005274288821965456
0.012983503751456738,0.0021599747706204653,-0.006910206284373999,5.7661734899738804e-05,0.0025655911304056644,0.0052351197227835655
0.01286748144775629,0.0016941307112574577,-0.008235279470682144,5.498333848663606e-05,0.0025171502493321896,0.005437751766294241
0.012591791339218616,0.001335414475761354,-0.007792790420353413,5.32953672518488e-05,0.0024675922468304634,0.005312670487910509
0.013217334635555744,0.0011014352785423398,-0.007447485812008381,5.175880141905509e-05,0.0027173268608748913,0.005369356367737055
0.012426421977579594,0.0009373152279295027,-0.006773069966584444,5.03117116750218e-05,0.0026273385155946016,0.005139905493706465
0.012426421977579594,0.0009373152279295027,-0.006773069966584444,5.03117116750218e-05,0.0026273385155946016,0.005139905493706465
0.01258503645658493,0.0009179148473776877,-0.007253278512507677,4.894365702057257e-05,0.0025331296492367983,0.004992753732949495
0.01226710807532072,0.0007055748719722033,-0.008079998195171356,4.7647983592469245e-05,0.0026872772723436356,0.005061284173280001
0.012465083040297031,0.0006682906532660127,-0.006897907238453627,4.641912892111577e-05,0.0027731102891266346,0.005272789858281612
0.012980579398572445,0.0007832974661141634,-0.006576904561370611,4.525213807937689e-05,0.0028790978249162436,0.005378914996981621
0.013180697336792946,0.0015996688744053245,-0.007222175598144531,2.7780904929386452e-05,0.0029392808210104704,0.005789381917566061
0.013433024287223816,0.0014815847389400005,-0.007802098523825407,2.19156572711654e-05,0.0029831493739038706,0.005376502871513367
0.013055486604571342,0.001196518656797707,-0.006911585107445717,1.0453898539708462e-05,0.002385548548772931,0.005359322763979435
0.012775040231645107,0.0010756297269836068,-0.007385258562862873,6.825649165875802e-07,0.0021373473573476076,0.005630434025079012
0.013631277717649937,0.001044298056513071,-0.007631910964846611,4.456660818163982e-08,0.0019852586556226015,0.0058405715972185135
0.013081819750368595,0.0010535428300499916,-0.007293029222637415,2.909881002821635e-09,0.002223013900220394,0.006064077373594046
0.013416876085102558,0.0011227568611502647,-0.007238730322569609,1.8999445072775956e-10,0.0026879399083554745,0.005696064326912165
0.013277963735163212,0.0012496684212237597,-0.00782372709363699,1.2405279928295876e-11,0.0028954618610441685,0.005376946646720171
0.013538461178541183,0.0016506909159943461,-0.008369110524654388,8.099761096211355e-13,0.0027487738989293575,0.00539006432518363
0.013681885786354542,0.0017313682474195957,-0.007271553389728069,5.2885657414762297e-14,0.002602713881060481,0.006019069347530603
0.015342999249696732,0.0015691642183810472,-0.007024767342954874,3.4530553821165858e-15,0.0025227866135537624,0.0057969908230006695
0.012703443877398968,0.0013127990532666445,-0.008275028318166733,2.2545986823814025e-16,0.002538568340241909,0.0057655442506074905
0.013133097440004349,0.0012013838859274983,-0.00846817810088396,-0.0005095801898278296,0.002794977743178606,0.0058530583046376705
0.014325980097055435,0.0011452663457021117,-0.007161162793636322,-0.000954934861510992,0.0028794764075428247,0.006000361870974302
0.014063367620110512,0.0012260610237717628,-0.007167226169258356,-0.0010223602876067162,0.0025531903374940157,0.006547203753143549
0.014012019149959087,0.0013863272033631802,-0.008343148045241833,-0.001455178833566606,0.0025155774783343077,0.006451211869716644
0.013630482368171215,0.002193403197452426,-0.008062941022217274,-0.0014407276175916195,0.0025428731460124254,0.005868091247975826
0.01429120171815157,0.0022154110483825207,-0.00773795647546649,-0.001368237310089171,0.0027836759109050035,0.006227811798453331
0.013921013101935387,0.0022184974513947964,-0.007315941154956818,-0.0013687687460333109,0.002798577304929495,0.0059659783728420734
0.013921013101935387,0.0022184974513947964,-0.007315941154956818,-0.0013687687460333109,0.002798577304929495,0.0059659783728420734
0.01399263460189104,0.002158831339329481,-0.008146052248775959,-0.0013936525210738182,0.0029575086664408445,0.005547118838876486
0.01399263460189104,0.002158831339329481,-0.008146052248775959,-0.0013936525210738182,0.0029575086664408445,0.005547118838876486
0.013988452032208443,0.0021461867727339268,-0.007669955957680941,-0.0017618638230487704,0.002684545936062932,0.005569515749812126
0.013988452032208443,0.0021461867727339268,-0.007669955957680941,-0.0017618638230487704,0.002684545936062932,0.005569515749812126
0.01473263930529356,0.002418211195617914,-0.008294903673231602,-0.0021151499822735786,0.003055269829928875,0.005791324190795422
0.014256961643695831,0.0023893346078693867,-0.007715858519077301,-0.0024819187819957733,0.0032160854898393154,0.006196361966431141
0.014787246473133564,0.002543363720178604,-0.007168908137828112,-0.0024192689452320337,0.0030134974513202906,0.006092282943427563
0.014584564603865147,0.002518582157790661,-0.007359068375080824,-0.0026100832037627697,0.0027763531543314457,0.005959833972156048
0.014369660057127476,0.0025244939606636763,-0.007642310578376055,-0.0030889580957591534,0.0031058823224157095,0.005929141771048307
0.014811843633651733,0.002697487361729145,-0.006996627897024155,-0.003056418849155307,0.0030820525716990232,0.006532273720949888
0.01492341235280037,0.003184092463925481,-0.007624350022524595,-0.0034496274311095476,0.0030318445060402155,0.006635197903960943
0.015299673192203045,0.00367150385864079,-0.007911235094070435,-0.0038539113011211157,0.0029515966307371855,0.00627118768170476
0.01471441425383091,0.0037599094212055206,-0.008882089518010616,-0.003931413404643536,0.0029792168643325567,0.0062246969901025295
0.015153434127569199,0.003293256973847747,-0.008009706623852253,-0.003568026004359126,0.0030160383321344852,0.006295791361480951
0.01500839926302433,0.0031668732408434153,-0.008231597021222115,-0.00331579870544374,0.0032204873859882355,0.0064118122681975365
0.014858593232929707,0.0032683161552995443,-0.008082958869636059,-0.003408669726923108,0.0031703764107078314,0.006149870343506336
0.01511323545128107,0.003567397827282548,-0.008061670698225498,-0.0037613115273416042,0.0033334868494421244,0.00630125543102622
0.014751262031495571,0.0038881562650203705,-0.0077391923405230045,-0.0038908289279788733,0.0030271722935140133,0.006062652915716171
0.014978066086769104,0.003921790514141321,-0.008243517950177193,-0.003727612318471074,0.002859609667211771,0.006457953248172998
0.015415546484291553,0.0038617891259491444,-0.007957193069159985,-0.003497729543596506,0.0027617148589342833,0.0064205871894955635
0.01532603520900011,0.004039787221699953,-0.0074242460541427135,-0.003884208155795932,0.0027469019405543804,0.006203876808285713
0.015249785967171192,0.004051124677062035,-0.00809494312852621,-0.0039345803670585155,0.002908875700086355,0.006239338777959347
0.015548673458397388,0.0044013625010848045,-0.008033967576920986,-0.003938520792871714,0.0032000818755477667,0.006548294797539711
0.015258489176630974,0.0041617657989263535,-0.007862242870032787,-0.003940563183277845,0.0034242579713463783,0.006680130492895842
0.01585512049496174,0.004512469749897718,-0.007628073915839195,-0.004325356800109148,0.003216587705537677,0.006459991447627544
0.015296945348381996,0.004203400574624538,-0.007958906702697277,-0.004618050996214151,0.00301571236923337,0.006619058549404144
0.015458017587661743,0.003981300629675388,-0.008490928448736668,-0.004627861548215151,0.002791834296658635,0.006637604907155037
0.015278971754014492,0.0043592629954218864,-0.007871498353779316,-0.0045057497918605804,0.002938437508419156,0.006668252404779196
0.01584802009165287,0.004617826081812382,-0.007552215363830328,-0.004739456344395876,0.002977170515805483,0.007103912997990847
0.01584802009165287,0.004617826081812382,-0.007552215363830328,-0.004739456344395876,0.002977170515805483,0.007103912997990847
0.015728307887911797,0.005097051616758108,-0.008150070905685425,-0.004389246925711632,0.0029027219861745834,0.0064887539483606815
0.016125185415148735,0.005036766175180674,-0.008080968633294106,-0.004428619984537363,0.0027453831862658262,0.006571654696017504
0.015730731189250946,0.004839417990297079,-0.00765184173360467,-0.004702457692474127,0.0034223529510200024,0.006694805342704058
0.015730731189250946,0.004839417990297079,-0.00765184173360467,-0.004702457692474127,0.0034223529510200024,0.006694805342704058
0.0161008071154356,0.005242605693638325,-0.00845455564558506,-0.005163227207958698,0.0036495511885732412,0.006597042083740234
0.016147537156939507,0.005267467815428972,-0.007875746116042137,-0.004989442881196737,0.003758699633181095,0.006672756280750036
0.016292445361614227,0.005837526172399521,-0.00770025048404932,-0.004570161458104849,0.0035415715537965298,0.007426476571708918
0.01632198505103588,0.005821204278618097,-0.008059714920818806,-0.0050789606757462025,0.003267924999818206,0.007591505069285631
0.016393721103668213,0.006211028899997473,-0.007926542311906815,-0.0050161369144916534,0.002921773586422205,0.00750294653698802
0.016553480178117752,0.006074031814932823,-0.007548623252660036,-0.004809586331248283,0.0029841396026313305,0.007112022489309311
0.01758314110338688,0.006170604377985001,-0.007621494121849537,-0.004995343275368214,0.0031501827761530876,0.007390962913632393
0.017394153401255608,0.006499492097645998,-0.00820474699139595,-0.0051277438178658485,0.003695234190672636,0.008027610369026661
0.01815670169889927,0.005917752161622047,-0.008254742249846458,-0.005590332671999931,0.00412608589977026,0.0077222008258104324
0.018103327602148056,0.006482163444161415,-0.007695281878113747,-0.005406006705015898,0.00358292437158525,0.007151871453970671
0.017391692847013474,0.006544590461999178,-0.008276662789285183,-0.005021841265261173,0.0031085279770195484,0.007819779217243195
0.018120508641004562,0.006334700156003237,-0.008273106068372726,-0.005274123512208462,0.002864580601453781,0.007941647432744503
0.018082760274410248,0.006236431188881397,-0.008124999701976776,-0.00522573059424758,0.00277365162037313,0.0074216765351593494
0.018810754641890526,0.0066276611760258675,-0.008442102000117302,-0.0050061605870723724,0.00285524595528841,0.007282277103513479
0.018092898651957512,0.0067230830900371075,-0.008118611760437489,-0.005073295906186104,0.003373120678588748,0.007328520528972149
0.01808994635939598,0.00638529984280467,-0.007927479222416878,-0.005497005768120289,0.0038089347071945667,0.007756597362458706
0.01877843588590622,0.006684336345642805,-0.0075042056851089,-0.005575438961386681,0.003882869379594922,0.007447521202266216
0.018411902710795403,0.0067267888225615025,-0.007960386574268341,-0.005576440133154392,0.0038593511562794447,0.007176604587584734
0.017866309732198715,0.006887142080813646,-0.008291504345834255,-0.005450908560305834,0.003848025808110833,0.007761349901556969
0.018280278891324997,0.007198545150458813,-0.008389378897845745,-0.005162451416254044,0.0034063635393977165,0.008180216886103153
0.018615446984767914,0.007027922198176384,-0.007791836746037006,-0.00576174259185791,0.003084383439272642,0.007969585247337818
0.018671175464987755,0.006779669318348169,-0.008372697047889233,-0.006121885497123003,0.003142118453979492,0.008578764274716377
0.018885212019085884,0.007065786514431238,-0.008354542776942253,-0.006155762821435928,0.003270251676440239,0.008358131162822247
0.01862833835184574,0.007183301728218794,-0.007960262708365917,-0.006059320643544197,0.0031703952699899673,0.008550318889319897
0.01862833835184574,0.007183301728218794,-0.007960262708365917,-0.006059320643544197,0.0031703952699899673,0.008550318889319897
0.019415104761719704,0.0071811368688941,-0.008542659692466259,-0.005972389597445726,0.0036790466401726007,0.008666738867759705
0.019415104761719704,0.0071811368688941,-0.008542659692466259,-0.005972389597445726,0.0036790466401726007,0.008666738867759705
0.01791677437722683,0.007571634836494923,-0.008206591010093689,-0.007019932847470045,0.0033866798039525747,0.008798272348940372
0.019216924905776978,0.008041015826165676,-0.008706385269761086,-0.006429607979953289,0.003055691020563245,0.00881813932210207
0.01897614076733589,0.007687791716307402,-0.00863068737089634,-0.0066971732303500175,0.003164346795529127,0.008633163757622242
0.01880241557955742,0.008163413032889366,-0.008174060843884945,-0.007353934925049543,0.0034907429944723845,0.008709701709449291
0.019132519140839577,0.008135097101330757,-0.008803223259747028,-0.007523822132498026,0.003798294812440872,0.008711650036275387
0.018974879756569862,0.008171172812581062,-0.008397920057177544,-0.007287919986993074,0.0038620983250439167,0.009038308635354042
0.01920568197965622,0.008279404602944851,-0.007938159629702568,-0.006623060442507267,0.0038388720713555813,0.009205697104334831
0.019311117008328438,0.008439055643975735,-0.007859627716243267,-0.00644170306622982,0.003814764553681016,0.00946741085499525
0.019343987107276917,0.008164542727172375,-0.009167072363197803,-0.007043975871056318,0.0037966615054756403,0.009184048511087894
0.019411901012063026,0.008799377828836441,-0.00888097658753395,-0.007304945029318333,0.0033622796181589365,0.00943051278591156
0.019346415996551514,0.008978513069450855,-0.008450713008642197,-0.006661892402917147,0.003184710629284382,0.008843622170388699
0.018966885283589363,0.008673600852489471,-0.008112560026347637,-0.006543937139213085,0.00324417045339942,0.008773871697485447
0.01959974691271782,0.009101496078073978,-0.00850885920226574,-0.006822927854955196,0.003592797089368105,0.00912436656653881
0.019629403948783875,0.00864105299115181,-0.008648743852972984,-0.007527345325797796,0.003816554555669427,0.009348757565021515
0.019023854285478592,0.009253747761249542,-0.008326424285769463,-0.006745332386344671,0.0034938259050250053,0.00922425463795662
0.019181642681360245,0.008632805198431015,-0.008436202071607113,-0.0062335398979485035,0.0032854252494871616,0.008864867500960827
0.019710171967744827,0.00896475836634636,-0.008258868008852005,-0.006560886278748512,0.0031772174406796694,0.0086906086653471
0.019568903371691704,0.009393841028213501,-0.008093776181340218,-0.007355230860412121,0.0034137237817049026,0.008948026224970818
0.019524555653333664,0.008957433514297009,-0.009017597883939743,-0.007979506626725197,0.003302099648863077,0.01031321007758379
0.019913118332624435,0.009051041677594185,-0.008592141792178154,-0.007334957830607891,0.003101894399151206,0.010150626301765442
0.019556891173124313,0.009955856949090958,-0.008319663815200329,-0.007202429231256247,0.0033009855542331934,0.009623055346310139
0.019490832462906837,0.00934435985982418,-0.00837678648531437,-0.007940423674881458,0.0036491190548986197,0.010233455337584019
0.019694942981004715,0.009814917109906673,-0.008567053824663162,-0.007817876525223255,0.003838334931060672,0.009605995379388332
0.019765369594097137,0.010228796862065792,-0.0083681745454669,-0.007626761216670275,0.003914827946573496,0.009457713924348354
0.019765369594097137,0.010228796862065792,-0.0083681745454669,-0.007626761216670275,0.003914827946573496,0.009457713924348354
0.019646774977445602,0.009651821106672287,-0.008160875178873539,-0.007751299533993006,0.003956254571676254,0.009841573424637318
0.020548678934574127,0.00984403770416975,-0.00874304585158825,-0.007894131354987621,0.003745087655261159,0.010217776522040367
0.02069014124572277,0.009975203312933445,-0.009278226643800735,-0.007716446649283171,0.003496384946629405,0.009674153290688992
0.02017502672970295,0.009466764517128468,-0.008459731005132198,-0.007896451279520988,0.003590162144973874,0.010349287651479244
0.02043040841817856,0.010295422747731209,-0.009249722585082054,-0.008117789402604103,0.004042164422571659,0.0095516387373209
0.020661868155002594,0.009765760973095894,-0.009390794672071934,-0.00796449277549982,0.0039197723381221294,0.01050172932446003
0.020920610055327415,0.008578712120652199,-0.008875174447894096,-0.008274823427200317,0.003858917159959674,0.010179719887673855
0.020807890221476555,0.00889921747148037,-0.009394540451467037,-0.00873893778771162,0.003923796582967043,0.009815705940127373
0.020562976598739624,0.008383423089981079,-0.009221133776009083,-0.008481234312057495,0.00396804278716445,0.010030528530478477
0.020615631714463234,0.008506255224347115,-0.008618528954684734,-0.007925770245492458,0.003998776897788048,0.010303898714482784
0.02185612916946411,0.009180586785078049,-0.00915001705288887,-0.008292159996926785,0.003934656735509634,0.009889282286167145
0.02127852849662304,0.009028901346027851,-0.009543896652758121,-0.008998005650937557,0.003797193057835102,0.01063125766813755
0.020794397220015526,0.008546922355890274,-0.008908250369131565,-0.008556435815989971,0.003711976110935211,0.010174225084483624
0.02059663087129593,0.00877048633992672,-0.008828073740005493,-0.008412626571953297,0.0037179889623075724,0.009800855070352554
0.021165452897548676,0.008944612927734852,-0.009984754025936127,-0.008739405311644077,0.0038410855922847986,0.010688661597669125
0.021181991323828697,0.008832762949168682,-0.009109370410442352,-0.008437016978859901,0.003911786247044802,0.010183977894484997
0.021305527538061142,0.008519582450389862,-0.00970133300870657,-0.008294608443975449,0.003874370362609625,0.009171118959784508
0.02159278653562069,0.009113016538321972,-0.00981160532683134,-0.009435382671654224,0.003957115113735199,0.009773651137948036
0.021412692964076996,0.009644949808716774,-0.009425560012459755,-0.009487416595220566,0.004043056163936853,0.010422958992421627
0.02180456556379795,0.009727300144731998,-0.00914175994694233,-0.008614223450422287,0.003997165244072676,0.009977968409657478
0.022014562040567398,0.009147957898676395,-0.009893025271594524,-0.009019296616315842,0.0039826021529734135,0.010088983923196793
0.021448791027069092,0.00933158490806818,-0.009545075707137585,-0.009327389299869537,0.0036650188267230988,0.010539062321186066
0.022114252671599388,0.008870214223861694,-0.009718194603919983,-0.00904810894280672,0.0035623926669359207,0.010288150049746037
0.02242625504732132,0.009729413315653801,-0.01034626830369234,-0.009329119697213173,0.0035888897255063057,0.010510588996112347
0.021909795701503754,0.009623607620596886,-0.009471850469708443,-0.009288310073316097,0.0041325087659060955,0.010113941505551338
0.021909795701503754,0.009623607620596886,-0.009471850469708443,-0.009288310073316097,0.0041325087659060955,0.010113941505551338
0.022135069593787193,0.009333760477602482,-0.008985727094113827,-0.008215338923037052,0.004075231961905956,0.009815123863518238
0.022725535556674004,0.009158493019640446,-0.010413487441837788,-0.008312619291245937,0.003973686136305332,0.009878721088171005
0.023043004795908928,0.009953862056136131,-0.00984751246869564,-0.009348241612315178,0.003983000759035349,0.01001916266977787
0.022581521421670914,0.00938947219401598,-0.010080293752253056,-0.009041226468980312,0.003929703030735254,0.010235774330794811
0.02286183461546898,0.009945360943675041,-0.009649538435041904,-0.008916581980884075,0.0038227636832743883,0.010514991357922554
0.023005273193120956,0.009445132687687874,-0.009999250061810017,-0.009477930143475533,0.004081923048943281,0.010851350612938404
0.023141860961914062,0.00945355650037527,-0.009890852496027946,-0.008728266693651676,0.004208183381706476,0.010256162844598293
0.023679770529270172,0.010299047455191612,-0.009527156129479408,-0.00897380243986845,0.004607924725860357,0.010118004865944386
0.023165341466665268,0.010194910690188408,-0.010283548384904861,-0.00931286346167326,0.0046745543368160725,0.010424140840768814
0.023518173024058342,0.009832855314016342,-0.010128865018486977,-0.009098374284803867,0.004584946669638157,0.010561560280621052
0.023178663104772568,0.010647213086485863,-0.009841904044151306,-0.009240575134754181,0.004093836061656475,0.010460223071277142
0.02359405905008316,0.010063329711556435,-0.010034959763288498,-0.009493719786405563,0.0038332054391503334,0.010628284886479378
0.023828215897083282,0.010419283993542194,-0.010007407516241074,-0.009248459711670876,0.0037894337438046932,0.010605767369270325
0.023640746250748634,0.01036861352622509,-0.00973742175847292,-0.009821288287639618,0.004087341949343681,0.01081989798694849
0.023413261398673058,0.010311571881175041,-0.010357425548136234,-0.009469565935432911,0.004239761270582676,0.011011091992259026
0.02361496165394783,0.010075539350509644,-0.010430309921503067,-0.009458190761506557,0.004946426022797823,0.010961567051708698
0.023786693811416626,0.01021675206720829,-0.010360504500567913,-0.008950337767601013,0.004244789481163025,0.011226564645767212
0.024079713970422745,0.010034296661615372,-0.009548698551952839,-0.009401049464941025,0.0036383296828716993,0.010309077799320221
0.024389423429965973,0.010541744530200958,-0.0102213304489851,-0.009491837583482265,0.003327236045151949,0.00965555664151907
0.024129630997776985,0.010266438126564026,-0.009764015674591064,-0.009181777946650982,0.0031346476171165705,0.00991311389952898
0.023876244202256203,0.010848826728761196,-0.009804400615394115,-0.010229328647255898,0.0035160239785909653,0.009714143350720406
0.023844469338655472,0.01061766967177391,-0.010307639837265015,-0.010156387463212013,0.00464544678106904,0.00970953144133091
0.024153288453817368,0.01047003548592329,-0.00951556209474802,-0.009218585677444935,0.004664356354624033,0.010062283836305141
0.02553124912083149,0.010226241312921047,-0.009746166877448559,-0.00955074094235897,0.004098055884242058,0.010630047880113125
0.024971138685941696,0.010779702104628086,-0.010009239427745342,-0.010428705252707005,0.00373271806165576,0.010242162272334099
0.024143017828464508,0.01014335360378027,-0.009298320859670639,-0.009912936016917229,0.0038835937157273293,0.010707732290029526
0.023653294891119003,0.010446467436850071,-0.009582350961863995,-0.010172242298722267,0.00393249373883009,0.010063777677714825
0.024063369259238243,0.010738193057477474,-0.011756980791687965,-0.01038176566362381,0.003907357342541218,0.010068499483168125
0.024506481364369392,0.010656515136361122,-0.009234242141246796,-0.010721811093389988,0.00387701322324574,0.010854765772819519
0.024870239198207855,0.0108283506706357,-0.009610443376004696,-0.010452884249389172,0.0039049112237989902,0.010290265083312988
0.024870239198207855,0.0108283506706357,-0.009610443376004696,-0.010452884249389172,0.0039049112237989902,0.010290265083312988
0.025349484756588936,0.010732244700193405,-0.010058119893074036,-0.010471254587173462,0.004312814678996801,0.0105236591771245
0.0255146361887455,0.011191729456186295,-0.010128858499228954,-0.011659092269837856,0.004750785883516073,0.010656435042619705
0.026642270386219025,0.011600922793149948,-0.010195847600698471,-0.010978592559695244,0.004288107622414827,0.010948573239147663
0.02393590845167637,0.011383621953427792,-0.009574074298143387,-0.010555358603596687,0.003862519282847643,0.010851548053324223
0.023892303928732872,0.011210263706743717,-0.009879973717033863,-0.010628487914800644,0.0037000365555286407,0.010793682187795639
0.024860180914402008,0.011025487445294857,-0.0102484580129385,-0.010510925203561783,0.004022693727165461,0.011559514328837395
0.025784412398934364,0.011410554870963097,-0.009620764292776585,-0.01141473837196827,0.004350167699158192,0.01123423594981432
0.02561488002538681,0.011162501759827137,-0.010225323960185051,-0.011390983127057552,0.004567396827042103,0.011093458160758018
0.025268396362662315,0.010737846605479717,-0.010846544988453388,-0.010767240077257156,0.005013686139136553,0.011701357550919056
0.02545669674873352,0.011262822896242142,-0.009974107146263123,-0.01161249540746212,0.004962856415659189,0.011489353142678738
0.025072995573282242,0.011030660010874271,-0.009941497817635536,-0.011048546060919762,0.004378999583423138,0.011439137160778046
0.025606008246541023,0.01121517177671194,-0.009863524697721004,-0.010898122563958168,0.004309740383177996,0.011595195159316063
0.02522469125688076,0.011481152847409248,-0.00964081846177578,-0.010931205935776234,0.00413460424169898,0.01176782138645649
0.025707146152853966,0.010829837061464787,-0.010649280622601509,-0.010341179557144642,0.004272406455129385,0.012075348757207394
0.0262713935226202,0.011503059417009354,-0.009980280883610249,-0.011103996075689793,0.0044290442019701,0.011625774204730988
0.02609051577746868,0.011478706263005733,-0.009571022354066372,-0.01094385888427496,0.004433475900441408,0.01182364672422409
0.025805223733186722,0.011201740242540836,-0.009895638562738895,-0.010831759311258793,0.004619305022060871,0.011840572580695152
0.026384027674794197,0.011317973025143147,-0.009912922978401184,-0.011143400333821774,0.004208465572446585,0.012216910719871521
0.02626865543425083,0.010925398208200932,-0.010131857357919216,-0.010528446175158024,0.004148751962929964,0.012089275754988194
0.025939544662833214,0.011924049817025661,-0.010330669581890106,-0.01071156281977892,0.004052621778100729,0.011873294599354267
0.02619476057589054,0.011780297383666039,-0.01064433716237545,-0.010963178239762783,0.004452833905816078,0.01231539249420166
0.02630220726132393,0.011383824981749058,-0.00937824510037899,-0.010576304979622364,0.004986656829714775,0.011881270445883274
0.025958823040127754,0.011709616519510746,-0.009838227182626724,-0.011145219206809998,0.0046197641640901566,0.011959870345890522
0.026076655834913254,0.011296802200376987,-0.010541684925556183,-0.011036960408091545,0.0040871272794902325,0.012088635936379433
0.02656610868871212,0.012113562785089016,-0.009741060435771942,-0.011183969676494598,0.004146617837250233,0.012145906686782837
0.026784762740135193,0.011368444189429283,-0.00973314419388771,-0.011609219014644623,0.004712915979325771,0.012591894716024399
0.026784762740135193,0.011368444189429283,-0.00973314419388771,-0.011609219014644623,0.004712915979325771,0.012591894716024399
0.02685154788196087,0.011719385161995888,-0.009506131522357464,-0.011412429623305798,0.004663683474063873,0.012533317320048809
0.026605498045682907,0.011631394736468792,-0.010126057080924511,-0.011443817988038063,0.004499394912272692,0.012533850967884064
0.026680339127779007,0.012644240632653236,-0.00999065674841404,-0.011510488577187061,0.004435139242559671,0.012912851758301258
0.027175424620509148,0.011964498087763786,-0.01018644217401743,-0.012250317260622978,0.0045358105562627316,0.012914912775158882
0.027636239305138588,0.011852317489683628,-0.010302798822522163,-0.011217108927667141,0.004660709761083126,0.013000988401472569
0.027727657929062843,0.012540047988295555,-0.010323390364646912,-0.011119657196104527,0.004817971494048834,0.012634995393455029
0.02705487608909607,0.011705724522471428,-0.00978021789342165,-0.011460590176284313,0.004405800253152847,0.012463877908885479
0.026797711849212646,0.012069246731698513,-0.009983248077332973,-0.011634998954832554,0.004236766602844,0.012828887440264225
0.02717665582895279,0.012006171979010105,-0.009924538433551788,-0.012014445848762989,0.00408176938071847,0.012838958762586117
0.027480226010084152,0.012277008034288883,-0.010471947491168976,-0.011693683452904224,0.004343952983617783,0.01337439939379692
0.026456719264388084,0.012033656239509583,-0.009948115795850754,-0.011839562095701694,0.004614325240254402,0.013218679465353489
0.027276871725916862,0.011812408454716206,-0.009754270315170288,-0.01198806893080473,0.004278982058167458,0.01306715328246355
0.028252828866243362,0.01230700220912695,-0.009621769189834595,-0.011673727072775364,0.004163431003689766,0.012977978214621544
0.027656307443976402,0.012248355895280838,-0.009752017445862293,-0.012212136760354042,0.004290493670850992,0.012975671328604221
0.027057981118559837,0.012496334500610828,-0.010131490416824818,-0.012803948484361172,0.004129142966121435,0.013189307413995266
0.026502447202801704,0.012220453470945358,-0.010084912180900574,-0.01303066872060299,0.004040072672069073,0.012891589663922787
0.026997718960046768,0.012306283228099346,-0.009915110655128956,-0.012241958640515804,0.004014607053250074,0.01307340431958437
0.026805058121681213,0.012309441342949867,-0.009547150693833828,-0.012630616314709187,0.003953720908612013,0.013092982582747936
0.028170982375741005,0.012429637834429741,-0.009585436433553696,-0.012817766517400742,0.004291481338441372,0.013298582285642624
0.02808067575097084,0.01276183407753706,-0.009997903369367123,-0.012983252294361591,0.004571073222905397,0.013192107900977135
0.02724733017385006,0.012637975625693798,-0.009619239717721939,-0.012993371114134789,0.004649608861654997,0.013484898023307323
0.027392743155360222,0.012793992646038532,-0.010820790193974972,-0.012078143656253815,0.004106117412447929,0.01329814549535513
0.027887122705578804,0.012874112464487553,-0.010049516335129738,-0.012701322324573994,0.0042252810671925545,0.013549360446631908
0.02774249017238617,0.013202839531004429,-0.009096375666558743,-0.012258888222277164,0.004183715209364891,0.013392769731581211
0.02774249017238617,0.013202839531004429,-0.009096375666558743,-0.012258888222277164,0.004183715209364891,0.013392769731581211
0.02809526026248932,0.013054175302386284,-0.009228535927832127,-0.012664771638810635,0.004065191838890314,0.014232609421014786
0.02789422869682312,0.013339473865926266,-0.010108783841133118,-0.012630046345293522,0.004339759238064289,0.012863298878073692
0.02806033194065094,0.013148343190550804,-0.009543742053210735,-0.013004206120967865,0.004705955274403095,0.013442030176520348
0.02811310812830925,0.013394255191087723,-0.0097596924751997,-0.012793920934200287,0.004596926271915436,0.013860076665878296
0.027780083939433098,0.012560339644551277,-0.009165213443338871,-0.01297181285917759,0.004663582891225815,0.013929357752203941
0.02762003056704998,0.014212600886821747,-0.009295082651078701,-0.012726237997412682,0.004798289388418198,0.013567999936640263
0.028028707951307297,0.01280288491398096,-0.010243751108646393,-0.013406489044427872,0.005316663533449173,0.013978362083435059
0.028274323791265488,0.013870433904230595,-0.009118389338254929,-0.01282193511724472,0.005337378941476345,0.01374814286828041
0.0278673954308033,0.01336251012980938,-0.009831410832703114,-0.013122783973813057,0.004597730468958616,0.01389084942638874
0.02805110067129135,0.01401558332145214,-0.010032350197434425,-0.012961420230567455,0.004424366634339094,0.013610606081783772
0.027811413630843163,0.013353635556995869,-0.009503128007054329,-0.013828523457050323,0.004940772894769907,0.0137468371540308
0.028107404708862305,0.013623101636767387,-0.009967449121177197,-0.013984402641654015,0.005092847626656294,0.013710535131394863
0.028361055999994278,0.013331946916878223,-0.009486071765422821,-0.013815547339618206,0.004817723762243986,0.013937386684119701
0.028250448405742645,0.01371992938220501,-0.009455161169171333,-0.01347597036510706,0.004339711740612984,0.013969898223876953
0.028027616441249847,0.0131455659866333,-0.009003187529742718,-0.013598675839602947,0.004364963620901108,0.014128795824944973
0.027651572600007057,0.013072849251329899,-0.009829001501202583,-0.01372464094310999,0.004613665863871574,0.014046345837414265
0.028086209669709206,0.013375128619372845,-0.009584196843206882,-0.013295617885887623,0.0047757551074028015,0.014401017688214779
0.02894335426390171,0.012653570622205734,-0.009095686487853527,-0.0134249497205019,0.00507283816114068,0.014037071727216244
0.029216323047876358,0.013763358816504478,-0.009767700918018818,-0.013020096346735954,0.004898007493466139,0.01398825366050005
0.029040629044175148,0.013397641479969025,-0.009465077891945839,-0.013688175939023495,0.00474378140643239,0.014139055274426937
0.027619309723377228,0.01350882463157177,-0.009326411411166191,-0.013509136624634266,0.00474471366032958,0.01438397727906704
0.028307896107435226,0.013083134777843952,-0.010957399383187294,-0.014418032020330429,0.004914112389087677,0.014241156168282032
0.028307896107435226,0.013083134777843952,-0.010957399383187294,-0.014418032020330429,0.004914112389087677,0.014241156168282032
0.02912837266921997,0.013606198132038116,-0.011168451979756355,-0.014011302962899208,0.004922416526824236,0.014185359701514244
0.02862401492893696,0.013613559305667877,-0.011098841205239296,-0.014204628765583038,0.00518901739269495,0.014160580933094025
0.029192889109253883,0.01401935238391161,-0.010841227136552334,-0.013320299796760082,0.004985537845641375,0.014117049984633923
0.029767442494630814,0.014118441380560398,-0.01030355878174305,-0.01410522311925888,0.004901636857539415,0.014172364957630634
0.02964678406715393,0.01427705679088831,-0.011532310396432877,-0.014264650642871857,0.005029594525694847,0.014006589539349079
0.028255367651581764,0.014146991074085236,-0.011074061505496502,-0.014547613449394703,0.005190763156861067,0.013918356038630009
0.029275009408593178,0.013885945081710815,-0.011696213856339455,-0.014912988059222698,0.005274245515465736,0.014083982445299625
0.02967670187354088,0.014222255907952785,-0.011149724014103413,-0.014666288159787655,0.005043674260377884,0.01415060181170702
0.02944234386086464,0.014063858427107334,-0.01121431216597557,-0.01533196959644556,0.004945539403706789,0.014117780141532421
0.029540056362748146,0.014206364750862122,-0.011707308702170849,-0.015036804601550102,0.0051150149665772915,0.014297313056886196
0.02962685562670231,0.014175528660416603,-0.01159733161330223,-0.015293685719370842,0.005009959451854229,0.014128955081105232
0.029715079814195633,0.014307159930467606,-0.01265945564955473,-0.015253862366080284,0.004614674020558596,0.01380561850965023
0.030073821544647217,0.013921914622187614,-0.011438054963946342,-0.015493003651499748,0.0049192155711352825,0.014349356293678284
0.03010711632668972,0.013806996867060661,-0.011714753694832325,-0.015020079910755157,0.004856965504586697,0.014163009822368622
0.029990876093506813,0.014018534682691097,-0.011533980257809162,-0.01536708977073431,0.00506321107968688,0.013896753080189228
0.030746161937713623,0.014359700493514538,-0.011242571286857128,-0.015604310669004917,0.005040847230702639,0.01372427400201559
0.030728507786989212,0.014407026581466198,-0.011947035789489746,-0.015196689404547215,0.004868547432124615,0.014549581333994865
0.03037172742187977,0.014215460047125816,-0.011458351276814938,-0.014470664784312248,0.004703965969383717,0.014843962155282497
0.030923310667276382,0.014478265307843685,-0.012336078099906445,-0.01454158779233694,0.004533571656793356,0.015236280858516693
0.030775239691138268,0.014667746610939503,-0.011861172504723072,-0.014772148802876472,0.0048394156619906425,0.01506156474351883
0.03104337304830551,0.014893104322254658,-0.01183247659355402,-0.015087155625224113,0.004882031120359898,0.014652207493782043
0.030815981328487396,0.014608326368033886,-0.011425469070672989,-0.015045787207782269,0.004805462900549173,0.01438368670642376
0.030515382066369057,0.014490547589957714,-0.01115043181926012,-0.014843336306512356,0.004774461500346661,0.014279634691774845
0.03094678744673729,0.014588674530386925,-0.011861990205943584,-0.015401432290673256,0.005020101089030504,0.014494202099740505
0.03094678744673729,0.014588674530386925,-0.011861990205943584,-0.015401432290673256,0.005020101089030504,0.014494202099740505
