davideferrari95/blind_handover_controller/data/Test 205 - [2024-02-08 -- 12-00-41]/joint_states_data.csv
shoulder_pan_joint,shoulder_lift_joint,elbow_joint,wrist_1_joint,wrist_2_joint,wrist_3_joint
-0.005204531364142895,-0.013327215798199177,-0.0035500165540724993,0.016926415264606476,0.0,-0.0053635090589523315
-0.005204531364142895,-0.013327215798199177,-0.0035500165540724993,0.016926415264606476,0.0,-0.0053635090589523315
-0.005485763773322105,-0.013870090246200562,-0.004059236031025648,0.016835959628224373,0.0,-0.0049904827028512955
-0.00620385492220521,-0.013497241772711277,-0.005972045473754406,0.01654753088951111,0.0,-0.004749109968543053
-0.006269971840083599,-0.013873321935534477,-0.005665949545800686,0.015477506443858147,0.0,-0.004735006485134363
-0.006109392270445824,-0.013345038518309593,-0.005171957425773144,0.015534255653619766,0.0,-0.004803350195288658
-0.005554747302085161,-0.013304530642926693,-0.00491065951064229,0.01586930640041828,0.0,-0.005091932602226734
-0.005893263965845108,-0.01388164795935154,-0.00535618606954813,0.01602242700755596,0.0,-0.005092069506645203
-0.00546665582805872,-0.013592085801064968,-0.0056299627758562565,0.015550238080322742,0.0,-0.004598324652761221
-0.005434418562799692,-0.01382744312286377,-0.005196128040552139,0.015565742738544941,0.0,-0.004518080037087202
-0.00564206950366497,-0.013329827226698399,-0.004535049665719271,0.015466941520571709,0.0,-0.004822781775146723
-0.0050119454972445965,-0.013513786718249321,-0.003645556978881359,0.016373246908187866,0.0,-0.004933462478220463
-0.004775380715727806,-0.013500908389687538,-0.003020190866664052,0.015845883637666702,0.0,-0.004977226257324219
-0.005199694540351629,-0.01350810844451189,-0.003249567002058029,0.015753956511616707,0.0,-0.004982864949852228
-0.005159806460142136,-0.013596895150840282,-0.003769324626773596,0.01551883015781641,0.0,-0.0049453782849013805
-0.005324340891093016,-0.013311327435076237,-0.003889612387865782,0.015570048242807388,0.0,-0.004669463727623224
-0.005031608045101166,-0.013673116452991962,-0.0037552083376795053,0.016431128606200218,0.0,-0.0044078524224460125
-0.00474043283611536,-0.013290843926370144,-0.003377071348950267,0.016843900084495544,2.367308843531646e-05,-0.0044035352766513824
-0.00474043283611536,-0.013290843926370144,-0.003377071348950267,0.016843900084495544,2.367308843531646e-05,-0.0044035352766513824
-0.005225986707955599,-0.013799471780657768,-0.0033136012498289347,0.01689155027270317,1.5456835171789862e-06,-0.004605798050761223
-0.005165990442037582,-0.013303390704095364,-0.00322360685095191,0.017085589468479156,1.0092210089851505e-07,-0.004724398255348206
-0.0054072123020887375,-0.013895451091229916,-0.0034741966519504786,0.016800478100776672,6.589491619024557e-09,-0.004638215061277151
-0.004813250619918108,-0.013922005891799927,-0.0031922413036227226,0.016304146498441696,2.8092037376858947e-11,-0.004947714973241091
-0.00459686666727066,-0.012944962829351425,-0.0030484257731586695,0.016170287504792213,1.834208999962339e-12,-0.004629742819815874
-0.00459686666727066,-0.012944962829351425,-0.0030484257731586695,0.016170287504792213,1.834208999962339e-12,-0.004629742819815874
-0.0050958143547177315,-0.01271358784288168,-0.0029709883965551853,0.01609710603952408,1.1976075513231432e-13,-0.0045136562548577785
-0.0051568541675806046,-0.012912705540657043,-0.0030369821470230818,0.016320278868079185,7.819521871915529e-15,-0.005045820027589798
-0.00515011278912425,-0.013210982084274292,-0.0034973323345184326,0.015893813222646713,5.105589027759822e-16,-0.004952594637870789
-0.004844162613153458,-0.012717802077531815,-0.003102485788986087,0.015995411202311516,3.3335848524474945e-17,-0.0045978110283613205
-0.004758204333484173,-0.012874850071966648,-0.0031018496956676245,0.015918366611003876,2.1765926058546713e-18,-0.004927678965032101
-0.0043935393914580345,-0.013379422947764397,-0.003005743958055973,0.0159720741212368,1.4211594941347794e-19,-0.00486360676586628
-0.00498182000592351,-0.01266105379909277,-0.002983641577884555,0.015433354303240776,9.279155399667877e-21,-0.00490617286413908
-0.004969356581568718,-0.013077951036393642,-0.002892900025472045,0.01535837259143591,6.058625932585243e-22,-0.0049434020183980465
-0.004755878821015358,-0.01284067239612341,-0.003048111917451024,0.015858128666877747,3.9558499787695117e-23,-0.005013362970203161
-0.004653427749872208,-0.012576610781252384,-0.003094423795118928,0.016091054305434227,1.6864408947663533e-25,-0.004703632555902004
-0.004271321464329958,-0.01297094114124775,-0.003081688890233636,0.01552553940564394,1.1011253315769273e-26,-0.004632272757589817
-0.004526862874627113,-0.013097342103719711,-0.0029416875913739204,0.01585356704890728,7.189562445498147e-28,-0.004584353882819414
-0.004786731209605932,-0.013032684102654457,-0.0031289919279515743,0.015606960281729698,4.694270373319509e-29,-0.004706458188593388
-0.0047592585906386375,-0.013295221142470837,-0.0029697760473936796,0.016300326213240623,3.0650230907860278e-30,-0.004710841458290815
-0.004460129886865616,-0.012902702204883099,-0.0026862514205276966,0.01584072783589363,2.001241046257978e-31,-0.004894406534731388
-0.004653868265450001,-0.013341528363525867,-0.002640316728502512,0.015703806653618813,1.306667471556959e-32,-0.0049529606476426125
-0.0047368695959448814,-0.012749174609780312,-0.002954412717372179,0.015796473249793053,8.531605755153695e-34,-0.004809558857232332
-0.00469597615301609,-0.012992843985557556,-0.0034259294625371695,0.01571228727698326,5.570528827358882e-35,-0.004384622909128666
-0.004945858381688595,-0.01224355399608612,-0.0034326184540987015,0.01615707390010357,3.6371570222390754e-36,-0.004572616890072823
-0.004822141956537962,-0.012348845601081848,-0.0029911345336586237,0.01606385037302971,2.3748036008899596e-37,-0.004895200487226248
-0.004822141956537962,-0.012348845601081848,-0.0029911345336586237,0.01606385037302971,2.3748036008899596e-37,-0.004895200487226248
-0.004422072321176529,-0.012493500486016273,-0.002528251614421606,0.015868211165070534,1.5505771081711826e-38,-0.004872386809438467
-0.004669525660574436,-0.012663562782108784,-0.0032891028095036745,0.015542181208729744,6.61034524575946e-41,-0.00472246902063489
-0.004669525660574436,-0.012663562782108784,-0.0032891028095036745,0.015542181208729744,6.61034524575946e-41,-0.00472246902063489
-0.004639507737010717,-0.012663006782531738,-0.003495007986202836,0.015165590681135654,4.3159992701204366e-42,-0.004755192436277866
-0.004379624966531992,-0.013242756016552448,-0.003164720954373479,0.01577424816787243,2.8166099132928823e-43,-0.004880527965724468
-0.004580906592309475,-0.012859424576163292,-0.0029428103007376194,0.01563943922519684,1.8216880036222622e-44,-0.0049665835686028
-0.004495631437748671,-0.012948396615684032,-0.0027619816828519106,0.016276299953460693,1.401298464324817e-45,-0.005070966202765703
-0.004223682917654514,-0.012220182456076145,-0.0030173889826983213,0.01612686924636364,0.0,-0.004567357711493969
-0.004363313317298889,-0.012330296449363232,-0.0032615915406495333,0.015396268106997013,0.0,-0.004529973026365042
-0.004138420335948467,-0.012371102347970009,-0.0030852421186864376,0.015708046033978462,0.0,-0.004381312523037195
-0.004419256933033466,-0.012361795641481876,-0.0029536839574575424,0.015718895941972733,0.0,-0.004818090237677097
-0.0041458518244326115,-0.012905833311378956,-0.002726083155721426,0.016527950763702393,0.0,-0.005342305172234774
-0.004424089100211859,-0.012439971789717674,-0.0028856208082288504,0.016030864790081978,0.0,-0.005285876803100109
-0.00411964813247323,-0.012578641064465046,-0.0030991823878139257,0.015753446146845818,0.0,-0.004935790318995714
-0.00411652447655797,-0.01215331256389618,-0.0033269261475652456,0.014904111623764038,0.0,-0.0046545835211873055
-0.004401092417538166,-0.012452978640794754,-0.0034065123181790113,0.015176531858742237,0.0,-0.004510815255343914
-0.004091738257557154,-0.0122990682721138,-0.003066683653742075,0.015166507102549076,0.0,-0.004738645162433386
-0.003946608863770962,-0.012743749655783176,-0.0030235566664487123,0.015213718637824059,0.0,-0.004772160667926073
-0.004398675169795752,-0.012529920786619186,-0.003315988462418318,0.015167000703513622,0.0,-0.004466071724891663
-0.004654094576835632,-0.01276151929050684,-0.0037390836514532566,0.01567191444337368,0.0,-0.004530973266810179
-0.004309745971113443,-0.012738716788589954,-0.0034429961815476418,0.015465428121387959,0.0,-0.004610722418874502
-0.0039792428724467754,-0.01204999815672636,-0.0035190999042242765,0.01572611927986145,0.0,-0.005017993506044149
-0.004103159066289663,-0.012294373475015163,-0.0033047383185476065,0.015358015894889832,0.0,-0.005063344724476337
-0.004022916313260794,-0.012373166158795357,-0.0035164044238626957,0.015172798186540604,0.0,-0.0049745324067771435
-0.004022916313260794,-0.012373166158795357,-0.0035164044238626957,0.015172798186540604,0.0,-0.0049745324067771435
-0.0038629574701189995,-0.01286480762064457,-0.003684136550873518,0.014674719423055649,0.0,-0.004804583266377449
-0.0038149987813085318,-0.012505786493420601,-0.0036382402759045362,0.015045286156237125,0.0,-0.004708877764642239
-0.004224305506795645,-0.0127047598361969,-0.0036058754194527864,0.014814702793955803,0.0,-0.004770229570567608
-0.004028625320643187,-0.01249177660793066,-0.00318588363006711,0.015225299634039402,0.0,-0.005065226927399635
-0.003797938348725438,-0.012481734156608582,-0.0032656758558005095,0.014779645949602127,0.0,-0.004884527064859867
-0.003813501913100481,-0.012716123834252357,-0.0034753226209431887,0.014970099553465843,0.0,-0.005009006708860397
-0.0038667120970785618,-0.012258343398571014,-0.003448294010013342,0.014534469693899155,0.0,-0.005109868478029966
-0.0037923043128103018,-0.012818959541618824,-0.0031140251085162163,0.014974572695791721,0.0,-0.004900261759757996
-0.0037291303742676973,-0.012118740938603878,-0.0034279373940080404,0.01493025291711092,0.0,-0.004873273894190788
-0.003653621533885598,-0.012347443029284477,-0.0038545408751815557,0.015004913322627544,0.0,-0.004820148926228285
-0.003584831953048706,-0.012288257479667664,-0.003858360229060054,0.014765949919819832,0.0,-0.005088284611701965
-0.003719497472047806,-0.012478846125304699,-0.003350628539919853,0.015266944654285908,0.0,-0.005167457275092602
-0.003816146170720458,-0.012538725510239601,-0.002928289119154215,0.01513682957738638,0.0,-0.005081843584775925
-0.004331164062023163,-0.012194938026368618,-0.0029364789370447397,0.01477007381618023,0.0,-0.005245869513601065
-0.0035479876678436995,-0.012837554328143597,-0.003426892915740609,0.014306505210697651,0.0,-0.005311157554388046
-0.0034852956887334585,-0.011913467198610306,-0.0037539878394454718,0.014554297551512718,0.0,-0.005048380233347416
-0.0038406983949244022,-0.012800941243767738,-0.0036845761351287365,0.01510591246187687,0.0,-0.005082481540739536
-0.003827531822025776,-0.012569855898618698,-0.0033049448393285275,0.015537401661276817,0.0,-0.004888499621301889
-0.0037147002294659615,-0.012237084098160267,-0.003122289665043354,0.015390785411000252,0.0,-0.005053271539509296
-0.003677316475659609,-0.011833046562969685,-0.0034843238536268473,0.015356425195932388,0.0,-0.004793806932866573
-0.004126214887946844,-0.012220710515975952,-0.003787057939916849,0.014468476176261902,0.0,-0.005066332407295704
-0.004268256016075611,-0.012287885881960392,-0.003813918214291334,0.014531506225466728,0.0,-0.005197185091674328
-0.003533759620040655,-0.01257872860878706,-0.0031961773056536913,0.014435449615120888,0.0,-0.005096503999084234
-0.0036046828608959913,-0.012198506854474545,-0.0030898440163582563,0.015006638132035732,0.0,-0.0053696902468800545
-0.0038675398100167513,-0.012469829991459846,-0.0030319378711283207,0.014390703290700912,0.0,-0.005306306295096874
-0.0034336913377046585,-0.012242786586284637,-0.0034883609041571617,0.014720472507178783,0.0,-0.005414705257862806
-0.0034336913377046585,-0.012242786586284637,-0.0034883609041571617,0.014720472507178783,0.0,-0.005414705257862806
-0.003466352354735136,-0.01278617512434721,-0.003726733848452568,0.014771106652915478,0.0,-0.005472820717841387
-0.003453748067840934,-0.012477487325668335,-0.0037391013465821743,0.015130550600588322,0.0,-0.005220601335167885
-0.0033224166836589575,-0.013202652335166931,-0.0032799982000142336,0.014585856348276138,0.0,-0.00530670490115881
-0.0034857657738029957,-0.01160135492682457,-0.0028832554817199707,0.015105393715202808,0.0,-0.0051461923867464066
-0.003677407745271921,-0.011803414672613144,-0.0030169568490236998,0.014596582390367985,0.0,-0.00535115972161293
-0.0033347990829497576,-0.01188616082072258,-0.0034546321257948875,0.015140361152589321,0.0,-0.005491961725056171
-0.003580409800633788,-0.01238271314650774,-0.0036703443620353937,0.01445395965129137,0.0,-0.005371464416384697
-0.0033697839826345444,-0.011563615873456001,-0.0032717909198254347,0.014676358550786972,0.0,-0.005874060094356537
-0.0036047257017344236,-0.012260260060429573,-0.003155722515657544,0.014313981868326664,0.0,-0.005290154833346605
-0.0037992428988218307,-0.01211612205952406,-0.0033369131851941347,0.014825591817498207,0.0,-0.004899296909570694
-0.0032302439212799072,-0.012328718788921833,-0.0036005210131406784,0.013856688514351845,0.0,-0.0049085491336882114
-0.0031026725191622972,-0.012630194425582886,-0.003314892528578639,0.014336515218019485,0.0,-0.004938781727105379
-0.0034568163100630045,-0.012057648971676826,-0.0032502657268196344,0.014432093128561974,0.0,-0.005154212936758995
-0.003296253038570285,-0.012632918544113636,-0.003349524224177003,0.014890304766595364,0.0,-0.005040381103754044
-0.0030800800304859877,-0.012066682800650597,-0.003425454720854759,0.014206329360604286,0.0,-0.0050942362286150455
-0.0031722874846309423,-0.011630473658442497,-0.003230347530916333,0.014396386221051216,0.0,-0.005370201542973518
-0.0033331040758639574,-0.0121005242690444,-0.0036140845622867346,0.014741134829819202,0.0,-0.005061515606939793
-0.0034127666149288416,-0.011901672929525375,-0.003597875125706196,0.014040973037481308,9.416789907845668e-06,-0.004968006629496813
-0.003105740761384368,-0.011617611162364483,-0.003490324364975095,0.014513920061290264,6.148490570012655e-07,-0.005123712122440338
-0.0031699149403721094,-0.0124524449929595,-0.0030754096806049347,0.014409218914806843,4.014525245565892e-08,-0.005545238498598337
-0.003168916329741478,-0.012077072635293007,-0.002968352288007736,0.014624572359025478,2.6211983694679475e-09,-0.005391590762883425
-0.0034552980214357376,-0.01192006841301918,-0.0029070409946143627,0.01412414014339447,1.711455144270957e-10,-0.005029043182730675
-0.003228711662814021,-0.011673538014292717,-0.003423044690862298,0.014231943525373936,1.1174576888817178e-11,-0.0050827148370444775
-0.003090689657256007,-0.0116460882127285,-0.0037295848596841097,0.013749620877206326,7.296200319265034e-13,-0.005101248621940613
-0.002899685176089406,-0.011989639140665531,-0.0037324028089642525,0.014702362939715385,4.7638976097275076e-14,-0.005133273545652628
-0.0031225315760821104,-0.011448646895587444,-0.003261088626459241,0.014396143145859241,3.1104847650608456e-15,-0.005276145413517952
-0.003118462860584259,-0.011549839749932289,-0.0028603686951100826,0.014574449509382248,2.0309244125356335e-16,-0.005409287288784981
-0.003021707059815526,-0.012078170664608479,-0.0029812485445290804,0.013891344889998436,1.3260484423362059e-17,-0.005407531745731831
-0.003098045475780964,-0.011911210604012012,-0.003455542726442218,0.014081377536058426,3.2709001970943063e-05,-0.005050129257142544
-0.003098045475780964,-0.011911210604012012,-0.003455542726442218,0.014081377536058426,3.2709001970943063e-05,-0.005050129257142544
-0.003180471947416663,-0.0124351279810071,-0.0037093586288392544,0.013434953056275845,0.00034785736352205276,-0.004895911086350679
-0.0027654035948216915,-0.011777308769524097,-0.00342388148419559,0.01395669300109148,0.00034216829226352274,-0.005533785093575716
-0.002687094733119011,-0.011338740587234497,-0.003043185919523239,0.013640434481203556,0.00037862095632590353,-0.005817670840770006
-0.0027726334519684315,-0.011590891517698765,-0.0027881255373358727,0.014185817912220955,0.0003575053997337818,-0.0058660730719566345
-0.0031151974108070135,-0.011249683797359467,-0.0028871470130980015,0.013516716659069061,0.0003355393710080534,-0.005279232282191515
-0.002810209058225155,-0.011722185648977757,-0.0032017091289162636,0.013106045313179493,0.0003614549641497433,-0.005096612498164177
-0.002627573674544692,-0.011394854635000229,-0.003498908132314682,0.012956664897501469,0.0003477266291156411,-0.005064333789050579
-0.0026824516244232655,-0.01195092685520649,-0.0033909748308360577,0.01323059480637312,0.00036468467442318797,-0.004996343981474638
-0.002842987421900034,-0.011742853559553623,-0.003370108315721154,0.013123498298227787,0.00035750193637795746,-0.005634489469230175
-0.002845332957804203,-0.011699549853801727,-0.0032070751767605543,0.01316891610622406,0.00034171275910921395,-0.005748208146542311
-0.0026573361828923225,-0.011941556818783283,-0.0035641160793602467,0.013329586014151573,0.0004044695815537125,-0.005399469286203384
-0.0026196518447250128,-0.011274991557002068,-0.003275232156738639,0.01303071528673172,0.00041626079473644495,-0.005548629444092512
-0.0027010231278836727,-0.011751704849302769,-0.00328171462751925,0.012490112334489822,0.0004432978166732937,-0.00546678714454174
-0.0027377777732908726,-0.011370370164513588,-0.0031404863111674786,0.012736582197248936,0.00042132154339924455,-0.005840391386300325
-0.0027494565583765507,-0.011549304239451885,-0.003140833228826523,0.012710755690932274,0.0004479210765566677,-0.005415558815002441
-0.0028108402621001005,-0.011101405136287212,-0.004087415523827076,0.01321827806532383,0.0004249350167810917,-0.005267357919365168
-0.00264197145588696,-0.01119803637266159,-0.003587599378079176,0.012712481431663036,0.0005261236801743507,-0.005636028945446014
-0.002879132516682148,-0.011517228558659554,-0.003181999083608389,0.01255527138710022,0.0005089218611828983,-0.006054317578673363
-0.002696371404454112,-0.011531957425177097,-0.002919991733506322,0.012430161237716675,0.0004596562357619405,-0.005895071197301149
-0.0025788310449570417,-0.012023957446217537,-0.003242539009079337,0.012001672759652138,0.0004782464529853314,-0.006305541843175888
-0.002699790056794882,-0.011530274525284767,-0.0038589369505643845,0.012453649193048477,0.00045664136996492743,-0.005865671671926975
-0.002484119264408946,-0.011610467918217182,-0.0035986327566206455,0.01178344152867794,0.0004221517883706838,-0.0058799791149795055
-0.00237272004596889,-0.011397291906177998,-0.0031665062997490168,0.012314707040786743,0.0004522670351434499,-0.005793535616248846
-0.0023593613877892494,-0.01112685538828373,-0.0028531220741569996,0.012503142468631268,0.00042565728654153645,-0.006008781958371401
-0.00245746411383152,-0.011505422182381153,-0.002980846678838134,0.012142601422965527,0.0003989466349594295,-0.00648974534124136
-0.0023411072324961424,-0.010616099461913109,-0.0035196237731724977,0.012204241938889027,0.0004215424123685807,-0.005981380585581064
-0.0023411072324961424,-0.010616099461913109,-0.0035196237731724977,0.012204241938889027,0.0004215424123685807,-0.005981380585581064
-0.0022049969993531704,-0.010664872825145721,-0.00424971291795373,0.01135480497032404,0.0004042083746753633,-0.005814254749566317
-0.002091512316837907,-0.011144700460135937,-0.003568075131624937,0.012173742055892944,0.00038310751551762223,-0.005520276725292206
-0.0019716445822268724,-0.010934888385236263,-0.0031067715026438236,0.012393460609018803,0.00036408405867405236,-0.005839156452566385
-0.0019642391707748175,-0.01126722153276205,-0.002905023517087102,0.012225000187754631,0.00033790426095947623,-0.005988361779600382
-0.0021351641044020653,-0.011324658058583736,-0.0034091088455170393,0.011861378327012062,0.00031435885466635227,-0.005722398869693279
-0.002137471456080675,-0.010738281533122063,-0.0037844646722078323,0.011348473839461803,0.0002938254037871957,-0.005990237928926945
-0.002314661629498005,-0.011212993413209915,-0.003855637740343809,0.012347939424216747,0.00031642717658542097,-0.0058464473113417625
-0.002298383042216301,-0.010653160512447357,-0.0033087749034166336,0.011974814347922802,0.0003108970995526761,-0.005992781836539507
-0.0021668649278581142,-0.010781358927488327,-0.002975945360958576,0.012209637090563774,0.00029475250630639493,-0.006460869684815407
-0.002017583232372999,-0.011130262166261673,-0.0030056219547986984,0.012550866231322289,0.00030226961825974286,-0.005945255048573017
-0.002025945344939828,-0.010890613310039043,-0.0034160595387220383,0.011454702354967594,0.0003085215575993061,-0.006051069591194391
-0.0020146253518760204,-0.011312821879982948,-0.003731116186827421,0.011307518929243088,0.0002954282099381089,-0.006287259515374899
-0.0019044345244765282,-0.010817160829901695,-0.0035802177153527737,0.01102785300463438,0.00028227781876921654,-0.006230565719306469
-0.0018944236217066646,-0.010106878355145454,-0.0033053967636078596,0.011357922106981277,0.00027017531101591885,-0.0062772175297141075
-0.0018792882328853011,-0.010613511316478252,-0.0030733600724488497,0.011513995938003063,0.00029113946948200464,-0.006224103271961212
-0.0019126208499073982,-0.010659519582986832,-0.00437966687604785,0.011098820716142654,0.00027354841586202383,-0.006186154671013355
-0.0019365064799785614,-0.010877680033445358,-0.004259336739778519,0.011184759438037872,0.00026405943208374083,-0.0065846797078847885
-0.0019139910582453012,-0.010441763326525688,-0.0034942845813930035,0.011631330475211143,0.00027576350839808583,-0.006312577053904533
-0.0019414324779063463,-0.010577397421002388,-0.003080364316701889,0.011754575185477734,0.00026155635714530945,-0.006282321177423
-0.0017586412141099572,-0.01085734087973833,-0.00356316682882607,0.01100405864417553,0.00027140325983054936,-0.006125943269580603
-0.001696983352303505,-0.011075864546000957,-0.00402588676661253,0.010864632204174995,0.00027964485343545675,-0.006037126760929823
-0.0016978984931483865,-0.010558475740253925,-0.004035282414406538,0.011061403900384903,0.0002672600094228983,-0.0064766379073262215
-0.001601725467480719,-0.010417291894555092,-0.0038728341460227966,0.011462610214948654,0.0002860908571165055,-0.006658247206360102
-0.0016722859581932425,-0.00983437616378069,-0.003802242921665311,0.011496071703732014,0.0002830907760653645,-0.006325726397335529
-0.0017029250739142299,-0.010335962288081646,-0.0033368768636137247,0.010421205312013626,0.0002715321315918118,-0.006281324662268162
-0.0017329603433609009,-0.010147380642592907,-0.0033905645832419395,0.010112116113305092,0.00026035061455331743,-0.0058487653732299805
-0.0017500811954960227,-0.010039791464805603,-0.003612985135987401,0.010370495729148388,0.00028098031179979444,-0.006162184756249189
-0.0015996221918612719,-0.010480456985533237,-0.0037820241414010525,0.010063190013170242,0.0002745167294051498,-0.006589256227016449
-0.0016193692572414875,-0.009756789542734623,-0.0037325513549149036,0.010741274803876877,0.0002647010260261595,-0.006709810346364975
-0.0015184477670118213,-0.009918044321238995,-0.003452118020504713,0.010973704047501087,0.0003363623400218785,-0.006574577651917934
-0.0015184477670118213,-0.009918044321238995,-0.003452118020504713,0.010973704047501087,0.0003363623400218785,-0.006574577651917934
-0.0015165710356086493,-0.01069668773561716,-0.0031649526208639145,0.010138033889234066,0.0003242074162699282,-0.0066369748674333096
-0.0014354836894199252,-0.009820045903325081,-0.0034020631574094296,0.010598121210932732,0.0003555364382918924,-0.006747018545866013
-0.0013786702184006572,-0.00952779408544302,-0.003953686449676752,0.010084597393870354,0.0003403238661121577,-0.006420494522899389
-0.0014676646096631885,-0.010012572631239891,-0.004093858879059553,0.009637623094022274,0.00034659571247175336,-0.006408958230167627
-0.0013631839537993073,-0.009484002366662025,-0.0037483503110706806,0.010642381384968758,0.00035128879244439304,-0.006361051462590694
-0.0012850059429183602,-0.009192999452352524,-0.00338940741494298,0.01037239283323288,0.00036944367457181215,-0.006690453737974167
-0.001261760713532567,-0.009287400171160698,-0.0035036259796470404,0.009752150624990463,0.00036201023613102734,-0.006555501837283373
-0.0011922067496925592,-0.009010383859276772,-0.003830213565379381,0.009772643446922302,0.000345369684509933,-0.006246535107493401
-0.001178037142381072,-0.008968702517449856,-0.004010885488241911,0.009297216311097145,0.0004457371833268553,-0.0062395925633609295
-0.001040227827616036,-0.009292460046708584,-0.0039818864315748215,0.008867048658430576,0.00042153484537266195,-0.0063842241652309895
-0.0010892243590205908,-0.009044559672474861,-0.0038826335221529007,0.009078074246644974,0.0004530868900474161,-0.00638693617656827
-0.001070514670573175,-0.008749756030738354,-0.0034748646430671215,0.009023565798997879,0.0004264240269549191,-0.006614862475544214
-0.0010494663147255778,-0.00914745219051838,-0.0034031292889267206,0.009051981382071972,0.00039574821130372584,-0.006990531925112009
-0.0010758093558251858,-0.008268513716757298,-0.003493519499897957,0.009076795540750027,0.00040162893128581345,-0.007276497781276703
-0.0011429876321926713,-0.008660027757287025,-0.004074570722877979,0.008053109981119633,0.0004047321272082627,-0.006952093448489904
-0.0010350606171414256,-0.0089734410867095,-0.004238886758685112,0.008160554803907871,0.00040621397783979774,-0.0065687564201653
-0.0010711137438192964,-0.008141043595969677,-0.0035332890693098307,0.008694883435964584,0.00042156450217589736,-0.006588369142264128
-0.0010423558996990323,-0.008297702297568321,-0.002977372147142887,0.009291810914874077,0.0004183929704595357,-0.0066604530438780785
-0.0009314658236689866,-0.008242358453571796,-0.0034861210733652115,0.008801132440567017,0.00042432695045135915,-0.006821001879870892
-0.0009314658236689866,-0.008242358453571796,-0.0034861210733652115,0.008801132440567017,0.00042432695045135915,-0.006821001879870892
-0.0009064413025043905,-0.0077916095033288,-0.0038820989429950714,0.008072259835898876,0.0004512363811954856,-0.006505707744508982
-0.0009005205356515944,-0.008153893984854221,-0.0034206255804747343,0.007435586769133806,0.0004283570742700249,-0.006625128909945488
-0.0008603284950368106,-0.008357574231922626,-0.0026861694641411304,0.00800092052668333,0.0004549198492895812,-0.007124010473489761
-0.0007914886227808893,-0.008197919465601444,-0.0026898712385445833,0.008442752994596958,0.0004324155452195555,-0.007218895945698023
-0.0008025577990338206,-0.008223459124565125,-0.003018611343577504,0.008539094589650631,0.0005469474126584828,-0.006578892003744841
-0.0007576947100460529,-0.008325867354869843,-0.0035222540609538555,0.007851098664104939,0.0005452720797620714,-0.006295914761722088
-0.0007576947100460529,-0.008325867354869843,-0.0035222540609538555,0.007851098664104939,0.0005452720797620714,-0.006295914761722088
-0.0007686317549087107,-0.008729451335966587,-0.004092884715646505,0.008800572715699673,0.0005348419072106481,-0.0063474043272435665
-0.0006851271609775722,-0.007895548827946186,-0.003519360674545169,0.008605816401541233,0.0005489398026838899,-0.0066695436835289
-0.0007050965214148164,-0.008122630417346954,-0.0029427704866975546,0.008593585342168808,0.0005220603197813034,-0.006532130762934685
-0.0006968331290408969,-0.008929288946092129,-0.0022651045583188534,0.008256389759480953,0.0005339052295312285,-0.006358629558235407
-0.0006612774450331926,-0.008503494784235954,-0.0025357408449053764,0.008356695994734764,0.0005126561736688018,-0.0065382095053792
-0.0006807686877436936,-0.00788205023854971,-0.0034866209607571363,0.007984673604369164,0.0005655832355841994,-0.007044555153697729
-0.0007063174853101373,-0.008144772611558437,-0.0038779578171670437,0.007905058562755585,0.0006037020939402282,-0.006997540593147278
-0.0006361369742080569,-0.008093967102468014,-0.003473085816949606,0.00778358755633235,0.0006277093780227005,-0.0067048207856714725
-0.0006626631366088986,-0.007502449676394463,-0.002974434057250619,0.008008090779185295,0.0006209910498000681,-0.006755213253200054
-0.0006007171468809247,-0.008230877108871937,-0.002764425938948989,0.008195372298359871,0.0006057480932213366,-0.006864144466817379
-0.0006256125634536147,-0.008570815436542034,-0.0034683493431657553,0.008160223253071308,0.0007411555852741003,-0.007105205208063126
-0.0006481373566202819,-0.007989230565726757,-0.0039520906284451485,0.007905402220785618,0.0007581294048577547,-0.006680272985249758
-0.0005988338962197304,-0.007542365696281195,-0.003531194059178233,0.007976468652486801,0.0006919272127561271,-0.006366838235408068
-0.0006301021785475314,-0.007562656421214342,-0.002949873683974147,0.00783422589302063,0.0007030602428130805,-0.007337234914302826
-0.0005678312736563385,-0.007886258885264397,-0.0027852647472172976,0.007648308761417866,0.000687506515532732,-0.008038012310862541
-0.0005473484052345157,-0.007471895311027765,-0.003697082633152604,0.0073879011906683445,0.0006456701084971428,-0.006951051764190197
-0.0005035950453020632,-0.00772048206999898,-0.0037684363778680563,0.006823292933404446,0.0005952712381258607,-0.006960252765566111
-0.0005319582996889949,-0.007673556450754404,-0.0036305265966802835,0.006670580245554447,0.0006254047621041536,-0.007245213259011507
-0.000496179040055722,-0.007159811444580555,-0.003208969719707966,0.007339627481997013,0.0006352585041895509,-0.00723313121125102
-0.00046419454156421125,-0.007393983192741871,-0.00356450118124485,0.007613640744239092,0.0005966662429273129,-0.007112144026905298
-0.0004360760503914207,-0.007497743703424931,-0.0034208158031105995,0.007155215367674828,0.0006187673425301909,-0.006652971263974905
-0.0004111689340788871,-0.007373136002570391,-0.0040130168199539185,0.00662956153973937,0.000640704995021224,-0.0066078887321054935
-0.00038895360194146633,-0.0069908257573843,-0.0036407478619366884,0.006666474975645542,0.0006789231556467712,-0.0067919958382844925
-0.00037202530074864626,-0.007057647220790386,-0.003565587569028139,0.006913698744028807,0.0006536701112054288,-0.0072827707044780254
-0.0003169518895447254,-0.0073300497606396675,-0.0036476932000368834,0.006901606451719999,0.0006769511965103447,-0.007308059372007847
-0.0002957286487799138,-0.007438743021339178,-0.003229317022487521,0.006366122048348188,0.0006812416249886155,-0.007322099059820175
-0.0002774842141661793,-0.007223405409604311,-0.0034008249640464783,0.006009889300912619,0.000640827405732125,-0.00690865982323885
-0.0002774842141661793,-0.007223405409604311,-0.0034008249640464783,0.006009889300912619,0.000640827405732125,-0.00690865982323885
-0.00026136633823625743,-0.0072195022366940975,-0.0036951303482055664,0.006268508732318878,0.0007138589862734079,-0.007323900703340769
-0.00024701718939468265,-0.0074606165289878845,-0.0037916190922260284,0.00679252902045846,0.000818761414848268,-0.007471953518688679
-0.00023416215844918042,-0.007408250123262405,-0.003584526013582945,0.0069780657067894936,0.0007752830861136317,-0.007551692891865969
-0.00022257865930441767,-0.007094330154359341,-0.0034372343216091394,0.0068589779548347,0.0007854242576286197,-0.0070469495840370655
-0.00021208774705883116,-0.007369511295109987,-0.0035350900143384933,0.0072426325641572475,0.0007789818337187171,-0.007127565797418356
-0.00020254134142305702,-0.007864310406148434,-0.003651936538517475,0.007481141947209835,0.0007297807023860514,-0.007510398514568806
-0.00019381717720534652,-0.007506272755563259,-0.0035248452331870794,0.006884897127747536,0.0007895926246419549,-0.007595533039420843
-0.0001858137984527275,-0.006904270965605974,-0.003555812407284975,0.0063009364530444145,0.0007981806993484497,-0.0074110375717282295
-0.0001784449996193871,-0.0071923332288861275,-0.003742652013897896,0.006513421889394522,0.000770356273278594,-0.007362316362559795
-0.0001716386032057926,-0.007671344559639692,-0.00393931707367301,0.006229752209037542,0.0007366340141743422,-0.007384576369076967
-0.00016533229791093618,-0.007812452968209982,-0.0036452182102948427,0.006081331986933947,0.0007487333496101201,-0.0074660032987594604
-0.00015947305655572563,-0.007190365809947252,-0.003510386450216174,0.0060021039098501205,0.0007497674087062478,-0.007058403454720974
-0.00014891783939674497,-0.006905123125761747,-0.0033310751896351576,0.006202541757375002,0.0007958937203511596,-0.007515300530940294
-0.00014414753240998834,-0.007371929474174976,-0.0034896524157375097,0.006249979138374329,0.0008078451501205564,-0.008171196095645428
-0.00013967350241728127,-0.008103122003376484,-0.0037564414087682962,0.006369787268340588,0.0008704994106665254,-0.0078559760004282
-0.0001354685373371467,-0.006898949854075909,-0.003916765563189983,0.006059566512703896,0.0009584777872078121,-0.007506801281124353
-0.0001315096451435238,-0.007052410859614611,-0.003947803750634193,0.006024135276675224,0.0009548816597089171,-0.007316209375858307
-0.00012777571100741625,-0.007328417152166367,-0.003375975415110588,0.005928416270762682,0.0008585198083892465,-0.007867331616580486
-0.00010039826884167269,-0.007430717349052429,-0.0030944813042879105,0.005742011591792107,0.0008575038518756628,-0.007690319791436195
-9.67408122960478e-05,-0.007053679786622524,-0.0033305103424936533,0.005574206355959177,0.0008354813326150179,-0.007958480156958103
-9.419664274901152e-05,-0.007005315739661455,-0.0033166713546961546,0.005248497240245342,0.000729180930647999,-0.0077059329487383366
-9.17946090339683e-05,-0.007130351848900318,-0.0035840203054249287,0.005185014568269253,0.0007451411220245063,-0.00855446606874466
-8.951230847742409e-05,-0.007127074990421534,-0.0036366404965519905,0.0043652900494635105,0.0007417196175083518,-0.00802615750581026
-8.734055882086977e-05,-0.006744665093719959,-0.0036254236474633217,0.005239538848400116,0.0007575813797302544,-0.008073163218796253
-6.44657266093418e-05,-0.006666169501841068,-0.0032123681157827377,0.005266990978270769,0.000770072394516319,-0.007952728308737278
0.0001335644774371758,-0.007258335128426552,-0.002886610571295023,0.0049486407078802586,0.0008180707809515297,-0.007937435060739517
0.0021345934364944696,-0.007650974206626415,-0.0032588434405624866,0.004700799472630024,0.0008313044090755284,-0.007545776665210724
0.0021345934364944696,-0.007650974206626415,-0.0032588434405624866,0.004700799472630024,0.0008313044090755284,-0.007545776665210724
0.0020296545699238777,-0.00675541814416647,-0.003775227814912796,0.004326632712036371,0.0008539838599972427,-0.007966008968651295
0.0005312939756549895,-0.006877044215798378,-0.0038085568230599165,0.004007895942777395,0.0009905258193612099,-0.008316228166222572
3.697623833431862e-05,-0.007887205109000206,-0.003472460899502039,0.0044067781418561935,0.001024597673676908,-0.007976608350872993
4.960834303346928e-07,-0.0071020242758095264,-0.003233283990994096,0.004721452482044697,0.0009515712736174464,-0.00776657834649086
6.655592521553899e-09,-0.0072189634665846825,-0.003036872483789921,0.004640001337975264,0.0009408699115738273,-0.00795327965170145
8.929327416362653e-11,-0.007348738145083189,-0.003518065670505166,0.00443885987624526,0.0008924368303269148,-0.008058051578700542
1.1979832273759095e-12,-0.007338263094425201,-0.0038130006287246943,0.004459759220480919,0.0008958783000707626,-0.007515734992921352
1.6072475585138767e-14,-0.007125307805836201,-0.003958362154662609,0.0040511637926101685,0.0009315518545918167,-0.00796379055827856
2.1563277727255307e-16,-0.007188057992607355,-0.003627544501796365,0.0035421326756477356,0.0009297232609242201,-0.008234621025621891
2.892988918968472e-18,-0.007300801109522581,-0.003135166596621275,0.0033988691866397858,0.0008540512062609196,-0.008142289705574512
3.881313672327509e-20,-0.00756811210885644,-0.003418008331209421,0.003461542073637247,0.0008985574822872877,-0.007729481905698776
5.20727765112212e-22,-0.007695736829191446,-0.0038618312682956457,0.0035022704396396875,0.0009009307832457125,-0.00801943801343441
0.0006618691841140389,-0.007091553881764412,-0.003911783918738365,0.003378967521712184,0.0008748311083763838,-0.00876130536198616
0.0006139639881439507,-0.0075915297493338585,-0.003196185687556863,0.0033600209280848503,0.0008527416503056884,-0.008030745200812817
0.0005547702312469482,-0.00761761050671339,-0.00316873867996037,0.0035101398825645447,0.0008784302626736462,-0.008130707778036594
0.0005031098844483495,-0.007357248105108738,-0.0035397333558648825,0.0037149651907384396,0.0009000863647088408,-0.007937101647257805
0.0005336898611858487,-0.0073152207769453526,-0.0039519984275102615,0.003366075223311782,0.0009091041865758598,-0.007527428213506937
0.0005568499909713864,-0.006950214505195618,-0.004004368558526039,0.0030735235195606947,0.0011627892963588238,-0.007929118350148201
0.0005696426960639656,-0.006836575921624899,-0.003695856314152479,0.003113609040156007,0.0010645228903740644,-0.0081546101719141
0.0006795062217861414,-0.007018076255917549,-0.0034537932369858027,0.003031802363693714,0.0010336729465052485,-0.008196491748094559
0.0007239773403853178,-0.006760486867278814,-0.0031694911886006594,0.003113385522738099,0.0010053993901237845,-0.007951880805194378
0.0010627481387928128,-0.006977383978664875,-0.0035799623001366854,0.0027672413270920515,0.0009027018095366657,-0.007860292680561543
0.0011390679283067584,-0.0071641830727458,-0.004001970868557692,0.002704296028241515,0.0008007889846339822,-0.008195196278393269
0.0009906718041747808,-0.007431431673467159,-0.004129051696509123,0.002306021749973297,0.0007994521874934435,-0.008261874318122864
0.0009749788441695273,-0.006912549491971731,-0.0035181534476578236,0.002132287248969078,0.000796167878434062,-0.00788052286952734
0.0009516533464193344,-0.006556091830134392,-0.0035045547410845757,0.0019833985716104507,0.0007811012910678983,-0.0079538868740201
0.0009623851510696113,-0.006885641720145941,-0.003156194929033518,0.0019342475570738316,0.0007493863231502473,-0.008278933353722095
0.0010808954248204827,-0.007404921110719442,-0.003475276054814458,0.001939307781867683,0.0008294763974845409,-0.008125439286231995
0.0010808954248204827,-0.007404921110719442,-0.003475276054814458,0.001939307781867683,0.0008294763974845409,-0.008125439286231995
0.0019315029494464397,-0.007094843778759241,-0.004255451261997223,0.001933243009261787,0.0008435854688286781,-0.008236391469836235
0.0020470451563596725,-0.00669882632791996,-0.0036070735659450293,0.0020868557039648294,0.0008796708425506949,-0.008259025402367115
0.002124314894899726,-0.007195943500846624,-0.0031643337570130825,0.0020698150619864464,0.0009695468470454216,-0.008262703195214272
0.001807957305572927,-0.007217981852591038,-0.0032632474321871996,0.002044000430032611,0.001013840432278812,-0.007984875701367855
0.0016306373290717602,-0.007085239980369806,-0.003790505463257432,0.0019925604574382305,0.0009250604780390859,-0.008058655075728893
0.0016664970899000764,-0.006878798361867666,-0.004015907645225525,0.001831921050325036,0.0009074189583770931,-0.008279148489236832
0.001818756340071559,-0.006646407768130302,-0.003945272881537676,0.0016751658404245973,0.0008065996807999909,-0.00816383771598339
0.0021057575941085815,-0.006858786568045616,-0.003840924706310034,0.0016744793392717838,0.0008036077488213778,-0.008195440284907818
0.0024023063015192747,-0.0066620525903999805,-0.0033692410215735435,0.0017636683769524097,0.0007335756090469658,-0.008677232079207897
0.0022905764635652304,-0.006703880615532398,-0.0035658390261232853,0.0016510917339473963,0.00063958705868572,-0.008284269832074642
0.0023672955576330423,-0.006855059415102005,-0.003854965791106224,0.0016635548090562224,0.0006503602489829063,-0.008023269474506378
0.0024958017747849226,-0.006605732720345259,-0.003884324338287115,0.001664403942413628,0.0006635708268731833,-0.008184612728655338
0.002703648991882801,-0.006566723342984915,-0.0036204271018505096,0.0015579145401716232,0.0006486477795988321,-0.00831771269440651
0.0028965254314243793,-0.006848252844065428,-0.0036863950081169605,0.0014520669355988503,0.0008773180888965726,-0.008370067924261093
0.002809713128954172,-0.006975675467401743,-0.003946792799979448,0.0013666958548128605,0.0008274413994513452,-0.008915617130696774
0.0028874718118458986,-0.006510830018669367,-0.004106159787625074,0.0011795909376814961,0.0008334699086844921,-0.008774706162512302
0.0031081850174814463,-0.006576170213520527,-0.004044327884912491,0.0011227093636989594,0.0008338176412507892,-0.009004291146993637
0.003481317777186632,-0.006615618709474802,-0.0034581301733851433,0.0010604714043438435,0.0007634697249159217,-0.008635924197733402
0.003770803799852729,-0.0067017050459980965,-0.003567235544323921,0.0009508156799711287,0.0007629444589838386,-0.008822115138173103
0.003367382101714611,-0.006589627359062433,-0.003918098285794258,0.0008179735741578043,0.0007722615264356136,-0.008545556105673313
0.0036309154238551855,-0.0068168845027685165,-0.004132005386054516,0.0006756169022992253,0.000772921834141016,-0.008804747834801674
0.0036309154238551855,-0.0068168845027685165,-0.004132005386054516,0.0006756169022992253,0.000772921834141016,-0.008804747834801674
0.003983193542808294,-0.00649418868124485,-0.0040610795840620995,0.0005860624951310456,0.0007863536011427641,-0.009051281958818436
0.004101981408894062,-0.006781204137951136,-0.003523565363138914,0.0005680195754393935,0.0007393481209874153,-0.009381800889968872
0.004031920339912176,-0.006334142293781042,-0.0032548250164836645,0.0005541038699448109,0.0008302399073727429,-0.008319977670907974
0.004446942824870348,-0.0061529106460511684,-0.0034112168941646814,0.0005051345215179026,0.0008776120957918465,-0.008183546364307404
0.004340577870607376,-0.006694604642689228,-0.003762926207855344,0.0004620535473804921,0.0008830124279484153,-0.008742889389395714
0.004241928458213806,-0.006439495366066694,-0.0038545322604477406,0.00042561686132103205,0.001028702943585813,-0.00908356811851263
0.004469538573175669,-0.0057607246562838554,-0.00380354980006814,0.00045126109034754336,0.0011996631510555744,-0.009199452586472034
0.004706982988864183,-0.0063840169459581375,-0.003647350473329425,0.00042830791790038347,0.001182473381049931,-0.009140219539403915
0.004727314226329327,-0.0062429108656942844,-0.0034477754961699247,0.00040150308632291853,0.0012149701360613108,-0.008823592215776443
0.005210967268794775,-0.005918811075389385,-0.003624166827648878,0.00037746838643215597,0.0012954870471730828,-0.008799185045063496
0.005594313610345125,-0.006087219342589378,-0.003863577265292406,0.00035612439387477934,0.0012326990254223347,-0.009355015121400356
0.005462571978569031,-0.005726812407374382,-0.004169910214841366,0.00033706382964737713,0.0011899035889655352,-0.009179523214697838
0.005837475880980492,-0.005840997211635113,-0.003921877592802048,0.00031993939774110913,0.001186314388178289,-0.009762424975633621
0.005539901088923216,-0.005715683568269014,-0.003399454988539219,0.0003044730401597917,0.0012270233128219843,-0.009652525186538696
0.0058515118435025215,-0.006219792645424604,-0.0034053095150738955,0.0002904327120631933,0.0011353102745488286,-0.009348935447633266
0.006054590456187725,-0.00568744819611311,-0.0038802025374025106,0.0002776307810563594,0.0012484610779210925,-0.00936848297715187
0.006203657481819391,-0.005773639772087336,-0.004085182677954435,0.0002659111632965505,0.0012146085500717163,-0.009321403689682484
0.006511005572974682,-0.005984604824334383,-0.004021721426397562,0.00025513936998322606,0.0011821786174550653,-0.009443451650440693
0.005935695953667164,-0.005897897761315107,-0.003275675233453512,0.0002360209618927911,0.001212028437294066,-0.009902880527079105
0.006730340421199799,-0.005428844131529331,-0.003399051958695054,0.0002274958969792351,0.0011829265858978033,-0.009685062803328037
0.007011180277913809,-0.0053256512619555,-0.0036557831335812807,0.00021962843311484903,0.0012574698776006699,-0.009549273177981377
0.006922110449522734,-0.005455248057842255,-0.00419645244255662,8.356991747859865e-05,0.0012505039339885116,-0.009855203330516815
0.007283953949809074,-0.005447017028927803,-0.0042774188332259655,7.195003854576498e-05,0.001155853271484375,-0.009640669450163841
0.006717462558299303,-0.005463975481688976,-0.0035300154704600573,6.866354669909924e-05,0.0010542882373556495,-0.009251187555491924
0.006965127307921648,-0.005534800700843334,-0.003177143167704344,6.610597483813763e-05,0.0009600475896149874,-0.008993400260806084
0.006894065532833338,-0.005157459992915392,-0.0032579030375927687,6.376161763910204e-05,0.001019989256747067,-0.009251214563846588
0.006993744522333145,-0.00574122229591012,-0.004217512905597687,6.157978350529447e-05,0.0010405201464891434,-0.009812206029891968
0.00719014648348093,-0.005429367069154978,-0.004042345564812422,3.1781655707163736e-05,0.001050157705321908,-0.009820510633289814
0.00719014648348093,-0.005429367069154978,-0.004042345564812422,3.1781655707163736e-05,0.001050157705321908,-0.009820510633289814
0.007284544408321381,-0.005117136053740978,-0.0035030851140618324,2.8949194529559463e-05,0.0011027073487639427,-0.009981099516153336
0.007408242207020521,-0.005637463182210922,-0.0031521376222372055,2.793225576169789e-05,0.001072847517207265,-0.010143563151359558
0.007425567135214806,-0.005356336012482643,-0.0034282857086509466,1.8237768699691514e-06,0.0010566101409494877,-0.009836940094828606
0.007090706843882799,-0.005286856088787317,-0.003952972590923309,1.1907960129065032e-07,0.0011430481681600213,-0.009835374541580677
0.007868355140089989,-0.005364958196878433,-0.0039253318682312965,7.775046384494999e-09,0.001114494283683598,-0.009883525781333447
0.007777325809001923,-0.005524014588445425,-0.0036285235546529293,5.076549736138247e-10,0.0011172944214195013,-0.01006262842565775
0.007782283239066601,-0.005174738820642233,-0.00343919126316905,3.31462461644616e-11,0.0011338163167238235,-0.009775319136679173
0.007153281942009926,-0.004776806104928255,-0.0035536743234843016,2.1642130362126144e-12,0.001091166166588664,-0.009774034842848778
0.008181811310350895,-0.004840448964387178,-0.003751738928258419,1.4130763345467784e-13,0.0010580535745248199,-0.010417784564197063
0.008691138587892056,-0.005321445409208536,-0.0038726157508790493,-0.0010982966050505638,0.0010344930924475193,-0.010068128816783428
0.008242328651249409,-0.005096964538097382,-0.004395745694637299,-0.0013219013344496489,0.000982009805738926,-0.00996786542236805
0.008183610625565052,-0.005462024360895157,-0.004071425646543503,-0.0018136395374312997,0.0009785497095435858,-0.010127831250429153
0.008909773081541061,-0.005202759522944689,-0.0034529215190559626,-0.001965851988643408,0.000985759194009006,-0.010153384879231453
0.00868203118443489,-0.004487273283302784,-0.003376659704372287,-0.0025803488679230213,0.0009836707031354308,-0.009927455335855484
0.008816595189273357,-0.004449537955224514,-0.004358294419944286,-0.003467555157840252,0.0011580359423533082,-0.009737956337630749
0.008850155398249626,-0.004981459584087133,-0.004263146780431271,-0.004124281462281942,0.0011799833737313747,-0.009877952747046947
0.008801814168691635,-0.005268641747534275,-0.004086595494300127,-0.004108376335352659,0.0011805164394900203,-0.009985976852476597
0.009364637546241283,-0.004909589886665344,-0.0035744456108659506,-0.00487716356292367,0.0011269517708569765,-0.009538503363728523
0.009364637546241283,-0.004909589886665344,-0.0035744456108659506,-0.00487716356292367,0.0011269517708569765,-0.009538503363728523
0.009131236001849174,-0.00435241311788559,-0.004304408561438322,-0.006001048721373081,0.0010588086443021894,-0.010043999180197716
0.009459654800593853,-0.0045195515267550945,-0.004614514298737049,-0.006024420727044344,0.0009567177039571106,-0.00967577937990427
0.010147581808269024,-0.004716731142252684,-0.004229390528053045,-0.006841612979769707,0.0010258262045681477,-0.010171218775212765
0.009146066382527351,-0.004741182085126638,-0.0038881776854395866,-0.006746275816112757,0.0010461455676704645,-0.010130926966667175
0.009871174581348896,-0.004651584662497044,-0.003844546852633357,-0.007055582478642464,0.0013194689527153969,-0.010014357045292854
0.010150812566280365,-0.004436220042407513,-0.003973755519837141,-0.0073378607630729675,0.0014871851308271289,-0.010321184061467648
0.010150812566280365,-0.004436220042407513,-0.003973755519837141,-0.0073378607630729675,0.0014871851308271289,-0.010321184061467648
0.009916751645505428,-0.004376957658678293,-0.004174876492470503,-0.0072887665592134,0.0016582667594775558,-0.010485975071787834
0.009916751645505428,-0.004376957658678293,-0.004174876492470503,-0.0072887665592134,0.0016582667594775558,-0.010485975071787834
0.010690966621041298,-0.0045867604203522205,-0.004190698731690645,-0.007868405431509018,0.001507340231910348,-0.01018014270812273
0.010700203478336334,-0.00444796122610569,-0.0039548794738948345,-0.00732559384778142,0.0013298292178660631,-0.010455462150275707
0.010356228798627853,-0.004550350364297628,-0.00368981109932065,-0.006729953922331333,0.0011653341352939606,-0.010290039703249931
0.010558480396866798,-0.0043823313899338245,-0.0036551596131175756,-0.007518375292420387,0.001109987497329712,-0.010210881009697914
0.009782777167856693,-0.0040475851856172085,-0.0043028732761740685,-0.007574908901005983,0.0011309378314763308,-0.01005254965275526
0.010210699401795864,-0.0038263986352831125,-0.004655695054680109,-0.007130139973014593,0.0012442214647307992,-0.010571085847914219
0.010739313438534737,-0.0036943245213478804,-0.004094457253813744,-0.006186522077769041,0.0013562727253884077,-0.010323484428226948
0.0101309884339571,-0.003653439227491617,-0.003743246663361788,-0.006988133303821087,0.001553658745251596,-0.01091077085584402
0.010453816503286362,-0.004338179714977741,-0.004100831691175699,-0.008473727852106094,0.0016653347993269563,-0.010867040604352951
0.010276530869305134,-0.004152465146034956,-0.004158404655754566,-0.008837233297526836,0.0015434700762853026,-0.01051078736782074
0.01055866852402687,-0.0038726895581930876,-0.0041885157115757465,-0.008128439076244831,0.0015614124713465571,-0.010625150054693222
0.010926428250968456,-0.0037030100356787443,-0.004012783523648977,-0.008439521305263042,0.0014475224306806922,-0.010725410655140877
0.010792683809995651,-0.003677964210510254,-0.004441045690327883,-0.008485582657158375,0.0014601979637518525,-0.010862589813768864
0.01105828583240509,-0.0032322430051863194,-0.004026911221444607,-0.008371962234377861,0.0014066515723243356,-0.010416880249977112
0.010781596414744854,-0.0033097686246037483,-0.00391508499160409,-0.009399988688528538,0.0013293614611029625,-0.01102275401353836
0.0114838145673275,-0.003603152232244611,-0.004435651004314423,-0.009575345553457737,0.0012887773336842656,-0.010812406428158283
0.010968824848532677,-0.0033973960671573877,-0.004597848281264305,-0.009298080578446388,0.001311508589424193,-0.010904193855822086
0.009148969314992428,-0.003499592887237668,-0.004168310202658176,-0.009743704460561275,0.001291860593482852,-0.010930982418358326
0.008845877833664417,-0.003209169954061508,-0.003840846475213766,-0.009356525726616383,0.001398037769831717,-0.010974491946399212
0.009184545837342739,-0.0034223764669150114,-0.00409435760229826,-0.009815903380513191,0.0013576498022302985,-0.011367308907210827
0.009578672237694263,-0.0036606884095817804,-0.004141570068895817,-0.010191117413341999,0.0014746657107025385,-0.011243940331041813
0.009648595005273819,-0.0032939284574240446,-0.0043197390623390675,-0.009896908886730671,0.0015535496640950441,-0.011513816192746162
0.009721415117383003,-0.003092400263994932,-0.004019264131784439,-0.00960417091846466,0.001885605975985527,-0.011229852214455605
0.009721415117383003,-0.003092400263994932,-0.004019264131784439,-0.00960417091846466,0.001885605975985527,-0.011229852214455605
0.009162822738289833,-0.002966309431940317,-0.004289988894015551,-0.010963669046759605,0.0019517363980412483,-0.011687318794429302
0.009990507736802101,-0.0032340851612389088,-0.004128183238208294,-0.010442580096423626,0.0018919148715212941,-0.01158810593187809
0.010163885541260242,-0.003161594970151782,-0.0045027961023151875,-0.011526187881827354,0.0017709174426272511,-0.011339801363646984
0.009693542495369911,-0.0030594090931117535,-0.0043863216415047646,-0.01152690127491951,0.0016888914396986365,-0.011409464292228222
0.009982745163142681,-0.003023578319698572,-0.004294991958886385,-0.011129719205200672,0.0016665785806253552,-0.011535776779055595
0.009744907729327679,-0.003089434700086713,-0.003922802861779928,-0.011300090700387955,0.001520418911240995,-0.011163267306983471
0.0107184499502182,-0.0031034161802381277,-0.003771839663386345,-0.010624132119119167,0.0013961043441668153,-0.011530519463121891
0.01040042843669653,-0.0029410419519990683,-0.0043613482266664505,-0.010644320398569107,0.0013927198015153408,-0.011398045346140862
0.010312878526747227,-0.0027069407515227795,-0.004491514526307583,-0.010988063178956509,0.001360284979455173,-0.011689096689224243
0.010313659906387329,-0.0025502413045614958,-0.004260572139173746,-0.011011521331965923,0.001525826402939856,-0.011412174440920353
0.01098437700420618,-0.0024940711446106434,-0.003936371766030788,-0.011137300170958042,0.0015561695909127593,-0.011307105422019958
0.010802480392158031,-0.0023686527274549007,-0.0037341380957514048,-0.011495759710669518,0.0017744312062859535,-0.01139649748802185
0.011653794907033443,-0.0026475866325199604,-0.004285248927772045,-0.010995852760970592,0.0022151859011501074,-0.011075839400291443
0.011118498630821705,-0.0024616788141429424,-0.004375474061816931,-0.011481398716568947,0.0020213641691952944,-0.01116890087723732
0.011831560172140598,-0.0022192993201315403,-0.0040110438130795956,-0.011310044676065445,0.0019890402909368277,-0.011351131834089756
0.011594145558774471,-0.0021689492277801037,-0.003697475651279092,-0.011421293020248413,0.0019118409836664796,-0.012122600339353085
0.011858555488288403,-0.002250176854431629,-0.003768179565668106,-0.011153873056173325,0.001763037871569395,-0.012097635306417942
0.011765571311116219,-0.0024050362408161163,-0.004462752025574446,-0.011180979199707508,0.0016214235220104456,-0.01188312191516161
0.011945339851081371,-0.002290660049766302,-0.004636955447494984,-0.011905110441148281,0.001537599484436214,-0.011660032905638218
0.01170392706990242,-0.002264917828142643,-0.00446534575894475,-0.01218603365123272,0.0015078815631568432,-0.011772310361266136
0.011397227644920349,-0.0021441553253680468,-0.004246139898896217,-0.012616622261703014,0.001539040938951075,-0.012002182193100452
0.012047359719872475,-0.0017108545871451497,-0.004115698859095573,-0.011694403365254402,0.0017108430620282888,-0.012097809463739395
0.012047359719872475,-0.0017108545871451497,-0.004115698859095573,-0.011694403365254402,0.0017108430620282888,-0.012097809463739395
0.012029503472149372,-0.0016479834448546171,-0.004072543699294329,-0.011294564232230186,0.0017013797769322991,-0.01199333742260933
0.011579508893191814,-0.0015387930907309055,-0.004401644691824913,-0.011200357228517532,0.0018041362054646015,-0.012083711102604866
0.012079248204827309,-0.001537417178042233,-0.004711874760687351,-0.010936623439192772,0.0017296373844146729,-0.01158783957362175
0.011811783537268639,-0.0015978928422555327,-0.004072095267474651,-0.011064077727496624,0.0016781567828729749,-0.012320815585553646
0.012203266844153404,-0.0018916581757366657,-0.0034210130106657743,-0.010990483686327934,0.0015563714550808072,-0.011720305308699608
0.01228821836411953,-0.0018804509891197085,-0.003424624679610133,-0.011592230759561062,0.0014114964287728071,-0.011695023626089096
0.011786210350692272,-0.0016196751967072487,-0.00427811685949564,-0.012118435464799404,0.0013571223244071007,-0.01209395844489336
0.012005463242530823,-0.0014338541077449918,-0.0045407176949083805,-0.011919139884412289,0.0014026238350197673,-0.01203241664916277
0.011805658228695393,-0.00083344237646088,-0.004057085607200861,-0.012218978255987167,0.0013991286978125572,-0.012391513213515282
0.012955429963767529,-0.0004896088503301144,-0.0038392236456274986,-0.01168025378137827,0.0018616776214912534,-0.01245797984302044
0.012188457883894444,-0.000399607204599306,-0.004160471260547638,-0.012018569745123386,0.0017736147856339812,-0.012725402601063251
0.012129568494856358,-0.00042298174230381846,-0.004341118969023228,-0.012417176738381386,0.0018297245260328054,-0.012407871894538403
0.012049299664795399,-0.0004108211142010987,-0.004234577063471079,-0.01236660871654749,0.0018245258834213018,-0.012452912516891956
0.01197218056768179,-0.00012153411080362275,-0.00403117761015892,-0.012918127700686455,0.0015699326759204268,-0.012729479931294918
0.012151566334068775,-0.00010423839557915926,-0.0038167666643857956,-0.0128234988078475,0.0015879884595051408,-0.012418759055435658
0.012124260887503624,-9.337332448922098e-05,-0.0037569934502243996,-0.013292351737618446,0.0015179713955149055,-0.012564413249492645
0.012376820668578148,-8.459210948785767e-05,-0.0039059147238731384,-0.013017692603170872,0.001669605728238821,-0.012329957447946072
0.01238955557346344,-7.732139783911407e-05,-0.004371405113488436,-0.01332857832312584,0.001620113500393927,-0.012594237923622131
0.012938400730490685,-1.3917577312838603e-08,-0.0037934384308755398,-0.013413620181381702,0.0018410015618428588,-0.012868903577327728
0.012938400730490685,-1.3917577312838603e-08,-0.0037934384308755398,-0.013413620181381702,0.0018410015618428588,-0.012868903577327728
0.012819449417293072,-2.5051148221794106e-12,-0.003693168517202139,-0.013458906672894955,0.0018667543772608042,-0.013281937688589096
0.012443320825695992,-3.3609315282017924e-14,-0.004196158144623041,-0.013967623002827168,0.001768485177308321,-0.013300548307597637
0.01299540139734745,-4.509118484819592e-16,-0.0043193381279706955,-0.01412549614906311,0.0017129103653132915,-0.01311859767884016
0.012858124449849129,-6.049557699356047e-18,-0.004556950647383928,-0.014121626503765583,0.0016965060494840145,-0.013241481967270374
0.012911157682538033,-8.116252872635119e-20,-0.00410606199875474,-0.013704599812626839,0.001794007490389049,-0.01297073531895876
0.013103136792778969,-1.088898962972511e-21,-0.0035525767598301172,-0.014222081750631332,0.0022448506206274033,-0.012928849086165428
0.012866864912211895,-1.4608970324051283e-23,-0.003439419437199831,-0.014565517194569111,0.0020965381991118193,-0.01229594461619854
0.013570048846304417,-1.9599796462469035e-25,-0.0041565787978470325,-0.014730265364050865,0.0019599718507379293,-0.013134047389030457
0.013570048846304417,-1.9599796462469035e-25,-0.0041565787978470325,-0.014730265364050865,0.0019599718507379293,-0.013134047389030457
0.012635327875614166,-2.6295628643722737e-27,-0.004233934450894594,-0.01466988306492567,0.0018494647229090333,-0.01328152697533369
0.013133330270648003,-3.52789409707768e-29,-0.004252633545547724,-0.014961913228034973,0.0015814343933016062,-0.01346631534397602
0.013223402202129364,-4.733119540026615e-31,-0.004117717035114765,-0.015166563913226128,0.0015343088889494538,-0.013582793064415455
0.013810940086841583,-6.350084400647323e-33,-0.003919137176126242,-0.015228782780468464,0.0015050034271553159,-0.01330887246876955
0.012973282486200333,-8.519448686966671e-35,-0.003759930143132806,-0.015315174125134945,0.0017750004772096872,-0.012898534536361694
0.013590778224170208,-1.1429927463446148e-36,-0.00421707471832633,-0.015450445003807545,0.0019475502194836736,-0.012895031832158566
0.013077020645141602,-1.533470617038091e-38,-0.004501627758145332,-0.016241366043686867,0.002236627507954836,-0.013450470753014088
0.01333850808441639,-2.0573443663677667e-40,-0.004376455210149288,-0.01599905826151371,0.0023000878281891346,-0.013729872182011604
0.013346574269235134,-2.7605579747198896e-42,-0.004405948333442211,-0.016084294766187668,0.0022581415250897408,-0.013937816023826599
0.013022533617913723,-3.6433760072445244e-44,-0.004307757131755352,-0.015486552380025387,0.0021285966504365206,-0.01367309782654047
0.013316325843334198,-0.0,-0.00423504738137126,-0.01628977619111538,0.001997236628085375,-0.013281682506203651
0.013450183905661106,0.0,-0.004105997271835804,-0.01636730320751667,0.0018377993255853653,-0.012847945094108582
0.013866450637578964,0.0,-0.003914910834282637,-0.016199462115764618,0.0017484658164903522,-0.013126996345818043
0.013543384149670601,0.0,-0.0038681074511259794,-0.01634940318763256,0.0018008481711149216,-0.013158868066966534
0.013264600187540054,0.0,-0.00429226690903306,-0.01602633111178875,0.0018286948325112462,-0.012996458448469639
0.013112037442624569,0.0,-0.003977028653025627,-0.016783561557531357,0.001994746970012784,-0.013684830628335476
0.014119520783424377,0.0,-0.0041808015666902065,-0.016690609976649284,0.0019161953823640943,-0.013797578401863575
0.013536324724555016,0.0,-0.004267058335244656,-0.017021384090185165,0.001894779154099524,-0.014513103291392326
0.014100356958806515,0.0,-0.004506726749241352,-0.016698960214853287,0.0018887814367190003,-0.013663778081536293
0.01418359950184822,0.0,-0.003936232067644596,-0.017630690708756447,0.0019260270055383444,-0.013712605461478233
0.014898940920829773,0.0,-0.003966934978961945,-0.017236094921827316,0.0019244380528107285,-0.013972681015729904
0.014027521014213562,0.0,-0.0038996257353574038,-0.01796073652803898,0.0019178204238414764,-0.013981299474835396
0.013290836475789547,0.0,-0.0038386513479053974,-0.01771441474556923,0.001953925471752882,-0.014257920905947685
0.013972763903439045,0.0,-0.004542629234492779,-0.018143700435757637,0.002020033774897456,-0.013972016982734203
0.014272353611886501,0.0,-0.004320146050304174,-0.018695851787924767,0.0023669099900871515,-0.013984489254653454
0.01459466852247715,0.0,-0.00445962231606245,-0.018352532759308815,0.002221654634922743,-0.01420047041028738
0.01423358079046011,6.760244286851957e-05,-0.0037721297703683376,-0.01855621486902237,0.0024025316815823317,-0.014321877621114254
0.014675749465823174,0.0002758556220214814,-0.0035482989624142647,-0.019033605232834816,0.002371012233197689,-0.014124352484941483
0.014252647757530212,0.0002626133500598371,-0.004204044118523598,-0.019200604408979416,0.0022410256788134575,-0.014395772479474545
0.014252647757530212,0.0002626133500598371,-0.004204044118523598,-0.019200604408979416,0.0022410256788134575,-0.014395772479474545
0.014701763167977333,0.0002481669944245368,-0.0044691129587590694,-0.019075404852628708,0.002172725973650813,-0.0143037810921669
0.014408650808036327,0.00028156815096735954,-0.004350458271801472,-0.019072650000452995,0.0020795674063265324,-0.014587745070457458
0.014529801905155182,0.0002682057092897594,-0.004313716199249029,-0.01924886181950569,0.0019822525791823864,-0.014372799545526505
0.014150036498904228,0.00025552191073074937,-0.003870042273774743,-0.01929301954805851,0.0019825976341962814,-0.014444178901612759
0.014733923599123955,0.00028297887183725834,-0.003500738414004445,-0.019906070083379745,0.0021038951817899942,-0.014433278702199459
0.014572136104106903,0.00027231170679442585,-0.003925735130906105,-0.020091338083148003,0.002122278558090329,-0.014977507293224335
0.01511479914188385,0.00028551268042065203,-0.004602382890880108,-0.01995076797902584,0.002340465085580945,-0.0150129534304142
0.01479435246437788,0.00028629833832383156,-0.00416334206238389,-0.02000027894973755,0.002566130366176367,-0.014875490218400955
0.015147372148931026,0.00027550547383725643,-0.0038582286797463894,-0.02002446912229061,0.0024894452653825283,-0.01459137536585331
0.01472593192011118,0.00033682872890494764,-0.0039015114307403564,-0.020161619409918785,0.0025787376798689365,-0.014853518456220627
0.015580248087644577,0.0003463734465185553,-0.004386173561215401,-0.020449373871088028,0.0023859632201492786,-0.014725354500114918
0.015403464436531067,0.00032205539173446596,-0.004839838016778231,-0.02042228914797306,0.002288097282871604,-0.014896771870553493
0.015747305005788803,0.00035979284439235926,-0.00438074953854084,-0.020592836663126945,0.0022530904971063137,-0.01478558499366045
0.015417186543345451,0.00038766872603446245,-0.004007600713521242,-0.02118893340229988,0.0020477615762501955,-0.014888848178088665
0.015563986264169216,0.00037108708056621253,-0.0038361172191798687,-0.022307295352220535,0.002002476714551449,-0.015064379200339317
0.0156468003988266,0.0005831933813169599,-0.004595794249325991,-0.02068723365664482,0.001768261194229126,-0.014622426591813564
0.015945224091410637,0.0007165854913182557,-0.004752147942781448,-0.020739464089274406,0.0017814364982768893,-0.014858352951705456
0.01587790995836258,0.0007595640490762889,-0.004399145022034645,-0.02107911929488182,0.0017685034545138478,-0.015299071557819843
0.016015373170375824,0.0010703695006668568,-0.004339755512773991,-0.02113514207303524,0.0018778610974550247,-0.015292746014893055
0.015583670698106289,0.0010065310634672642,-0.004265262745320797,-0.021624449640512466,0.002007961506024003,-0.015222614631056786
0.016599053516983986,0.0009863449959084392,-0.004085888154804707,-0.021702200174331665,0.0020497809164226055,-0.015071419067680836
0.016202032566070557,0.0008357221959158778,-0.004258562345057726,-0.02172940783202648,0.002245731186121702,-0.015339583158493042
0.01631855219602585,0.0008292512502521276,-0.004583870992064476,-0.021599197760224342,0.002426591468974948,-0.015567916445434093
0.016317054629325867,0.0008374280878342688,-0.004647256340831518,-0.022026067599654198,0.002432425506412983,-0.015653196722269058
0.016269605606794357,0.0007317750132642686,-0.004093875177204609,-0.022322548553347588,0.002485967241227627,-0.015246639959514141
0.016337906941771507,0.0008159627905115485,-0.0038051812443882227,-0.02162657305598259,0.002496381988748908,-0.015508029609918594
0.016337906941771507,0.0008159627905115485,-0.0038051812443882227,-0.02162657305598259,0.002496381988748908,-0.015508029609918594
0.01613122597336769,0.0008548671612516046,-0.004215916618704796,-0.021181201562285423,0.002434893511235714,-0.015535456128418446
0.01671966351568699,0.0014971846248954535,-0.004431032110005617,-0.021603355184197426,0.0025385769549757242,-0.015434777364134789
0.016773682087659836,0.0014502087142318487,-0.004849617835134268,-0.022089798003435135,0.0025145187973976135,-0.01517893560230732
0.016977837309241295,0.0013475158484652638,-0.004818889312446117,-0.022919127717614174,0.0024652837309986353,-0.015221751295030117
0.016920242458581924,0.001235486939549446,-0.004369581583887339,-0.02267983928322792,0.0025059201288968325,-0.015171638689935207
0.01683328114449978,0.0012911547673866153,-0.004113210830837488,-0.02254323661327362,0.0022516974713653326,-0.01525438204407692
0.017237192019820213,0.0012601861963048577,-0.004047967493534088,-0.023127354681491852,0.0022167509887367487,-0.015234553255140781
0.016863543540239334,0.0013469565892592072,-0.004457668401300907,-0.023561686277389526,0.0023483724799007177,-0.015184321440756321
0.017638353630900383,0.0014848500723019242,-0.004493899643421173,-0.023829389363527298,0.0023139617405831814,-0.01549068558961153
0.01705179363489151,0.0019434065325185657,-0.004162580706179142,-0.02380884252488613,0.0023760301992297173,-0.015452226623892784
0.017093095928430557,0.0019229273311793804,-0.004314401187002659,-0.023987755179405212,0.0023630866780877113,-0.01584470458328724
0.018480654805898666,0.0019367600325495005,-0.00448464322835207,-0.02407621592283249,0.002525476273149252,-0.015858149155974388
0.019357139244675636,0.0019060131162405014,-0.004400321748107672,-0.02438737452030182,0.002714757341891527,-0.01603216491639614
0.01910729520022869,0.0018384117865934968,-0.0045532844960689545,-0.024561237543821335,0.0027289078570902348,-0.015520337969064713
0.018987201154232025,0.0018356810323894024,-0.0045763226225972176,-0.024735307320952415,0.00250785774551332,-0.015882626175880432
0.018274035304784775,0.0018934677354991436,-0.0043192277662456036,-0.02500355988740921,0.0022438049782067537,-0.01577034778892994
0.018907178193330765,0.0018927542259916663,-0.004170072730630636,-0.02622755616903305,0.002237014239653945,-0.016610901802778244
0.019141092896461487,0.0019437724258750677,-0.004511235281825066,-0.026575058698654175,0.002132658613845706,-0.015980465337634087
0.019609058275818825,0.0022557280026376247,-0.004572130739688873,-0.026196314021945,0.0022544485982507467,-0.016281206160783768
0.019401779398322105,0.0020941735710948706,-0.004354843869805336,-0.02527940832078457,0.0023839666973799467,-0.016436515375971794
0.019016753882169724,0.0022160031367093325,-0.004342907108366489,-0.025643901899456978,0.002386001870036125,-0.01655643805861473
0.019592657685279846,0.002344740554690361,-0.004098197445273399,-0.02689395472407341,0.0025804350152611732,-0.016567528247833252
0.019916990771889687,0.0022002386394888163,-0.004362653475254774,-0.026848221197724342,0.0027312212623655796,-0.01616741716861725
0.019762909039855003,0.0020988527685403824,-0.004599939100444317,-0.027047067880630493,0.0026235184632241726,-0.016405832022428513
0.019683562219142914,0.002085835672914982,-0.004392094444483519,-0.02782474085688591,0.002776811132207513,-0.016737645491957664
0.020007412880659103,0.0026766692753881216,-0.0043658362701535225,-0.028309080749750137,0.0024518801365047693,-0.017204102128744125
0.019417954608798027,0.0036534133832901716,-0.004269053228199482,-0.02742154523730278,0.0022540134377777576,-0.017428655177354813
0.019417954608798027,0.0036534133832901716,-0.004269053228199482,-0.02742154523730278,0.0022540134377777576,-0.017428655177354813
0.01930421218276024,0.004130127374082804,-0.004056048579514027,-0.026197530329227448,0.0019141692901030183,-0.017049700021743774
0.0195559561252594,0.0035474165342748165,-0.003898575436323881,-0.026316331699490547,0.0018497309647500515,-0.016884695738554
0.01995350420475006,0.0030897902324795723,-0.004169921390712261,-0.027913330122828484,0.002000186825171113,-0.0172896645963192
0.019137823954224586,0.0028152689337730408,-0.004575266037136316,-0.027461882680654526,0.0020598166156560183,-0.017330164089798927
0.020522380247712135,0.0029371182899922132,-0.00465485081076622,-0.027208998799324036,0.002503178780898452,-0.017450682818889618
0.0199159923940897,0.0034551378339529037,-0.004196721129119396,-0.02688034437596798,0.0024018234107643366,-0.0173031073063612
0.019643697887659073,0.003797702258452773,-0.003970307298004627,-0.026949552819132805,0.002248713281005621,-0.01676279492676258
0.019783182069659233,0.0043727378360927105,-0.004545511677861214,-0.027863243594765663,0.0021592702250927687,-0.01700732484459877
0.019854722544550896,0.004191094543784857,-0.004365712869912386,-0.027959585189819336,0.0020760041661560535,-0.016724683344364166
0.02004617266356945,0.003920544404536486,-0.004246804863214493,-0.02819531038403511,0.00223815580829978,-0.016698166728019714
0.020334487780928612,0.004297297447919846,-0.004054828081279993,-0.028394997119903564,0.002486081328243017,-0.017457686364650726
0.02026033215224743,0.004142927471548319,-0.0038981856778264046,-0.02806544117629528,0.0026773205026984215,-0.017655180767178535
0.020354215055704117,0.00400544935837388,-0.0037202960811555386,-0.028612809255719185,0.0030135754495859146,-0.01763436384499073
0.020474355667829514,0.0044245412573218346,-0.0042097861878573895,-0.029432816430926323,0.0031610385049134493,-0.017816970124840736
0.020564403384923935,0.004230792168527842,-0.004168849904090166,-0.028116988018155098,0.002876214450225234,-0.017645273357629776
0.020644579082727432,0.004445891361683607,-0.003995426930487156,-0.02853882871568203,0.002659672638401389,-0.01758655533194542
0.020241279155015945,0.005045535508543253,-0.004215091001242399,-0.029325824230909348,0.0026667220517992973,-0.017659859731793404
0.020483819767832756,0.00445331446826458,-0.004150134511291981,-0.029113972559571266,0.002870641415938735,-0.017577582970261574
0.02073143981397152,0.004171263892203569,-0.0039957864210009575,-0.02953791618347168,0.002692634239792824,-0.017571089789271355
0.02072492241859436,0.004544081632047892,-0.003944310825318098,-0.029431262984871864,0.002582964953035116,-0.018038982525467873
0.020742326974868774,0.0053989156149327755,-0.003913014195859432,-0.029536617919802666,0.002619088627398014,-0.01832348108291626
0.020984970033168793,0.005521482788026333,-0.004383021499961615,-0.02950075827538967,0.0025743325240910053,-0.01801079884171486
0.020802505314350128,0.005360552109777927,-0.004206984769552946,-0.02933906763792038,0.002867869334295392,-0.01807732880115509
0.02090790681540966,0.004942380357533693,-0.004061071667820215,-0.029616279527544975,0.003235984593629837,-0.017999261617660522
0.020812075585126877,0.00485236058011651,-0.004089635331183672,-0.029279539361596107,0.0031497597228735685,-0.018127072602510452
0.020812075585126877,0.00485236058011651,-0.004089635331183672,-0.029279539361596107,0.0031497597228735685,-0.018127072602510452
0.02113439328968525,0.005186116322875023,-0.00452812435105443,-0.029000114649534225,0.002977425465360284,-0.018134988844394684
0.021123848855495453,0.005357199814170599,-0.0046338303945958614,-0.029186012223362923,0.0027394909411668777,-0.017686134204268456
0.02141876518726349,0.005886525847017765,-0.004273397382348776,-0.028861256316304207,0.002768221776932478,-0.018561391159892082
0.02152135968208313,0.00559394434094429,-0.0044282241724431515,-0.02952929213643074,0.003108639270067215,-0.017772117629647255
0.021524755284190178,0.005568549036979675,-0.004435088951140642,-0.02942059002816677,0.0030585883650928736,-0.01786167547106743
0.021537436172366142,0.00550359720364213,-0.004727852996438742,-0.02983897551894188,0.003012646222487092,-0.018462419509887695
0.02148919366300106,0.005905752070248127,-0.004952265415340662,-0.029660092666745186,0.0031730651389807463,-0.018353721126914024
0.02150987833738327,0.006602470763027668,-0.004880528897047043,-0.02971585839986801,0.002893828321248293,-0.018512865528464317
0.02126532793045044,0.006716362200677395,-0.004638328216969967,-0.02992914244532585,0.002784717595204711,-0.018870709463953972
0.021539611741900444,0.00619761785492301,-0.0043908776715397835,-0.02951597049832344,0.0031477543525397778,-0.018502812832593918
0.021833881735801697,0.006336177699267864,-0.004481363110244274,-0.030132506042718887,0.0030089872889220715,-0.01870138570666313
0.02219547890126705,0.006919192150235176,-0.004650420974940062,-0.031279198825359344,0.00312483636662364,-0.018812129274010658
0.022257046774029732,0.006756329443305731,-0.005216318182647228,-0.03110530599951744,0.003024657256901264,-0.01881331391632557
0.021878747269511223,0.0065230862237513065,-0.00501831341534853,-0.030454521998763084,0.0028849367517977953,-0.01905883476138115
0.021393150091171265,0.0062844837084412575,-0.004735127091407776,-0.029578836634755135,0.002790517173707485,-0.01910758577287197
0.022022804245352745,0.006558093708008528,-0.004230902064591646,-0.030658869072794914,0.002757512964308262,-0.018673183396458626
0.022254938259720802,0.007201183587312698,-0.004342912696301937,-0.031192410737276077,0.0027901181019842625,-0.01826327107846737
0.022361846640706062,0.0066725146025419235,-0.0047775087878108025,-0.031008582562208176,0.0029063846450299025,-0.018467703834176064
0.023008843883872032,0.00680667394772172,-0.005021349061280489,-0.03217374533414841,0.0030399030074477196,-0.019168412312865257
0.023449596017599106,0.0075018457137048244,-0.0047145020216703415,-0.031256627291440964,0.003118325024843216,-0.01924443617463112
0.02317807637155056,0.007676100358366966,-0.004727097228169441,-0.0310499407351017,0.002744387835264206,-0.019035914912819862
0.022769607603549957,0.007572219707071781,-0.004930483177304268,-0.03281683847308159,0.0025372151285409927,-0.018965916708111763
0.022924819961190224,0.006924065761268139,-0.004929136950522661,-0.03315640613436699,0.0024542324244976044,-0.019053809344768524
0.023181241005659103,0.007668839767575264,-0.005628226324915886,-0.033366747200489044,0.0024760642554610968,-0.01951734907925129
0.022787075489759445,0.007538923993706703,-0.00538924615830183,-0.032483283430337906,0.0024059657007455826,-0.019112370908260345
0.023804860189557076,0.007494810968637466,-0.004805631935596466,-0.03313151374459267,0.0024284077808260918,-0.018786994740366936
0.02373873069882393,0.008383789099752903,-0.005090196151286364,-0.033335838466882706,0.0029920015949755907,-0.01905640959739685
0.0235893577337265,0.008649415336549282,-0.005026476923376322,-0.03354901075363159,0.0031172630842775106,-0.01910884864628315
0.0235893577337265,0.008649415336549282,-0.005026476923376322,-0.03354901075363159,0.0031172630842775106,-0.01910884864628315
0.023909946903586388,0.007986646145582199,-0.0055241952650249004,-0.03372921422123909,0.003473876044154167,-0.01930364966392517
0.024254092946648598,0.007992485538125038,-0.005324193276464939,-0.033157918602228165,0.003248564200475812,-0.01953696645796299
0.02430115081369877,0.0083153136074543,-0.005490884184837341,-0.03348512947559357,0.003269562730565667,-0.019365228712558746
0.023923015221953392,0.008501199074089527,-0.005697635002434254,-0.03330980986356735,0.0032751087564975023,-0.01935516856610775
0.024387892335653305,0.008513173088431358,-0.005182138178497553,-0.034303173422813416,0.003611561143770814,-0.019907057285308838
0.024240916594862938,0.007868207059800625,-0.0052485172636806965,-0.035011570900678635,0.0034248256124556065,-0.018788550049066544
0.024406423792243004,0.008466401137411594,-0.005185992456972599,-0.0343858040869236,0.0031593982130289078,-0.018742956221103668
0.024981098249554634,0.008618711493909359,-0.005774846766144037,-0.03345486521720886,0.0028698155656456947,-0.019302891567349434
0.02507171593606472,0.008670624345541,-0.005641228519380093,-0.03327304869890213,0.002892471384257078,-0.019664926454424858
0.02487645111978054,0.008187565952539444,-0.005079192575067282,-0.034718479961156845,0.0031355880200862885,-0.0199146531522274
0.024781392887234688,0.008568128570914268,-0.005392919760197401,-0.035148367285728455,0.003403829876333475,-0.019693197682499886
0.024886328727006912,0.008577791973948479,-0.0051579042337834835,-0.035983551293611526,0.003298328025266528,-0.019718604162335396
0.02500402368605137,0.008589791133999825,-0.0052757300436496735,-0.03693411499261856,0.003153697121888399,-0.019986221566796303
0.025418013334274292,0.009372522123157978,-0.005370374768972397,-0.03495747596025467,0.003044598735868931,-0.020011600106954575
0.025654882192611694,0.00839220266789198,-0.00541156530380249,-0.03609410300850868,0.0032437480986118317,-0.02030256949365139
0.02556994929909706,0.007936246693134308,-0.00549611821770668,-0.03618844971060753,0.0032627226319164038,-0.02021336741745472
0.02614710107445717,0.007971659302711487,-0.005177144892513752,-0.03641967847943306,0.0036055180244147778,-0.020069008693099022
0.025941651314496994,0.008297196589410305,-0.005732220597565174,-0.037067871540784836,0.003481832565739751,-0.020549021661281586
0.025956468656659126,0.0083162821829319,-0.00538191944360733,-0.03684626519680023,0.003503326326608658,-0.02070559374988079
0.025515178218483925,0.008442242629826069,-0.005841504316776991,-0.03640572726726532,0.0031716690864413977,-0.020397059619426727
0.025699252262711525,0.008273426443338394,-0.005387560464441776,-0.03653654456138611,0.002842153888195753,-0.0204660352319479
0.02649730257689953,0.008385710418224335,-0.005293117370456457,-0.036679722368717194,0.002969898283481598,-0.020562101155519485
0.027416381984949112,0.008506665006279945,-0.005590950138866901,-0.037522390484809875,0.0034665826242417097,-0.020502982661128044
0.027416381984949112,0.008506665006279945,-0.005590950138866901,-0.037522390484809875,0.0034665826242417097,-0.020502982661128044
0.026139389723539352,0.008081787265837193,-0.0059566921554505825,-0.03698284924030304,0.0035149892792105675,-0.020732659846544266
0.026519140228629112,0.008199692703783512,-0.004850351717323065,-0.036796532571315765,0.003286975435912609,-0.020584814250469208
0.028046810999512672,0.008511153981089592,-0.005687067285180092,-0.03682330250740051,0.003059257287532091,-0.020424509420990944
0.027257390320301056,0.00861907098442316,-0.005624467972666025,-0.037413135170936584,0.0030986012425273657,-0.02051505260169506
0.027257390320301056,0.00861907098442316,-0.005624467972666025,-0.037413135170936584,0.0030986012425273657,-0.02051505260169506
0.02742026187479496,0.009264430962502956,-0.006083437707275152,-0.037113964557647705,0.0035012068692594767,-0.020841429010033607
0.027720194309949875,0.008814291097223759,-0.005620550364255905,-0.03671161085367203,0.0036308944690972567,-0.021187961101531982
0.02795480564236641,0.008994189091026783,-0.005507809109985828,-0.03691228851675987,0.0035625884775072336,-0.02157759666442871
0.027615945786237717,0.00870360154658556,-0.005317211151123047,-0.03812931850552559,0.0035249378997832537,-0.02042260952293873
0.026964303106069565,0.008833636529743671,-0.005423839669674635,-0.036537207663059235,0.0034040098544210196,-0.020733322948217392
0.02678024023771286,0.009317522868514061,-0.005636736750602722,-0.03717062622308731,0.0031706029549241066,-0.020990371704101562
0.027678754180669785,0.009283515624701977,-0.0058695427142083645,-0.0373748354613781,0.003027777886018157,-0.021153312176465988
0.02803238481283188,0.008625366725027561,-0.00529166916385293,-0.037529535591602325,0.003334814915433526,-0.021501433104276657
0.027684714645147324,0.00894097425043583,-0.005362682044506073,-0.03732289373874664,0.0036596916615962982,-0.021400608122348785
0.027539951726794243,0.009271224960684776,-0.005227513611316681,-0.03813543915748596,0.0036990996450185776,-0.02095601335167885
0.02816007472574711,0.010177858173847198,-0.006045863963663578,-0.03888686001300812,0.0031254806090146303,-0.021849321201443672
0.027579685673117638,0.009267156943678856,-0.00544710922986269,-0.04070014879107475,0.0030887953471392393,-0.021336976438760757
0.02765609696507454,0.00959193054586649,-0.004954527597874403,-0.04000147804617882,0.0034513992723077536,-0.021230008453130722
0.028148209676146507,0.009763809852302074,-0.005763025488704443,-0.038415178656578064,0.003554488066583872,-0.021333349868655205
0.027757784351706505,0.009254838339984417,-0.005438877735286951,-0.039938922971487045,0.003440707689151168,-0.021413350477814674
0.028337212279438972,0.009070309810340405,-0.006100488360971212,-0.040515098720788956,0.0036920851562172174,-0.02211148664355278
0.028632093220949173,0.009220404550433159,-0.0056178332306444645,-0.041726499795913696,0.0039434791542589664,-0.022835131734609604
0.02832629904150963,0.009768393822014332,-0.005299761891365051,-0.04140779376029968,0.004051845520734787,-0.02261636219918728
0.028479017317295074,0.010627031326293945,-0.005332735367119312,-0.03965258225798607,0.004317441955208778,-0.02240486815571785
0.028604954481124878,0.009761979803442955,-0.0051926965825259686,-0.0400557816028595,0.004222620278596878,-0.022201336920261383
0.02837732806801796,0.00988390389829874,-0.005954102147370577,-0.04094688594341278,0.0036119341384619474,-0.021620268002152443
0.02882729470729828,0.009908774867653847,-0.005743814166635275,-0.040756452828645706,0.00358650297857821,-0.02191905677318573
0.02894914336502552,0.010274992324411869,-0.005678755231201649,-0.040629249066114426,0.0037691614124923944,-0.022915944457054138
0.028603633865714073,0.009948468767106533,-0.005110599100589752,-0.0420399010181427,0.003665044205263257,-0.02289598062634468
0.02894032746553421,0.009908944368362427,-0.005439652595669031,-0.041213348507881165,0.003993543796241283,-0.023279784247279167
0.02894032746553421,0.009908944368362427,-0.005439652595669031,-0.041213348507881165,0.003993543796241283,-0.023279784247279167
0.02955949492752552,0.010399995371699333,-0.00532396649941802,-0.04167768731713295,0.003783217864111066,-0.022762086242437363
0.028916316106915474,0.010250105522572994,-0.006370294839143753,-0.04232182726264,0.0035715976264327765,-0.02292998880147934
0.029030077159404755,0.010113419033586979,-0.0061658392660319805,-0.042477913200855255,0.003612826345488429,-0.02308615669608116
0.029450397938489914,0.010544479824602604,-0.005871685221791267,-0.042508430778980255,0.0037021921016275883,-0.022581858560442924
0.02930595353245735,0.010493725538253784,-0.00529963243752718,-0.04235967621207237,0.0034575937315821648,-0.021777300164103508
0.028421470895409584,0.010789354331791401,-0.005303662735968828,-0.043234486132860184,0.003339349525049329,-0.022052694112062454
0.02970765344798565,0.011331627145409584,-0.005681866314262152,-0.04412565007805824,0.0034654613118618727,-0.022667530924081802
0.030443225055933,0.011201929301023483,-0.006035915110260248,-0.042444244027137756,0.003808120731264353,-0.02322785183787346
0.03029642440378666,0.010316825471818447,-0.005473204888403416,-0.04180217161774635,0.004372516646981239,-0.02290627546608448
0.030151084065437317,0.010935142636299133,-0.0054555353708565235,-0.042640529572963715,0.004128905013203621,-0.022547146305441856
0.029014412313699722,0.01065902505069971,-0.005037324968725443,-0.0437813363969326,0.003650975413620472,-0.0225887019187212
0.03026638925075531,0.01065769325941801,-0.005623392760753632,-0.04236751049757004,0.0031670432072132826,-0.023206502199172974
0.02989198826253414,0.010234705172479153,-0.005655026528984308,-0.0421329140663147,0.0034883085172623396,-0.022672219201922417
0.030632751062512398,0.011010243557393551,-0.005294044967740774,-0.04351850599050522,0.004027951508760452,-0.022920187562704086
0.031000012531876564,0.010718638077378273,-0.005044132936745882,-0.04402344673871994,0.0041069407016038895,-0.023145755752921104
0.030736686661839485,0.010671430267393589,-0.005256027914583683,-0.04456819221377373,0.004346521105617285,-0.023122990503907204
0.03049929067492485,0.011067393235862255,-0.005605920683592558,-0.043262921273708344,0.003794225165620446,-0.023238664492964745
0.030093278735876083,0.010892453603446484,-0.0060644992627203465,-0.04300280660390854,0.0034870340023189783,-0.023162582889199257
0.030702508985996246,0.010777975432574749,-0.005528255831450224,-0.043195053935050964,0.0034004480112344027,-0.023334696888923645
0.031113725155591965,0.011378554627299309,-0.0052736420184373856,-0.04286210983991623,0.0034012836404144764,-0.023919478058815002
0.031005702912807465,0.01063572522252798,-0.00539598660543561,-0.043337028473615646,0.0038153547793626785,-0.02444695495069027
0.030988210812211037,0.010635961778461933,-0.005596982315182686,-0.04332590475678444,0.004536304157227278,-0.022919872775673866
0.030789921060204506,0.01047504786401987,-0.005824713036417961,-0.043983571231365204,0.0043235523626208305,-0.02265535667538643
0.031118765473365784,0.010488160885870457,-0.005399955902248621,-0.0442422553896904,0.003957207314670086,-0.023343374952673912
0.030908867716789246,0.01074623316526413,-0.0052400813437998295,-0.04416034370660782,0.004035448655486107,-0.024067111313343048
0.030908867716789246,0.01074623316526413,-0.0052400813437998295,-0.04416034370660782,0.004035448655486107,-0.024067111313343048
0.031120415776968002,0.010692895390093327,-0.005564527120441198,-0.04443288594484329,0.004168384242802858,-0.02468685433268547
0.031061213463544846,0.010280048474669456,-0.005215285811573267,-0.045180026441812515,0.004064336884766817,-0.02392667531967163
0.03114231489598751,0.010735422372817993,-0.006055736914277077,-0.0454612672328949,0.003567053470760584,-0.023131493479013443
0.030873695388436317,0.010576408356428146,-0.005688157398253679,-0.04580473154783249,0.0035198067780584097,-0.02310778759419918
0.031507838517427444,0.010901050642132759,-0.00576853146776557,-0.04591287299990654,0.0037605620454996824,-0.023468347266316414
0.029621616005897522,0.010027457028627396,-0.005290267523378134,-0.04581086337566376,0.004214057698845863,-0.024145949631929398
0.03238964080810547,0.009973743930459023,-0.005345211364328861,-0.04532963037490845,0.004327768925577402,-0.0235759150236845
0.0313892662525177,0.010554390028119087,-0.006020680069923401,-0.04737859591841698,0.003883516415953636,-0.024633625522255898
0.0313892662525177,0.010554390028119087,-0.006020680069923401,-0.04737859591841698,0.003883516415953636,-0.024633625522255898
0.031415846198797226,0.011083780787885189,-0.005569525063037872,-0.04493379220366478,0.0032509169541299343,-0.02408979833126068
0.031415846198797226,0.011083780787885189,-0.005569525063037872,-0.04493379220366478,0.0032509169541299343,-0.02408979833126068
0.03299517184495926,0.010810586623847485,-0.005196573678404093,-0.046195898205041885,0.0034266244620084763,-0.023104378953576088
0.03252671658992767,0.011067286133766174,-0.006110433489084244,-0.048739828169345856,0.003934708423912525,-0.02397727780044079
0.03185780346393585,0.011318797245621681,-0.005638856906443834,-0.04615604132413864,0.0038512088358402252,-0.0248427577316761
0.033151157200336456,0.010621524415910244,-0.0053357710130512714,-0.047011446207761765,0.004330247174948454,-0.026125019416213036
0.0331202857196331,0.011724707670509815,-0.005653697531670332,-0.04895491153001785,0.004178550094366074,-0.024002136662602425
0.03333360701799393,0.010454359464347363,-0.005710663739591837,-0.048934899270534515,0.003642692929133773,-0.023942790925502777
0.034131214022636414,0.011024507693946362,-0.0063731917180120945,-0.04879871383309364,0.0034553022123873234,-0.024359216913580894
0.03399641066789627,0.010659471154212952,-0.005978473462164402,-0.04891826584935188,0.0035024152603000402,-0.024563539773225784
0.03310731053352356,0.010771134868264198,-0.005639772396534681,-0.04901279881596565,0.004253288730978966,-0.024587636813521385
0.03348100557923317,0.011246331967413425,-0.005366883240640163,-0.04899831488728523,0.004480667412281036,-0.024760548025369644
0.03424390032887459,0.010951964184641838,-0.005952891893684864,-0.049191564321517944,0.004378380719572306,-0.02525600604712963
0.034439243376255035,0.012150424532592297,-0.006608697585761547,-0.04967645928263664,0.004024214576929808,-0.025483887642621994
0.03470337390899658,0.01132526807487011,-0.006206980906426907,-0.04850487783551216,0.004263590555638075,-0.025307470932602882
0.03459670767188072,0.01124589890241623,-0.006165010388940573,-0.04926258325576782,0.004188899882137775,-0.0253771785646677
0.03454453870654106,0.011604202911257744,-0.006358814891427755,-0.05124713480472565,0.004206968005746603,-0.02538854256272316
0.03454453870654106,0.011604202911257744,-0.006358814891427755,-0.05124713480472565,0.004206968005746603,-0.02538854256272316
0.03525194153189659,0.011331710033118725,-0.006390170659869909,-0.04864143207669258,0.0038922270759940147,-0.02573958970606327
0.03525194153189659,0.011331710033118725,-0.006390170659869909,-0.04864143207669258,0.0038922270759940147,-0.02573958970606327
0.035894133150577545,0.01238698698580265,-0.005895417649298906,-0.04896318167448044,0.00434487871825695,-0.025499990209937096
0.03581569716334343,0.011645342223346233,-0.005676454398781061,-0.05084462836384773,0.004551156889647245,-0.025526488199830055
0.035306308418512344,0.012133289128541946,-0.005500137340277433,-0.04945698380470276,0.004433460533618927,-0.025922132655978203
0.03558221086859703,0.011922163888812065,-0.0057151541113853455,-0.047645457088947296,0.00409384211525321,-0.025769174098968506
0.036288950592279434,0.012359954416751862,-0.006015918217599392,-0.0491439625620842,0.004385985434055328,-0.025730198249220848
0.03625248372554779,0.012078311294317245,-0.005763472523540258,-0.05023898184299469,0.004161722492426634,-0.027460627257823944
0.035512134432792664,0.012590112164616585,-0.005391553044319153,-0.04973822459578514,0.004213458392769098,-0.02539736218750477
0.0360117107629776,0.012332824058830738,-0.005703021306544542,-0.04931073263287544,0.004224326461553574,-0.025672653689980507
0.03648129850625992,0.011899136006832123,-0.0061490098014473915,-0.050348762422800064,0.004060962703078985,-0.0265195295214653
0.03668290376663208,0.012608158402144909,-0.006393709219992161,-0.05109110474586487,0.0038023521192371845,-0.0265627671033144
0.03636099025607109,0.012293756939470768,-0.005811750888824463,-0.050026457756757736,0.0042443047277629375,-0.02642473578453064
0.03643433004617691,0.012677537277340889,-0.005809147376567125,-0.05018626153469086,0.0044414023868739605,-0.026136815547943115
0.03677312284708023,0.012497730553150177,-0.005769632291048765,-0.050329290330410004,0.004369479138404131,-0.026209520176053047
0.03733859583735466,0.012896900996565819,-0.006074362434446812,-0.050476234406232834,0.0036551919765770435,-0.026552245020866394
0.0370495431125164,0.012834147550165653,-0.006527312099933624,-0.0506303608417511,0.0035321235191076994,-0.02657492831349373
0.038665540516376495,0.013468887656927109,-0.005639747250825167,-0.05103830620646477,0.004280259367078543,-0.026795513927936554
0.03866230323910713,0.01278404239565134,-0.005494806915521622,-0.05094475299119949,0.004484164994210005,-0.026655763387680054
0.0363994762301445,0.013421783223748207,-0.005992155987769365,-0.0515718050301075,0.0043204487301409245,-0.026725895702838898
0.038442328572273254,0.013025814667344093,-0.006156960502266884,-0.0515761598944664,0.004002922214567661,-0.02698725089430809
0.03837849944829941,0.013494585640728474,-0.005885964725166559,-0.05353590101003647,0.004134991206228733,-0.026884499937295914
0.03839767724275589,0.013271801173686981,-0.005555106792598963,-0.053765080869197845,0.004170963540673256,-0.02669309452176094
0.03954456374049187,0.013265952467918396,-0.0055746352300047874,-0.05118933692574501,0.004759984090924263,-0.027066541835665703
0.03824121877551079,0.013292292132973671,-0.005412023980170488,-0.05253544822335243,0.004543254151940346,-0.029175305739045143
0.037274133414030075,0.013282694853842258,-0.005878607742488384,-0.05501130595803261,0.004132806323468685,-0.027536941692233086
0.03918613865971565,0.013609740883111954,-0.006247414741665125,-0.053730156272649765,0.004198436625301838,-0.02611537091434002
0.03920542448759079,0.013490976765751839,-0.005637150723487139,-0.05132237821817398,0.00429304875433445,-0.025553729385137558
0.039307739585638046,0.014013865031301975,-0.00593216810375452,-0.05324717238545418,0.0045698159374296665,-0.026533447206020355
0.03923630341887474,0.013343152590095997,-0.005815326701849699,-0.05382347106933594,0.004931081086397171,-0.028095349669456482
0.03923630341887474,0.013343152590095997,-0.005815326701849699,-0.05382347106933594,0.004931081086397171,-0.028095349669456482
0.03894348070025444,0.013708868063986301,-0.006187482737004757,-0.05308430641889572,0.004602110479027033,-0.02800787054002285
0.03954934701323509,0.013605710119009018,-0.0060229613445699215,-0.0527036152780056,0.00433820765465498,-0.02777595818042755
0.03947758302092552,0.014291093684732914,-0.005742220673710108,-0.05285951867699623,0.004325291607528925,-0.028735212981700897
0.03961903974413872,0.013836263678967953,-0.00601639598608017,-0.0533989816904068,0.004438276402652264,-0.02774418517947197
0.039726488292217255,0.013961385935544968,-0.0058945463970303535,-0.05274583771824837,0.004305451177060604,-0.026791203767061234
0.039211858063936234,0.01373355183750391,-0.006289326120167971,-0.05279770866036415,0.0043261246755719185,-0.02647233195602894
0.03983815014362335,0.01470524724572897,-0.006601649336516857,-0.05249490961432457,0.003996405750513077,-0.027374546974897385
0.03866836801171303,0.01410410925745964,-0.0059441798366606236,-0.05234143137931824,0.003801948856562376,-0.02827799692749977
0.039947520941495895,0.014491948299109936,-0.005727313458919525,-0.0533369705080986,0.004035545978695154,-0.02807505987584591
0.041783515363931656,0.013784411363303661,-0.0057219527661800385,-0.05483971908688545,0.004713801201432943,-0.02783586084842682
0.04093554988503456,0.014305397868156433,-0.0063420310616493225,-0.051787007600069046,0.0047261035069823265,-0.02742348052561283
0.03886645287275314,0.013904786668717861,-0.006333357188850641,-0.052853476256132126,0.004803881049156189,-0.02745022624731064
0.04044359549880028,0.014436868019402027,-0.005708784330636263,-0.05285312235355377,0.004395338706672192,-0.02828553132712841
0.04074283316731453,0.013920900411903858,-0.005636780522763729,-0.05540322884917259,0.0044612945057451725,-0.026917127892374992
0.04168633371591568,0.014658110216259956,-0.005828980356454849,-0.053115155547857285,0.004744383506476879,-0.027493787929415703
0.040739309042692184,0.014559915289282799,-0.006242251023650169,-0.05433332920074463,0.0046454439871013165,-0.02815384417772293
0.03946719691157341,0.014608243480324745,-0.005800117738544941,-0.05546345189213753,0.004202537704259157,-0.02809605933725834
0.04037107899785042,0.015288029797375202,-0.00602647103369236,-0.054820772260427475,0.00437002070248127,-0.027780406177043915
0.04057670012116432,0.014584642834961414,-0.006193785462528467,-0.05543120577931404,0.004602059721946716,-0.028884749859571457
0.04057670012116432,0.014584642834961414,-0.006193785462528467,-0.05543120577931404,0.004602059721946716,-0.028884749859571457
0.03982362151145935,0.014300871640443802,-0.006404062267392874,-0.05554094538092613,0.004476631060242653,-0.02879885397851467
0.040156081318855286,0.014952299185097218,-0.005713848862797022,-0.05547313019633293,0.004045034758746624,-0.027958553284406662
0.040244221687316895,0.014361103065311909,-0.0059179686941206455,-0.0559178963303566,0.004242932423949242,-0.027080776169896126
0.04014602676033974,0.01509116217494011,-0.006243374198675156,-0.05586991459131241,0.00454204436391592,-0.027360782027244568
0.040158867835998535,0.01491905190050602,-0.006172478664666414,-0.05663841962814331,0.004661753308027983,-0.028485171496868134
0.0406634658575058,0.01488021295517683,-0.006449706386774778,-0.05678394064307213,0.004614706616848707,-0.028107838705182076
0.03898575156927109,0.0141454441472888,-0.005734814330935478,-0.056947916746139526,0.004163235891610384,-0.02847314067184925
0.04081593453884125,0.015220386907458305,-0.005832910072058439,-0.057139378041028976,0.0038520635571330786,-0.029238160699605942
0.04093771055340767,0.014925789088010788,-0.005975012201815844,-0.05822146683931351,0.0037967858370393515,-0.02816087007522583
0.04093771055340767,0.014925789088010788,-0.005975012201815844,-0.05822146683931351,0.0037967858370393515,-0.02816087007522583
0.040431004017591476,0.015612986870110035,-0.006357272621244192,-0.055685751140117645,0.004363053012639284,-0.02777458354830742
0.040832117199897766,0.015049432404339314,-0.006150964647531509,-0.055726319551467896,0.004551750607788563,-0.02631954662501812
0.04072080925107002,0.015018644742667675,-0.005950191989541054,-0.05681290104985237,0.004839817062020302,-0.027210289612412453
0.04086380824446678,0.015175302512943745,-0.005839540157467127,-0.05863961577415466,0.004634409211575985,-0.02845635451376438
0.04129212349653244,0.015187112614512444,-0.005956442095339298,-0.0560174323618412,0.0044189877808094025,-0.028842942789196968
0.04117310419678688,0.01531914807856083,-0.006539172492921352,-0.056090936064720154,0.004459412768483162,-0.028773818165063858
0.04146410524845123,0.015466726385056973,-0.007102328352630138,-0.056847553700208664,0.0046950578689575195,-0.028673015534877777
0.04113246127963066,0.015966501086950302,-0.006251944229006767,-0.05629049614071846,0.00487373024225235,-0.028625303879380226
0.040751807391643524,0.01545045431703329,-0.00632468843832612,-0.05603860691189766,0.004696740303188562,-0.02860216051340103
0.04130592942237854,0.015825282782316208,-0.006798150483518839,-0.056060899049043655,0.00459594652056694,-0.028864581137895584
0.04267043247818947,0.01660768873989582,-0.006590654142200947,-0.05665010213851929,0.004913340322673321,-0.02864220179617405
0.04087267443537712,0.01572873257100582,-0.006276826374232769,-0.05690062791109085,0.004895476158708334,-0.029062144458293915
0.0402703620493412,0.014765819534659386,-0.006180505733937025,-0.05712403729557991,0.0048621236346662045,-0.02879917062819004
0.04192362353205681,0.01597076654434204,-0.00584836071357131,-0.05725111812353134,0.004803717136383057,-0.029047267511487007
0.04224368929862976,0.015462428331375122,-0.006319119594991207,-0.0576813779771328,0.004573326092213392,-0.02926890179514885
0.041773226112127304,0.015907369554042816,-0.006245195399969816,-0.060005225241184235,0.004929229151457548,-0.02939787320792675
0.040581732988357544,0.016194164752960205,-0.005826045759022236,-0.05859355628490448,0.004871772136539221,-0.02932126633822918
0.04242530092597008,0.01644918881356716,-0.006110916845500469,-0.05704253911972046,0.004844380542635918,-0.03006383217871189
