davideferrari95/blind_handover_controller/data/Test 146 - [2024-02-07 -- 17-28-19]/joint_states_data.csv
shoulder_pan_joint,shoulder_lift_joint,elbow_joint,wrist_1_joint,wrist_2_joint,wrist_3_joint
0.00731000117957592,-0.007807673420757055,-0.013052031397819519,0.018225030973553658,0.0,0.0064622932113707066
0.00731000117957592,-0.007807673420757055,-0.013052031397819519,0.018225030973553658,0.0,0.0064622932113707066
0.0062614791095256805,-0.007616681046783924,-0.012653020210564137,0.01811332441866398,0.0,0.00648124935105443
0.0068204933777451515,-0.007747811730951071,-0.013377397321164608,0.018077243119478226,0.0,0.0070608132518827915
0.006847736891359091,-0.0075750104151666164,-0.012940974906086922,0.017865067347884178,0.0,0.006595905404537916
0.007385710719972849,-0.007431828882545233,-0.013461352325975895,0.01728566735982895,0.0,0.006334324833005667
0.006818833760917187,-0.007904332131147385,-0.013060646131634712,0.017509933561086655,0.0,0.006243332754820585
0.006323453038930893,-0.0077049569226801395,-0.013379883021116257,0.017547644674777985,0.0,0.006538581568747759
0.006720810197293758,-0.0074657415971159935,-0.013058286160230637,0.01803828589618206,0.0,0.006646021734923124
0.0071867951191961765,-0.00830121710896492,-0.012909850105643272,0.01836865022778511,0.0,0.006542295683175325
0.006866538897156715,-0.00859120860695839,-0.013194943778216839,0.017842408269643784,0.0,0.0064020524732768536
0.0061377570964396,-0.007126576267182827,-0.012879648245871067,0.018087288364768028,0.0,0.0067252046428620815
0.0061377570964396,-0.007126576267182827,-0.012879648245871067,0.018087288364768028,0.0,0.0067252046428620815
0.0064537678845226765,-0.007258450612425804,-0.012208166532218456,0.018231330439448357,0.0,0.006627952679991722
0.006333650555461645,-0.007423600181937218,-0.012823980301618576,0.018658678978681564,0.0,0.0065711806528270245
0.006333650555461645,-0.007423600181937218,-0.012823980301618576,0.018658678978681564,0.0,0.0065711806528270245
0.006166703999042511,-0.00733813364058733,-0.012515412643551826,0.01819419115781784,0.0,0.006206853780895472
0.006330826319754124,-0.007477674633264542,-0.013582945801317692,0.01842227391898632,0.0,0.006531051360070705
0.006229283753782511,-0.00763494661077857,-0.013121349737048149,0.018916675820946693,0.0,0.00687784468755126
0.0064448462799191475,-0.007580704055726528,-0.013257521204650402,0.01862422563135624,0.0,0.0064336806535720825
0.0064507960341870785,-0.007341295015066862,-0.013251335360109806,0.01852807030081749,0.0,0.006238583475351334
0.006087462417781353,-0.00759496446698904,-0.013144521042704582,0.01862059161067009,0.0,0.00619436614215374
0.0065237353555858135,-0.007671667728573084,-0.013109754770994186,0.01841399073600769,0.0,0.006819528993219137
0.007006116211414337,-0.007783908862620592,-0.012398806400597095,0.01868859864771366,0.0,0.007117035333067179
0.0064233741723001,-0.0077791339717805386,-0.012921442277729511,0.018923310562968254,0.0,0.006909231189638376
0.006214234046638012,-0.007079494651407003,-0.012796293012797832,0.018569596111774445,0.0,0.00638209842145443
0.006797670852392912,-0.007860951125621796,-0.012963024899363518,0.018665151670575142,0.0,0.0065307640470564365
0.006900910288095474,-0.007459468673914671,-0.013348324224352837,0.018016913905739784,0.0,0.006956849247217178
0.006277167703956366,-0.007650087587535381,-0.012975426390767097,0.01806846261024475,0.0,0.006873772479593754
0.006246014032512903,-0.007626316510140896,-0.01463854219764471,0.017809398472309113,0.0,0.006376566365361214
0.006559478119015694,-0.008162254467606544,-0.013322798535227776,0.017708003520965576,0.0,0.00655760383233428
0.006578355096280575,-0.007097010500729084,-0.013180327601730824,0.017940813675522804,0.0,0.00664374977350235
0.006195639725774527,-0.007180270738899708,-0.014228620566427708,0.017364729195833206,0.0,0.006440476980060339
0.006513542030006647,-0.007436762563884258,-0.013448764570057392,0.018006857484579086,0.0,0.006369199603796005
0.006494719069451094,-0.00816250592470169,-0.013638387434184551,0.0178353413939476,0.0,0.006369005423039198
0.006063410546630621,-0.007270046975463629,-0.013046754524111748,0.01749258302152157,0.0,0.006613404490053654
0.006402518600225449,-0.007928990758955479,-0.013772006146609783,0.017577901482582092,0.0,0.006658236030489206
0.005900896620005369,-0.007968947291374207,-0.013047786429524422,0.017305675894021988,0.0,0.006599836051464081
0.005897785536944866,-0.007687712088227272,-0.01397374365478754,0.017699629068374634,0.0,0.006735959090292454
0.005917423404753208,-0.007604675833135843,-0.013363265432417393,0.018070422112941742,0.0,0.006800927687436342
0.006306654307991266,-0.008017473854124546,-0.013566366396844387,0.018395068123936653,0.0,0.006439717020839453
0.006562766619026661,-0.007886990904808044,-0.013661129400134087,0.019311217591166496,0.0,0.006471268832683563
0.006538330111652613,-0.007392391096800566,-0.013679304160177708,0.019344598054885864,0.0,0.006688885390758514
0.006431506015360355,-0.007120220921933651,-0.013196224346756935,0.018435392528772354,0.0,0.00666918745264411
0.006431506015360355,-0.007120220921933651,-0.013196224346756935,0.018435392528772354,0.0,0.00666918745264411
0.005965768825262785,-0.007477018982172012,-0.013861669227480888,0.01853323169052601,0.0,0.006467791274189949
0.006408102344721556,-0.008113888092339039,-0.013392210938036442,0.018782489001750946,0.0,0.006187494844198227
0.006520745810121298,-0.0076277172192931175,-0.012856736779212952,0.018050862476229668,0.0,0.006340947467833757
0.006303573027253151,-0.006783704739063978,-0.013290537521243095,0.018633505329489708,0.0,0.006279357708990574
0.006106378976255655,-0.007026189472526312,-0.013033687137067318,0.018841886892914772,0.0,0.006440175697207451
0.006211296189576387,-0.008265559561550617,-0.01355605386197567,0.01796610839664936,0.0,0.006830308586359024
0.0073046013712882996,-0.007879373617470264,-0.013047403655946255,0.018118996173143387,0.0,0.006836398970335722
0.00665978854522109,-0.006793084088712931,-0.01340825017541647,0.01814480498433113,0.0,0.006444606464356184
0.006074974313378334,-0.008081014268100262,-0.01344295684248209,0.018736431375145912,0.0,0.006902696099132299
0.006440954748541117,-0.007480876985937357,-0.013262025080621243,0.01838836446404457,0.0,0.006833967752754688
0.006789356004446745,-0.006520232185721397,-0.013473757542669773,0.018470967188477516,0.0,0.007062070071697235
0.006520306691527367,-0.0071353912353515625,-0.013024002313613892,0.017712678760290146,0.0,0.006780566647648811
0.006042781285941601,-0.0074196746572852135,-0.013115223497152328,0.01774626038968563,0.0,0.0070733786560595036
0.005846718326210976,-0.007345447316765785,-0.013302388601005077,0.01861577481031418,0.0,0.007256423123180866
0.006348985247313976,-0.006672733463346958,-0.013093426823616028,0.0187328290194273,0.0,0.006702869199216366
0.006686279084533453,-0.007291371468454599,-0.013486463576555252,0.01920020394027233,0.0,0.006602512672543526
0.006572343409061432,-0.00744416331872344,-0.012901985086500645,0.01931183785200119,0.0,0.00618395023047924
0.006135604344308376,-0.007173439022153616,-0.013585864566266537,0.01888127811253071,0.0,0.006401168182492256
0.006135604344308376,-0.007173439022153616,-0.013585864566266537,0.01888127811253071,0.0,0.006401168182492256
0.00638390751555562,-0.006493758875876665,-0.013011984527111053,0.018817054107785225,0.0,0.006632921285927296
0.006677835714071989,-0.006649604067206383,-0.013555032201111317,0.019170325249433517,0.0,0.006488488521426916
0.006499717943370342,-0.007342783734202385,-0.013607108034193516,0.019160570576786995,0.0,0.006252664141356945
0.006499717943370342,-0.007342783734202385,-0.013607108034193516,0.019160570576786995,0.0,0.006252664141356945
0.0063166543841362,-0.00693579250946641,-0.013347597792744637,0.019366221502423286,0.0,0.006342137698084116
0.006264913827180862,-0.0063840351067483425,-0.013335439376533031,0.019248582422733307,0.0,0.0064026964828372
0.006632016506046057,-0.00678684376180172,-0.0132382120937109,0.019312286749482155,0.0,0.006611932534724474
0.006502307485789061,-0.006955271121114492,-0.012972217053174973,0.019091922789812088,0.0,0.006666348781436682
0.0067791687324643135,-0.007159094326198101,-0.013430631719529629,0.01866631768643856,0.0,0.006903160363435745
0.006054737139493227,-0.006263234652578831,-0.012956121005117893,0.019029350951313972,0.0,0.00658457214012742
0.006264200434088707,-0.006215033121407032,-0.013453594408929348,0.019475342705845833,0.0,0.006061471998691559
0.006751318462193012,-0.006529897917062044,-0.012512248009443283,0.01911000721156597,0.0,0.006310062948614359
0.00701683945953846,-0.006588285323232412,-0.013324390165507793,0.019121989607810974,0.0,0.006515261717140675
0.006256488151848316,-0.006122509948909283,-0.013073091395199299,0.01903817057609558,0.0,0.006598786450922489
0.006808320991694927,-0.006051128264516592,-0.012908953242003918,0.01869158260524273,0.0,0.0065762195736169815
0.006808320991694927,-0.006051128264516592,-0.012908953242003918,0.01869158260524273,0.0,0.0065762195736169815
0.006464804522693157,-0.006783254444599152,-0.013407562859356403,0.01852397434413433,0.0,0.006080318242311478
0.006169905886054039,-0.006538984831422567,-0.01314526703208685,0.018631717190146446,0.0,0.006497516296803951
0.006447496823966503,-0.005874623078852892,-0.012869337573647499,0.018450213596224785,0.0,0.006460349075496197
0.006813157815486193,-0.006404179614037275,-0.01299421489238739,0.018106501549482346,0.0,0.006431145127862692
0.007002430967986584,-0.006695448886603117,-0.013547737151384354,0.018307339400053024,0.0,0.006470645312219858
0.0067247976548969746,-0.006677593104541302,-0.012817302718758583,0.017768975347280502,0.0,0.006732333917170763
0.0067247976548969746,-0.006677593104541302,-0.012817302718758583,0.017768975347280502,0.0,0.006732333917170763
0.006813406478613615,-0.006414713803678751,-0.012900219298899174,0.018887972459197044,0.0,0.006947376299649477
0.006813406478613615,-0.006414713803678751,-0.012900219298899174,0.018887972459197044,0.0,0.006947376299649477
0.0066485656425356865,-0.006742456927895546,-0.013344306498765945,0.01899193786084652,0.0,0.006615186110138893
0.0070345583371818066,-0.006095226854085922,-0.013461655005812645,0.019083984196186066,0.0,0.0068649291060864925
0.0070345583371818066,-0.006095226854085922,-0.013461655005812645,0.019083984196186066,0.0,0.0068649291060864925
0.006669936701655388,-0.00607752799987793,-0.012953916564583778,0.01907539926469326,0.0,0.006795696914196014
0.006893726997077465,-0.0061505804769694805,-0.013317001983523369,0.01932517997920513,0.0,0.006643873639404774
0.007192200981080532,-0.006545306649059057,-0.013130703940987587,0.01982499100267887,0.0,0.006471049040555954
0.006534974090754986,-0.006835754495114088,-0.012794023379683495,0.019171953201293945,0.0,0.006989740300923586
0.006074693985283375,-0.0068037547171115875,-0.01338413916528225,0.018867280334234238,0.0,0.006715644150972366
0.006691245827823877,-0.006136561278253794,-0.012617958709597588,0.01830923929810524,0.0,0.006390872411429882
0.0067459759302437305,-0.00642111711204052,-0.01344079989939928,0.017473937943577766,0.0,0.006371085997670889
0.006870002020150423,-0.00667890440672636,-0.012703324668109417,0.018559833988547325,0.0,0.006549622863531113
0.006720846053212881,-0.006837944034487009,-0.013282929547131062,0.01912234164774418,0.0,0.006787583231925964
0.0068751974031329155,-0.0061968425288796425,-0.013384509831666946,0.018925655633211136,0.0,0.006839454174041748
0.006710609421133995,-0.006087766028940678,-0.013482877984642982,0.018513211980462074,0.0,0.006660195998847485
0.006563195958733559,-0.00656788470223546,-0.013423001393675804,0.018505558371543884,0.0,0.006567003205418587
0.006823671981692314,-0.00625745952129364,-0.013429783284664154,0.0193764828145504,0.0,0.007073909975588322
0.007208044640719891,-0.006273423321545124,-0.012970593757927418,0.019296692684292793,0.0,0.00683721574023366
0.006684363353997469,-0.006683210842311382,-0.013302546925842762,0.0187516026198864,0.0,0.00659012608230114
0.0065816910937428474,-0.006645226385444403,-0.013051115907728672,0.01946823112666607,0.0,0.006517935544252396
0.006773195695132017,-0.006758497096598148,-0.013791586272418499,0.018486278131604195,0.0,0.006316192448139191
0.00702759949490428,-0.006591761950403452,-0.013502680696547031,0.018717966973781586,0.0,0.006549270823597908
0.007476607337594032,-0.0065534356981515884,-0.013701125979423523,0.01854611374437809,0.0,0.006853981874883175
0.007476607337594032,-0.0065534356981515884,-0.013701125979423523,0.01854611374437809,0.0,0.006853981874883175
0.007267265114933252,-0.006876651663333178,-0.013385944068431854,0.019362064078450203,0.0,0.0064078993164002895
0.007267265114933252,-0.006876651663333178,-0.013385944068431854,0.019362064078450203,0.0,0.0064078993164002895
0.00666493596509099,-0.006589371245354414,-0.013346442021429539,0.019042516127228737,0.0,0.006414081901311874
0.006572626531124115,-0.0064012776128947735,-0.013974151574075222,0.018731199204921722,0.0,0.006507836747914553
0.006876386236399412,-0.006785668898373842,-0.013820569962263107,0.018795447424054146,0.0,0.006420017685741186
0.006900964770466089,-0.0070551540702581406,-0.014333262108266354,0.01921265944838524,0.0,0.006731814704835415
0.006849335040897131,-0.006998517084866762,-0.013848591595888138,0.01909710466861725,0.0,0.006626196205615997
0.006691363640129566,-0.006330123171210289,-0.013932472094893456,0.018920771777629852,0.0,0.006792342755943537
0.0066408272832632065,-0.006539014168083668,-0.013500518165528774,0.019076481461524963,0.0,0.00671642180532217
0.006555147003382444,-0.006944506894797087,-0.013725489377975464,0.01873011328279972,0.0,0.006272973958402872
0.006339829880744219,-0.006913068704307079,-0.01371041964739561,0.01890522427856922,0.0,0.006458909250795841
0.007068611681461334,-0.00654757022857666,-0.01327618956565857,0.01884942688047886,0.0,0.0064123207703232765
0.0075417556799948215,-0.006695583462715149,-0.014022515155375004,0.018342677503824234,0.0,0.006352217867970467
0.006647665984928608,-0.0068605877459049225,-0.013644221238791943,0.018968403339385986,0.0,0.006379809696227312
0.00691147381439805,-0.006914259400218725,-0.01334031019359827,0.01919005811214447,0.0,0.006528232246637344
0.00691147381439805,-0.006914259400218725,-0.01334031019359827,0.01919005811214447,0.0,0.006528232246637344
0.0073404135182499886,-0.007385916076600552,-0.01319893728941679,0.019388090819120407,0.0,0.006682616658508778
0.006915011443197727,-0.007068953476846218,-0.01393464021384716,0.019146176055073738,0.0,0.006532870698720217
0.0063942777924239635,-0.0067511750385165215,-0.013912537135183811,0.019267579540610313,0.0,0.006732845213264227
0.006811452563852072,-0.006437396164983511,-0.013747763819992542,0.019109003245830536,0.0,0.006112642120569944
0.006824669428169727,-0.006922080181539059,-0.012984044849872589,0.018910886719822884,0.0,0.0059842453338205814
0.006997223943471909,-0.007406601682305336,-0.013613938353955746,0.019259633496403694,0.0,0.006546861492097378
0.007027701940387487,-0.007503227796405554,-0.013643566519021988,0.018842879682779312,0.0,0.006700960919260979
0.006734085734933615,-0.006803708616644144,-0.014019687660038471,0.01801414042711258,0.0,0.006560464855283499
0.006734085734933615,-0.006803708616644144,-0.014019687660038471,0.01801414042711258,0.0,0.006560464855283499
0.006653907243162394,-0.007551685906946659,-0.013260279782116413,0.018656669184565544,0.0,0.006882770452648401
0.006653907243162394,-0.007551685906946659,-0.013260279782116413,0.018656669184565544,0.0,0.006882770452648401
0.006691168528050184,-0.006984422914683819,-0.013018105179071426,0.018581708893179893,0.0,0.005802005995064974
0.006864170078188181,-0.0064546107314527035,-0.013297208584845066,0.018752770498394966,0.0,0.0058382912538945675
0.007515301927924156,-0.006633777637034655,-0.013861818239092827,0.018580960109829903,0.0,0.006409547757357359
0.006670670118182898,-0.007245285902172327,-0.01375419832766056,0.01860199309885502,0.0,0.006456991191953421
0.006371306721121073,-0.007553491275757551,-0.013638447970151901,0.01893801800906658,0.0,0.006613289937376976
0.006816236302256584,-0.006961832754313946,-0.01278520654886961,0.018952015787363052,0.0,0.006729975808411837
0.006949332542717457,-0.0062733180820941925,-0.013470875099301338,0.01903422921895981,0.0,0.006985961925238371
0.007351434323936701,-0.006876589730381966,-0.013133065775036812,0.01930556260049343,0.0,0.006620421074330807
0.006550278980284929,-0.007314698304980993,-0.013828556053340435,0.01850702054798603,0.0,0.006494457367807627
0.006427062209695578,-0.007083815988153219,-0.013311098329722881,0.018620509654283524,0.0,0.006600771099328995
0.007180783897638321,-0.006678320467472076,-0.013766270130872726,0.019156934693455696,0.0,0.006741506513208151
0.007275959476828575,-0.007719053421169519,-0.01379399560391903,0.018665216863155365,0.0,0.00646507041528821
0.006997229531407356,-0.007102866191416979,-0.013015704229474068,0.018775561824440956,0.0,0.006064280867576599
0.00684917438775301,-0.006697098724544048,-0.013469911180436611,0.019022727385163307,0.0,0.006346185691654682
0.00714973546564579,-0.006570145487785339,-0.013525724411010742,0.01971859112381935,0.0,0.0071302736178040504
0.00713932141661644,-0.006917073391377926,-0.013780208304524422,0.019668536260724068,0.0,0.007013757713139057
0.006965266540646553,-0.007327739614993334,-0.013743837364017963,0.018705179914832115,0.0,0.007203327491879463
0.006714096292853355,-0.006863962858915329,-0.013485812582075596,0.01851888932287693,0.0,0.006779896095395088
0.007418251130729914,-0.006268175318837166,-0.01383938454091549,0.01883915439248085,0.0,0.006736729294061661
0.007299868389964104,-0.00629470543935895,-0.013185740448534489,0.01888923905789852,0.0,0.006947212852537632
0.006959149613976479,-0.006663525011390448,-0.013529155403375626,0.01959535852074623,0.0,0.00711019616574049
0.007087725214660168,-0.007150696124881506,-0.01298835501074791,0.01969936303794384,0.0,0.006980940233916044
0.007039398420602083,-0.006808076053857803,-0.013692392967641354,0.01806783489882946,0.0,0.006740530487149954
0.0073126861825585365,-0.006459518801420927,-0.01308885496109724,0.018419677391648293,0.0,0.006509150378406048
0.0073126861825585365,-0.006459518801420927,-0.01308885496109724,0.018419677391648293,0.0,0.006509150378406048
0.006766654085367918,-0.006506034638732672,-0.013855990022420883,0.018760252743959427,0.0,0.006808883510529995
0.0064248377457261086,-0.006869057193398476,-0.013333478011190891,0.018976937979459763,0.0,0.006854785606265068
0.006671404931694269,-0.006855852901935577,-0.013491269201040268,0.019140642136335373,0.0,0.0070608146488666534
0.006979555357247591,-0.0066999332047998905,-0.01344569493085146,0.01878301426768303,0.0,0.0070767574943602085
0.0074091022834181786,-0.006661838851869106,-0.013705745339393616,0.01835015043616295,0.0,0.006922601256519556
0.006964140105992556,-0.006810182239860296,-0.013504461385309696,0.018506528809666634,0.0,0.006531651131808758
0.006585224997252226,-0.006757314782589674,-0.01356134656816721,0.01851777732372284,0.0,0.006409207358956337
0.006976413074880838,-0.006547630298882723,-0.013687933795154095,0.01878419890999794,0.0,0.006840185262262821
0.00733160087838769,-0.007170072756707668,-0.013221326284110546,0.019771013408899307,0.0,0.007004269398748875
0.007097914814949036,-0.00703054666519165,-0.013529594987630844,0.01969175972044468,0.0,0.006794692948460579
0.006983037106692791,-0.006209912244230509,-0.013869025744497776,0.0196385458111763,0.0,0.006511147599667311
0.007285836152732372,-0.006489396560937166,-0.013093504123389721,0.019557597115635872,0.0,0.0069242906756699085
0.007004661951214075,-0.006772484630346298,-0.013887275941669941,0.019030921161174774,0.0,0.006557627581059933
0.007458736188709736,-0.0066573284566402435,-0.013035818003118038,0.01913381740450859,0.0,0.006984658073633909
0.006932334043085575,-0.0065489052794873714,-0.013413256034255028,0.0187289509922266,0.0,0.006557716988027096
0.007076605688780546,-0.006209943443536758,-0.012746869586408138,0.018664706498384476,0.0,0.0066810003481805325
0.007235953118652105,-0.006235904060304165,-0.01360901165753603,0.019147958606481552,0.0,0.006827745120972395
0.007088565733283758,-0.006780312396585941,-0.01369729358702898,0.018784400075674057,0.0,0.0070837619714438915
0.006962931249290705,-0.006746686529368162,-0.013748034834861755,0.01834752969443798,0.0,0.006982704158872366
0.007186776492744684,-0.006600212771445513,-0.013599642552435398,0.018821462988853455,0.0,0.006687668152153492
0.007259958889335394,-0.0057905795983970165,-0.013774142600595951,0.018765758723020554,0.0,0.00693636666983366
0.006696371827274561,-0.006236465647816658,-0.013658775016665459,0.018997151404619217,0.0,0.006810400635004044
0.007135285995900631,-0.006843581795692444,-0.013005041517317295,0.019112447276711464,0.0,0.006989829707890749
0.007597236428409815,-0.006936508696526289,-0.013571676798164845,0.01861213892698288,0.0,0.006887457333505154
0.007676431909203529,-0.006053076591342688,-0.013598449528217316,0.01849791407585144,0.0,0.007278182543814182
0.007676431909203529,-0.006053076591342688,-0.013598449528217316,0.01849791407585144,0.0,0.007278182543814182
0.007124719209969044,-0.005895430687814951,-0.014641414396464825,0.01860029809176922,0.0,0.006867088843137026
0.006837825756520033,-0.006611431948840618,-0.0135896485298872,0.018348965793848038,0.0,0.0070727793499827385
0.007013731170445681,-0.006863665301352739,-0.01392168179154396,0.018786510452628136,0.0,0.0066721332259476185
0.007234364282339811,-0.006509319879114628,-0.01314061600714922,0.0185671579092741,0.0,0.007096932735294104
0.006825570948421955,-0.005983540788292885,-0.014037910848855972,0.018208933994174004,0.0,0.0072694746777415276
0.006641429383307695,-0.006360425613820553,-0.013440736569464207,0.018311025574803352,0.0,0.006952725816518068
0.007108846679329872,-0.006493647117167711,-0.01429020520299673,0.01815231703221798,0.0,0.006850964389741421
0.007238275837153196,-0.006704892031848431,-0.013599056750535965,0.01793370209634304,0.0,0.006913384422659874
0.007467603776603937,-0.006440080236643553,-0.013911676593124866,0.018310407176613808,0.0,0.007281682454049587
0.007040414493530989,-0.006299710366874933,-0.0134968850761652,0.01825544238090515,0.0,0.006928140763193369
0.007516538258641958,-0.006048147100955248,-0.0136174401268363,0.01844802498817444,0.0,0.0065517365001142025
0.006788670551031828,-0.006835781037807465,-0.013762339949607849,0.018413012847304344,0.0,0.007039773743599653
0.00697416951879859,-0.005796688608825207,-0.013696148991584778,0.018920352682471275,0.0,0.006955122109502554
0.007536780554801226,-0.005831894464790821,-0.013693142682313919,0.01898285374045372,0.0,0.00683083338662982
0.007431582547724247,-0.0065009878017008305,-0.013554403558373451,0.018210064619779587,0.0,0.00716018071398139
0.00731918727979064,-0.006531050428748131,-0.013567321002483368,0.019230755046010017,0.0,0.007796694524586201
0.007157006300985813,-0.006368367932736874,-0.013707749545574188,0.01834312453866005,0.0,0.0072590382769703865
0.00704461382701993,-0.005832181312143803,-0.013492055237293243,0.018415197730064392,0.0,0.006569288671016693
0.00720337824895978,-0.005752249620854855,-0.013975873589515686,0.019169488921761513,0.0,0.006771259941160679
0.007207551971077919,-0.0068177334032952785,-0.01377932820469141,0.018554624170064926,0.0,0.0074523030780255795
0.007207551971077919,-0.0068177334032952785,-0.01377932820469141,0.018554624170064926,0.0,0.0074523030780255795
0.007432806771248579,-0.006056697107851505,-0.012874827720224857,0.019078416749835014,0.0,0.007047742139548063
0.007299789693206549,-0.005684338044375181,-0.013629854656755924,0.018886622041463852,0.0,0.007369330618530512
0.007298547308892012,-0.00576387532055378,-0.013326199725270271,0.019061541184782982,0.0,0.007623530458658934
0.007121087983250618,-0.006029897835105658,-0.01393828634172678,0.01889364793896675,0.0,0.007264259271323681
0.007371595595031977,-0.0065130614675581455,-0.013235599733889103,0.018039723858237267,0.0,0.007192572113126516
0.007371595595031977,-0.0065130614675581455,-0.013235599733889103,0.018039723858237267,0.0,0.007192572113126516
0.007304109632968903,-0.006510708015412092,-0.013233392499387264,0.018328722566366196,0.0,0.007072515785694122
0.007114991080015898,-0.005683029070496559,-0.012933471240103245,0.018597034737467766,0.0,0.007013041991740465
0.006839138455688953,-0.006379467435181141,-0.013323714956641197,0.01866360940039158,0.0,0.007225465029478073
0.0072127035818994045,-0.006209351122379303,-0.013485908508300781,0.01865604892373085,0.0,0.007196095772087574
0.008072001859545708,-0.006089539732784033,-0.013473017141222954,0.019167721271514893,0.0,0.00717589445412159
0.007791484240442514,-0.005969701800495386,-0.01342812180519104,0.01889156550168991,0.0,0.006978130433708429
0.007600856479257345,-0.005554263945668936,-0.012756621465086937,0.018975021317601204,0.0,0.007263504434376955
0.007686926051974297,-0.006214017979800701,-0.013182139955461025,0.018604306504130363,0.0,0.007175876293331385
0.0077131278812885284,-0.005927737336605787,-0.013142691925168037,0.018147259950637817,0.0,0.007245481014251709
0.007400149013847113,-0.006169566418975592,-0.013211959972977638,0.01832476072013378,0.0,0.007508809212595224
0.00778134074062109,-0.005484411027282476,-0.013751859776675701,0.01827288419008255,0.0,0.00712965102866292
0.007596696261316538,-0.005907486192882061,-0.012884648516774178,0.018967293202877045,0.0,0.007765386253595352
0.007380702532827854,-0.006027668248862028,-0.013252884149551392,0.018746979534626007,0.0,0.007853725925087929
0.007204356603324413,-0.006186227779835463,-0.013158450834453106,0.018407801166176796,0.0,0.0077774724923074245
0.00782600324600935,-0.006269057746976614,-0.013326394371688366,0.01810503751039505,0.0,0.007130051497370005
0.0076414854265749454,-0.00550008425489068,-0.013453888706862926,0.017905287444591522,0.0,0.007367814891040325
0.0074316877871751785,-0.005732187535613775,-0.013072490692138672,0.0183019507676363,0.0,0.00695212883874774
0.007350682746618986,-0.0058986227959394455,-0.013103814795613289,0.01849319599568844,0.0,0.007225894834846258
0.008463800884783268,-0.005957796238362789,-0.012818461284041405,0.017860839143395424,0.0,0.007976937107741833
0.007896347902715206,-0.005797839257866144,-0.013247263617813587,0.018521707504987717,0.0,0.007208140566945076
0.008200005628168583,-0.005845306906849146,-0.012793897651135921,0.018613312393426895,0.0,0.006892532575875521
0.008020431734621525,-0.0059684147126972675,-0.013679958879947662,0.018129559233784676,0.0,0.006852800492197275
0.007724093738943338,-0.005961413495242596,-0.01268437784165144,0.01873091422021389,0.0,0.006977668032050133
0.0077514201402664185,-0.006075140088796616,-0.012942260131239891,0.01842302642762661,0.0,0.006976509001106024
0.00755433039739728,-0.005649744067341089,-0.012770530767738819,0.018439965322613716,0.0,0.007130351383239031
0.00739312544465065,-0.005588981322944164,-0.012831088155508041,0.018562862649559975,0.0,0.007387871388345957
0.007663320749998093,-0.0061878967098891735,-0.012859424576163292,0.018273094668984413,0.0,0.007764908485114574
0.007663320749998093,-0.0061878967098891735,-0.012859424576163292,0.018273094668984413,0.0,0.007764908485114574
0.0077749029733240604,-0.006073455326259136,-0.012808837927877903,0.018714075908064842,0.0,0.007223314605653286
0.007632886990904808,-0.006256007123738527,-0.013022459112107754,0.018612323328852654,0.0,0.007214554585516453
0.0074797868728637695,-0.006476112641394138,-0.012267456389963627,0.018365859985351562,0.0,0.00711967283859849
0.008335649035871029,-0.0055081783793866634,-0.013011141680181026,0.01990886963903904,0.0,0.0072061060927808285
0.0075214216485619545,-0.005957455839961767,-0.012518361210823059,0.01834244467318058,0.0,0.007921038195490837
0.007645626552402973,-0.0056300656870007515,-0.01311000157147646,0.017566757276654243,0.0,0.007789900992065668
0.007755161728709936,-0.005882887169718742,-0.012873590923845768,0.01850108988583088,0.0,0.007127695716917515
0.008223976008594036,-0.0060213664546608925,-0.012930566444993019,0.018859392032027245,0.0,0.007320808712393045
0.007914702408015728,-0.005438846070319414,-0.012305764481425285,0.018737930804491043,0.0,0.007491763215512037
0.007837957702577114,-0.005889990366995335,-0.013101969845592976,0.01882883533835411,0.0,0.007598303258419037
0.008160567842423916,-0.005622965283691883,-0.01234352681785822,0.018440354615449905,0.0,0.007680285256356001
0.007576546631753445,-0.005791884381324053,-0.013050749897956848,0.018782788887619972,0.0,0.007991960272192955
0.008112942799925804,-0.005747020710259676,-0.012865584343671799,0.018318213522434235,0.0,0.00774586433544755
0.007974504493176937,-0.00579696474596858,-0.01344040222465992,0.018068818375468254,0.0,0.0076881772838532925
0.007946417666971684,-0.006079746875911951,-0.01309890765696764,0.018388962373137474,0.0,0.008000469766557217
0.007715392857789993,-0.005620454903692007,-0.013065011240541935,0.01833219639956951,0.0,0.007720267400145531
0.007656242698431015,-0.005778327584266663,-0.013119817711412907,0.01843666099011898,0.0,0.0069614253006875515
0.008259246125817299,-0.005805514752864838,-0.012743710540235043,0.018183477222919464,0.0,0.0073359813541173935
0.008452517911791801,-0.006191549822688103,-0.013548617251217365,0.018195785582065582,0.0,0.007532861549407244
0.007788307964801788,-0.00641807122156024,-0.01144480425864458,0.01886920817196369,0.0,0.007351608481258154
0.007701398339122534,-0.006003889720886946,-0.013849548995494843,0.019159900024533272,0.0,0.007284026127308607
0.007701398339122534,-0.006003889720886946,-0.013849548995494843,0.019159900024533272,0.0,0.007284026127308607
0.008066489361226559,-0.00617841025814414,-0.01324161235243082,0.01827976293861866,0.0,0.007767030969262123
0.007860549725592136,-0.005754627753049135,-0.013518668711185455,0.01844480261206627,0.0,0.007688259240239859
0.007590099237859249,-0.005986459087580442,-0.012969998642802238,0.017894450575113297,0.0,0.00792465079575777
0.007975193671882153,-0.005513708107173443,-0.013608979992568493,0.017941690981388092,3.383572675375035e-06,0.008310460485517979
0.007975193671882153,-0.005513708107173443,-0.013608979992568493,0.017941690981388092,3.383572675375035e-06,0.008310460485517979
0.008190847933292389,-0.004754732362926006,-0.01375550590455532,0.017742015421390533,2.209231269034717e-07,0.006894567050039768
0.007795832119882107,-0.0048910630866885185,-0.01335063111037016,0.01870410330593586,1.4424702321491623e-08,0.006671472452580929
0.007827375084161758,-0.005303273908793926,-0.013188696466386318,0.018759967759251595,9.41829947365136e-10,0.007279932964593172
0.008069409988820553,-0.005187798757106066,-0.013684413395822048,0.01792486384510994,6.149476761141415e-11,0.007828322239220142
0.007752758450806141,-0.005486722569912672,-0.01312247570604086,0.01822156272828579,4.015168839771599e-12,0.007665970362722874
0.0077173286117613316,-0.005120258312672377,-0.013410604558885098,0.01816687174141407,2.6216184713552526e-13,0.007430069614201784
0.007872531190514565,-0.005237560253590345,-0.013366655446588993,0.01874356158077717,1.7117294113708735e-14,0.007442268542945385
0.008711948059499264,-0.005408239085227251,-0.013766643591225147,0.01896408572793007,1.1176371040124734e-15,0.007656850386410952
0.007716037333011627,-0.005082598887383938,-0.013232287019491196,0.018392425030469894,4.764662898701396e-18,0.007982829585671425
0.008471481502056122,-0.005340316332876682,-0.012996761128306389,0.01818167231976986,3.1109844077934266e-19,0.007902160286903381
0.008370425552129745,-0.00520127359777689,-0.013597001321613789,0.018250318244099617,2.031250561579357e-20,0.007919617928564548
0.008294947445392609,-0.005278443917632103,-0.013015741482377052,0.01855853572487831,1.3262615295549958e-21,0.007286486215889454
0.007833879441022873,-0.0049865348264575005,-0.013112608343362808,0.019241202622652054,8.659540095688543e-23,0.007803228218108416
0.008079198189079762,-0.004809302277863026,-0.013592137955129147,0.019017336890101433,5.654060747267092e-24,0.007915455847978592
0.008047954179346561,-0.004993491806089878,-0.0136045441031456,0.01928323321044445,3.6916974591874497e-25,0.008160898461937904
0.00833125039935112,-0.004990800749510527,-0.01323795784264803,0.018853772431612015,2.41041441600696e-26,0.00816827081143856
0.00857497751712799,-0.0051297470927238464,-0.012917718850076199,0.01874016784131527,1.5738285430594448e-27,0.00825226679444313
0.00857497751712799,-0.0051297470927238464,-0.012917718850076199,0.01874016784131527,1.5738285430594448e-27,0.00825226679444313
0.008217486552894115,-0.004778267815709114,-0.012243867851793766,0.018165690824389458,6.70947800398503e-30,0.008447623811662197
0.007937940768897533,-0.004582647234201431,-0.013128730468451977,0.01788238063454628,4.380809777152965e-31,0.00783170573413372
0.00814652070403099,-0.005158361978828907,-0.012707430869340897,0.018314780667424202,2.8603559708580026e-32,0.0077996267937123775
0.008333226665854454,-0.005195189733058214,-0.013062127865850925,0.018579261377453804,1.8676079758421804e-33,0.00803106278181076
0.008333226665854454,-0.005195189733058214,-0.013062127865850925,0.018579261377453804,1.8676079758421804e-33,0.00803106278181076
0.007774820551276207,-0.004945062566548586,-0.012631244026124477,0.018722128123044968,1.2194145620654766e-34,0.007754091639071703
0.008282850496470928,-0.00514786085113883,-0.01325062196701765,0.01857805624604225,5.198555876403567e-37,0.008051382377743721
0.00821373425424099,-0.004994846880435944,-0.012574393302202225,0.018841419368982315,3.394285115861845e-38,0.008509105071425438
0.008342841640114784,-0.005876406095921993,-0.013063390739262104,0.018620438873767853,2.216226388849843e-39,0.008024030365049839
0.008342841640114784,-0.005876406095921993,-0.013063390739262104,0.018620438873767853,2.216226388849843e-39,0.008024030365049839
0.007895487360656261,-0.0056184264831244946,-0.012715338729321957,0.018617594614624977,1.447036846200379e-40,0.007988115772604942
0.00801983941346407,-0.005838514771312475,-0.013279888778924942,0.01895795203745365,9.447554246477917e-42,0.0078069185838103294
0.00802595354616642,-0.0054188319481909275,-0.012741472572088242,0.01879000850021839,6.165713243029195e-43,0.008068789727985859
0.009043104946613312,-0.0052140927873551846,-0.013345430605113506,0.01816106028854847,4.0637655465419695e-44,0.008126920089125633
0.008160784840583801,-0.005065072327852249,-0.013005424290895462,0.018635328859090805,2.802596928649634e-45,0.008312730118632317
0.00820037443190813,-0.005968074779957533,-0.013446548953652382,0.01859247498214245,0.0,0.007984355092048645
0.008306619711220264,-0.0053939856588840485,-0.013111034408211708,0.018293185159564018,0.0,0.008050310425460339
0.008188623934984207,-0.005440657492727041,-0.01332230493426323,0.01831878535449505,0.0,0.007896172814071178
0.008137640543282032,-0.0051149530336260796,-0.012896629981696606,0.01817142777144909,0.0,0.00816301442682743
0.008840984664857388,-0.004903680179268122,-0.013247680850327015,0.01842501200735569,0.0,0.008377223275601864
0.00860434491187334,-0.005457940511405468,-0.012892056256532669,0.018223026767373085,0.0,0.007900530472397804
0.008367402479052544,-0.0052300626412034035,-0.0133785055950284,0.01825764775276184,0.0,0.00798441469669342
0.008347149938344955,-0.0049853394739329815,-0.013196543790400028,0.01884579099714756,0.0,0.008329532109200954
0.008773330599069595,-0.005090694408863783,-0.013271508738398552,0.018124498426914215,0.0,0.008256638422608376
0.008533096872270107,-0.004986323416233063,-0.013045398518443108,0.017901182174682617,0.0,0.00819946825504303
0.008479159325361252,-0.0049454024992883205,-0.013397826813161373,0.017323963344097137,0.0,0.00836457684636116
0.009052068926393986,-0.0052225636318326,-0.012703489512205124,0.017242997884750366,0.0,0.008325506001710892
0.008861791342496872,-0.005044811405241489,-0.013125098310410976,0.017742246389389038,0.0,0.00808585062623024
0.008970100432634354,-0.005240061320364475,-0.013029450550675392,0.017501313239336014,0.0,0.008164901286363602
0.009110781364142895,-0.0049536158330738544,-0.012564580887556076,0.018239397555589676,0.0,0.008419682271778584
0.009514877572655678,-0.004800805822014809,-0.013056270778179169,0.018013639375567436,0.0,0.008504512719810009
0.009514877572655678,-0.004800805822014809,-0.013056270778179169,0.018013639375567436,0.0,0.008504512719810009
0.008626828901469707,-0.005132035352289677,-0.012720204889774323,0.017220359295606613,0.0,0.008660922758281231
0.009100982919335365,-0.005477480590343475,-0.013471238315105438,0.017744561657309532,0.0,0.008117769844830036
0.008965535089373589,-0.005065939389169216,-0.01275353692471981,0.017375396564602852,0.0,0.008030819706618786
0.00907094869762659,-0.005259945057332516,-0.01322400476783514,0.01808548904955387,0.0,0.008012279868125916
0.008760233409702778,-0.005115029402077198,-0.012732842937111855,0.018290134146809578,0.0,0.0078273955732584
0.00918600894510746,-0.004713189322501421,-0.013130025006830692,0.017420964315533638,0.0,0.008531682193279266
0.00911401491612196,-0.005406205076724291,-0.013416645117104053,0.017848389223217964,0.0,0.008114186115562916
0.00874467846006155,-0.005296552553772926,-0.012517894618213177,0.01853198930621147,0.0,0.00837349146604538
0.009364407509565353,-0.005351527594029903,-0.013121007941663265,0.01637827791273594,0.0,0.00806331541389227
0.009107272140681744,-0.00471956143155694,-0.013146510347723961,0.017044616863131523,0.0,0.008113381452858448
0.009411994367837906,-0.004561414010822773,-0.01276665274053812,0.018025502562522888,0.0,0.008134594187140465
0.009560090489685535,-0.005114197731018066,-0.013622911646962166,0.017422376200556755,0.0,0.008441784419119358
0.009030363522469997,-0.005011127796024084,-0.013278091326355934,0.017370857298374176,0.0,0.008364968933165073
0.009207155555486679,-0.005118062719702721,-0.013311216607689857,0.017549648880958557,0.0,0.008247447200119495
0.009471006691455841,-0.004861816763877869,-0.013449903577566147,0.0176822692155838,0.0,0.007809179835021496
0.00936567410826683,-0.00469435378909111,-0.013490020297467709,0.01790868490934372,0.0,0.008162406273186207
0.009673263877630234,-0.004669357556849718,-0.01334149856120348,0.018066488206386566,0.0,0.008357676677405834
0.009764204733073711,-0.00516008073464036,-0.01299324631690979,0.01773419976234436,0.0,0.008265209384262562
0.0094679556787014,-0.005248579662293196,-0.01355509739369154,0.017887219786643982,0.0,0.00822270568460226
0.008873041719198227,-0.004984527360647917,-0.01308670174330473,0.017666637897491455,0.0,0.008305991068482399
0.009420802816748619,-0.0047575063072144985,-0.013660767115652561,0.01790189929306507,0.0,0.00859411433339119
0.00984425749629736,-0.0046661919914186,-0.013107510283589363,0.01806686259806156,0.0,0.008752811700105667
0.00949609000235796,-0.00456898333504796,-0.013671507127583027,0.017506318166851997,0.0,0.009197650477290154
0.009819329716265202,-0.004759799689054489,-0.013091589324176311,0.01773691177368164,0.0,0.009089483879506588
0.009819329716265202,-0.004759799689054489,-0.013091589324176311,0.01773691177368164,0.0,0.009089483879506588
0.009346969425678253,-0.004843757953494787,-0.013363956473767757,0.017421554774045944,0.0,0.008832886815071106
0.009346969425678253,-0.004843757953494787,-0.013363956473767757,0.017421554774045944,0.0,0.008832886815071106
0.009551920928061008,-0.004837674554437399,-0.013905622996389866,0.017631839960813522,0.0,0.008477185852825642
0.00977465882897377,-0.004751007072627544,-0.014025975950062275,0.017128029838204384,0.0,0.008319597691297531
0.009394806809723377,-0.00438661640509963,-0.013800173997879028,0.017498133704066277,0.0,0.008345267735421658
0.009859231300652027,-0.004123202059417963,-0.013757714070379734,0.017434988170862198,0.0,0.008733890019357204
0.009588541463017464,-0.004494624212384224,-0.01417999342083931,0.017204705625772476,0.0,0.008483988232910633
0.010688909329473972,-0.004531582351773977,-0.013881264254450798,0.017350684851408005,0.0,0.00840699952095747
0.01010151207447052,-0.004658276215195656,-0.014091774821281433,0.016864033415913582,0.0,0.008936458267271519
0.009760458022356033,-0.004282160196453333,-0.014101025648415089,0.017262473702430725,0.0,0.008235728368163109
0.010154486633837223,-0.004526397213339806,-0.013660814613103867,0.017391059547662735,0.0,0.008269592188298702
0.009957163594663143,-0.004404063802212477,-0.01368698850274086,0.018090710043907166,0.0,0.008643713779747486
0.010053547099232674,-0.004431746434420347,-0.013824110850691795,0.017720378935337067,0.0,0.0085342051461339
0.011239768005907536,-0.004596135579049587,-0.013813863508403301,0.0178166963160038,-3.9547801861772314e-05,0.008399938233196735
0.009718666784465313,-0.004758747294545174,-0.014110268093645573,0.017768504098057747,-0.00011963288125116378,0.00886945053935051
0.009112237021327019,-0.004777345806360245,-0.01325489953160286,0.017587751150131226,-0.00012169271212769672,0.008439223282039165
0.010987057350575924,-0.004524838179349899,-0.013543323613703251,0.018072806298732758,-0.00011882512626470998,0.00957629457116127
0.010397166013717651,-0.004205138422548771,-0.012917028740048409,0.017403781414031982,-0.00011579002602957189,0.0090330233797431
0.010394720360636711,-0.004805651493370533,-0.013818804174661636,0.01730235479772091,-0.00011288673704257235,0.008520452305674553
0.010095348581671715,-0.005030739586800337,-0.013714314438402653,0.017732197418808937,-0.00011012407776433975,0.008839495480060577
0.009870973415672779,-0.004436226561665535,-0.01395757868885994,0.017150288447737694,-0.00010749325156211853,0.008805543184280396
0.009870973415672779,-0.004436226561665535,-0.01395757868885994,0.017150288447737694,-0.00010749325156211853,0.008805543184280396
0.011095352470874786,-0.004496593493968248,-0.013919662684202194,0.01736406795680523,-0.00012173916911706328,0.00894816592335701
0.009913850575685501,-0.004542549140751362,-0.013641503639519215,0.018246851861476898,-0.00012027645425405353,0.008896286599338055
0.009913850575685501,-0.004542549140751362,-0.013641503639519215,0.018246851861476898,-0.00012027645425405353,0.008896286599338055
0.010331325232982635,-0.004570242948830128,-0.013567974790930748,0.016346223652362823,-0.00011522863496793434,0.008897092193365097
0.010331325232982635,-0.004570242948830128,-0.013567974790930748,0.016346223652362823,-0.00011522863496793434,0.008897092193365097
0.01032295823097229,-0.004463837947696447,-0.013543630950152874,0.017404818907380104,-0.00011282139166723937,0.008985408581793308
0.01068879384547472,-0.004341295454651117,-0.013748741708695889,0.017439216375350952,-0.00011051245382986963,0.008736061863601208
0.010999246500432491,-0.004374404903501272,-0.0133607666939497,0.01727456972002983,-0.00010829612438101321,0.00898376852273941
0.010322147980332375,-0.004526341799646616,-0.013758848421275616,0.017581995576620102,-0.00010616688814479858,0.00911420676857233
0.01070883683860302,-0.004585633985698223,-0.013398722745478153,0.017050383612513542,-0.00011265805369475856,0.008558978326618671
0.010842486284673214,-0.004271042067557573,-0.014030407182872295,0.01771566830575466,-0.00011859965161420405,0.009340107440948486
0.01072299387305975,-0.004318283870816231,-0.013341158628463745,0.017594100907444954,-0.00011692511179717258,0.009349120780825615
0.010589946992695332,-0.0045958226546645164,-0.013660474680364132,0.01740226335823536,-0.00011482831905595958,0.009672536514699459
0.010121792554855347,-0.004266075789928436,-0.012981950305402279,0.017536180093884468,-0.00011277502926532179,0.009148669429123402
0.010637238621711731,-0.004481719806790352,-0.013906959444284439,0.01761958934366703,-0.00011079190153395757,0.009019671939313412
0.010423114523291588,-0.00390632776543498,-0.01393880508840084,0.017974480986595154,-0.00011455479398136958,0.009066510014235973
0.010654489509761333,-0.003907795064151287,-0.013158407993614674,0.017564859241247177,-0.0001197670353576541,0.009151196107268333
0.010440540499985218,-0.004347467329353094,-0.01351260393857956,0.017193732783198357,-0.00011826465197373182,0.00892412569373846
0.010742278769612312,-0.004330966621637344,-0.013281079940497875,0.016733229160308838,-0.00011638340220088139,0.008913918398320675
0.010946040041744709,-0.004247844219207764,-0.01350351981818676,0.017307033762335777,-0.00011453399201855063,0.008771931752562523
0.010990186594426632,-0.0044519114308059216,-0.013142055831849575,0.017479246482253075,-0.00011274059943389148,0.00907420739531517
0.01035725511610508,-0.004140109289437532,-0.01265945564955473,0.017481466755270958,-0.00011100255505880341,0.008921368047595024
0.01067900937050581,-0.004294122103601694,-0.013336485251784325,0.017600273713469505,-0.00010931715951301157,0.009346352890133858
0.010004454292356968,-0.004335764795541763,-0.012984929606318474,0.016827985644340515,-0.00012366323790047318,0.008769148960709572
0.010327697731554508,-0.004543481394648552,-0.013676912523806095,0.01775348372757435,-0.00013530477008316666,0.008813150227069855
0.010784388519823551,-0.004455195274204016,-0.013059151358902454,0.018253328278660774,-0.00013232920900918543,0.009369888342916965
0.010784388519823551,-0.004455195274204016,-0.013059151358902454,0.018253328278660774,-0.00013232920900918543,0.009369888342916965
0.010428735986351967,-0.004335873760282993,-0.013566900976002216,0.018137356266379356,-0.00012861269351560622,0.009065915830433369
0.010794850997626781,-0.0043854485265910625,-0.013155335560441017,0.01789371855556965,-0.00012504270125646144,0.009263007901608944
0.010745990090072155,-0.004050280898809433,-0.013489048928022385,0.0170931126922369,-0.00012166229862486944,0.009445084258913994
0.009860488586127758,-0.004339693114161491,-0.012981344014406204,0.01723570190370083,-0.00011845932749565691,0.009114927612245083
0.010484280064702034,-0.004146386869251728,-0.013287058100104332,0.016848918050527573,-0.00011542081483639777,0.009071181528270245
0.01037527434527874,-0.004409224260598421,-0.013223775662481785,0.016863910481333733,-0.00011253412230871618,0.008841847069561481
0.010302649810910225,-0.004229318350553513,-0.013675845228135586,0.017184149473905563,-0.0001097885105991736,0.00865651573985815
0.01037848275154829,-0.00430535851046443,-0.013819943182170391,0.017199059948325157,-0.0001230650523211807,0.009026520885527134
0.010494260117411613,-0.004468515980988741,-0.012999489903450012,0.017762482166290283,-0.00012525472266133875,0.00894335750490427
0.011254488490521908,-0.004138876684010029,-0.013230596669018269,0.017761601135134697,-0.00012273708125576377,0.009632215835154057
0.01055370457470417,-0.004284803755581379,-0.013163822703063488,0.017047429457306862,-0.00012003039591945708,0.009091813117265701
0.010610545985400677,-0.004323199391365051,-0.013778384774923325,0.017725396901369095,-0.00011742176138795912,0.009024049155414104
0.01107004564255476,-0.004528113640844822,-0.013010798022150993,0.017754944041371346,-0.000114922717330046,0.00915779173374176
0.009821861982345581,-0.004197956062853336,-0.012594493106007576,0.017430631443858147,-0.00012619257904589176,0.009254765696823597
0.010444044135510921,-0.0041742646135389805,-0.013342239893972874,0.01704499125480652,-0.000125872393255122,0.00961934681981802
0.010374140925705433,-0.004402428399771452,-0.013201404362916946,0.017595527693629265,-0.0001235477247973904,0.009431780315935612
0.010739038698375225,-0.004101098049432039,-0.013154792599380016,0.017135348170995712,-0.00012118079757783562,0.009308337233960629
0.011260964907705784,-0.004004963673651218,-0.013040944933891296,0.01701563224196434,-0.00011889440065715462,0.009875251911580563
0.01035348977893591,-0.004504353739321232,-0.013082066550850868,0.016985245048999786,-0.00012489574146457016,0.009686186909675598
0.010705502703785896,-0.004224301781505346,-0.013367263600230217,0.01733359880745411,-0.0001303843455389142,0.009279358200728893
0.01057905238121748,-0.004379053600132465,-0.012842251919209957,0.017162254080176353,-0.00012856232933700085,0.010022399015724659
0.010165694169700146,-0.004131677094846964,-0.013160106725990772,0.0167145524173975,-0.00012633945152629167,0.009961407631635666
0.010553761385381222,-0.003898260649293661,-0.012811509892344475,0.01716437004506588,-0.00014763270155526698,0.009372565895318985
0.010553761385381222,-0.003898260649293661,-0.012811509892344475,0.01716437004506588,-0.00014763270155526698,0.009372565895318985
0.01111609861254692,-0.0037941306363791227,-0.01345659140497446,0.01710282452404499,-0.00016475387383252382,0.009814261458814144
0.010276789776980877,-0.003939557820558548,-0.01300091203302145,0.01674814708530903,-0.00016035452426876873,0.009069066494703293
0.010537178255617619,-0.00400933064520359,-0.013287191279232502,0.01714528724551201,-0.00015492952661588788,0.008974146097898483
0.010656241327524185,-0.0038321746978908777,-0.01285784225910902,0.016873935237526894,-0.0001497785560786724,0.008865658193826675
0.011240765452384949,-0.0037836693227291107,-0.013834693469107151,0.017210960388183594,-0.00014495343202725053,0.009544828906655312
0.01066283043473959,-0.004357879050076008,-0.013297210447490215,0.0171816423535347,-0.00016662260168232024,0.009417236782610416
0.010441876947879791,-0.00415060156956315,-0.01356278546154499,0.01698269695043564,-0.00016329182835761458,0.00966600514948368
0.010330179706215858,-0.003973080776631832,-0.013513295911252499,0.016905538737773895,-0.00015860670828260481,0.009693590924143791
0.011106597259640694,-0.003918190021067858,-0.013442798517644405,0.016942495480179787,-0.00015408806211780757,0.009521412663161755
0.01097924169152975,-0.004067314323037863,-0.013588103465735912,0.017437787726521492,-0.00014981329150032252,0.00929059088230133
0.010308817960321903,-0.0040338304825127125,-0.013338414952158928,0.0173965971916914,-0.00016843347111716866,0.00978083536028862
0.010581792332231998,-0.004448564723134041,-0.013329326175153255,0.016944903880357742,-0.0001654870284255594,0.009583716280758381
0.010069643147289753,-0.004102259408682585,-0.01309383288025856,0.01723400503396988,-0.00017842883244156837,0.009489581920206547
0.01068812794983387,-0.004359676502645016,-0.013972016982734203,0.016938265413045883,-0.0001794072159100324,0.009856353513896465
0.010959816165268421,-0.003970845602452755,-0.01348249614238739,0.016492417082190514,-0.00026573031209409237,0.009571488946676254
0.010431244969367981,-0.0038026205729693174,-0.013095298781991005,0.016873246058821678,-0.00026372831780463457,0.00991920568048954
0.010496464557945728,-0.0038451114669442177,-0.013797346502542496,0.017095603048801422,-0.0002499617403373122,0.009477848187088966
0.010247561149299145,-0.004009258467704058,-0.013317019678652287,0.016986114904284477,-0.00023685915220994502,0.008867097087204456
0.010781792923808098,-0.003996539395302534,-0.013395756483078003,0.017082499340176582,-0.00025822213501669466,0.009375258348882198
0.0106665613129735,-0.003718789666891098,-0.013892852701246738,0.01663891412317753,-0.00025638501392677426,0.009452704340219498
0.010739032179117203,-0.0034524910151958466,-0.013790372759103775,0.01705997623503208,-0.0002454126952216029,0.00925498642027378
0.01044257078319788,-0.003542975289747119,-0.013423668220639229,0.01745658554136753,-0.00023478505318053067,0.009992547333240509
0.010324669070541859,-0.0037544146180152893,-0.013019285164773464,0.017424192279577255,-0.000257502164458856,0.010105149820446968
0.010856314562261105,-0.0034145377576351166,-0.013440776616334915,0.01723587140440941,-0.0002516747626941651,0.010097000747919083
0.010856314562261105,-0.0034145377576351166,-0.013440776616334915,0.01723587140440941,-0.0002516747626941651,0.010097000747919083
0.0113386120647192,-0.003501526778563857,-0.012950933538377285,0.016699522733688354,-0.00024228569236584008,0.009977150708436966
0.010430158115923405,-0.0035986402072012424,-0.013646421022713184,0.017012808471918106,-0.00023332999262493104,0.00993158109486103
0.010721600614488125,-0.0036564646288752556,-0.01289634220302105,0.016617564484477043,-0.00022499750775750726,0.009916896931827068
0.010766061022877693,-0.0036473728250712156,-0.01348084956407547,0.016567593440413475,-0.00021723765530623496,0.010274133644998074
0.010575438849627972,-0.004182128701359034,-0.01276280265301466,0.01716490089893341,-0.00020999566186219454,0.010750182904303074
0.010846832767128944,-0.004135854542255402,-0.013515391387045383,0.017619425430893898,-0.00020322107593528926,0.01026608794927597
0.010538533329963684,-0.003967432305216789,-0.013445633463561535,0.017596665769815445,-0.00019686952873598784,0.0100394943729043
0.010736587457358837,-0.0034193797037005424,-0.013410624116659164,0.017250537872314453,-0.00019090368004981428,0.009838089346885681
0.010723290033638477,-0.0036017014645040035,-0.0131104476749897,0.016878696158528328,-0.00018528867803979665,0.01041187159717083
0.010103622451424599,-0.003940449561923742,-0.012845059856772423,0.01705958880484104,-0.0001799941383069381,0.0109529634937644
0.01110836397856474,-0.004021127708256245,-0.013345416635274887,0.016417184844613075,-0.00017499426030553877,0.010264750570058823
0.009592631831765175,-0.0040091765113174915,-0.013260213658213615,0.016856487840414047,-0.0001702645095065236,0.010027668438851833
0.009959959425032139,-0.003984321840107441,-0.013512063771486282,0.01678186096251011,-0.0001657837419770658,0.010322426445782185
0.011223360896110535,-0.003498899284750223,-0.012890394777059555,0.0169516671448946,-0.00016153257456608117,0.010446012951433659
0.011032885871827602,-0.0035754707641899586,-0.01342338602989912,0.016993725672364235,-0.0001784868072718382,0.01032974198460579
0.01140067633241415,-0.003633910557255149,-0.012987061403691769,0.01676281914114952,-0.00017550532356835902,0.009830708615481853
0.010603533126413822,-0.0041610244661569595,-0.012922310270369053,0.016365641728043556,-0.00016743550077080727,0.010303723625838757
0.010697656311094761,-0.003509892150759697,-0.013999681919813156,0.01671448163688183,-0.0001636305678403005,0.01052581425756216
0.011264113709330559,-0.0031981703359633684,-0.013298938982188702,0.01679855026304722,-0.00015999410243239254,0.010688640177249908
0.010637790895998478,-0.0032322281040251255,-0.013050164096057415,0.017517607659101486,-0.00015168811660259962,0.010941283777356148
0.011287464760243893,-0.0034896943252533674,-0.012972968630492687,0.016588464379310608,-0.000142601304105483,0.010212776251137257
0.011041942983865738,-0.003696713363751769,-0.013250527903437614,0.015448542311787605,-0.0001379495079163462,0.009795919060707092
0.011065080761909485,-0.0036569987423717976,-0.013534992933273315,0.016450585797429085,-0.0001338284055236727,0.010156428441405296
0.011111536994576454,-0.0034941486082971096,-0.013382281176745892,0.01635928824543953,-0.00012996175792068243,0.010368727147579193
0.010659144259989262,-0.003483270760625601,-0.013496700674295425,0.01671229489147663,-0.00012631375284399837,0.009785705246031284
0.011060676537454128,-0.003465691115707159,-0.012883481569588184,0.016659457236528397,-0.0001228645705850795,0.009383727796375751
0.01110246405005455,-0.003503535408526659,-0.013393786735832691,0.016545087099075317,-0.00013134539767634124,0.009737367741763592
0.010396705009043217,-0.0036389583256095648,-0.012699507176876068,0.016647029668092728,-0.00013900795602239668,0.010306424461305141
0.010396705009043217,-0.0036389583256095648,-0.012699507176876068,0.016647029668092728,-0.00013900795602239668,0.010306424461305141
0.010987675748765469,-0.003431303659453988,-0.013170980848371983,0.01616985723376274,-0.00013622267579194158,0.0103056151419878
0.011424440890550613,-0.0035856810864061117,-0.013224913738667965,0.016786901280283928,-0.00013291648065205663,0.010288630612194538
0.011191346682608128,-0.0037076484877616167,-0.013350293971598148,0.016139796003699303,-0.0001297264388995245,0.010125452652573586
0.011078842915594578,-0.0037648342549800873,-0.012723932042717934,0.016355793923139572,-0.00012668318231590092,0.010183112695813179
0.010823977179825306,-0.003387552686035633,-0.012538677081465721,0.016536926850676537,-0.00012377921666484326,0.010546406731009483
0.01189330779016018,-0.003518388606607914,-0.012827970087528229,0.01643439382314682,-0.0001210053960676305,0.010799108073115349
0.01214803010225296,-0.0037442168686538935,-0.012361384928226471,0.016426190733909607,-0.0001329823862761259,0.010389203205704689
0.012380057945847511,-0.0038858240004628897,-0.013058289885520935,0.016183625906705856,-0.00013478439359460026,0.0102287782356143
0.012413513846695423,-0.0032165173906832933,-0.012822856195271015,0.016797848045825958,-0.0001322585012530908,0.010447577573359013
0.011791873723268509,-0.0024684432428330183,-0.012958346866071224,0.01641445979475975,-0.00012955833517480642,0.010639119893312454
0.012192112393677235,-0.002173112239688635,-0.013286887668073177,0.016545254737138748,-0.00012694884208031,0.010440895333886147
0.011929282918572426,-0.0018198593752458692,-0.01329398900270462,0.016439126804471016,-0.00014103445573709905,0.01071198657155037
0.012233330868184566,-0.0018564412603154778,-0.013024351559579372,0.01597808673977852,-0.00013938658230472356,0.011049896478652954
0.012673987075686455,-0.0025676931254565716,-0.012704404070973396,0.01643051579594612,-0.00013680879783350974,0.010447466745972633
0.012618144042789936,-0.0025719888508319855,-0.01309969648718834,0.016811279579997063,-0.0001318045542575419,0.010776504874229431
0.012012124061584473,-0.002411899622529745,-0.013443800620734692,0.016359534114599228,-0.00012943499314133078,0.011088902130723
0.012312490493059158,-0.002090123249217868,-0.013139375485479832,0.01672624610364437,-0.00014901575923431665,0.010997673496603966
0.012244446203112602,-0.002022871980443597,-0.013830220326781273,0.016612572595477104,-0.00016454924480058253,0.010387111455202103
0.012457873672246933,-0.0018554143607616425,-0.013447454199194908,0.016048187389969826,-0.00016006668738555163,0.010717770084738731
0.01304073166102171,-0.00203355448320508,-0.014050072990357876,0.016416756436228752,-0.00015465471369680017,0.010844040662050247
0.012223380617797375,-0.002062746789306402,-0.013491925783455372,0.01628515124320984,-0.00014952132187318057,0.011946343816816807
0.012425542809069157,-0.0020723554771393538,-0.013646629638969898,0.016840776428580284,-0.0001717025152174756,0.010350748896598816
0.012152577750384808,-0.002300187246873975,-0.013190370053052902,0.01635226607322693,-0.00016811674868222326,0.010520978830754757
0.012152577750384808,-0.002300187246873975,-0.013190370053052902,0.01635226607322693,-0.00016811674868222326,0.010520978830754757
0.01250051986426115,-0.0021776820067316294,-0.013583725318312645,0.016628440469503403,-0.0001631519990041852,0.011049589142203331
0.012316628359258175,-0.0021067115012556314,-0.013993747532367706,0.016678137704730034,-0.00018299433577340096,0.011202685534954071
0.012753256596624851,-0.0020885467529296875,-0.013976110145449638,0.016872163861989975,-0.00017452453903388232,0.011220176704227924
0.012753256596624851,-0.0020885467529296875,-0.013976110145449638,0.016872163861989975,-0.00017452453903388232,0.011220176704227924
0.012228903360664845,-0.0020153322257101536,-0.013829399831593037,0.016558967530727386,-0.00018780329264700413,0.011296074837446213
0.012461700476706028,-0.0019886887166649103,-0.013320496305823326,0.017222927883267403,-0.0001885827659862116,0.010777059942483902
0.012227395549416542,-0.0019660836551338434,-0.013207348063588142,0.016610613092780113,-0.0001841320627136156,0.010865546762943268
0.012548580765724182,-0.0021948949433863163,-0.01396345067769289,0.016310330480337143,-0.00017980211123358458,0.010967915877699852
0.012466246262192726,-0.002107116160914302,-0.014355015940964222,0.016429036855697632,-0.0002799356880132109,0.011183731257915497
0.012466246262192726,-0.002107116160914302,-0.014355015940964222,0.016429036855697632,-0.0002799356880132109,0.011183731257915497
0.01268849242478609,-0.002254905179142952,-0.01317792572081089,0.016921408474445343,-0.0002640268940012902,0.011375656351447105
0.012288381345570087,-0.002141202101483941,-0.013756325468420982,0.0161161907017231,-0.00027373048942536116,0.011539299041032791
0.012752308510243893,-0.0021933026146143675,-0.01347038522362709,0.016360608860850334,-0.0002819131768774241,0.011654072441160679
0.012368631549179554,-0.002211649203673005,-0.014492214657366276,0.01552245207130909,-0.000269320938969031,0.011449549347162247
0.012984717264771461,-0.002607885515317321,-0.01331776287406683,0.015869345515966415,-0.0002566143812146038,0.011370236054062843
0.012360132299363613,-0.002401497680693865,-0.013543376699090004,0.016112854704260826,-0.00028301257407292724,0.010946502909064293
0.012870202772319317,-0.0022225643042474985,-0.013085301965475082,0.01625538058578968,-0.0002732176217250526,0.011004358530044556
0.012660378590226173,-0.0020219029393047094,-0.013683567754924297,0.016299249604344368,-0.00028717235545627773,0.011063826270401478
0.01257660984992981,-0.0022007999941706657,-0.014077323488891125,0.0168156698346138,-0.0002764367964118719,0.011390483006834984
0.012130135670304298,-0.002278757281601429,-0.013283615000545979,0.01629815809428692,-0.00026623200392350554,0.011478898115456104
0.012606041505932808,-0.002469281665980816,-0.013643392361700535,0.016511451452970505,-0.0003148313262499869,0.011540665291249752
0.01209553424268961,-0.00240704114548862,-0.013553211465477943,0.016564451158046722,-0.00030252645956352353,0.011217421852052212
0.012633785605430603,-0.0022358354181051254,-0.01369889173656702,0.016683092340826988,-0.00028400367591530085,0.011490080505609512
0.01261108834296465,-0.0020458849612623453,-0.013661828823387623,0.01657695509493351,-0.00031338242115452886,0.011300363577902317
0.01293861772865057,-0.0020402560476213694,-0.01340621616691351,0.015787797048687935,-0.00030216321465559304,0.011228608898818493
0.012503181584179401,-0.002225142437964678,-0.013603056780993938,0.016239430755376816,-0.0003098264569416642,0.011402033269405365
0.012528350576758385,-0.002408053260296583,-0.013437362387776375,0.015290524810552597,-0.00031587600824423134,0.011383130215108395
0.012560907751321793,-0.0022916935849934816,-0.013537595979869366,0.015950264409184456,-0.0003340078692417592,0.011252766475081444
0.01238562073558569,-0.002216023625805974,-0.012937178835272789,0.014999630860984325,-0.00032885526889003813,0.011827646754682064
0.012787053361535072,-0.0021066113840788603,-0.013594300486147404,0.015576093457639217,-0.0003151203563902527,0.01164308376610279
0.013245468027889729,-0.0020244461484253407,-0.0129601014778018,0.016135280951857567,-0.0003600244235713035,0.0116716418415308
0.013245468027889729,-0.0020244461484253407,-0.0129601014778018,0.016135280951857567,-0.0003600244235713035,0.0116716418415308
0.013113674707710743,-0.001966885756701231,-0.0137993348762393,0.01629210263490677,-0.0003849935601465404,0.011938979849219322
0.012713631615042686,-0.0021457532420754433,-0.013222182169556618,0.016180409118533134,-0.00035800784826278687,0.011553981341421604
0.012833702377974987,-0.0020106083247810602,-0.013550880365073681,0.01566823199391365,-0.00033182563493028283,0.011705421842634678
0.01351201068609953,-0.0022032870911061764,-0.013146420940756798,0.016213469207286835,-0.0003624260425567627,0.011341902427375317
0.012922369875013828,-0.002031457843258977,-0.013429760932922363,0.01595763862133026,-0.0003464507753960788,0.01143043115735054
0.013189302757382393,-0.0021980053279548883,-0.013318405486643314,0.016246136277914047,-0.0003260039957240224,0.011328679509460926
0.012897438369691372,-0.0022019795142114162,-0.013267949223518372,0.015750093385577202,-0.0003551621630322188,0.011472299695014954
0.013505786657333374,-0.002176831942051649,-0.013105656951665878,0.0160074345767498,-0.0003391487989574671,0.011860311962664127
0.013124817982316017,-0.0021033145021647215,-0.01295640878379345,0.01601715199649334,-0.00032201193971559405,0.011746512725949287
0.013813554309308529,-0.0021259519271552563,-0.013565611094236374,0.015914810821413994,-0.0003063608310185373,0.011533188633620739
0.013168049044907093,-0.002494491171091795,-0.013040301389992237,0.015724603086709976,-0.00032296785502694547,0.011614256538450718
0.013514112681150436,-0.002495816443115473,-0.013520014472305775,0.01583334431052208,-0.0003183729131706059,0.011574285104870796
0.013331906870007515,-0.002402598038315773,-0.013293594121932983,0.016402781009674072,-0.00030549534130841494,0.012272976338863373
0.013554303906857967,-0.0024118449073284864,-0.01353924535214901,0.015818661078810692,-0.00029309847741387784,0.011768355034291744
0.013797556981444359,-0.0024515532422810793,-0.013280153274536133,0.016053445637226105,-0.00028163439128547907,0.012841304764151573
0.013475228101015091,-0.0025147595442831516,-0.012968536466360092,0.016492078080773354,-0.0002621875610202551,0.011463029310107231
0.012982488609850407,-0.0024895118549466133,-0.01310055423527956,0.01627354510128498,-0.0002489420585334301,0.012007800862193108
0.014132617972791195,-0.0022971504367887974,-0.013437080197036266,0.015612063929438591,-0.0002359667414566502,0.012026703916490078
0.013892905786633492,-0.0022273596841841936,-0.01315372996032238,0.016223326325416565,-0.00022421102039515972,0.012149069458246231
0.014167915098369122,-0.00218692678026855,-0.013372668996453285,0.015619066543877125,-0.00025335271493531764,0.011821340769529343
0.013643721118569374,-0.0025701068807393312,-0.012720027007162571,0.015290269628167152,-0.00024447491159662604,0.011555317789316177
0.013822135515511036,-0.0025841572787612677,-0.013310477137565613,0.015257278457283974,-0.0002531174395699054,0.01199747808277607
0.013593307696282864,-0.0024913125671446323,-0.012690857984125614,0.016115784645080566,-0.0002604193286970258,0.012143625877797604
0.014076550491154194,-0.0026253133546561003,-0.013384411111474037,0.01634160988032818,-0.0002511961502023041,0.012281196191906929
0.013422098942101002,-0.00240636826492846,-0.012527528218925,0.01660030148923397,-0.00025853575789369643,0.012268809601664543
0.013422098942101002,-0.00240636826492846,-0.012527528218925,0.01660030148923397,-0.00025853575789369643,0.012268809601664543
0.013835234567523003,-0.0022946649696677923,-0.013329383917152882,0.01619764044880867,-0.00026480815722607076,0.012169421650469303
0.0138456542044878,-0.002384723164141178,-0.013118162751197815,0.015824954956769943,-0.0002564081223681569,0.012237241491675377
0.014026212505996227,-0.0026512325275689363,-0.013449782505631447,0.015343793667852879,-0.0002476546505931765,0.012385429814457893
0.01399060245603323,-0.0025438289158046246,-0.013319069519639015,0.014899072237312794,-0.0003255599003750831,0.013049510307610035
0.01415951456874609,-0.0026707991492003202,-0.01311065535992384,0.015765666961669922,-0.00031541779753752053,0.012819061055779457
0.014062396250665188,-0.0026519515085965395,-0.013149398379027843,0.015834849327802658,-0.00029552425257861614,0.013005225919187069
0.014200286939740181,-0.0024710630532354116,-0.012820283882319927,0.016324857249855995,-0.0002773547312244773,0.0126578938215971
0.013934152200818062,-0.0024722928646951914,-0.013425291515886784,0.015926962718367577,-0.00030643961508758366,0.012746663764119148
0.014590995386242867,-0.002607485977932811,-0.013162780553102493,0.015612896531820297,-0.00029582943534478545,0.0126368198543787
0.014202465303242207,-0.002528604818508029,-0.013762311078608036,0.01510633248835802,-0.00028084267978556454,0.012483200989663601
0.014332953840494156,-0.0028422842733561993,-0.013209778815507889,0.015276470221579075,-0.00029981849365867674,0.012572130188345909
0.013918736949563026,-0.002669215202331543,-0.013754172250628471,0.015154579654335976,-0.00029603930306620896,0.012566408142447472
0.014234321191906929,-0.002402357291430235,-0.013281658291816711,0.0164283886551857,-0.00028339389245957136,0.01296049915254116
0.014498992823064327,-0.002586145419627428,-0.013310357928276062,0.01565350592136383,-0.00026003894163295627,0.012750099413096905
0.014044289477169514,-0.002578684827312827,-0.013631108216941357,0.01584331877529621,-0.00027610352844931185,0.012684215791523457
0.014265952631831169,-0.002849745796993375,-0.013368784449994564,0.015059378929436207,-0.0002739142219070345,0.012538185343146324
0.014157101511955261,-0.0028789746575057507,-0.013046221807599068,0.0155029296875,-0.00026439729845151305,0.012820139527320862
0.014619037508964539,-0.002856404986232519,-0.013289744034409523,0.014938920736312866,-0.0002772565057966858,0.01239404734224081
0.01431073248386383,-0.0026139607653021812,-0.013173810206353664,0.01561019103974104,-0.00026849264395423234,0.012846243567764759
0.014687493443489075,-0.0026901441160589457,-0.013463595882058144,0.015732482075691223,-0.00027858855901286006,0.01260705478489399
0.014580524526536465,-0.0026802776847034693,-0.01313470583409071,0.01617482304573059,-0.00028668573941104114,0.013134578242897987
0.014713645912706852,-0.002822070149704814,-0.013674285262823105,0.015500579960644245,-0.0002736522874329239,0.012962539680302143
0.014442872256040573,-0.0028310418128967285,-0.01322939619421959,0.01527499221265316,-0.0002605426125228405,0.013105212710797787
0.014442872256040573,-0.0028310418128967285,-0.01322939619421959,0.01527499221265316,-0.0002605426125228405,0.013105212710797787
0.014762075617909431,-0.0023378808982670307,-0.014050131663680077,0.015278338454663754,-0.00028714368818327785,0.013100672513246536
0.014581437222659588,-0.002327311085537076,-0.013240689411759377,0.01538766734302044,-0.0002770318533293903,0.012827582657337189
0.015162208117544651,-0.002655205549672246,-0.013618542812764645,0.015338405966758728,-0.000265517650404945,0.013123043812811375
0.014934821054339409,-0.002881179330870509,-0.013148928992450237,0.015000817365944386,-0.0002725970989558846,0.013228317722678185
0.015231592580676079,-0.0027511154767125845,-0.0139004560187459,0.015482118353247643,-0.00027865299489349127,0.01334803644567728
0.014681868255138397,-0.002984615508466959,-0.013659646734595299,0.015142240561544895,-0.0002693145361263305,0.014052492566406727
0.01461460068821907,-0.0025703185237944126,-0.013750080950558186,0.01535885315388441,-0.0002596708363853395,0.013735956512391567
0.01437349058687687,-0.0024344290141016245,-0.01393214799463749,0.015206238254904747,-0.00029046996496617794,0.012569007463753223
0.015010330826044083,-0.0024673885200172663,-0.01364684384316206,0.015413716435432434,-0.0003087124787271023,0.012976325117051601
0.014690311625599861,-0.0025588965509086847,-0.013198168948292732,0.014873513951897621,-0.0002912264608312398,0.013059559278190136
0.015308068133890629,-0.002546731848269701,-0.013409520499408245,0.015278280712664127,-0.0002736700407695025,0.013081640005111694
0.014851853251457214,-0.0027741778176277876,-0.013819846324622631,0.014987803064286709,-0.0002579836582299322,0.012989740818738937
0.014912732876837254,-0.0024361133109778166,-0.013200375251471996,0.01510736532509327,-0.00024399090034421533,0.012837029993534088
0.014849662780761719,-0.0023357579484581947,-0.013753550127148628,0.014604511670768261,-0.00023143757425714284,0.012998233549296856
0.015142582356929779,-0.0025278967805206776,-0.013823865912854671,0.014962711371481419,-0.00020984622824471444,0.013419118709862232
0.015828421339392662,-0.0023514844942837954,-0.013135891407728195,0.015123620629310608,-0.00020049430895596743,0.013317822478711605
0.015144106931984425,-0.0022534430027008057,-0.013985470868647099,0.014769216999411583,-0.0001919405476655811,0.013052305206656456
0.015144106931984425,-0.0022534430027008057,-0.013985470868647099,0.014769216999411583,-0.0001919405476655811,0.013052305206656456
0.015054893679916859,-0.0025199484080076218,-0.013729262165725231,0.014967476949095726,-0.00017685082275420427,0.01346584688872099
0.015394184738397598,-0.002510288031771779,-0.013441910035908222,0.015064503066241741,-0.00019966988475061953,0.013086450286209583
0.015230261720716953,-0.0023212942760437727,-0.013218778185546398,0.01509555708616972,-0.00019645775319077075,0.013340428471565247
0.014996793121099472,-0.002302606124430895,-0.01319783367216587,0.015375449322164059,-0.00018981617176905274,0.01371860969811678
0.015315612778067589,-0.0020877430215477943,-0.014117833226919174,0.015577621757984161,-0.00018338659720029682,0.01319566648453474
0.01533509511500597,-0.0021351706236600876,-0.013526869006454945,0.015215984545648098,-0.00017736342852003872,0.0132748419418931
0.015789160504937172,-0.002014146652072668,-0.01311388798058033,0.01556733064353466,-0.00017172264051623642,0.013270833529531956
0.015243707224726677,-0.0019977372139692307,-0.013578757643699646,0.015206254087388515,-0.00018696866754908115,0.013620419427752495
0.015463165938854218,-0.0022258206736296415,-0.013751965947449207,0.015467433258891106,-0.00018789198657032102,0.013427823781967163
0.015000591054558754,-0.002127382904291153,-0.013795439153909683,0.014763901010155678,-0.00018286248086951673,0.013557086698710918
0.015986889600753784,-0.002192549640312791,-0.013247844763100147,0.01521872729063034,-0.00017773083527572453,0.013578085228800774
0.015986889600753784,-0.002192549640312791,-0.013247844763100147,0.01521872729063034,-0.00017773083527572453,0.013578085228800774
0.015512337908148766,-0.002100972458720207,-0.013669141568243504,0.014798927120864391,-0.00019429279200267047,0.013884810730814934
0.015598730184137821,-0.002027274575084448,-0.012907351367175579,0.015410973690450191,-0.00019206113938707858,0.013782679103314877
0.01556500606238842,-0.001967825461179018,-0.013701241463422775,0.015538974665105343,-0.00018725861446000636,0.014378022402524948
0.01584745943546295,-0.0018612922867760062,-0.013131663203239441,0.01574816182255745,-0.00018252403242513537,0.014080352149903774
0.016014259308576584,-0.0016155793564394116,-0.013772175647318363,0.014989754185080528,-0.00017801181820686907,0.013871535658836365
0.015471572056412697,-0.0013047665124759078,-0.013457384891808033,0.01502162404358387,-0.00017371648573316634,0.013750385493040085
0.015866762027144432,-0.0010808032238855958,-0.013697871007025242,0.015048583969473839,-0.00016977349878288805,0.014114790596067905
0.015706893056631088,-0.0009223416564054787,-0.013134283944964409,0.015408510342240334,-0.00015031119983177632,0.013679690659046173
0.016395268961787224,-0.0009051360539160669,-0.013433054089546204,0.01701456494629383,-0.00014457968063652515,0.01388291921466589
0.016441524028778076,-0.0006562912021763623,-0.013344457373023033,0.014792433008551598,-0.0001357917790301144,0.014064180664718151
0.016441524028778076,-0.0006562912021763623,-0.013344457373023033,0.014792433008551598,-0.0001357917790301144,0.014064180664718151
0.01643417403101921,-0.0007326123304665089,-0.013674176298081875,0.01584981009364128,-0.0001535587798571214,0.014165989123284817
0.016402103006839752,-0.0012212765868753195,-0.013739828020334244,0.015490841120481491,-0.00017103289428632706,0.014590879902243614
0.016159910708665848,-0.0010627862066030502,-0.013106513768434525,0.015374516136944294,-0.00016941620560828596,0.013410022482275963
0.016624346375465393,-0.0009842130821198225,-0.0131902527064085,0.014972679316997528,-0.00017675868002697825,0.013663334771990776
0.016203809529542923,-0.0008894361671991646,-0.013042732141911983,0.015625033527612686,-0.00018317259673494846,0.014180825091898441
0.016729777678847313,-0.0007798437145538628,-0.01386927254498005,0.015207272954285145,-0.00017932297487277538,0.014481622725725174
0.016647735610604286,-0.0006938996375538409,-0.01324714720249176,0.015429479070007801,-0.0002732761495281011,0.014274032786488533
0.016659680753946304,-0.0007104979595169425,-0.013339710421860218,0.015205360017716885,-0.0003442928718868643,0.014123670756816864
0.01653151400387287,-0.0006503980839625001,-0.013250051997601986,0.015484956093132496,-0.0003254125185776502,0.013909573666751385
0.016602447256445885,-0.0005156642873771489,-0.013923182152211666,0.01526988111436367,-0.0003333405184093863,0.01444252859801054
0.016660671681165695,-0.0005429774173535407,-0.013091493397951126,0.015328631736338139,-0.0003395049716345966,0.014370469376444817
0.01649271696805954,-0.0005024803685955703,-0.013226036913692951,0.015283447690308094,-0.00032108728191815317,0.014517487026751041
0.016915883868932724,-0.0005353256710804999,-0.01373723242431879,0.015093628317117691,-0.0003031695378012955,0.014231945388019085
0.016888633370399475,-0.0005404269904829562,-0.01310110092163086,0.01512577198445797,-0.0003284599515609443,0.014261544682085514
0.016888633370399475,-0.0005404269904829562,-0.01310110092163086,0.01512577198445797,-0.0003284599515609443,0.014261544682085514
0.016728000715374947,-0.0005235216813161969,-0.013233281672000885,0.01517727505415678,-0.0003175675810780376,0.014794123359024525
0.016570597887039185,-0.0004929237184114754,-0.01281529851257801,0.015439281240105629,-0.00030267739202827215,0.014954530633985996
0.016462838277220726,-0.0005688205128535628,-0.013093856163322926,0.014737730845808983,-0.0002888214366976172,0.015073197893798351
0.01686950773000717,-0.0005955061060376465,-0.01273328997194767,0.014621812850236893,-0.0003129162359982729,0.014712285250425339
0.01670316606760025,-0.000546253053471446,-0.013578261248767376,0.014503637328743935,-0.000302178377751261,0.014453398063778877
0.016908468678593636,-0.000575380225200206,-0.013337920419871807,0.015065854415297508,-0.0002913431962952018,0.014776017516851425
0.017044540494680405,-0.0005301066557876766,-0.013767322525382042,0.014711781404912472,-0.0003180916828569025,0.014216708950698376
0.016568031162023544,-0.0005504236905835569,-0.013134601525962353,0.015143328346312046,-0.00034414842957630754,0.013909795321524143
0.017049508169293404,-0.0005184729816392064,-0.013039636425673962,0.014670971781015396,-0.0003366632154211402,0.014302998781204224
0.017189305275678635,-0.0005304226651787758,-0.013147123157978058,0.014685883186757565,-0.00031775966635905206,0.01467424537986517
0.017158929258584976,-0.0004953951574862003,-0.01346602663397789,0.014278876595199108,-0.0003001505392603576,0.01537393219769001
0.01702362671494484,-0.000532030186150223,-0.013522414490580559,0.014625206589698792,-0.00028434311388991773,0.0151555510237813
0.017418766394257545,-0.000520497327670455,-0.01365126483142376,0.014929198659956455,-0.00029972309130243957,0.014792582020163536
0.017885738983750343,-0.0004816831205971539,-0.012835743837058544,0.014709420502185822,-0.00030643766513094306,0.015428764745593071
0.01785620115697384,-0.0005104756564833224,-0.0138681810349226,0.01523495465517044,-0.00031178054632619023,0.015009631402790546
0.017808903008699417,-0.0004774673725478351,-0.013249916955828667,0.015233191661536694,-0.00030000455444678664,0.01535922009497881
0.017291810363531113,-0.00044777931179851294,-0.013348530046641827,0.014906617812812328,-0.0002880783868022263,0.015406088903546333
0.0175336804240942,-0.00042155716801062226,-0.01301993615925312,0.014840284362435341,-0.0003369183395989239,0.015000520274043083
0.016953352838754654,-0.00043431148515082896,-0.013793942518532276,0.015364091843366623,-0.00032208734774030745,0.014435683377087116
0.017430013045668602,-0.0003977440355811268,-0.013573963195085526,0.015368464402854443,-0.0003011311637237668,0.015783697366714478
0.017733635380864143,-0.0004131508758291602,-0.013631477952003479,0.015945754945278168,-0.00028227080474607646,0.014292579144239426
0.017733635380864143,-0.0004131508758291602,-0.013631477952003479,0.015945754945278168,-0.00028227080474607646,0.014292579144239426
0.017678463831543922,-0.0003772539203055203,-0.013212879188358784,0.015102469362318516,-0.0003004853497259319,0.014645184390246868
0.017678463831543922,-0.0003772539203055203,-0.013212879188358784,0.015102469362318516,-0.0003004853497259319,0.014645184390246868
0.017451992258429527,-0.0003910487284883857,-0.01294620055705309,0.014863071031868458,-0.0003200704522896558,0.015006733126938343
0.017974132671952248,-0.0003638558555394411,-0.013609823770821095,0.014240805059671402,-0.0003407742187846452,0.015513675287365913
0.017974132671952248,-0.0003638558555394411,-0.013609823770821095,0.014240805059671402,-0.0003407742187846452,0.015513675287365913
0.017766809090971947,-0.0003439899883233011,-0.013232531026005745,0.014335368759930134,-0.00032797950552776456,0.015386015176773071
0.01816098392009735,-0.00037211584276519716,-0.013976847752928734,0.01461392268538475,-0.00041934376349672675,0.015648847445845604
0.0184834785759449,-0.00035441567888483405,-0.013200578279793262,0.014709754846990108,-0.0003909025981556624,0.015329414047300816
0.017176959663629532,-0.00033779500517994165,-0.013613620772957802,0.015111085958778858,-0.0004270352656021714,0.015494504943490028
0.01780901476740837,-0.0003242804086767137,-0.013382477685809135,0.014727306552231312,-0.00039980036672204733,0.015412298031151295
0.01803191751241684,-0.00032537541119381785,-0.014383298344910145,0.01491717528551817,-0.00043022315367124975,0.0155017776414752
0.01797005906701088,-0.0003037395072169602,-0.013174427673220634,0.014553139917552471,-0.00040625251131132245,0.01588449440896511
0.01854330115020275,-0.0003406262258067727,-0.013752274215221405,0.014570373110473156,-0.0004326247435528785,0.015543949790298939
0.01827489212155342,-0.0003211234579794109,-0.013308918103575706,0.014251279644668102,-0.0004112337192054838,0.015492977574467659
0.018479762598872185,-0.00030310588772408664,-0.013732235878705978,0.014513134025037289,-0.0004949644790031016,0.01522383838891983
0.018347663804888725,-0.0003179023915436119,-0.014168146066367626,0.014781001023948193,-0.0005632268148474395,0.015421301126480103
0.018618909642100334,-0.0003026539634447545,-0.013831598684191704,0.014741968363523483,-0.0005721255438402295,0.01552081573754549
0.018429335206747055,-0.00028878083685413003,-0.01352858915925026,0.01511373370885849,-0.0005623962497338653,0.015491188503801823
0.018668295815587044,-0.0002761225332506001,-0.013448250479996204,0.015167911536991596,-0.0007470970158465207,0.01586190238595009
0.01873319409787655,-0.0002645275089889765,-0.01356852799654007,0.014898916706442833,-0.0007353199180215597,0.015780821442604065
0.01818341203033924,-0.0002538681437727064,-0.013952558860182762,0.014047455042600632,-0.0006986521766521037,0.015660297125577927
0.018695881590247154,-0.0002774802269414067,-0.013635151088237762,0.01454412192106247,-0.0006219093920662999,0.015553000383079052
0.018979469314217567,-0.0002684761129785329,-0.013965433463454247,0.01429353840649128,-0.0005578069831244648,0.015608594752848148
0.01845576800405979,-0.0002588419592939317,-0.01373367477208376,0.014952813275158405,-0.000578073610085994,0.015989968553185463
0.018699467182159424,-0.0002498600515536964,-0.013663222081959248,0.01443069614470005,-0.000538479071110487,0.015581201761960983
0.01882445067167282,-0.00024147961812559515,-0.013172939419746399,0.015089551918208599,-0.0005309954867698252,0.01576141268014908
0.018806546926498413,-0.00023364332446362823,-0.01377793587744236,0.014485448598861694,-0.0005237361183390021,0.01522609032690525
0.018806546926498413,-0.00023364332446362823,-0.01377793587744236,0.014485448598861694,-0.0005237361183390021,0.01522609032690525
0.018976230174303055,-0.00022425828501582146,-0.014143231324851513,0.014347527176141739,-0.0004589930467773229,0.017333297058939934
0.018691813573241234,-0.00021388466120697558,-0.013438890688121319,0.015059681609272957,-0.0004314821562729776,0.015642734244465828
0.018691813573241234,-0.00021388466120697558,-0.013438890688121319,0.015059681609272957,-0.0004314821562729776,0.015642734244465828
0.019108444452285767,-0.00016818568110466003,-0.01396147720515728,0.01471707969903946,-0.000407076848205179,0.015040986239910126
0.019007306545972824,-0.0001563207624712959,-0.013186591677367687,0.015401916578412056,-0.00034553464502096176,0.015463593415915966
0.01860225759446621,-0.00014975607336964458,-0.013745867647230625,0.015215597115457058,-0.0003105592913925648,0.01588391698896885
0.018922025337815285,-0.00014377427578438073,-0.013376771472394466,0.015102485194802284,-0.0002898150705732405,0.016054295003414154
0.01841925084590912,-0.00013313967792782933,-0.013530409894883633,0.014228293672204018,-0.00030754547333344817,0.01570041850209236
0.01841925084590912,-0.00013313967792782933,-0.013530409894883633,0.014228293672204018,-0.00030754547333344817,0.01570041850209236
0.019073037430644035,-0.00012839118426200002,-0.013843894004821777,0.014252115041017532,-0.0002913651696871966,0.016119711101055145
0.01930396631360054,-0.00012396987585816532,-0.01375995296984911,0.01500776968896389,-0.0002764698874671012,0.016246357932686806
0.01895521953701973,-0.00011984282900812104,-0.013778116554021835,0.014704421162605286,-0.00026300185709260404,0.01621963083744049
0.019251957535743713,-0.0001159820967586711,-0.0135099021717906,0.01501030009239912,-0.0002507854369468987,0.016015945002436638
0.01913643255829811,-0.00011236175487283617,-0.013260181993246078,0.014530831947922707,-0.0002768651465885341,0.01601218432188034
0.018842492252588272,-0.00010896093590417877,-0.013905772939324379,0.014391292817890644,-0.000267531955614686,0.016077609732747078
0.019140226766467094,-0.00010274148371536285,-0.013890629634261131,0.014929836615920067,-0.00024673566804267466,0.016656728461384773
0.01871010847389698,-9.989096724893898e-05,-0.013748959638178349,0.014533253386616707,-0.00023743654310237616,0.016449255868792534
0.01950434036552906,-9.719392255647108e-05,-0.014446480199694633,0.015187584795057774,-0.00022881125914864242,0.016277341172099113
0.020091580227017403,-9.46387808653526e-05,-0.013644828461110592,0.014755827374756336,-0.00022079097107052803,0.016175609081983566
0.019363122060894966,-9.221475920639932e-05,-0.014299100264906883,0.014914262108504772,-0.00021331451716832817,0.016434187069535255
0.019343174993991852,-8.991170761873946e-05,-0.01382608711719513,0.014893636107444763,-0.000233812999795191,0.01639092154800892
0.018916670233011246,-8.772079308982939e-05,-0.014258337207138538,0.014519973658025265,-0.0002281945780850947,0.016374293714761734
0.01853976584970951,-8.563420851714909e-05,-0.01357782818377018,0.013960313983261585,-0.00022129688295535743,0.016499537974596024
0.01953795924782753,-8.364449604414403e-05,-0.014320201240479946,0.0140561917796731,-0.0002154055400751531,0.016365503892302513
0.01936815306544304,-8.174532558768988e-05,-0.01370423473417759,0.014681046828627586,-0.00021140430180821568,0.01631324551999569
0.01907559670507908,-7.993025064934045e-05,-0.014484720304608345,0.014558693394064903,-0.00020229860092513263,0.016019346192479134
0.01928611285984516,-7.81942653702572e-05,-0.013769591227173805,0.014819948002696037,-0.00021255270985420793,0.0161846075206995
0.019367750734090805,-7.653190550627187e-05,-0.014457927085459232,0.014803511090576649,-0.0002214657433796674,0.016446227207779884
0.019367750734090805,-7.653190550627187e-05,-0.014457927085459232,0.014803511090576649,-0.0002214657433796674,0.016446227207779884
0.01912202499806881,-7.493894372601062e-05,-0.013798842206597328,0.014896971173584461,-0.0002402068057563156,0.016586964949965477
0.02007034234702587,-7.341077434830368e-05,-0.014250635169446468,0.014984573237597942,-0.00023946125293150544,0.01674436777830124
0.019408155232667923,-7.194370118668303e-05,-0.013953735120594501,0.01467847265303135,-0.00023122013953980058,0.017019327729940414
0.018837830051779747,-7.053412991808727e-05,-0.014497863128781319,0.014811630360782146,-0.00022306748724076897,0.016227513551712036
0.018837830051779747,-7.053412991808727e-05,-0.014497863128781319,0.014811630360782146,-0.00022306748724076897,0.016227513551712036
0.019408291205763817,-6.787453457945958e-05,-0.014857242815196514,0.014517798088490963,-0.0002379403740633279,0.016614757478237152
0.018922757357358932,-6.661851512035355e-05,-0.014206784777343273,0.014965498819947243,-0.0002304458466824144,0.017042171210050583
0.01939390040934086,-6.540812319144607e-05,-0.014281697571277618,0.014366756193339825,-0.0003541854093782604,0.017266351729631424
0.02013535611331463,-6.424107414204627e-05,-0.013771235011518002,0.014939118176698685,-0.00037955824518576264,0.018128052353858948
0.01957135647535324,-6.311477045528591e-05,-0.014271457679569721,0.014548094011843204,-0.00038450321881100535,0.017672089859843254
0.020198222249746323,-6.202734948601574e-05,-0.014178166165947914,0.014639882370829582,-0.00041287828935310245,0.01746663637459278
0.019745739176869392,-6.0976759414188564e-05,-0.01447658147662878,0.014207803644239902,-0.00039426455623470247,0.0172822717577219
0.019497236236929893,-5.9961250371998176e-05,-0.014283783733844757,0.014756778255105019,-0.0004208727623336017,0.01679505966603756
0.01971297152340412,-4.354427437647246e-05,-0.014124720357358456,0.014611173421144485,-0.0005518696852959692,0.017540698871016502
0.01965474896132946,-4.292831363272853e-05,-0.014691714197397232,0.014153449796140194,-0.0005148486234247684,0.018254797905683517
0.020236767828464508,3.9014652429614216e-05,-0.014434903860092163,0.014474879018962383,-0.0004634689830709249,0.018269779160618782
0.0205627903342247,3.92506190109998e-05,-0.014855963177978992,0.014110485091805458,-0.0004982355167157948,0.017297202721238136
0.020528750494122505,3.842728983727284e-05,-0.013939895667135715,0.014160203747451305,-0.00046078101149760187,0.017460070550441742
0.020263200625777245,3.7624326068907976e-05,-0.014384125359356403,0.01410694606602192,-0.00047680159332230687,0.017334045842289925
0.02048734575510025,3.685399133246392e-05,-0.014155128039419651,0.014462553896009922,-0.00045825622510164976,0.018038243055343628
0.0207682978361845,3.6114564863964915e-05,-0.014905350282788277,0.014078452251851559,-0.0004731447552330792,0.018296929076313972
0.020261023193597794,3.540424586390145e-05,-0.01429655496031046,0.01460832916200161,-0.00045718098408542573,0.018045883625745773
0.020429546013474464,3.472135722404346e-05,-0.014801294542849064,0.014308948069810867,-0.00045984628377482295,0.01787833496928215
0.020905131474137306,3.406423275009729e-05,-0.013624226674437523,0.014430162496864796,-0.00042247233795933425,0.01723361387848854
0.020732589066028595,4.9479116569273174e-05,-0.01451236940920353,0.014305485412478447,-0.0004583157424349338,0.017229493707418442
0.01999063231050968,4.9224083340959623e-05,-0.01410042867064476,0.014288727194070816,-0.0004267786571290344,0.017868781462311745
0.020154854282736778,4.835124491364695e-05,-0.014910303987562656,0.013798661530017853,-0.00045710019185207784,0.017939429730176926
0.020732171833515167,4.750079824589193e-05,-0.014194878749549389,0.01399126648902893,-0.00045975804096087813,0.018246879801154137
0.020732171833515167,4.750079824589193e-05,-0.014194878749549389,0.01399126648902893,-0.00045975804096087813,0.018246879801154137
0.020578721538186073,4.5886266889283434e-05,-0.013825350441038609,0.01401509903371334,-0.0005051782936789095,0.01805434562265873
0.020578721538186073,4.5886266889283434e-05,-0.013825350441038609,0.01401509903371334,-0.0005051782936789095,0.01805434562265873
0.020808320492506027,4.5119486458133906e-05,-0.0145490113645792,0.013958786614239216,-0.0005182254826650023,0.01724785566329956
0.020548544824123383,4.43779063061811e-05,-0.01354390662163496,0.0138841662555933,-0.0005374004831537604,0.01735854335129261
0.020216727629303932,4.366032953839749e-05,-0.01442858949303627,0.013979513198137283,-0.0005081604467704892,0.017988821491599083
0.0209675133228302,4.296557017369196e-05,-0.01396910846233368,0.013935807161033154,-0.0005326027749106288,0.0186623465269804
0.02083689533174038,4.229259502608329e-05,-0.014114697463810444,0.014046814292669296,-0.0004995401832275093,0.018426142632961273
0.020905347540974617,5.533138755708933e-05,-0.013807525858283043,0.014257612638175488,-0.0005249101668596268,0.018170027062296867
0.021048396825790405,5.4674692364642397e-05,-0.014512008056044579,0.014234988950192928,-0.0004930000868625939,0.018544752150774002
0.02110460214316845,5.385922486311756e-05,-0.014196203090250492,0.01403940748423338,-0.0005310713895596564,0.01827668957412243
0.020847508683800697,6.090250099077821e-05,-0.013813191093504429,0.014383221976459026,-0.0005352698499336839,0.01840857043862343
0.021079905331134796,6.437239062506706e-05,-0.013968982733786106,0.014299062080681324,-0.0005493980715982616,0.018480753526091576
0.02124650590121746,6.352196942316368e-05,-0.013917221687734127,0.013489479199051857,-0.0005224661435931921,0.018165744841098785
0.02133791521191597,6.26385590294376e-05,-0.013984061777591705,0.013761036098003387,-0.0005170286749489605,0.01800803653895855
0.021149609237909317,6.177870818646625e-05,-0.014109604060649872,0.01341992523521185,-0.000510977057274431,0.01835956983268261
0.021734042093157768,0.00011907533917110413,-0.013846052810549736,0.013828794471919537,-0.0004789729428011924,0.018604546785354614
0.02088676020503044,0.0001443536311853677,-0.014008862897753716,0.01343743409961462,-0.0005053472705185413,0.01831054873764515
0.020935183390975,0.0001402453926857561,-0.014004194177687168,0.013853292912244797,-0.00047302237362600863,0.018219929188489914
0.021289514377713203,0.0001360117894364521,-0.014315050095319748,0.01328793354332447,-0.0004706030013039708,0.01823742315173149
0.021950900554656982,0.00013202153786551207,-0.014050361700356007,0.013820143416523933,-0.00046736045624129474,0.018243877217173576
0.02163754776120186,0.00012825876183342189,-0.014252251945436,0.013841775245964527,-0.00043237089994363487,0.01856357231736183
0.02163754776120186,0.00012825876183342189,-0.014252251945436,0.013841775245964527,-0.00043237089994363487,0.01856357231736183
0.021199878305196762,0.00014930091856513172,-0.014101270586252213,0.01392281986773014,-0.0004328031209297478,0.019399158656597137
0.021955456584692,0.00014560561976395547,-0.014253964647650719,0.013881241902709007,-0.00043267756700515747,0.019259875640273094
0.02226906083524227,0.00014178664423525333,-0.014037326909601688,0.01419717725366354,-0.0004066750407218933,0.01910923421382904
0.02192244678735733,0.00015848371549509466,-0.014224442653357983,0.013867935165762901,-0.0003821217396762222,0.018674438819289207
0.021466422826051712,0.00015712853928562254,-0.01365270372480154,0.0141072329133749,-0.0004047886759508401,0.017955658957362175
0.021534021943807602,0.00015333924966398627,-0.014471547678112984,0.01369477529078722,-0.0003890030784532428,0.019718294963240623
0.02149832434952259,0.00014969588664826006,-0.013773299753665924,0.014276173897087574,-0.00036943424493074417,0.01841140352189541
0.021564630791544914,0.00014622150047216564,-0.014121421612799168,0.013866853900253773,-0.00036291239666752517,0.018576910719275475
0.022515155375003815,0.00016303952725138515,-0.013795305043458939,0.013942006044089794,-0.0003382198337931186,0.01876579225063324
0.022189706563949585,0.00015969392552506179,-0.014255381189286709,0.013950414024293423,-0.0003147214592900127,0.018405867740511894
0.02209080383181572,0.00015665686805732548,-0.013884950429201126,0.013982538133859634,-0.0003488656075205654,0.019166337326169014
0.022418903186917305,0.0002468345919623971,-0.013810289092361927,0.014015372842550278,-0.0003571294655557722,0.019808083772659302
0.02221025340259075,0.00026468050782568753,-0.014279278926551342,0.013947470113635063,-0.0003438047133386135,0.019118178635835648
0.021959587931632996,0.0002667223452590406,-0.013569933362305164,0.013908307999372482,-0.00036981076118536294,0.018792496994137764
0.022402111440896988,0.000254360114922747,-0.014161105267703533,0.014013925567269325,-0.00035445819958113134,0.0184805728495121
0.0225998405367136,0.00026947137666866183,-0.013734805397689342,0.01367261167615652,-0.00033799977973103523,0.01864737644791603
0.022565288469195366,0.00027101903106085956,-0.014325138181447983,0.014293715357780457,-0.0003942527691833675,0.019308649003505707
0.022005269303917885,0.0002843811234924942,-0.013762629590928555,0.013808880932629108,-0.0003847687039524317,0.01962210237979889
0.02262771874666214,0.0002852066536433995,-0.014199125580489635,0.014207214117050171,-0.0003559029137250036,0.020280685275793076
0.022836487740278244,0.0002744951634667814,-0.0138904619961977,0.014378182590007782,-0.00037837293348275125,0.02008555456995964
0.022740572690963745,0.0004005606460850686,-0.014278728514909744,0.014691232703626156,-0.0003676832711789757,0.019613536074757576
0.022740572690963745,0.0004005606460850686,-0.014278728514909744,0.014691232703626156,-0.0003676832711789757,0.019613536074757576
0.022639969363808632,0.0004218484100420028,-0.013951187022030354,0.014744175598025322,-0.00034515743027441204,0.019345780834555626
0.02233157306909561,0.0004132217727601528,-0.014175575226545334,0.014717998914420605,-0.00036430382169783115,0.019238704815506935
0.02307751774787903,0.0004259760899003595,-0.013807403855025768,0.01466897688806057,-0.0003561612102203071,0.019596485421061516
0.022893134504556656,0.0004181014373898506,-0.014095686376094818,0.014683196321129799,-0.00037964500370435417,0.020068611949682236
0.023078326135873795,0.0004416799056343734,-0.01435637753456831,0.01386786438524723,-0.0003661078808363527,0.019947156310081482
0.022968478500843048,0.00042200434836559,-0.014788747765123844,0.013481264933943748,-0.0003884500765707344,0.019913645461201668
0.02286086231470108,0.0005694956635124981,-0.014294703491032124,0.013368372805416584,-0.0003930781676899642,0.019509974867105484
0.023142997175455093,0.0006103303749114275,-0.01409848127514124,0.013850370422005653,-0.00036380754318088293,0.019441908225417137
0.023487405851483345,0.0006326787988655269,-0.014198237098753452,0.013828594237565994,-0.00039484765147790313,0.019330641254782677
0.02320037968456745,0.0006384462467394769,-0.014665532857179642,0.014582316391170025,-0.00037532413261942565,0.019339730963110924
0.023084823042154312,0.000610615941695869,-0.01458752527832985,0.014079355634748936,-0.00035140596446581185,0.019647561013698578
0.02266399748623371,0.0007604732527397573,-0.015117765404284,0.013968477956950665,-0.00038113599293865263,0.018323490396142006
0.0231857281178236,0.0007911912398412824,-0.014845035970211029,0.013248075731098652,-0.00038776834844611585,0.018829751759767532
0.023700308054685593,0.0007788287475705147,-0.015165001153945923,0.013621145859360695,-0.0003902651078533381,0.019858263432979584
0.0235191248357296,0.0007422933704219759,-0.01475569512695074,0.013673791661858559,-0.0004840462643187493,0.01978405751287937
0.023486625403165817,0.0009077532449737191,-0.014156719669699669,0.013790047727525234,-0.00048136862460523844,0.019739612936973572
0.02152930572628975,0.0009126208606176078,-0.015126365236938,0.014221042394638062,-0.0004987329593859613,0.019819675013422966
0.02364998124539852,0.0009111444232985377,-0.014791736379265785,0.013814450241625309,-0.00047789778909645975,0.019703488796949387
0.024150382727384567,0.0008513055508956313,-0.015166694298386574,0.013798647560179234,-0.0005043623968958855,0.02019299380481243
0.02368786372244358,0.0010476491879671812,-0.0147549444809556,0.013294083066284657,-0.0004750029183924198,0.019868789240717888
0.023208672180771828,0.0010604653507471085,-0.0150573356077075,0.013265824876725674,-0.0005584769533015788,0.019682807847857475
0.02376248873770237,0.0010481763165444136,-0.014310275204479694,0.01387693639844656,-0.0005824781837873161,0.020178671926259995
0.023985732346773148,0.0010894915321841836,-0.015235220082104206,0.013627949170768261,-0.0005693037528544664,0.020171862095594406
0.02407161146402359,0.0011891302419826388,-0.014593121595680714,0.013677500188350677,-0.0005921419942751527,0.019812408834695816
0.02403053641319275,0.0011773662408813834,-0.015411917120218277,0.013703303411602974,-0.0005506519228219986,0.020040979608893394
0.02403053641319275,0.0011773662408813834,-0.015411917120218277,0.013703303411602974,-0.0005506519228219986,0.020040979608893394
0.023198571056127548,0.0014109550975263119,-0.014811066910624504,0.013952144421637058,-0.0005694442661479115,0.0204257071018219
0.02362525835633278,0.0013182902475818992,-0.014152323827147484,0.01342000812292099,-0.0005769002018496394,0.020111162215471268
0.02362525835633278,0.0013182902475818992,-0.014152323827147484,0.01342000812292099,-0.0005769002018496394,0.020111162215471268
