davideferrari95/blind_handover_controller/data/Test 168 - [2024-02-08 -- 11-11-13]/joint_states_data.csv
shoulder_pan_joint,shoulder_lift_joint,elbow_joint,wrist_1_joint,wrist_2_joint,wrist_3_joint
-0.005656632594764233,-0.01554691232740879,-3.1205850063997786e-06,0.017226416617631912,0.0,-0.004711047280579805
-0.005656632594764233,-0.01554691232740879,-3.1205850063997786e-06,0.017226416617631912,0.0,-0.004711047280579805
-0.005993286147713661,-0.015473166480660439,-4.186663105087973e-08,0.01751645654439926,0.0,-0.00476595014333725
-0.0055934893898665905,-0.015149135142564774,-5.61694302181337e-10,0.01713639497756958,0.0,-0.00459837494418025
-0.005644336808472872,-0.015679901465773582,-7.53584607909863e-12,0.017088059335947037,0.0,-0.0043899002484977245
-0.005949200596660376,-0.015083471313118935,-1.011029909965544e-13,0.017107948660850525,0.0,-0.004087185021489859
-0.005449826363474131,-0.015488200820982456,-1.356425644480591e-15,0.016968348994851112,0.0,-0.004348740912973881
-0.005437347572296858,-0.015330717898905277,-1.8198180271319747e-17,0.0172971710562706,0.0,-0.00499885156750679
-0.0056353164836764336,-0.014732368290424347,-2.441518186732822e-19,0.01705513335764408,0.0,-0.0049703363329172134
-0.005981060676276684,-0.014449253678321838,-3.2756083665738886e-21,0.017427071928977966,0.0,-0.004877179395407438
-0.005339905619621277,-0.014508610591292381,-5.895978946134183e-25,0.016639692708849907,0.0,-0.004675634205341339
-0.005694250110536814,-0.01471455954015255,-7.910207971350432e-27,0.016986863687634468,0.0,-0.0043943230994045734
-0.004800768103450537,-0.014942795969545841,-1.0612552883879066e-28,0.016466323286294937,0.0,-0.004113147035241127
-0.004202629439532757,-0.01448952779173851,-1.4238096331114582e-30,0.016664613038301468,0.0,-0.004195639863610268
-0.004600926768034697,-0.015085892751812935,-1.9102221072507853e-32,0.016680367290973663,0.0,-0.004370130132883787
-0.0048270514234900475,-0.015053361654281616,-2.5628070439442414e-34,0.016802338883280754,0.0,-0.004539287183433771
-0.004895088262856007,-0.01536510232836008,-3.438332455592211e-36,0.016650011762976646,0.0,-0.0044940924271941185
-0.0048291729763150215,-0.014846846461296082,-4.612962160420459e-38,0.016145214438438416,0.0,-0.0045385234989225864
-0.004709761124104261,-0.015159333124756813,-6.188876706644484e-40,0.016738099977374077,0.0,-0.004623218439519405
-0.00458542350679636,-0.014748294837772846,-8.302693401124541e-42,0.016456363722682,0.0,-0.004318862687796354
-0.00457193935289979,-0.015322726219892502,-1.1070257868166055e-43,0.016311846673488617,0.0,-0.004447650164365768
-0.00430495897307992,-0.015084943734109402,-1.401298464324817e-45,0.016371941193938255,0.0,-0.0050557148642838
-0.004357483703643084,-0.015305429697036743,-0.0,0.016699040308594704,0.0,-0.0052005695179104805
-0.004357483703643084,-0.015305429697036743,-0.0,0.016699040308594704,0.0,-0.0052005695179104805
-0.00451849726960063,-0.014561934396624565,-0.0,0.016630906611680984,0.0,-0.005020342767238617
-0.004674471914768219,-0.015422658994793892,-0.0,0.01616571843624115,0.0,-0.005242575891315937
-0.00473931897431612,-0.01618906296789646,-0.0,0.016265738755464554,0.0,-0.005012263543903828
-0.004564660135656595,-0.015394968912005424,-0.0,0.015907444059848785,0.0,-0.00544471712782979
-0.004318186081945896,-0.014733130112290382,-0.0,0.016437599435448647,0.0,-0.005332617089152336
-0.004873137455433607,-0.01551904994994402,-0.0,0.01666143536567688,0.0,-0.004930765368044376
-0.004479294177144766,-0.015283046290278435,-0.0,0.01685520075261593,0.0,-0.004754222929477692
-0.004535575397312641,-0.01541979517787695,-0.0,0.017270389944314957,0.0,-0.0048443954437971115
-0.00456535117700696,-0.015279279090464115,-0.0,0.016287466511130333,0.0,-0.004797875415533781
-0.004736660048365593,-0.01541230734437704,-0.0,0.015662170946598053,0.0,-0.0047850580886006355
-0.004738314542919397,-0.015362818725407124,-0.0,0.014825280755758286,0.0,-0.004646270535886288
-0.004226367454975843,-0.015120784752070904,-0.0,0.015233894810080528,0.0,-0.004589919000864029
-0.004419716075062752,-0.015372837893664837,-0.0,0.015447361394762993,0.0,-0.004495132248848677
-0.004490496125072241,-0.015126540325582027,-0.0,0.016350319609045982,0.0,-0.004427350126206875
-0.0047159320674836636,-0.015745528042316437,-0.0,0.016192875802516937,0.0,-0.005022271070629358
-0.0047123064287006855,-0.015219845809042454,-0.0,0.015509756281971931,0.0,-0.005013036075979471
-0.004399705212563276,-0.015004269778728485,-0.0,0.015261463820934296,0.0,-0.005009107757359743
-0.004151081666350365,-0.015392131172120571,-0.0,0.01502997800707817,0.0,-0.004718489479273558
-0.003893776796758175,-0.015000118874013424,-0.0,0.015082288533449173,0.0,-0.0048050954937934875
-0.004072319716215134,-0.015467443503439426,-0.0,0.01561522576957941,0.0,-0.004731363151222467
-0.004561644047498703,-0.01495831273496151,-0.0,0.015269181691110134,0.0,-0.005248557310551405
-0.004728592932224274,-0.015325850807130337,-0.0,0.015131834894418716,0.0,-0.005276358220726252
-0.004468099679797888,-0.014901156537234783,-0.0,0.014212260954082012,0.0,-0.004933157004415989
-0.004036372061818838,-0.015100996010005474,-0.0,0.014521426521241665,0.0,-0.004680313635617495
-0.0043648905120790005,-0.014922368340194225,-0.0,0.014474493451416492,0.0,-0.004574567545205355
-0.004111393354833126,-0.015128095634281635,-0.0,0.014943561516702175,0.0,-0.004822438582777977
-0.003878912655636668,-0.01527233887463808,-0.0,0.014869116246700287,0.0,-0.0049085188657045364
-0.00412672059610486,-0.014909258112311363,-0.0,0.015607514418661594,0.0,-0.0052541932091116905
-0.00412672059610486,-0.014909258112311363,-0.0,0.015607514418661594,0.0,-0.0052541932091116905
-0.004121863748878241,-0.015132216736674309,-0.0,0.015288674272596836,0.0,-0.0053312042728066444
-0.0042971111834049225,-0.015084165148437023,-0.0,0.015358740463852882,0.0,-0.00534634618088603
-0.004383839666843414,-0.014800606295466423,-0.0,0.01500442624092102,0.0,-0.004447706043720245
-0.004265453666448593,-0.014580586925148964,-0.0,0.01427141297608614,0.0,-0.004982389975339174
-0.003998280968517065,-0.014961322769522667,-0.0,0.014900941401720047,0.0,-0.0051204911433160305
-0.003841279773041606,-0.014787881635129452,-0.0,0.016035977751016617,0.0,-0.005447776522487402
-0.004227322060614824,-0.015050114132463932,-0.0,0.015443652868270874,0.0,-0.005161140114068985
-0.004289373755455017,-0.01441858522593975,-0.0,0.014894254505634308,0.0,-0.004749866668134928
-0.004300480242818594,-0.015107383951544762,-0.0,0.014470670372247696,0.0,-0.004376329481601715
-0.004020825028419495,-0.014461822807788849,-0.0,0.014417815953493118,0.0,-0.0048436434008181095
-0.003896124195307493,-0.015301785431802273,-0.0,0.014707151800394058,0.0,-0.00506437337026
-0.004326960071921349,-0.014895346947014332,-0.0,0.014630386605858803,0.0,-0.005321695003658533
-0.004054806660860777,-0.015112494118511677,-0.0,0.014583720825612545,0.0,-0.005448825191706419
-0.003931543789803982,-0.014474824070930481,-0.0,0.014628804288804531,0.0,-0.00474061444401741
-0.0044858078472316265,-0.014338072389364243,-0.0,0.01384098269045353,0.0,-0.004183001816272736
-0.004709359724074602,-0.014622343704104424,-0.0,0.014053409919142723,0.0,-0.0045056273229420185
-0.004323697183281183,-0.013938337564468384,-0.0,0.014295305125415325,0.0,-0.0049506183713674545
-0.004548223223537207,-0.014474631287157536,-0.0,0.014534910209476948,0.0,-0.005120197311043739
-0.004446413833647966,-0.013677959330379963,-0.0,0.013909265398979187,0.0,-0.0048913499340415
-0.0034746385645121336,-0.014260499738156796,-0.0,0.01392306201159954,0.0,-0.004711916670203209
-0.0036571151576936245,-0.014030509628355503,-0.0,0.01388323213905096,0.0,-0.0047444067895412445
-0.00402683624997735,-0.014058158732950687,-0.0,0.01339853834360838,0.0,-0.005251596681773663
-0.004410424269735813,-0.013571345247328281,-0.0,0.013596083968877792,0.0,-0.0054117366671562195
-0.004369284957647324,-0.014178902842104435,-0.0,0.013341070152819157,0.0,-0.005223358049988747
-0.004369284957647324,-0.014178902842104435,-0.0,0.013341070152819157,0.0,-0.005223358049988747
-0.004049819894134998,-0.01376332901418209,-0.0,0.013812032528221607,0.0,-0.0048684012144804
-0.0034473869018256664,-0.01403807383030653,-0.0,0.013608545064926147,0.0,-0.004732814617455006
-0.0035580529365688562,-0.013731407932937145,-0.0,0.014311544597148895,0.0,-0.004770784638822079
-0.004142448306083679,-0.013772198930382729,-0.0,0.013992811553180218,0.0,-0.005099310074001551
-0.004158039577305317,-0.013268046081066132,-0.0,0.013699252158403397,0.0,-0.005269171670079231
-0.003574125934392214,-0.013487445190548897,-0.0,0.013041980564594269,0.0,-0.005151110235601664
-0.0035442798398435116,-0.013571130111813545,-0.0,0.01386178843677044,0.0,-0.004867151379585266
-0.0036802333779633045,-0.013346142135560513,-0.0,0.013841421343386173,0.0,-0.0050306073389947414
-0.004175662528723478,-0.013631707057356834,-0.0,0.014072713442146778,0.0,-0.0049873944371938705
-0.0041824630461633205,-0.013457980938255787,-0.0,0.013774850405752659,0.0,-0.005392854567617178
-0.003948565106838942,-0.013767346739768982,-0.0,0.013487308286130428,0.0,-0.005295486189424992
-0.0037857810966670513,-0.013757508248090744,-0.0,0.013010159134864807,0.0,-0.005587753839790821
-0.0038142381235957146,-0.014196271076798439,-0.0,0.0130153838545084,0.0,-0.0053801159374415874
-0.0038803168572485447,-0.01353792380541563,-0.0,0.013082673773169518,0.0,-0.005022209603339434
-0.004154454451054335,-0.01378536131232977,-0.0,0.012629112228751183,0.0,-0.004836019594222307
-0.0038958415389060974,-0.013532637618482113,-0.0,0.012929065153002739,0.0,-0.00512761389836669
-0.003561856225132942,-0.013415345922112465,-0.0,0.012901684269309044,0.0,-0.005829312838613987
-0.003659267211332917,-0.013425133191049099,-0.0,0.01306285709142685,0.0,-0.00549651775509119
-0.003726152004674077,-0.013061855919659138,-0.0,0.013442247174680233,0.0,-0.005383603740483522
-0.003767363028600812,-0.013677711598575115,-0.0,0.012531113810837269,0.0,-0.005020721349865198
-0.0037680580280721188,-0.013660692609846592,-0.0,0.01225329004228115,0.0,-0.004835955798625946
-0.0037250537425279617,-0.014066933654248714,-0.0,0.012632723897695541,0.0,-0.004907601047307253
-0.0037250537425279617,-0.014066933654248714,-0.0,0.012632723897695541,0.0,-0.004907601047307253
-0.003619165625423193,-0.013664361089468002,-0.0,0.012823883444070816,0.0,-0.004926523193717003
-0.003619165625423193,-0.013664361089468002,-0.0,0.012823883444070816,0.0,-0.004926523193717003
-0.004051837604492903,-0.013630281202495098,-0.0,0.012398295104503632,7.3469336712150835e-06,-0.004879559390246868
-0.0038932492025196552,-0.01474654208868742,-0.0,0.01273305807262659,4.797022370439663e-07,-0.005223932676017284
-0.003610877087339759,-0.013538551516830921,-0.0,0.012348144315183163,3.132113235437828e-08,-0.0050766728818416595
-0.0034596570767462254,-0.012975471094250679,-0.0,0.012930425815284252,2.045046132437278e-09,-0.004987655207514763
-0.003489188151434064,-0.013617771677672863,-0.0,0.012549166567623615,1.335268978719384e-10,-0.0051353503949940205
-0.003661520080640912,-0.013517339713871479,-0.0,0.012414743192493916,8.718352428882525e-12,-0.0047465357929468155
-0.0036687396932393312,-0.014025709591805935,-0.0,0.012432387098670006,5.692460934049459e-13,-0.004926648456603289
-0.0036439145915210247,-0.013419720344245434,-0.0,0.012259528040885925,3.716770408156503e-14,-0.005044552497565746
-0.0037281950935721397,-0.013735854998230934,-0.0,0.012859934940934181,1.6375657651224174e-05,-0.0052543519996106625
-0.003396206069737673,-0.013513031415641308,-0.0,0.012386411428451538,0.0004551293095573783,-0.005497051868587732
-0.0035976627841591835,-0.013807914219796658,-0.0,0.012228074483573437,0.0005214755074121058,-0.005573628935962915
-0.003914382308721542,-0.013351798988878727,-0.0,0.011980925686657429,0.0005514362128451467,-0.005568011198192835
-0.00396368931978941,-0.013627910055220127,-0.0,0.011890345253050327,0.0005702933412976563,-0.005269519053399563
-0.0034474744461476803,-0.01309939380735159,-0.0,0.012201917357742786,0.0005488656461238861,-0.005067099817097187
-0.0031173706520348787,-0.013277116231620312,-0.0,0.011796634644269943,0.0008611716912128031,-0.005236368160694838
-0.003161342116072774,-0.013261198997497559,-0.0,0.012117868289351463,0.0008510603220202029,-0.0051769595593214035
-0.0036170899402350187,-0.013217293657362461,-0.0,0.01186151523143053,0.0008143098093569279,-0.005419857334345579
-0.0034667430445551872,-0.013469895347952843,-0.0,0.012072881683707237,0.000891687988769263,-0.005424657836556435
-0.0033393343910574913,-0.013859507627785206,-0.0,0.011589453555643559,0.0008969245827756822,-0.00576509814709425
-0.00316766113974154,-0.013137027621269226,-0.0,0.01198804471641779,0.0008885642164386809,-0.00548003101721406
-0.0034861608874052763,-0.01357840746641159,-0.0,0.011693019419908524,0.0008893970516510308,-0.005680621135979891
-0.0034861608874052763,-0.01357840746641159,-0.0,0.011693019419908524,0.0008893970516510308,-0.005680621135979891
-0.003739640349522233,-0.012950748205184937,-0.0,0.011627635918557644,0.0008625091868452728,-0.005729126278311014
-0.0029839416965842247,-0.012603566981852055,-0.0,0.010890023782849312,0.0007924124947749078,-0.005488760303705931
-0.0029839416965842247,-0.012603566981852055,-0.0,0.010890023782849312,0.0007924124947749078,-0.005488760303705931
-0.003086765529587865,-0.012761112302541733,-0.0,0.010955938138067722,0.0008018751395866275,-0.005655794870108366
-0.0033284868113696575,-0.012816966511309147,-0.0,0.010715864598751068,0.0007924738456495106,-0.005838246550410986
-0.0035979910753667355,-0.012446306645870209,-0.0,0.010416535660624504,0.0007348817307502031,-0.0058342469856143
-0.003305810270830989,-0.012914074584841728,-0.0,0.010649027302861214,0.0007101137889549136,-0.005334853660315275
-0.003473772667348385,-0.012882912531495094,-0.0,0.010573684237897396,0.000628927256911993,-0.005619378294795752
-0.003704484086483717,-0.01298985630273819,-0.0,0.010760673321783543,0.0006475218688137829,-0.005718200467526913
-0.003356184111908078,-0.012343961745500565,-0.0,0.010962864384055138,0.0006368758622556925,-0.005793873220682144
-0.003030216321349144,-0.012911301106214523,-0.0,0.01060010027140379,0.0006176431779749691,-0.005954341031610966
-0.003002078738063574,-0.01259105745702982,-0.0,0.010715656913816929,0.000639984558802098,-0.005406169220805168
-0.0032978872768580914,-0.012219962663948536,-0.0,0.010669483803212643,0.0006405365420505404,-0.00536247156560421
-0.003235882380977273,-0.012805923819541931,-0.0,0.01084351260215044,0.0006899569416418672,-0.005475249607115984
-0.0031315507367253304,-0.012333817780017853,-0.0,0.011106651276350021,0.0007159480010159314,-0.005457262042909861
-0.002938617952167988,-0.01218403410166502,-0.0,0.010633446276187897,0.0007117901113815606,-0.005945936311036348
-0.002967609092593193,-0.011944133788347244,-0.0,0.010741343721747398,0.0006938369479030371,-0.006121884100139141
-0.0032161050476133823,-0.012218100018799305,-0.0,0.010735810734331608,0.0009203521767631173,-0.005474995821714401
-0.003261957783252001,-0.011653766967356205,-0.0,0.010875294916331768,0.0008614231483079493,-0.005339734256267548
-0.0028834627009928226,-0.011560915969312191,-0.0,0.0113513870164752,0.0008543807780370116,-0.0055844406597316265
-0.002733771223574877,-0.01257367990911007,-0.0,0.011343302205204964,0.0008175613475032151,-0.006098410114645958
-0.002740986878052354,-0.011765237897634506,-0.0,0.011224480345845222,0.0007768985233269632,-0.00551378121599555
-0.0029409280978143215,-0.011577953584492207,-0.0,0.009383480064570904,0.000644857413135469,-0.005590674467384815
-0.0029409280978143215,-0.011577953584492207,-0.0,0.009383480064570904,0.000644857413135469,-0.005590674467384815
-0.0026844528038054705,-0.011555968783795834,-0.0,0.010048305615782738,0.000602284970227629,-0.005961121991276741
-0.00260574440471828,-0.011112529784440994,-0.0,0.009692943654954433,0.0006264232797548175,-0.005937402602285147
-0.002470148727297783,-0.011949933134019375,-0.0,0.009787346236407757,0.0006455215625464916,-0.0056165242567658424
-0.0027635712176561356,-0.011986878700554371,-0.0,0.010027339681982994,0.0006720559322275221,-0.006074323318898678
-0.0027635712176561356,-0.011986878700554371,-0.0,0.010027339681982994,0.0006720559322275221,-0.006074323318898678
-0.0029762571211904287,-0.011920178309082985,-0.0,0.009241951629519463,0.000646211439743638,-0.005866426508873701
-0.002575172344222665,-0.011629806831479073,-0.0,0.008843270130455494,0.0006743635749444366,-0.005922132171690464
-0.002419746946543455,-0.011128955520689487,-0.0,0.008606377989053726,0.0006794866058044136,-0.006359311752021313
-0.002378694247454405,-0.011397819966077805,-0.0,0.008727135136723518,0.0007004679646342993,-0.00588238937780261
-0.0022107120603322983,-0.011210855096578598,-0.0,0.00861112680286169,0.0006623804219998419,-0.0058736009523272514
-0.0021957375574856997,-0.011099033989012241,-0.0,0.008521799929440022,0.000722962140571326,-0.005569855682551861
-0.0021994048729538918,-0.011584402061998844,-0.0,0.008676650933921337,0.0007492581498809159,-0.005747877061367035
-0.0025670230388641357,-0.011369997635483742,-0.0,0.008024243637919426,0.0007182544213719666,-0.005819495301693678
-0.0025023873895406723,-0.01155049353837967,-0.0,0.008108170703053474,0.0006875813123770058,-0.005647823214530945
-0.002298143459483981,-0.011381810531020164,-0.0,0.008487946353852749,0.0006992521230131388,-0.005395852494984865
-0.002021902007982135,-0.011845311149954796,-0.0,0.008657006546854973,0.0006524911732412875,-0.005718441214412451
-0.0019764075987040997,-0.011642063967883587,-0.0,0.007912595756351948,0.0006482179742306471,-0.005606853868812323
-0.0021053289528936148,-0.011485652066767216,-0.0,0.00864451378583908,0.0006775074289180338,-0.005980267189443111
-0.0024381326511502266,-0.011778177693486214,-0.0,0.008827796205878258,0.0006823817384429276,-0.0056068673729896545
-0.002344534732401371,-0.011385145597159863,-0.0,0.009222100488841534,0.0006365107838064432,-0.005600876174867153
-0.0022043490316718817,-0.011342758312821388,-0.0,0.00862338300794363,0.0006562593043781817,-0.006013073958456516
-0.002093569841235876,-0.011765696108341217,-0.0,0.009770067408680916,0.0006121322512626648,-0.005502943880856037
-0.0017460061935707927,-0.011855164542794228,-0.0,0.007875311188399792,0.0006499749142676592,-0.005523397587239742
-0.0017069109017029405,-0.011544073931872845,-0.0,0.008142986334860325,0.0006029928917996585,-0.005825261119753122
-0.001764939515851438,-0.011355184949934483,-0.0,0.008507234044373035,0.0006218578200787306,-0.005648988764733076
-0.002161616925150156,-0.011540508829057217,-0.0,0.00791229959577322,0.0006154118455015123,-0.005852106958627701
-0.0020949789322912693,-0.01126484852284193,-0.0,0.007490374147891998,0.0006007347838021815,-0.005543125327676535
-0.0020949789322912693,-0.01126484852284193,-0.0,0.007490374147891998,0.0006007347838021815,-0.005543125327676535
-0.0018019328126683831,-0.011663466691970825,-0.0,0.007840022444725037,0.0006285305134952068,-0.0062355841509997845
-0.0015785653376951814,-0.011448761448264122,-0.0,0.007494849618524313,0.0006456201081164181,-0.006043280474841595
-0.0015608614776283503,-0.011613988317549229,-0.0,0.007227928377687931,0.0006479095900431275,-0.006104493048042059
-0.0013434250140562654,-0.011747770011425018,-0.0,0.007357344962656498,0.0006940615712665021,-0.006129301618784666
-0.0013776636915281415,-0.011250115931034088,-0.0,0.007434731815010309,0.0008080988191068172,-0.0059911939315497875
-0.0013426690129563212,-0.011724474839866161,-0.0,0.007080936338752508,0.0010893326252698898,-0.006125969346612692
-0.0015780266840010881,-0.01115864235907793,-1.1325187188049313e-05,0.006906064227223396,0.0010693755466490984,-0.0057258279994130135
-0.0015899308491498232,-0.01252425741404295,-7.078054477460682e-05,0.00692965229973197,0.00101735710632056,-0.005886367056518793
-0.0017618206329643726,-0.010961506515741348,-7.047218969091773e-05,0.007446706295013428,0.0009507708600722253,-0.005836828146129847
-0.0016443144995719194,-0.010702971369028091,-6.939615559531376e-05,0.008221405558288097,0.0009842179715633392,-0.006064554210752249
-0.0014957977691665292,-0.011389501392841339,-6.834247324150056e-05,0.007416597567498684,0.000980897806584835,-0.006707829888910055
-0.0014248747611418366,-0.011505176313221455,-7.618429663125426e-05,0.006600270979106426,0.0009389158221893013,-0.006352579686790705
-0.0013130218721926212,-0.011775914579629898,-7.953164458740503e-05,0.006946892477571964,0.0008793192682787776,-0.005738870240747929
-0.0012892251834273338,-0.011629777029156685,-7.843652565497905e-05,0.007188799325376749,0.0008778857300058007,-0.005824326071888208
-0.0011770393466576934,-0.011128702200949192,-7.731430378044024e-05,0.0066596269607543945,0.0008410063455812633,-0.006055368110537529
-0.0012500938028097153,-0.01110142096877098,-7.622301200171933e-05,0.0065674493089318275,0.0008530184277333319,-0.006407006178051233
-0.0011913708876818419,-0.011167357675731182,-7.516204641433433e-05,0.0072453683242201805,0.0008595599210821092,-0.006595160812139511
-0.0010667013702914119,-0.010678666643798351,-8.504441939294338e-05,0.007464676629751921,0.0008569760248064995,-0.006225805263966322
-0.0011019381927326322,-0.010647641494870186,-8.529489423381165e-05,0.006877698004245758,0.0008733291761018336,-0.006014043930917978
-0.001041891286149621,-0.010835033841431141,-8.306456584250554e-05,0.006296698935329914,0.0008914841455407441,-0.006704557687044144
-0.0009466064511798322,-0.011269815266132355,-9.322932601207867e-05,0.006554991938173771,0.0008906499133445323,-0.006500814110040665
-0.0009121474577113986,-0.0109495148062706,-9.248575224773958e-05,0.007090962957590818,0.0008480731630697846,-0.006475452333688736
-0.0009124031639657915,-0.010876457206904888,-0.0002441338001517579,0.006920788437128067,0.0009301623213104904,-0.00652381731197238
-0.0009067992214113474,-0.010659635998308659,-0.0002500747505109757,0.006312098819762468,0.0009664154495112598,-0.006543651223182678
-0.0009067992214113474,-0.010659635998308659,-0.0002500747505109757,0.006312098819762468,0.0009664154495112598,-0.006543651223182678
-0.0008707692031748593,-0.010278499685227871,-0.00023715548741165549,0.006252584047615528,0.0009600241319276392,-0.0059214807115495205
-0.0008079887484200299,-0.010493057779967785,-0.00025481139891780913,0.006390750873833895,0.0010630361502990127,-0.006324767600744963
-0.000667528947815299,-0.010272781364619732,-0.00024573339032940567,0.0053756651468575,0.0011383433593437076,-0.006485149264335632
-0.000667528947815299,-0.010272781364619732,-0.00024573339032940567,0.0053756651468575,0.0011383433593437076,-0.006485149264335632
-0.0006957887089811265,-0.010700573213398457,-0.00027261581271886826,0.004995455965399742,0.0011620832374319434,-0.006617479957640171
-0.0006176962633617222,-0.010036622174084187,-0.00026275336858816445,0.0052098059095442295,0.001196705736219883,-0.006404517684131861
-0.0006452715606428683,-0.009966596961021423,-0.00028682296397164464,0.0055329338647425175,0.0011591946240514517,-0.006425161380320787
-0.0005864123813807964,-0.010424870066344738,-0.0002771696890704334,0.005189873278141022,0.0011192713864147663,-0.006516689900308847
-0.0006098838057368994,-0.009157772175967693,-0.00041724464972503483,0.005198474042117596,0.0011549202026799321,-0.006757247727364302
-0.0005649441154673696,-0.009627304039895535,-0.0003876871196553111,0.004918350372463465,0.001118957414291799,-0.006855763029307127
-0.0005238674348220229,-0.010611813515424728,-0.0003570066182874143,0.004883253946900368,0.00108435470610857,-0.007129339966922998
-0.0004883274086751044,-0.009229066781699657,-0.0003739680105354637,0.005802896339446306,0.0010018664179369807,-0.006922232452780008
-0.00043843078310601413,-0.00972003024071455,-0.0003694220504257828,0.005495032295584679,0.0010396474972367287,-0.007236299104988575
-0.00039093560189940035,-0.009181837551295757,-0.0003460284206084907,0.004941132385283709,0.0010191912297159433,-0.007103325799107552
-0.0003595593152567744,-0.008844290859997272,-0.00037715068901889026,0.004684935323894024,0.0010016877204179764,-0.006968468893319368
-0.00033294683089479804,-0.008606953546404839,-0.0003578058385755867,0.004918584134429693,0.0009325947612524033,-0.007004642393440008
-0.0003711117897182703,-0.00861422810703516,-0.0003812153881881386,0.005018981173634529,0.0010079104686155915,-0.006883976981043816
-0.0003480135928839445,-0.00942246988415718,-0.0003671572485473007,0.0056480285711586475,0.0010414146818220615,-0.007016213610768318
-0.0003082813345827162,-0.00858808122575283,-0.00044688076013699174,0.005613174755126238,0.0012636466417461634,-0.006819493602961302
-0.00032346282387152314,-0.008635804057121277,-0.00042052019853144884,0.004992311354726553,0.0012964137131348252,-0.007261153310537338
-0.0003225753316655755,-0.008363868109881878,-0.0004543382965493947,0.004502836149185896,0.0014224391197785735,-0.007007464300841093
-0.00030706211691722274,-0.008309794589877129,-0.0004642272833734751,0.004990981426090002,0.0014407446142286062,-0.006699506659060717
-0.0002927934401668608,-0.008278938010334969,-0.0004543213581200689,0.005067807622253895,0.0013336149277165532,-0.006620270200073719
-0.00027978935395367444,-0.008261781185865402,-0.00042759516509249806,0.004902109503746033,0.0012565028155222535,-0.006394091062247753
-0.00026789179537445307,-0.007988959550857544,-0.000568465213291347,0.00422845920547843,0.0011000118684023619,-0.007025012280791998
-0.00026789179537445307,-0.007988959550857544,-0.000568465213291347,0.00422845920547843,0.0011000118684023619,-0.007025012280791998
-0.0002569635398685932,-0.00775136286392808,-0.00061601068591699,0.0038371894042938948,0.0011428294237703085,-0.006658675614744425
-0.0002468929160386324,-0.007870218716561794,-0.0005633660475723445,0.0037770147901028395,0.0011453337501734495,-0.0066156513057649136
-0.00023758175666444004,-0.007416874635964632,-0.0005849672597832978,0.003769305068999529,0.001186541747301817,-0.006947642657905817
-0.00022894746507517993,-0.007281939499080181,-0.0005437554209493101,0.0038215930107980967,0.0012700088554993272,-0.006566416006535292
-0.00022091907158028334,-0.007463307585567236,-0.0005635498091578484,0.0034639539662748575,0.0012534229317680001,-0.0065330620855093
-0.00010718360863393173,-0.0074878716841340065,-0.0005299272597767413,0.0032228550408035517,0.0011994412634521723,-0.006636408157646656
-8.865566633176059e-05,-0.00806000828742981,-0.0005808027344755828,0.0031956930179148912,0.001201660605147481,-0.006798430345952511
-0.00012476150004658848,-0.0072349971160292625,-0.0006171555141918361,0.00357910362072289,0.0012404521694406867,-0.006632383447140455
-0.00012079853331670165,-0.007085348013788462,-0.0006253479514271021,0.0034856637939810753,0.0012393732322379947,-0.006634540855884552
-0.00011564566375454888,-0.007295122370123863,-0.0006510940147563815,0.0033149465452879667,0.0012492378009483218,-0.006784355733543634
0.00015264941612258554,-0.0071313874796032906,-0.0006261332309804857,0.0032688842620700598,0.0013243315042927861,-0.006796254776418209
0.00013902636419516057,-0.006912265904247761,-0.000902554951608181,0.003369823796674609,0.0014610046055167913,-0.007101103663444519
0.00012052462989231572,-0.007014385424554348,-0.0009054698166437447,0.003427165560424328,0.0014466040302067995,-0.006892494857311249
1.6169916534636286e-06,-0.007372359279543161,-0.0009049061918631196,0.0031936862505972385,0.0013903845101594925,-0.006922733038663864
2.1694008367489914e-08,-0.00707705644890666,-0.0008394304313696921,0.0028772829100489616,0.0014817892806604505,-0.00716367457062006
2.91052820733384e-10,-0.006852556020021439,-0.001015883986838162,0.0027506130281835794,0.0013653308851644397,-0.007025387603789568
3.904845197189033e-12,-0.007022174075245857,-0.0009019668214023113,0.002763387281447649,0.001301884069107473,-0.007262451108545065
0.0010726829059422016,-0.00739202881231904,-0.0009002626757137477,0.0031930427066981792,0.0011674314737319946,-0.007392269559204578
0.0011362502118572593,-0.00687304837629199,-0.0008969666669145226,0.0031952967401593924,0.0012032731901854277,-0.0066834427416324615
0.00045676890294998884,-0.0063152373768389225,-0.0008941723499447107,0.0025817197747528553,0.0011917136143893003,-0.007014696951955557
0.00045676890294998884,-0.0063152373768389225,-0.0008941723499447107,0.0025817197747528553,0.0011917136143893003,-0.007014696951955557
0.0004131993919145316,-0.00693096499890089,-0.0008959221304394305,0.002302503911778331,0.0012926449999213219,-0.007084680255502462
0.0004131993919145316,-0.00693096499890089,-0.0008959221304394305,0.002302503911778331,0.0012926449999213219,-0.007084680255502462
0.0002328656701138243,-0.006193134002387524,-0.0008140873978845775,0.0026770324911922216,0.0015435743844136596,-0.007097745779901743
0.00020275625865906477,-0.006047520320862532,-0.0009485825430601835,0.0030546518974006176,0.0015821787528693676,-0.007168186828494072
0.00021478808776009828,-0.006477280519902706,-0.0008510884363204241,0.0028986558318138123,0.001632071565836668,-0.007712762337177992
0.00019231771875638515,-0.0067479582503438,-0.0008564337622374296,0.0027296089101582766,0.001568382140249014,-0.007441765628755093
0.00017375063907820731,-0.006477010902017355,-0.0008615792612545192,0.002170997904613614,0.0014510233886539936,-0.007121722213923931
0.00015844868903513998,-0.005908948834985495,-0.0010138187790289521,0.0019047051900997758,0.0013972471933811903,-0.007162709720432758
0.0001456256431993097,-0.0066063543781638145,-0.0010010723490267992,0.0017601638101041317,0.001342585776001215,-0.007386717479676008
0.00013472246064338833,-0.006624414119869471,-0.0010162696707993746,0.0016000143950805068,0.0012652449076995254,-0.007659786846488714
0.00018048666242975742,-0.0063085095025599,-0.0010753454407677054,0.0016749907517805696,0.0012560460017994046,-0.007524220272898674
0.0002010121534112841,-0.005687367171049118,-0.0010654771467670798,0.0018231529975309968,0.0012171085691079497,-0.0074506159871816635
0.0002070993068628013,-0.006128822918981314,-0.0010410164250060916,0.0017216895939782262,0.0014709699898958206,-0.007775101810693741
0.0003470547671895474,-0.006515233311802149,-0.0010210099862888455,0.0015889285132288933,0.0015015150420367718,-0.007522299885749817
0.0003400235145818442,-0.006431698799133301,-0.001007369952276349,0.0014744300860911608,0.0016535157337784767,-0.007336981128901243
0.00031637202482670546,-0.005970612168312073,-0.0010864082723855972,0.0012519779847934842,0.0015929033979773521,-0.007432162761688232
0.00031637202482670546,-0.005970612168312073,-0.0010864082723855972,0.0012519779847934842,0.0015929033979773521,-0.007432162761688232
0.0003522550396155566,-0.005944410338997841,-0.0011741785565391183,0.0010908272815868258,0.0015003300504758954,-0.007307527121156454
0.00033280684147030115,-0.006108354311436415,-0.0012013569939881563,0.0010504843667149544,0.0015103716868907213,-0.007869035936892033
0.0003595300076995045,-0.006372615694999695,-0.0011471383040770888,0.0010270344791933894,0.0015056475531309843,-0.008310469798743725
0.00034560885978862643,-0.0065729133784770966,-0.0011087314924225211,0.0009570474503561854,0.0015046956250444055,-0.007954655215144157
0.00037260170211084187,-0.005640972871333361,-0.001054417691193521,0.0008705065120011568,0.0015820865519344807,-0.007969233207404613
0.000357837590854615,-0.005419592373073101,-0.0011473584454506636,0.0008039594977162778,0.001681413152255118,-0.007891814224421978
0.0004770703089889139,-0.005798821337521076,-0.0011425211559981108,0.0007526823901571333,0.0018302479293197393,-0.007690926548093557
0.0004332475073169917,-0.0061801825650036335,-0.001394656952470541,0.0006639653583988547,0.0018377348314970732,-0.007801464293152094
0.00046467233914881945,-0.006206227000802755,-0.0013611519243568182,0.0005913747008889914,0.001915258588269353,-0.007664548698812723
0.0004358221485745162,-0.005421503912657499,-0.0013067974941805005,0.0005978725966997445,0.001730920048430562,-0.007947344332933426
0.00040337510290555656,-0.005807110574096441,-0.0014148838818073273,0.0005642790347337723,0.0018228073604404926,-0.007818411104381084
0.0004303801979403943,-0.005548503715544939,-0.0013245532754808664,0.0005190591909922659,0.001756456564180553,-0.007570778485387564
0.0004608083108905703,-0.0058452775701880455,-0.0013904219958931208,0.00047959681251086295,0.002008468145504594,-0.007998613640666008
0.0006171435816213489,-0.005737326107919216,-0.0013349144719541073,0.00044565211283043027,0.001869336236268282,-0.008295172825455666
0.0006930243689566851,-0.005622715223580599,-0.0012539844028651714,0.0004161930119153112,0.0017521257977932692,-0.008133928291499615
0.0007257555262185633,-0.005146138835698366,-0.001194894197396934,0.00039038932300172746,0.0017571249045431614,-0.007551167160272598
0.0014030822785571218,-0.005922142416238785,-0.001064584357663989,0.0003675992484204471,0.0017031528986990452,-0.007893629372119904
0.0011769492411985993,-0.005543333012610674,-0.0010334893595427275,0.00034732549102045596,0.0017384643433615565,-0.008295227773487568
0.0009668548591434956,-0.00591172045096755,-0.0011098537361249328,0.00032917122007347643,0.0016459424514323473,-0.007940327748656273
0.0009543181513436139,-0.005491564050316811,-0.0011684230994433165,0.00031282176496461034,0.0018645701929926872,-0.008025131188333035
0.0007776296115480363,-0.005473517347127199,-0.0011345075909048319,0.0002845551061909646,0.0021205833181738853,-0.007871313020586967
0.0008465008577331901,-0.005466229747980833,-0.0010872399434447289,0.0002722553617786616,0.002380670979619026,-0.007876353338360786
0.0009020855650305748,-0.005651239771395922,-0.0010170358000323176,0.0002609753573779017,0.002311374293640256,-0.00769773917272687
0.0018439525738358498,-0.005399078596383333,-0.0010096968617290258,0.0002505917800590396,0.0022253559436649084,-0.008691545575857162
0.0018439525738358498,-0.005399078596383333,-0.0010096968617290258,0.0002505917800590396,0.0022253559436649084,-0.008691545575857162
0.0016866951482370496,-0.004906878806650639,-0.0010040573542937636,0.00024100663722492754,0.001991734839975834,-0.008788678795099258
0.001527277985587716,-0.004786383826285601,-0.0012109042145311832,0.00022387492936104536,0.0017362803919240832,-0.008654419332742691
0.001527277985587716,-0.004786383826285601,-0.0012109042145311832,0.00022387492936104536,0.0017362803919240832,-0.008654419332742691
0.0014175089308992028,-0.005419247318059206,-0.0012007351033389568,0.0002161921001970768,0.001710729324258864,-0.008655030280351639
0.0013341364683583379,-0.005211095791310072,-0.0011643827892839909,0.00020915415370836854,0.0016988589195534587,-0.008505651727318764
0.0014414929319173098,-0.004918416030704975,-0.001328031881712377,7.62502895668149e-05,0.0017811505822464824,-0.008220256306231022
0.0023658948484808207,-0.005274794064462185,-0.001291615073569119,6.532725092256442e-05,0.0018063966417685151,-0.008227738551795483
0.0025105003733187914,-0.004583131056278944,-0.0012372880009934306,6.25245229457505e-05,0.002203695010393858,-0.008208963088691235
0.002387044485658407,-0.004578397609293461,-0.0013662632554769516,6.039158324711025e-05,0.002468634629622102,-0.008194823749363422
0.00211186776868999,-0.004663804545998573,-0.0013356513809412718,3.308212762931362e-05,0.0024010478518903255,-0.00883146096020937
0.002041052095592022,-0.004996380768716335,-0.0012781779514625669,2.8548263799166307e-05,0.002157243900001049,-0.008416485972702503
0.0023217813577502966,-0.004973050206899643,-0.001398567226715386,2.7449677872937173e-05,0.0020423000678420067,-0.00854826346039772
0.0025680779945105314,-0.004917771555483341,-0.0013125352561473846,3.5176767596567515e-06,0.0020137166138738394,-0.00842776708304882
0.0025487560778856277,-0.004910488612949848,-0.0012511658715084195,2.2967915924709814e-07,0.0019943909719586372,-0.0086886677891016
0.002794508822262287,-0.005080195143818855,-0.0013322103768587112,1.4996407671219458e-08,0.002360063372179866,-0.008861741982400417
0.002575648482888937,-0.004800097085535526,-0.0013841033214703202,9.791581989659903e-10,0.002208640333265066,-0.008765866048634052
0.002436162903904915,-0.005432242061942816,-0.0014025070704519749,6.393204021737375e-11,0.0021369101013988256,-0.008142602629959583
0.0026834483724087477,-0.005337192676961422,-0.0013614350464195013,4.174304998882938e-12,0.0019423775374889374,-0.00847955234348774
0.0028942797798663378,-0.004712939262390137,-0.0012740896781906486,-0.00025632473989389837,0.001818722696043551,-0.008519441820681095
0.0031206950079649687,-0.004868881311267614,-0.001210808870382607,-0.0012780082179233432,0.001739064697176218,-0.008569592610001564
0.003275448689237237,-0.00547232897952199,-0.0011825143592432141,-0.0019580081570893526,0.001851791748777032,-0.00815429538488388
0.0030444397125393152,-0.005240241996943951,-0.0011311806738376617,-0.0023585413582623005,0.001975574530661106,-0.008619807660579681
0.0032084337435662746,-0.004927259869873524,-0.001127314055338502,-0.003023123135790229,0.0020539541728794575,-0.00841323472559452
0.0033114664256572723,-0.0051159788854420185,-0.0011664259945973754,-0.0033637380693107843,0.0019246746087446809,-0.00852359551936388
0.0036361978854984045,-0.0052492087706923485,-0.0012325600255280733,-0.0038238344714045525,0.0017228800570592284,-0.008993800729513168
0.00374539103358984,-0.004394244868308306,-0.001262910314835608,-0.004174164496362209,0.00182256696280092,-0.008652323856949806
0.00374539103358984,-0.004394244868308306,-0.001262910314835608,-0.004174164496362209,0.00182256696280092,-0.008652323856949806
0.004082385916262865,-0.004558481741696596,-0.0013388032093644142,-0.005048017483204603,0.002235446125268936,-0.008407119661569595
0.00379878468811512,-0.005249938927590847,-0.0012861904688179493,-0.00562588544562459,0.002541228663176298,-0.009553855285048485
0.00379878468811512,-0.005249938927590847,-0.0012861904688179493,-0.00562588544562459,0.002541228663176298,-0.009553855285048485
0.0043855286203324795,-0.005044775549322367,-0.0014004972763359547,-0.005757252220064402,0.00230317167006433,-0.008675468154251575
0.004721504636108875,-0.004792687948793173,-0.0013628994347527623,-0.006153295747935772,0.0021739837247878313,-0.008625658228993416
0.004452805500477552,-0.004333488643169403,-0.001535356161184609,-0.006329066585749388,0.0021151192486286163,-0.008670383132994175
0.0045995404943823814,-0.004198323469609022,-0.001577952760271728,-0.007024429738521576,0.002266927622258663,-0.008727369830012321
0.004384014755487442,-0.004514533095061779,-0.001621896866708994,-0.0067985341884195805,0.002607370726764202,-0.009346327744424343
0.004935103934258223,-0.004615634214133024,-0.001518245437182486,-0.006374298129230738,0.0024111869279295206,-0.008773775771260262
0.005542381200939417,-0.004642341285943985,-0.0014534177025780082,-0.006478929426521063,0.002280340064316988,-0.00924578309059143
0.005097565241158009,-0.0041357167065143585,-0.001682425499893725,-0.006691710092127323,0.002036900259554386,-0.008893714286386967
0.0047033862210810184,-0.004036210011690855,-0.0016030273400247097,-0.00720574427396059,0.0018598652677610517,-0.009020778350532055
0.005192069336771965,-0.003984574228525162,-0.0019321435829624534,-0.007957248017191887,0.0019378886790946126,-0.00885358639061451
0.005318860989063978,-0.004064411856234074,-0.0017625512555241585,-0.007130368147045374,0.0021766035351902246,-0.009030668064951897
0.005786257330328226,-0.004805911798030138,-0.0017814184539020061,-0.006512874271720648,0.002481424482539296,-0.009300957433879375
0.0056055099703371525,-0.004459957592189312,-0.0017309014219790697,-0.007045187521725893,0.0026886819396167994,-0.00902651995420456
0.0059234388172626495,-0.004558026324957609,-0.001592493150383234,-0.0080459238961339,0.002654308220371604,-0.00943845696747303
0.0056662228889763355,-0.004273083060979843,-0.0016403364716097713,-0.00819757767021656,0.00263268337585032,-0.00953286699950695
0.005809417925775051,-0.004015086684376001,-0.0017195392865687609,-0.007731103803962469,0.0023708075750619173,-0.009242122992873192
0.006195660214871168,-0.00410021748393774,-0.001997958403080702,-0.008047492243349552,0.002431237604469061,-0.009291907772421837
0.0062430743128061295,-0.003956063184887171,-0.00212507089599967,-0.00867587048560381,0.002675199182704091,-0.00903407298028469
0.006255233660340309,-0.0037711686454713345,-0.002061153994873166,-0.008495228365063667,0.002967003034427762,-0.009387717582285404
0.0066622537560760975,-0.0037854050751775503,-0.0020600331481546164,-0.008411545306444168,0.002827858319506049,-0.00897386483848095
0.006873969454318285,-0.004271280020475388,-0.002003900008276105,-0.008539224974811077,0.0027424239087849855,-0.009136918000876904
0.0074419621378183365,-0.004014645703136921,-0.0020089885219931602,-0.0088267270475626,0.0025177025236189365,-0.00943350326269865
0.006676259450614452,-0.0038849287666380405,-0.0019659518729895353,-0.008306398056447506,0.002410165499895811,-0.009944537654519081
0.0068019237369298935,-0.003821990918368101,-0.0020050075836479664,-0.008633569814264774,0.0028900986071676016,-0.009456446394324303
0.006879789289087057,-0.00383750069886446,-0.00221766228787601,-0.0088562136515975,0.0029332416597753763,-0.009110572747886181
0.007214060053229332,-0.0037829745560884476,-0.0020218936260789633,-0.009347549639642239,0.0028036392759531736,-0.009627594612538815
0.007508610375225544,-0.003703893395140767,-0.002100341720506549,-0.008997995406389236,0.002559114247560501,-0.010471442714333534
0.006748329848051071,-0.0037142415530979633,-0.0019502710783854127,-0.00854511745274067,0.0024684180971235037,-0.009838183410465717
0.007064906880259514,-0.004055952187627554,-0.002012616954743862,-0.009423266164958477,0.002313796430826187,-0.009379677474498749
0.0073770321905612946,-0.003615178167819977,-0.0019805936608463526,-0.010182642377912998,0.002486848272383213,-0.0094226635992527
0.0073770321905612946,-0.003615178167819977,-0.0019805936608463526,-0.010182642377912998,0.002486848272383213,-0.0094226635992527
0.007040889468044043,-0.003544705454260111,-0.0021758016664534807,-0.009631967172026634,0.002427308587357402,-0.009190942160785198
0.007048734463751316,-0.003247529035434127,-0.0022217007353901863,-0.00944461952894926,0.002632302464917302,-0.00948537327349186
0.007966852746903896,-0.00337274675257504,-0.002184652490541339,-0.010258568450808525,0.00268466304987669,-0.009669429622590542
0.007816064171493053,-0.003446787828579545,-0.0020414746832102537,-0.009989002719521523,0.0024286997504532337,-0.009617200121283531
0.008032944053411484,-0.0033540530130267143,-0.0018062886083498597,-0.009987861849367619,0.0024300296790897846,-0.00969094131141901
0.007705898489803076,-0.0034089109394699335,-0.0016542619559913874,-0.009417732246220112,0.002315117511898279,-0.009703102521598339
0.008128582499921322,-0.003275288501754403,-0.0016956529580056667,-0.010373672470450401,0.0027991358656436205,-0.009641832672059536
0.008298806846141815,-0.003578770672902465,-0.0018180275801569223,-0.011339378543198109,0.002957969903945923,-0.009749841876327991
0.007981378585100174,-0.003350747749209404,-0.0019263924332335591,-0.010454748757183552,0.003335804445669055,-0.00992367323487997
0.00951031967997551,-0.0031144137028604746,-0.0019346998305991292,-0.009344258345663548,0.003316770773380995,-0.00966731272637844
0.008492454886436462,-0.003087882651016116,-0.001977328211069107,-0.009752036072313786,0.00270983949303627,-0.010364770889282227
0.007825018838047981,-0.003168103750795126,-0.001790680456906557,-0.009898741729557514,0.0025308586191385984,-0.00989758875221014
0.008307142183184624,-0.002986777340993285,-0.0018787316512316465,-0.009692845866084099,0.002514550229534507,-0.009461275301873684
0.008685048669576645,-0.0030621036421507597,-0.0017493674531579018,-0.00988517701625824,0.0024917982518672943,-0.009333230555057526
0.00875871628522873,-0.002881811698898673,-0.00194003083743155,-0.010078758001327515,0.0025761653669178486,-0.009901221841573715
0.008366281166672707,-0.002881578402593732,-0.001799697638489306,-0.010361654683947563,0.002751330379396677,-0.010242920368909836
0.008498398587107658,-0.002800797577947378,-0.0019996112678200006,-0.010341279208660126,0.003039594739675522,-0.010101729072630405
0.008963217958807945,-0.0028106383979320526,-0.0017885403940454125,-0.010424169711768627,0.0030883916188031435,-0.010698691010475159
0.00885508768260479,-0.0025996998883783817,-0.0016936945030465722,-0.010899357497692108,0.0029929608572274446,-0.010077293962240219
0.009055884554982185,-0.002447554375976324,-0.0017690309323370457,-0.011357784271240234,0.002759873867034912,-0.009654642082750797
0.009226464666426182,-0.002462406177073717,-0.002186943544074893,-0.010802097618579865,0.0026313834823668003,-0.009633761830627918
0.00927059631794691,-0.0023896428756415844,-0.0020229676738381386,-0.01168521586805582,0.002623549895361066,-0.0095391059294343
0.009656907059252262,-0.002984439954161644,-0.001976527739316225,-0.011345665901899338,0.0028415718115866184,-0.010360542684793472
0.009175987914204597,-0.0025639624800533056,-0.001952768536284566,-0.01176335196942091,0.0031337514519691467,-0.01006318349391222
0.009597058407962322,-0.002330758376047015,-0.001812468864955008,-0.011522062122821808,0.003288197098299861,-0.010145703330636024
0.009470511227846146,-0.00236657727509737,-0.0020444581750780344,-0.011363990604877472,0.0031790072098374367,-0.010176384821534157
0.009470511227846146,-0.00236657727509737,-0.0020444581750780344,-0.011363990604877472,0.0031790072098374367,-0.010176384821534157
0.00944257527589798,-0.0022870246320962906,-0.002338429680094123,-0.011429458856582642,0.003051507519558072,-0.00976866576820612
0.009307787753641605,-0.0025418114382773638,-0.0022764671593904495,-0.010612250305712223,0.0030597129371017218,-0.009902521967887878
0.009691348299384117,-0.0022552243899554014,-0.002251689089462161,-0.010908246971666813,0.00297368923202157,-0.010288694873452187
0.009719732217490673,-0.002334799151867628,-0.0021431001368910074,-0.01105972845107317,0.0029156962409615517,-0.009993071667850018
0.009432334452867508,-0.0022250686306506395,-0.002267706673592329,-0.010679277591407299,0.0027461813297122717,-0.009817183949053288
0.009084092453122139,-0.0019134973408654332,-0.0022089381236582994,-0.011564877815544605,0.002674385206773877,-0.009777997620403767
0.007614344824105501,-0.0020342296920716763,-0.002365868305787444,-0.010928689502179623,0.0027005565352737904,-0.00994180142879486
0.007056984584778547,-0.0020068963058292866,-0.002332669449970126,-0.011118699796497822,0.00285349041223526,-0.009923144243657589
0.007767789531499147,-0.0021190436091274023,-0.002192216692492366,-0.01148890145123005,0.0028065843507647514,-0.01024649292230606
0.008405845612287521,-0.0020542379934340715,-0.002072152215987444,-0.01072644256055355,0.0030083649326115847,-0.009872538968920708
0.008427994325757027,-0.001782649545930326,-0.001999466447159648,-0.010897163301706314,0.0033987141214311123,-0.009700297378003597
0.00846889428794384,-0.0017765775555744767,-0.0021314045879989862,-0.011613366194069386,0.0036911414936184883,-0.00993993692100048
0.0080103799700737,-0.0016002656193450093,-0.0020023088436573744,-0.011474073864519596,0.0033569112420082092,-0.010494577698409557
0.008062358014285564,-0.001482971478253603,-0.002406412037089467,-0.01161842979490757,0.003214940195903182,-0.010125817731022835
0.008094585500657558,-0.0013534348690882325,-0.002348601818084717,-0.011465144343674183,0.0032572485506534576,-0.009820413775742054
0.008350146003067493,-0.0012697882484644651,-0.0022727344185113907,-0.012006445787847042,0.0031563062220811844,-0.009904155507683754
0.00859634019434452,-0.0011217222781851888,-0.0020751492120325565,-0.012109958566725254,0.0031622382812201977,-0.010332142934203148
0.00835736095905304,-0.0010570125887170434,-0.0020001139491796494,-0.012070705182850361,0.002885435475036502,-0.009364264085888863
0.008214217610657215,-0.0010652139317244291,-0.0021964111365377903,-0.012068814598023891,0.0024495492689311504,-0.00960382167249918
0.008858267217874527,-0.001011220971122384,-0.0022450038231909275,-0.012391965836286545,0.0022427828516811132,-0.010499045252799988
0.008816272020339966,-0.0009224128443747759,-0.0024365249555557966,-0.012892189435660839,0.002390568843111396,-0.009939481504261494
0.009714185260236263,-0.0009408017504028976,-0.002380883088335395,-0.012410433031618595,0.002909541828557849,-0.00984667893499136
0.008648129180073738,-0.000916554476134479,-0.0023346287198364735,-0.012604324147105217,0.00353824021294713,-0.010242941789329052
0.009290745481848717,-0.0007975890184752643,-0.002563600428402424,-0.012741715647280216,0.0037682445254176855,-0.0102316839620471
0.009255391545593739,-0.0006950460956431925,-0.0024960695300251245,-0.01328335702419281,0.0037011676467955112,-0.010045346803963184
0.009881173260509968,-0.0005526758031919599,-0.002319694496691227,-0.013212442398071289,0.003127995179966092,-0.010538014583289623
0.00963212177157402,-0.0005013422924093902,-0.002213724423199892,-0.013629705645143986,0.002991286339238286,-0.010326141491532326
0.009674237109720707,-0.0004587369039654732,-0.0023532123304903507,-0.013663195073604584,0.0030057155527174473,-0.010705661959946156
0.00998979713767767,-0.0004228067409712821,-0.002580257598310709,-0.01427902840077877,0.0031187469139695168,-0.012067429721355438
0.010287041775882244,-0.000392100220778957,-0.0024430390913039446,-0.014173886738717556,0.0028925780206918716,-0.010364859364926815
0.009899054653942585,-0.00036555042606778443,-0.0025436661671847105,-0.014659474603831768,0.0030021548736840487,-0.010360307060182095
0.009899054653942585,-0.00036555042606778443,-0.0025436661671847105,-0.014659474603831768,0.0030021548736840487,-0.010360307060182095
0.010667888447642326,-0.0003423689922783524,-0.002421132056042552,-0.014689856208860874,0.0030010342597961426,-0.010814600624144077
0.01114522572606802,-0.00032195367384701967,-0.0023750034160912037,-0.014881907030940056,0.0031035279389470816,-0.011191354133188725
0.010013770312070847,-0.0003038361028302461,-0.002602038672193885,-0.014373186975717545,0.003363666357472539,-0.01113258395344019
0.01000958401709795,-0.00028765012393705547,-0.002472457941621542,-0.014656905084848404,0.003315170295536518,-0.011180096305906773
0.010297204367816448,-0.0002731004497036338,-0.0024025817401707172,-0.015158488415181637,0.003199162194505334,-0.010749890469014645
0.010465855710208416,-0.00023155212693382055,-0.0026008805725723505,-0.01569557562470436,0.003156440332531929,-0.010755264200270176
0.010706390254199505,-0.00020687749201897532,-0.0024027314502745867,-0.015923338010907173,0.0030833843629807234,-0.010843553580343723
0.010991503484547138,-0.0001716827682685107,-0.002363519510254264,-0.015726009383797646,0.0035016979090869427,-0.01080909464508295
0.011618279851973057,0.0001352101971860975,-0.0027430676855146885,-0.016119416803121567,0.0038668212946504354,-0.011805970221757889
0.01161513477563858,0.004449460189789534,-0.00292012095451355,-0.01618734747171402,0.0038851380813866854,-0.011589862406253815
0.011485330760478973,0.0032602809369564056,-0.0029045974370092154,-0.01672382652759552,0.0038121510297060013,-0.0112094571813941
0.01142590120434761,0.0018309018341824412,-0.0026520516257733107,-0.01637597754597664,0.0038791110273450613,-0.011390792205929756
0.011052261106669903,0.0008438965305685997,-0.002614035503938794,-0.01667078398168087,0.003994164057075977,-0.011647741310298443
0.011054075323045254,0.0005815778858959675,-0.0028753415681421757,-0.0171000137925148,0.003528931410983205,-0.01150626502931118
0.011421840637922287,0.0006179724587127566,-0.0027972881216555834,-0.01715209148824215,0.003226747503504157,-0.011493395082652569
0.011286646127700806,0.0004385986248962581,-0.002763245953246951,-0.017348552122712135,0.0031016587745398283,-0.011654932051897049
0.011575274169445038,0.0025089525151997805,-0.002756963949650526,-0.017052216455340385,0.003123779082670808,-0.011509899981319904
0.011526190675795078,0.0024509085342288017,-0.0024286985863000154,-0.017153998836874962,0.003462366294115782,-0.011574828065931797
0.011067173443734646,0.0018554890993982553,-0.0025657047517597675,-0.016712471842765808,0.0037444191984832287,-0.011521684005856514
0.011534934863448143,0.0012945475755259395,-0.003027839818969369,-0.016962870955467224,0.0035466267727315426,-0.011793707497417927
0.011383247561752796,0.00041136614163406193,-0.00315343146212399,-0.017926521599292755,0.003507598303258419,-0.01198337972164154
0.012062817811965942,0.0005944563308730721,-0.003062972566112876,-0.017989182844758034,0.0036472559440881014,-0.011731520295143127
0.01264538150280714,0.0008915174403227866,-0.0027717703487724066,-0.018041033297777176,0.0039025978185236454,-0.011433485895395279
0.011826487258076668,0.0022287387400865555,-0.0030004484578967094,-0.018127860501408577,0.003996188752353191,-0.011674939654767513
0.011337930336594582,0.0019455142319202423,-0.0030971523374319077,-0.01855136826634407,0.003926685079932213,-0.011675780639052391
0.011813586577773094,0.0015518581494688988,-0.0031485918443650007,-0.017895247787237167,0.0038060019724071026,-0.011520461179316044
0.012057069689035416,0.001309497281908989,-0.003113547107204795,-0.01796850562095642,0.0037240658421069384,-0.01163457427173853
0.011373452842235565,0.0010310267098248005,-0.0031273323111236095,-0.0187612883746624,0.003722634632140398,-0.011548127047717571
0.011373452842235565,0.0010310267098248005,-0.0031273323111236095,-0.0187612883746624,0.003722634632140398,-0.011548127047717571
0.011712874285876751,0.0011511645279824734,-0.0030448753386735916,-0.018915539607405663,0.004057751502841711,-0.012118162587285042
0.01131064910441637,0.0018691957229748368,-0.0030092522501945496,-0.018653234466910362,0.004250092897564173,-0.011807996779680252
0.011568254791200161,0.002251993864774704,-0.0028864729683846235,-0.01897352747619152,0.004080429673194885,-0.011725137941539288
0.01230326946824789,0.002294411649927497,-0.0031996406614780426,-0.019314324483275414,0.003936365246772766,-0.011720329523086548
0.01160975731909275,0.00203175307251513,-0.0034165512770414352,-0.020081158727407455,0.003914194647222757,-0.011854237876832485
0.011709089390933514,0.0019008992239832878,-0.003385604126378894,-0.02071928232908249,0.003930677659809589,-0.012127956375479698
0.011240779422223568,0.0017905322602018714,-0.0030894270166754723,-0.01965668611228466,0.003960003610700369,-0.011938073672354221
0.011931034736335278,0.0019246047595515847,-0.0030110415536910295,-0.01968643069267273,0.004184453748166561,-0.011968802660703659
0.011986141093075275,0.0023645658511668444,-0.002936533885076642,-0.019642146304249763,0.004113702103495598,-0.011799716390669346
0.011433977633714676,0.002363939769566059,-0.0031663833651691675,-0.01996776834130287,0.004255496431142092,-0.011833884753286839
0.011865907348692417,0.002477118046954274,-0.003229893743991852,-0.019857749342918396,0.004129301756620407,-0.012482987716794014
0.011840476654469967,0.0021799905225634575,-0.0031025332864373922,-0.02035389095544815,0.00448277872055769,-0.012235304340720177
0.011867704801261425,0.002271460834890604,-0.002785680815577507,-0.020364433526992798,0.004205717705190182,-0.012360112741589546
0.011834489181637764,0.0024090707302093506,-0.0026698734145611525,-0.020202523097395897,0.004355849232524633,-0.012575251050293446
0.011549566872417927,0.0023684201296418905,-0.0029066770803183317,-0.020248139277100563,0.0041916402988135815,-0.012317825108766556
0.012148089706897736,0.0026631320361047983,-0.00328233209438622,-0.02071077935397625,0.004008133430033922,-0.012556028552353382
0.011397890746593475,0.0028108288533985615,-0.0035696944687515497,-0.02047058194875717,0.0038656832184642553,-0.012390458025038242
0.011676974594593048,0.002959987847134471,-0.0033025641459971666,-0.0192535612732172,0.003793966257944703,-0.012672063894569874
0.011714793741703033,0.0034824355971068144,-0.0030675544403493404,-0.021361172199249268,0.004021503962576389,-0.012363207526504993
0.011526183225214481,0.004206616897135973,-0.0028635868802666664,-0.021862957626581192,0.003979452885687351,-0.012514092959463596
0.011749123223125935,0.00433619087561965,-0.003201819257810712,-0.021327868103981018,0.0038424856029450893,-0.012501559220254421
0.011508974246680737,0.004057524260133505,-0.003501800587400794,-0.021231504157185555,0.0038598934188485146,-0.012779894284904003
0.012087182141840458,0.003912679851055145,-0.0034169091377407312,-0.021587679162621498,0.004283813759684563,-0.012568936683237553
0.011618313379585743,0.004165770951658487,-0.0037717241793870926,-0.022257884964346886,0.00393259059637785,-0.012584280222654343
0.01248899195343256,0.0041378941386938095,-0.003504859982058406,-0.022519400343298912,0.0034341388382017612,-0.012413284741342068
0.011497537605464458,0.0040830569341778755,-0.00353214587084949,-0.022531555965542793,0.004041722510010004,-0.01332833617925644
0.011497537605464458,0.0040830569341778755,-0.00353214587084949,-0.022531555965542793,0.004041722510010004,-0.01332833617925644
0.012048540636897087,0.004517466761171818,-0.003683585673570633,-0.02198917232453823,0.0041803596541285515,-0.01219017244875431
0.01212600152939558,0.005200178362429142,-0.0038643376901745796,-0.021855264902114868,0.0044452655129134655,-0.012557640671730042
0.013636345975100994,0.00521873589605093,-0.003965461626648903,-0.022155886515975,0.004620946478098631,-0.01279214583337307
0.01193641871213913,0.005366330500692129,-0.00348510779440403,-0.022966234013438225,0.00481907045468688,-0.012930234894156456
0.011792579665780067,0.005091031547635794,-0.0039699384942650795,-0.023118071258068085,0.005240771919488907,-0.013154746033251286
0.01237930916249752,0.005302160046994686,-0.0042515587992966175,-0.02287321723997593,0.00469805346801877,-0.012976241298019886
0.012227698229253292,0.005611987318843603,-0.004059838596731424,-0.023169290274381638,0.004568804986774921,-0.013501638546586037
0.012682048603892326,0.006628347560763359,-0.0038787061348557472,-0.024261975660920143,0.004381528589874506,-0.013177579268813133
0.012195904739201069,0.006761739030480385,-0.003850487293675542,-0.024084506556391716,0.004862705245614052,-0.013177831657230854
0.011926749721169472,0.005965124350041151,-0.003938316833227873,-0.02316708117723465,0.005347339902073145,-0.013050873763859272
0.012428040616214275,0.005757464095950127,-0.00391637347638607,-0.023847008123993874,0.0045981574803590775,-0.013135632500052452
0.012312691658735275,0.005972105544060469,-0.0038504002150148153,-0.02460339479148388,0.0041742026805877686,-0.013297530822455883
0.012686440721154213,0.006795733235776424,-0.004347697831690311,-0.025217920541763306,0.003949903417378664,-0.013415607623755932
0.012174692936241627,0.007082166150212288,-0.004150028340518475,-0.02563297189772129,0.004451695829629898,-0.013062096200883389
0.012474730610847473,0.006819761823862791,-0.004011179786175489,-0.02526789903640747,0.004892848432064056,-0.01355877984315157
0.01253900583833456,0.007140807807445526,-0.003658048575744033,-0.025466399267315865,0.005188672803342342,-0.013986719772219658
0.012584015727043152,0.007579440716654062,-0.003699419554322958,-0.02624310553073883,0.005049875937402248,-0.013901510275900364
0.012791709043085575,0.00752550084143877,-0.004030502866953611,-0.02605399116873741,0.004704056773334742,-0.013862778432667255
0.012537316419184208,0.006989008281379938,-0.00444443104788661,-0.025823431089520454,0.004368824418634176,-0.013234557583928108
0.012856336310505867,0.007297752425074577,-0.004213165957480669,-0.02642897330224514,0.0045612407848238945,-0.01294606551527977
0.012568408623337746,0.008114084601402283,-0.004507442936301231,-0.027047934010624886,0.004694165196269751,-0.013131271116435528
0.012723865918815136,0.008021119050681591,-0.004160780925303698,-0.026784652844071388,0.005056749563664198,-0.01372942142188549
0.012911182828247547,0.008239848539233208,-0.004015537444502115,-0.027020711451768875,0.005031504202634096,-0.013745754025876522
0.012859919108450413,0.009553628042340279,-0.0041359104216098785,-0.02742568589746952,0.005190074909478426,-0.013938899151980877
0.012775293551385403,0.007740778382867575,-0.0040663061663508415,-0.02718282863497734,0.004583502653986216,-0.013862449675798416
0.012775293551385403,0.007740778382867575,-0.0040663061663508415,-0.02718282863497734,0.004583502653986216,-0.013862449675798416
0.013103028759360313,0.008089725859463215,-0.00394836999475956,-0.027267834171652794,0.004466340411454439,-0.013646595180034637
0.012706275098025799,0.008952729403972626,-0.004354445263743401,-0.027194051072001457,0.004683465231209993,-0.013931558467447758
0.013220183551311493,0.009206962771713734,-0.004230125341564417,-0.02685892954468727,0.005243236664682627,-0.014080258086323738
0.01315300539135933,0.008916491642594337,-0.0040446375496685505,-0.027404822409152985,0.005125111900269985,-0.01411817129701376
0.013594791293144226,0.00902749877423048,-0.0039196740835905075,-0.027733460068702698,0.004796173889189959,-0.01422963012009859
0.013168741017580032,0.009692288003861904,-0.004169308114796877,-0.027997246012091637,0.00453482661396265,-0.014249037019908428
0.014231862500309944,0.009957203641533852,-0.004090015776455402,-0.028307173401117325,0.004320706240832806,-0.013957314193248749
0.014472952112555504,0.009896096773445606,-0.003801673650741577,-0.028693227097392082,0.004562093876302242,-0.013683851808309555
0.014816800132393837,0.010511892847716808,-0.0037195866461843252,-0.02873898111283779,0.005102706607431173,-0.013873259536921978
0.014414195902645588,0.009962771087884903,-0.004754041787236929,-0.028924450278282166,0.0054851011373102665,-0.01375474315136671
0.014767915941774845,0.010169838555157185,-0.00445879390463233,-0.028864771127700806,0.005271748173981905,-0.013920040801167488
0.014582687988877296,0.010718360543251038,-0.003936168737709522,-0.028835028409957886,0.004836107604205608,-0.01392871793359518
0.014798871241509914,0.009914633817970753,-0.004013604484498501,-0.029294712468981743,0.004264409188181162,-0.014028753153979778
0.01493634283542633,0.01092270016670227,-0.004156663082540035,-0.029197832569479942,0.004722847603261471,-0.014140721410512924
0.015539169311523438,0.01084790751338005,-0.004089009016752243,-0.02924591489136219,0.005189588293433189,-0.01411257404834032
0.015176407061517239,0.010221553035080433,-0.004012242890894413,-0.029205501079559326,0.005900020711123943,-0.014257362112402916
0.01587836816906929,0.011194732040166855,-0.004368954338133335,-0.029364321380853653,0.0055905599147081375,-0.015039186924695969
0.015479625202715397,0.011099914088845253,-0.004416994750499725,-0.029921092092990875,0.00535411573946476,-0.014049666933715343
0.01592244952917099,0.011267049238085747,-0.00443860562518239,-0.03018459863960743,0.004987969994544983,-0.01379197183996439
0.015235081315040588,0.011393868364393711,-0.0037822499871253967,-0.03026541694998741,0.0051667396910488605,-0.014126216992735863
0.015153327956795692,0.01085919700562954,-0.0035538373049348593,-0.03027401864528656,0.005395205691456795,-0.014707568101584911
0.015478268265724182,0.011961305513978004,-0.004243528936058283,-0.030740540474653244,0.0052834986709058285,-0.014781507663428783
0.015710562467575073,0.011246240697801113,-0.00411824369803071,-0.030666492879390717,0.005413310136646032,-0.014731848612427711
0.01585991308093071,0.011059526354074478,-0.004391188733279705,-0.031058764085173607,0.005266700871288776,-0.014561467804014683
0.015815366059541702,0.011991594918072224,-0.004091780167073011,-0.03246035799384117,0.005081890616565943,-0.014359306544065475
0.01572290249168873,0.012012460269033909,-0.0038563378620892763,-0.03187039494514465,0.005318650975823402,-0.014097251929342747
0.016016574576497078,0.012479652650654316,-0.00415011215955019,-0.030139584094285965,0.0060023292899131775,-0.014674054458737373
0.016093552112579346,0.011874977499246597,-0.004259651992470026,-0.03052584081888199,0.005288040265440941,-0.014771480113267899
0.01717674918472767,0.012841551564633846,-0.004407802596688271,-0.031473878771066666,0.004825099837034941,-0.014879843220114708
0.016974760219454765,0.012937229126691818,-0.004059980623424053,-0.03119962103664875,0.004997777286916971,-0.014970215037465096
0.016232378780841827,0.013384892605245113,-0.004466469399631023,-0.03185485303401947,0.005097676068544388,-0.015029720962047577
0.016985105350613594,0.012520660646259785,-0.004193281754851341,-0.03201276808977127,0.00531688891351223,-0.015181819908320904
0.016388705000281334,0.012909703887999058,-0.004421608988195658,-0.030765067785978317,0.005502304062247276,-0.015524683520197868
0.016388705000281334,0.012909703887999058,-0.004421608988195658,-0.030765067785978317,0.005502304062247276,-0.015524683520197868
0.016827989369630814,0.012639353983104229,-0.004186420235782862,-0.03086964227259159,0.006084758322685957,-0.015277580358088017
0.01672334037721157,0.012881363742053509,-0.004240084905177355,-0.03257068619132042,0.005845014471560717,-0.01584683358669281
0.016974978148937225,0.011734005995094776,-0.003990297671407461,-0.03259554132819176,0.0058403220027685165,-0.01575303263962269
0.017498262226581573,0.011207842268049717,-0.004323137924075127,-0.03256229683756828,0.005712724756449461,-0.015554316341876984
0.01733909361064434,0.012037251144647598,-0.004664184059947729,-0.033017177134752274,0.005585273262113333,-0.01505853608250618
0.01728709600865841,0.011670881882309914,-0.004462142940610647,-0.03261755406856537,0.005309717264026403,-0.015578596852719784
0.017301619052886963,0.012162442319095135,-0.0044210790656507015,-0.03276892751455307,0.00581606850028038,-0.015558656305074692
0.01783478632569313,0.01179958414286375,-0.004301179200410843,-0.03292477875947952,0.0054549844935536385,-0.01555849052965641
0.017535492777824402,0.011138159781694412,-0.004094114992767572,-0.03353528305888176,0.005296723451465368,-0.015572587959468365
0.017135297879576683,0.012003916315734386,-0.0034753691870719194,-0.03369744122028351,0.005428895354270935,-0.01567213609814644
0.01784437708556652,0.011298540979623795,-0.003819623263552785,-0.03324120119214058,0.005122276954352856,-0.01593434065580368
0.01801578514277935,0.01179434172809124,-0.004204532131552696,-0.034869562834501266,0.0054547893814742565,-0.015875985845923424
0.017600880935788155,0.01136819552630186,-0.004506648518145084,-0.035682763904333115,0.005321198608726263,-0.015949256718158722
0.01804736629128456,0.01166983786970377,-0.003705918788909912,-0.03374817594885826,0.005355550907552242,-0.01581634394824505
0.01804736629128456,0.01166983786970377,-0.003705918788909912,-0.03374817594885826,0.005355550907552242,-0.01581634394824505
0.018461981788277626,0.011590596288442612,-0.0035414271987974644,-0.03540269285440445,0.005736679304391146,-0.01561385951936245
0.01868426240980625,0.0115344924852252,-0.004332151263952255,-0.03600876405835152,0.005522191058844328,-0.01600705273449421
0.018370652571320534,0.011682722717523575,-0.0042579262517392635,-0.036989208310842514,0.005997586529701948,-0.016372233629226685
0.018971038982272148,0.01184525154531002,-0.0044968524016439915,-0.037481099367141724,0.005893961060792208,-0.017408113926649094
0.018747657537460327,0.011627336964011192,-0.00427961116656661,-0.03475043177604675,0.005802005995064974,-0.01576302945613861
0.018931835889816284,0.011908959597349167,-0.004168039187788963,-0.03588492423295975,0.00589101854711771,-0.0164813082665205
0.01909824088215828,0.01158422976732254,-0.004542520735412836,-0.03648789972066879,0.005935895722359419,-0.016807330772280693
0.01917307823896408,0.011589545756578445,-0.004794023465365171,-0.036839887499809265,0.0060722967609763145,-0.01708495430648327
0.019695769995450974,0.012153904885053635,-0.004956885240972042,-0.036315642297267914,0.0064413053914904594,-0.01683947630226612
0.01918899267911911,0.011884699575603008,-0.004801209084689617,-0.036760520190000534,0.005953534971922636,-0.016691042110323906
0.01918899267911911,0.011884699575603008,-0.004801209084689617,-0.036760520190000534,0.005953534971922636,-0.016691042110323906
0.019162602722644806,0.012204925529658794,-0.004683332983404398,-0.036566879600286484,0.006005822215229273,-0.01707388646900654
0.01922806352376938,0.011977097019553185,-0.004176870454102755,-0.036963433027267456,0.006214126478880644,-0.01658058911561966
0.019309861585497856,0.011984768323600292,-0.004465323872864246,-0.03719024360179901,0.0058570061810314655,-0.016571909189224243
0.019730249419808388,0.012673156335949898,-0.0047441148199141026,-0.038386400789022446,0.0062747253105044365,-0.016717130318284035
0.019940117374062538,0.012066091410815716,-0.004523282404989004,-0.03792368620634079,0.005996130406856537,-0.01740822196006775
0.019717955961823463,0.012673248536884785,-0.004381553269922733,-0.03790874406695366,0.006103559397161007,-0.017217369750142097
0.01955319195985794,0.01199076883494854,-0.004456560593098402,-0.03818706050515175,0.006136549636721611,-0.016836462542414665
0.01976904459297657,0.0123958270996809,-0.00456863222643733,-0.03811300918459892,0.0059304917231202126,-0.016951879486441612
0.020104464143514633,0.012488712556660175,-0.00422162190079689,-0.03855519741773605,0.006031887140125036,-0.016545245423913002
0.01966654509305954,0.012605374678969383,-0.004454755689948797,-0.03891560435295105,0.0057960255071520805,-0.016876164823770523
0.019861435517668724,0.012810532003641129,-0.004532345570623875,-0.039010804146528244,0.006060302723199129,-0.017065932974219322
0.020166637375950813,0.012597438879311085,-0.004442299250513315,-0.038277942687273026,0.006260132882744074,-0.017465371638536453
0.02027871273458004,0.013123087584972382,-0.0043440996669232845,-0.03846995532512665,0.006317663472145796,-0.017776569351553917
0.020195066928863525,0.01300361379981041,-0.00455140694975853,-0.0378991924226284,0.006198048125952482,-0.016971483826637268
0.020183632150292397,0.012911425903439522,-0.0046460493467748165,-0.03803267329931259,0.006036635488271713,-0.016833318397402763
0.02030695602297783,0.012788414023816586,-0.0046522170305252075,-0.03850024193525314,0.005652436055243015,-0.016793737187981606
0.020645661279559135,0.013484971597790718,-0.004663047846406698,-0.03846823796629906,0.005918366368860006,-0.016453007236123085
0.02099411003291607,0.013012281619012356,-0.004630359821021557,-0.038155946880578995,0.005808961112052202,-0.01671379618346691
0.02102346159517765,0.0136134447529912,-0.0046474202536046505,-0.03855866193771362,0.005736454855650663,-0.016667315736413002
0.02043197676539421,0.01496568601578474,-0.004555271938443184,-0.03874689340591431,0.0058584450744092464,-0.01758284866809845
0.0201641283929348,0.012769817374646664,-0.004988354165107012,-0.038112822920084,0.006193274166435003,-0.017501356080174446
0.020680828019976616,0.013191602192819118,-0.004852658603340387,-0.03855608403682709,0.0061852396465837955,-0.01700272224843502
0.02085624821484089,0.013239859603345394,-0.004795894026756287,-0.03881862387061119,0.006138975266367197,-0.01808091066777706
0.02050819806754589,0.013646909967064857,-0.004472923930734396,-0.03769192472100258,0.00556158646941185,-0.017815254628658295
0.020874032750725746,0.013840771280229092,-0.004932777024805546,-0.03851655125617981,0.005810510832816362,-0.01774543523788452
0.021189717575907707,0.013510623015463352,-0.005114089231938124,-0.03907555714249611,0.005682874470949173,-0.017175959423184395
0.021189717575907707,0.013510623015463352,-0.005114089231938124,-0.03907555714249611,0.005682874470949173,-0.017175959423184395
0.021089686080813408,0.014145229011774063,-0.004496126435697079,-0.03953198343515396,0.005787446163594723,-0.01690973900258541
0.02134590782225132,0.013947147876024246,-0.004460739903151989,-0.04070235788822174,0.005990165285766125,-0.016779091209173203
0.02220015786588192,0.014517094008624554,-0.004928257316350937,-0.03935476019978523,0.006228155456483364,-0.016999591141939163
0.020439891144633293,0.014143322594463825,-0.00494495639577508,-0.03886399790644646,0.006161036901175976,-0.01723099872469902
0.020753532648086548,0.01450224220752716,-0.00438931817188859,-0.04062875360250473,0.006015466991811991,-0.017627017572522163
0.021241044625639915,0.01416622195392847,-0.005057657137513161,-0.04128696769475937,0.005859509576112032,-0.017811443656682968
0.021797342225909233,0.014920849353075027,-0.0050341845490038395,-0.04061278700828552,0.0061035677790641785,-0.017675679177045822
0.021462470293045044,0.014458457939326763,-0.004916065372526646,-0.04134311154484749,0.006374375429004431,-0.017460675910115242
0.021266330033540726,0.014582337811589241,-0.0050627076998353004,-0.04171065613627434,0.00631268136203289,-0.01730719953775406
0.02160796709358692,0.01444593071937561,-0.004844901151955128,-0.042063478380441666,0.00634997570887208,-0.01742151938378811
0.02173532359302044,0.015276877209544182,-0.00495364423841238,-0.041909221559762955,0.0068191466853022575,-0.017815394327044487
0.02152257412672043,0.015181206166744232,-0.007288067601621151,-0.042409107089042664,0.006810006685554981,-0.017848307266831398
0.022091327235102654,0.01586657017469406,-0.005857214331626892,-0.0416954830288887,0.006264984142035246,-0.01757632941007614
0.022381966933608055,0.016298284754157066,-0.005444671958684921,-0.04317837581038475,0.006286038551479578,-0.017232542857527733
0.022109737619757652,0.01606002263724804,-0.005268811713904142,-0.04205895587801933,0.006431177724152803,-0.01756419986486435
0.02174348197877407,0.015937985852360725,-0.005994366016238928,-0.04024622589349747,0.006264223251491785,-0.01792268455028534
0.021840142086148262,0.01538289338350296,-0.006117853336036205,-0.041316088289022446,0.0063413274474442005,-0.01744372583925724
0.02210082672536373,0.01574157178401947,-0.006011537276208401,-0.04260170832276344,0.006502665113657713,-0.017860645428299904
0.02233152650296688,0.015710122883319855,-0.005926649086177349,-0.043925266712903976,0.006511002313345671,-0.018132004886865616
0.0223550945520401,0.016537977382540703,-0.005838331766426563,-0.044761959463357925,0.006274383049458265,-0.017792735248804092
0.022349465638399124,0.015858568251132965,-0.006054632365703583,-0.0431097038090229,0.006066204514354467,-0.01768476329743862
0.02217409946024418,0.016694551333785057,-0.0056077418848872185,-0.042911458760499954,0.005953011102974415,-0.0179329514503479
0.022716099396348,0.01647314243018627,-0.005819560494273901,-0.04407220706343651,0.00609161239117384,-0.018258921802043915
0.022572092711925507,0.01641618087887764,-0.005784783512353897,-0.04449345916509628,0.007017844822257757,-0.017725588753819466
0.022583097219467163,0.016429876908659935,-0.006085492204874754,-0.04471766576170921,0.0071649313904345036,-0.01759672723710537
0.022795572876930237,0.016971196979284286,-0.005809177178889513,-0.04518964886665344,0.006567418109625578,-0.01756039448082447
0.022680435329675674,0.016615385189652443,-0.006357974372804165,-0.044657234102487564,0.006816305220127106,-0.018011992797255516
0.022903595119714737,0.016493380069732666,-0.005777942016720772,-0.044452596455812454,0.007038331124931574,-0.018225286155939102
0.022791555151343346,0.01651124283671379,-0.006009724922478199,-0.04451474919915199,0.007199422921985388,-0.01897045597434044
0.022909771651029587,0.016533460468053818,-0.005697199143469334,-0.04423060640692711,0.006920628249645233,-0.01901843212544918
0.022909771651029587,0.016533460468053818,-0.005697199143469334,-0.04423060640692711,0.006920628249645233,-0.01901843212544918
0.023224027827382088,0.016920454800128937,-0.005936883389949799,-0.04430825635790825,0.006686647422611713,-0.01863727904856205
0.023115072399377823,0.01630219630897045,-0.006487155798822641,-0.04462415352463722,0.007027059327811003,-0.018281644210219383
0.023002687841653824,0.016660314053297043,-0.005768574308604002,-0.044236958026885986,0.007550054229795933,-0.017890464514493942
0.02291056700050831,0.01644880510866642,-0.005881787743419409,-0.04388069733977318,0.0068101645447313786,-0.018400702625513077
0.023678606376051903,0.01716400682926178,-0.006343716289848089,-0.04529944434762001,0.006436939816921949,-0.018315134570002556
0.024253757670521736,0.017186617478728294,-0.006319253705441952,-0.04444420710206032,0.007153614424169064,-0.018549930304288864
0.02397182211279869,0.017398007214069366,-0.006447980180382729,-0.044072020798921585,0.007110949605703354,-0.018480969592928886
0.02311411313712597,0.017297646030783653,-0.006271448452025652,-0.04439505934715271,0.006910060532391071,-0.018195701763033867
0.022916415706276894,0.016363482922315598,-0.005511709954589605,-0.04441145807504654,0.006632938049733639,-0.018529143184423447
0.02342415601015091,0.017216473817825317,-0.005526392720639706,-0.04534819722175598,0.006271530874073505,-0.01893826574087143
0.023995110765099525,0.01720275916159153,-0.0063171167857944965,-0.0454447939991951,0.006716247648000717,-0.01942696049809456
0.023312216624617577,0.017371298745274544,-0.006525928620249033,-0.04564099386334419,0.0069763860665261745,-0.01909499056637287
0.023336946964263916,0.01791253685951233,-0.0061842333525419235,-0.04775132238864899,0.007184781599789858,-0.018107110634446144
0.023822031915187836,0.01731681637465954,-0.0054210489615798,-0.04633920639753342,0.007361441385000944,-0.017744049429893494
0.02423027530312538,0.017830584198236465,-0.004971135873347521,-0.0453280545771122,0.006950676906853914,-0.01802842877805233
0.02348812110722065,0.01803143322467804,-0.00597924180328846,-0.04682910069823265,0.007324345409870148,-0.018482130020856857
0.023555859923362732,0.017525983974337578,-0.006621873006224632,-0.04822033271193504,0.007425959687680006,-0.018534939736127853
0.023421620950102806,0.017941929399967194,-0.005996778607368469,-0.048757024109363556,0.007478840183466673,-0.018960103392601013
0.023711273446679115,0.017951296642422676,-0.005670810583978891,-0.046575821936130524,0.006941517814993858,-0.018877793103456497
0.023451555520296097,0.01854371279478073,-0.006156775169074535,-0.04756246879696846,0.007715143263339996,-0.018382370471954346
0.024610642343759537,0.018450528383255005,-0.006218605674803257,-0.047593068331480026,0.0075309560634195805,-0.018714914098381996
0.024155836552381516,0.019349390640854836,-0.0061010755598545074,-0.0481104701757431,0.0075404951348900795,-0.019152436405420303
0.0236746147274971,0.018274469301104546,-0.006548906210809946,-0.048462528735399246,0.0069295866414904594,-0.01926240883767605
0.023889057338237762,0.01814012974500656,-0.005992721300572157,-0.047558948397636414,0.00699575012549758,-0.01922907680273056
0.024117127060890198,0.019203025847673416,-0.0058324821293354034,-0.048733796924352646,0.0067366729490458965,-0.019007883965969086
0.024233579635620117,0.018858788534998894,-0.00635010190308094,-0.04895570129156113,0.006785600446164608,-0.018919430673122406
0.024233579635620117,0.018858788534998894,-0.00635010190308094,-0.04895570129156113,0.006785600446164608,-0.018919430673122406
0.024236105382442474,0.018609190359711647,-0.00584756163880229,-0.04905247315764427,0.007122551091015339,-0.019032472744584084
0.02440943568944931,0.019369114190340042,-0.006350975949317217,-0.0491507314145565,0.007434789557009935,-0.01950245536863804
0.024752605706453323,0.019723553210496902,-0.005940289702266455,-0.05156351253390312,0.007721057627350092,-0.019699126482009888
0.02463049441576004,0.019039664417505264,-0.006008742842823267,-0.0499659962952137,0.0074311234056949615,-0.020022939890623093
0.02468734234571457,0.019617512822151184,-0.006101866718381643,-0.04931602254509926,0.007408696226775646,-0.01997855305671692
0.024464456364512444,0.019779052585363388,-0.0060384031385183334,-0.04980592802166939,0.007513192482292652,-0.01998036913573742
0.02436673454940319,0.01929391920566559,-0.006122313905507326,-0.05184764787554741,0.00747289415448904,-0.01996033824980259
0.024394143372774124,0.01950320228934288,-0.006105444394052029,-0.05035006254911423,0.007354537956416607,-0.01992889866232872
0.024638697504997253,0.020115995779633522,-0.006375175900757313,-0.048466529697179794,0.007565750740468502,-0.020232412964105606
0.025094764307141304,0.019955243915319443,-0.006052260287106037,-0.049945659935474396,0.007469427306205034,-0.020103691145777702
0.02499997802078724,0.020423123612999916,-0.005920554045587778,-0.051084741950035095,0.007439287379384041,-0.01992143504321575
0.024993784725666046,0.020835446193814278,-0.006361951120197773,-0.05185708403587341,0.007169156335294247,-0.020324885845184326
0.024915074929594994,0.020118555054068565,-0.006542309653013945,-0.049916211515665054,0.0071573397144675255,-0.020297560840845108
0.02465021423995495,0.019531941041350365,-0.006658831611275673,-0.04937661439180374,0.007440448272973299,-0.020060772076249123
0.02478673681616783,0.02010120078921318,-0.006105898413807154,-0.04906311631202698,0.007537208963185549,-0.020023955032229424
0.025175882503390312,0.020060943439602852,-0.0056770904920995235,-0.04945962131023407,0.007531540002673864,-0.02007254771888256
0.02516608126461506,0.0202433280646801,-0.006336710415780544,-0.04938659071922302,0.007513846270740032,-0.020908638834953308
0.02517307922244072,0.020810240879654884,-0.007117346860468388,-0.050423942506313324,0.007959502749145031,-0.020152660086750984
0.024838995188474655,0.020382164046168327,-0.005921447183936834,-0.05055198073387146,0.008126990869641304,-0.020782772451639175
0.025287775322794914,0.021261509507894516,-0.0058746119029819965,-0.050876375287771225,0.007761841174215078,-0.02080293372273445
0.026086190715432167,0.020811591297388077,-0.005466104950755835,-0.05150381103157997,0.00740681542083621,-0.020792469382286072
0.02616056613624096,0.020647183060646057,-0.006579013541340828,-0.05239365994930267,0.007958799600601196,-0.020780548453330994
0.026260726153850555,0.020604118704795837,-0.006959073711186647,-0.05313318222761154,0.007693239487707615,-0.020804574713110924
0.025266164913773537,0.020430050790309906,-0.006355820689350367,-0.05342651531100273,0.008063705638051033,-0.020971501246094704
0.025954393669962883,0.021047478541731834,-0.0060650198720395565,-0.05229143425822258,0.008905608206987381,-0.02092721126973629
0.02661893144249916,0.020960817113518715,-0.006396156270056963,-0.05410005524754524,0.007537015713751316,-0.02096606232225895
0.026432689279317856,0.02142302878201008,-0.006321496795862913,-0.053215328603982925,0.007039704360067844,-0.020956244319677353
0.026572883129119873,0.021518541499972343,-0.006624619010835886,-0.052089426666498184,0.007414809428155422,-0.020960336551070213
0.026572883129119873,0.021518541499972343,-0.006624619010835886,-0.052089426666498184,0.007414809428155422,-0.020960336551070213
0.027045905590057373,0.02165144309401512,-0.0066950637847185135,-0.053759850561618805,0.007960519753396511,-0.02148614078760147
0.027382800355553627,0.021498864516615868,-0.006167559418827295,-0.05586227402091026,0.008060748688876629,-0.02106909267604351
0.02707544155418873,0.021351691335439682,-0.006377220619469881,-0.05571552738547325,0.007876057177782059,-0.02102391980588436
0.026637889444828033,0.02171310968697071,-0.006760278716683388,-0.053147777915000916,0.008050637319684029,-0.021334897726774216
0.025863226503133774,0.021369658410549164,-0.0067781428806483746,-0.05475853756070137,0.007937024347484112,-0.021564757451415062
0.02706528827548027,0.02139214798808098,-0.006877841427922249,-0.05549336597323418,0.0077678910456597805,-0.02112286165356636
0.02745036780834198,0.021818481385707855,-0.006454608868807554,-0.055632006376981735,0.007736060302704573,-0.020861493423581123
0.02734181471168995,0.02193291299045086,-0.006878586020320654,-0.055858414620161057,0.007656935602426529,-0.021068790927529335
0.027398305013775826,0.022004934027791023,-0.007159559056162834,-0.055871013551950455,0.00806871522217989,-0.021333666518330574
0.02772969752550125,0.022132033482193947,-0.0065981363877654076,-0.05564204603433609,0.007840452715754509,-0.0215707179158926
0.027702463790774345,0.02200275845825672,-0.006516290362924337,-0.05693317577242851,0.00800041202455759,-0.02259942889213562
0.02801826409995556,0.02209908328950405,-0.006458359770476818,-0.05581036955118179,0.00813186913728714,-0.020995253697037697
0.027847403660416603,0.022752320393919945,-0.007316712290048599,-0.05515707656741142,0.007818521000444889,-0.020607009530067444
0.02829279936850071,0.022495025768876076,-0.007284502033144236,-0.057340554893016815,0.007491560652852058,-0.02030833810567856
0.028674961999058723,0.022335944697260857,-0.006943141110241413,-0.05593674257397652,0.008136982098221779,-0.02118067629635334
0.028853705152869225,0.02262767031788826,-0.006537966895848513,-0.054896481335163116,0.008410943672060966,-0.021949291229248047
0.028437338769435883,0.022415295243263245,-0.007344523910433054,-0.05466689541935921,0.00807682704180479,-0.022313447669148445
0.02852589264512062,0.02273900993168354,-0.007388600148260593,-0.05695447698235512,0.008397826924920082,-0.02172319032251835
0.028909504413604736,0.022525282576680183,-0.0071335770189762115,-0.05407904461026192,0.008007803931832314,-0.02207864634692669
0.0289155263453722,0.02383461408317089,-0.007642451673746109,-0.055087845772504807,0.00826810859143734,-0.02254183031618595
0.02926761284470558,0.02284906804561615,-0.007078278344124556,-0.05610985681414604,0.00838757399469614,-0.021716566756367683
0.02933310717344284,0.022776924073696136,-0.007474943995475769,-0.05605047941207886,0.00844544731080532,-0.02142271213233471
0.02932552807033062,0.02306307479739189,-0.0067420643754303455,-0.05609888955950737,0.008772358298301697,-0.021249011158943176
0.029301775619387627,0.02308773808181286,-0.007231265772134066,-0.05629022419452667,0.008305965922772884,-0.021420057862997055
0.02963384985923767,0.023307612165808678,-0.0073339808732271194,-0.05590035766363144,0.008579835295677185,-0.022248463705182076
0.02963384985923767,0.023307612165808678,-0.0073339808732271194,-0.05590035766363144,0.008579835295677185,-0.022248463705182076
0.02953123301267624,0.023655159398913383,-0.006736616604030132,-0.05618387088179588,0.008002905175089836,-0.02266225405037403
0.029836833477020264,0.023221326991915703,-0.006991722155362368,-0.05670316144824028,0.008107613772153854,-0.022534355521202087
0.030666200444102287,0.022835981100797653,-0.007475718390196562,-0.05703791603446007,0.008463175967335701,-0.02231421507894993
0.03077116049826145,0.022985633462667465,-0.007329909130930901,-0.05760890617966652,0.008503005839884281,-0.02197912149131298
0.027508491650223732,0.023441176861524582,-0.006982704158872366,-0.057689812034368515,0.008553985506296158,-0.0216689370572567
0.030681747943162918,0.0238715261220932,-0.006803988013416529,-0.0574653185904026,0.008671466261148453,-0.021923601627349854
0.03115779347717762,0.024282235652208328,-0.00791861955076456,-0.05798085033893585,0.008696302771568298,-0.0235990509390831
0.030250081792473793,0.02359931357204914,-0.008052676916122437,-0.057040732353925705,0.008903270587325096,-0.021259548142552376
0.030988093465566635,0.022568747401237488,-0.007592720445245504,-0.059542421251535416,0.008681323379278183,-0.02143295668065548
0.03158305957913399,0.023058610036969185,-0.00752523448318243,-0.058680374175310135,0.008540639653801918,-0.022192636504769325
0.03159612417221069,0.023910457268357277,-0.007007570471614599,-0.05801435932517052,0.009311629459261894,-0.022683745250105858
0.03018936701118946,0.023719875141978264,-0.008098360151052475,-0.06022004783153534,0.0090708639472723,-0.022409331053495407
0.030286194756627083,0.02346327342092991,-0.007630062755197287,-0.06140782684087753,0.009529019705951214,-0.022270064800977707
0.03172286972403526,0.023739857599139214,-0.007373361382633448,-0.058064233511686325,0.009273912757635117,-0.0224340558052063
0.0317310094833374,0.024410497397184372,-0.007768170442432165,-0.05909883975982666,0.009331293404102325,-0.022164175286889076
0.03097224049270153,0.023775653913617134,-0.007516765501350164,-0.0595017708837986,0.008806126192212105,-0.0226865466684103
0.03063012659549713,0.024214468896389008,-0.007188024930655956,-0.05961538851261139,0.008632631972432137,-0.023113751783967018
0.031686604022979736,0.02400190569460392,-0.007220043800771236,-0.05965324491262436,0.008596123196184635,-0.022991742938756943
0.03128529712557793,0.02384529449045658,-0.007581130135804415,-0.05986183509230614,0.008210227824747562,-0.022604163736104965
0.03144410252571106,0.02455519698560238,-0.007578882854431868,-0.06011473760008812,0.008820692077279091,-0.02224435657262802
0.03203865885734558,0.024651166051626205,-0.007169760763645172,-0.059895873069763184,0.008913637138903141,-0.02157464809715748
0.032540157437324524,0.02447829768061638,-0.00743585079908371,-0.05860522389411926,0.008360800333321095,-0.022819798439741135
0.031756095588207245,0.024621134623885155,-0.007593395654112101,-0.05948318913578987,0.00845908559858799,-0.022835353389382362
0.03201494738459587,0.025073856115341187,-0.007261426188051701,-0.06072644889354706,0.008613022975623608,-0.02273285761475563
0.03196922317147255,0.025332460179924965,-0.007213398348540068,-0.058038532733917236,0.00878832396119833,-0.023184172809123993
0.031459301710128784,0.025359049439430237,-0.007418971974402666,-0.05864528566598892,0.009049485437572002,-0.023626064881682396
0.031459301710128784,0.025359049439430237,-0.007418971974402666,-0.05864528566598892,0.009049485437572002,-0.023626064881682396
0.03181590512394905,0.024782562628388405,-0.00758093548938632,-0.060493357479572296,0.008840508759021759,-0.02342679165303707
0.031811073422431946,0.02521243691444397,-0.007505800575017929,-0.059824131429195404,0.009380902163684368,-0.023813078179955482
0.03170190006494522,0.025037026032805443,-0.007519914302974939,-0.059552568942308426,0.009082220494747162,-0.02235998772084713
0.032365359365940094,0.025613147765398026,-0.00777384964749217,-0.061007533222436905,0.009001468308269978,-0.021935515105724335
0.03219239413738251,0.02593524195253849,-0.00791239831596613,-0.06095990911126137,0.00871568638831377,-0.02296599932014942
0.0323290154337883,0.026343466714024544,-0.007098011672496796,-0.06128230318427086,0.009050282649695873,-0.02391809970140457
0.032563626766204834,0.02639906294643879,-0.006752021610736847,-0.06187880039215088,0.009128549136221409,-0.02416161261498928
0.03223680332303047,0.026337137445807457,-0.0069474452175199986,-0.061995260417461395,0.009076057001948357,-0.023904450237751007
0.03143984079360962,0.02603943459689617,-0.007597391493618488,-0.06206011027097702,0.009228791110217571,-0.023880084976553917
0.03265363723039627,0.025944892317056656,-0.007274305913597345,-0.06206289678812027,0.008692237548530102,-0.023824242874979973
0.033207278698682785,0.026092492043972015,-0.006896579638123512,-0.062319979071617126,0.008602389134466648,-0.02402460016310215
0.03337806835770607,0.026414602994918823,-0.006765465717762709,-0.06250863522291183,0.00896325521171093,-0.023638909682631493
0.032179370522499084,0.02604154869914055,-0.007879240438342094,-0.06252425909042358,0.009188228286802769,-0.02348652482032776
0.03155997768044472,0.026642488315701485,-0.00756886275485158,-0.06298891454935074,0.009121379815042019,-0.023507945239543915
0.032944824546575546,0.026658395305275917,-0.006851001176983118,-0.06331285089254379,0.008539044298231602,-0.023525822907686234
0.03228529915213585,0.0267636701464653,-0.006875746417790651,-0.06418172270059586,0.009392309002578259,-0.02383187785744667
0.03281651809811592,0.02641325630247593,-0.0075973873026669025,-0.06132117286324501,0.009668413549661636,-0.023709546774625778
0.033503126353025436,0.02689100056886673,-0.007506148423999548,-0.061975713819265366,0.009338278323411942,-0.023686517030000687
0.03286372870206833,0.027845213189721107,-0.007290396373718977,-0.06471353769302368,0.008823748677968979,-0.024137141183018684
0.032429568469524384,0.02790084294974804,-0.007120383903384209,-0.06351595371961594,0.00916216615587473,-0.02399277873337269
0.031997621059417725,0.02629641257226467,-0.007868368178606033,-0.06126806139945984,0.008975585922598839,-0.023639149963855743
0.03301991522312164,0.02595151588320732,-0.00750637287274003,-0.062475383281707764,0.009027990512549877,-0.023715868592262268
0.03321949020028114,0.026781128719449043,-0.007179684471338987,-0.06247324123978615,0.009664290584623814,-0.023789990693330765
0.03296206519007683,0.026210982352495193,-0.00820884294807911,-0.061679862439632416,0.010443255305290222,-0.02414356917142868
0.03315865620970726,0.026799676939845085,-0.008168627507984638,-0.06183018907904625,0.010207846760749817,-0.02344593219459057
0.032772596925497055,0.02790440432727337,-0.0074013471603393555,-0.06163424253463745,0.009553493931889534,-0.023688871413469315
0.03314393758773804,0.02785533480346203,-0.006897740997374058,-0.062420494854450226,0.008981420658528805,-0.024051805958151817
0.03263995796442032,0.027294045314192772,-0.007965398021042347,-0.06299040466547012,0.009160930290818214,-0.02423708513379097
0.03267483040690422,0.027113376185297966,-0.007826435379683971,-0.0635012835264206,0.010147452354431152,-0.02416324056684971
0.032445888966321945,0.027232700958848,-0.007337974850088358,-0.064372219145298,0.009236478246748447,-0.02420615218579769
0.0328822024166584,0.02856704592704773,-0.008021673187613487,-0.06538072228431702,0.009388133883476257,-0.024016043171286583
0.0328822024166584,0.02856704592704773,-0.008021673187613487,-0.06538072228431702,0.009388133883476257,-0.024016043171286583
0.03184875100851059,0.028342625126242638,-0.008526381105184555,-0.0631423145532608,0.009196573868393898,-0.024003736674785614
0.03340693190693855,0.02755575440824032,-0.007900502532720566,-0.06479708850383759,0.009469990618526936,-0.024213286116719246
0.033764783293008804,0.02801409363746643,-0.007089065387845039,-0.06600083410739899,0.009478883817791939,-0.024221958592534065
0.032976917922496796,0.028359469026327133,-0.007891225628554821,-0.06345618516206741,0.009182984009385109,-0.024619635194540024
0.032628126442432404,0.02877538464963436,-0.00799153745174408,-0.06439830362796783,0.009160272777080536,-0.024848468601703644
0.03264983743429184,0.02872513234615326,-0.007879287004470825,-0.06588738411664963,0.008981291204690933,-0.024796050041913986
0.034309472888708115,0.02889767289161682,-0.0073429858312010765,-0.06608007103204727,0.009361550211906433,-0.02452782355248928
0.03449499234557152,0.028679847717285156,-0.007491199299693108,-0.06574966758489609,0.0095757395029068,-0.024736454710364342
0.03299885615706444,0.02833889052271843,-0.007937762886285782,-0.06546515971422195,0.009175480343401432,-0.02473260834813118
0.03279651328921318,0.028997406363487244,-0.007689059246331453,-0.06574083864688873,0.008632197044789791,-0.024570342153310776
0.034060925245285034,0.028766732662916183,-0.007438034284859896,-0.0665290430188179,0.008583218790590763,-0.02452126517891884
0.03396177664399147,0.028516441583633423,-0.007477618753910065,-0.06647098064422607,0.00946921668946743,-0.02476568892598152
0.03472578898072243,0.028979895636439323,-0.007966280914843082,-0.06695330142974854,0.009538094513118267,-0.0246579572558403
0.035640038549900055,0.028993263840675354,-0.008207909762859344,-0.06692828983068466,0.009277530014514923,-0.024374693632125854
0.03485245630145073,0.029084330424666405,-0.007988358847796917,-0.06590808182954788,0.009072409942746162,-0.02528538554906845
0.03349383920431137,0.028935734182596207,-0.007941569201648235,-0.06855960190296173,0.009337266907095909,-0.024804934859275818
0.03414488211274147,0.02889319136738777,-0.007621096447110176,-0.06476014852523804,0.00898661557585001,-0.02484360709786415
0.03539539501070976,0.029039498418569565,-0.007504044100642204,-0.06494753062725067,0.009503096342086792,-0.024315781891345978
0.03550415486097336,0.028977826237678528,-0.007562586572021246,-0.068499356508255,0.009263555519282818,-0.024066949263215065
0.03468810394406319,0.029463456943631172,-0.0077491761185228825,-0.06575485318899155,0.009032165631651878,-0.024303488433361053
0.0350242480635643,0.02940799482166767,-0.00819181278347969,-0.06740900874137878,0.009605028666555882,-0.02506866119801998
0.0351523794233799,0.028811369091272354,-0.00891698244959116,-0.06789380311965942,0.009584774263203144,-0.02480342984199524
0.0351523794233799,0.028811369091272354,-0.00891698244959116,-0.06789380311965942,0.009584774263203144,-0.02480342984199524
0.03629468381404877,0.02906559780240059,-0.008919192478060722,-0.06787751615047455,0.00973774865269661,-0.024811239913105965
0.03599034994840622,0.03031436912715435,-0.00829300470650196,-0.06797737628221512,0.009963363409042358,-0.025390449911355972
0.03580937162041664,0.030149387195706367,-0.008200926706194878,-0.06814344227313995,0.01075962744653225,-0.02539021335542202
0.03613187000155449,0.028820961713790894,-0.009082648903131485,-0.06828026473522186,0.009377708658576012,-0.024437159299850464
0.036146730184555054,0.02857559360563755,-0.009021619334816933,-0.06884340941905975,0.00910656712949276,-0.024105539545416832
0.036654289811849594,0.02949380874633789,-0.008351165801286697,-0.07048401981592178,0.00960561539977789,-0.023894555866718292
0.03619689121842384,0.029512887820601463,-0.0085385637357831,-0.06900154799222946,0.010244357399642467,-0.024756142869591713
0.036918431520462036,0.02969522587954998,-0.008898632600903511,-0.07119933515787125,0.010251031257212162,-0.02537507191300392
0.03681040182709694,0.030536165460944176,-0.008593057282269001,-0.06976219266653061,0.009831101633608341,-0.025136226788163185
0.03665444999933243,0.029750611633062363,-0.008857457898557186,-0.07060162723064423,0.009519041515886784,-0.025401828810572624
0.03698960319161415,0.02948634885251522,-0.009074321947991848,-0.0733681470155716,0.009670885279774666,-0.025477390736341476
0.037574876099824905,0.028798140585422516,-0.00875292532145977,-0.0709109827876091,0.009888557717204094,-0.025340646505355835
0.03707226738333702,0.029105285182595253,-0.008676866069436073,-0.0709192231297493,0.009730546735227108,-0.025000624358654022
0.03756129369139671,0.030071508139371872,-0.009498270228505135,-0.07195059955120087,0.009737620130181313,-0.024944717064499855
0.038129836320877075,0.029995443299412727,-0.009016858413815498,-0.07182136178016663,0.009677806869149208,-0.02515740878880024
0.03748616948723793,0.0295886043459177,-0.008246572688221931,-0.07170947641134262,0.009565269574522972,-0.025288645178079605
0.03837526589632034,0.029749242588877678,-0.009649884887039661,-0.0712357833981514,0.009979860857129097,-0.024234788492321968
0.03995700553059578,0.029736919328570366,-0.009111940860748291,-0.07132499665021896,0.010349210351705551,-0.024625083431601524
0.03640264645218849,0.029792258515954018,-0.008956190198659897,-0.07138152420520782,0.010517243295907974,-0.02524551935493946
0.037825994193553925,0.03005417063832283,-0.008874358609318733,-0.07054521888494492,0.010095993988215923,-0.026225849986076355
0.039195720106363297,0.029905498027801514,-0.009480224922299385,-0.07025615125894547,0.009693398140370846,-0.026025474071502686
0.038982801139354706,0.0303659625351429,-0.00891370140016079,-0.07037618011236191,0.0099952956661582,-0.025807717815041542
0.03990262746810913,0.030013728886842728,-0.008833911269903183,-0.07135090976953506,0.010861349292099476,-0.025047602131962776
0.0402093343436718,0.03061698190867901,-0.009633873589336872,-0.07090632617473602,0.010446770116686821,-0.02525731921195984
0.03951657563447952,0.03066297061741352,-0.008518840186297894,-0.0734143853187561,0.010389169678092003,-0.026203297078609467
0.03980185091495514,0.031401827931404114,-0.009455606341362,-0.07167866826057434,0.01036117970943451,-0.025955326855182648
0.0396917425096035,0.03103693388402462,-0.009265489876270294,-0.07206860929727554,0.010628599673509598,-0.02622435800731182
0.0396917425096035,0.03103693388402462,-0.009265489876270294,-0.07206860929727554,0.010628599673509598,-0.02622435800731182
0.03999415040016174,0.031228983774781227,-0.009046324528753757,-0.07337108254432678,0.010439104400575161,-0.027020348235964775
0.039655670523643494,0.03148641064763069,-0.009630433283746243,-0.07345403730869293,0.00974899809807539,-0.025808388367295265
0.03987445309758186,0.0313747338950634,-0.009337058290839195,-0.07347605377435684,0.00969572551548481,-0.02519887685775757
