davideferrari95/blind_handover_controller/data/Test 16 - [2024-02-07 -- 14-14-47]/joint_states_data.csv
shoulder_pan_joint,shoulder_lift_joint,elbow_joint,wrist_1_joint,wrist_2_joint,wrist_3_joint
-0.00730004720389843,0.0007360157324001193,0.002132543595507741,-0.0032505858689546585,-0.0009177272440865636,-0.006366482935845852
-0.0072652921080589294,0.0007193240453489125,0.0024561553727835417,-0.002974738599732518,-0.0008378512575291097,-0.00693630101159215
-0.0072652921080589294,0.0007193240453489125,0.0024561553727835417,-0.002974738599732518,-0.0008378512575291097,-0.00693630101159215
-0.0073274304158985615,0.0006755413487553596,0.002894290490075946,-0.002686210675165057,-0.0008563019218854606,-0.007445912342518568
-0.006779950577765703,0.0006963809719309211,0.003061651485040784,-0.002370524452999234,-0.0008969466434791684,-0.0071310605853796005
-0.007283382583409548,0.0006740972748957574,0.0031326378230005503,-0.0024248992558568716,-0.0009148911922238767,-0.006740796845406294
-0.007205581292510033,0.0007058801129460335,0.002577075967565179,-0.002814778359606862,-0.0012453050585463643,-0.006292115431278944
-0.006904479116201401,0.0007201662519946694,0.0024339575320482254,-0.0031455939169973135,-0.0012206394458189607,-0.00650318106636405
-0.0066105155274271965,0.0007388291414827108,0.0026791724376380444,-0.0028119462076574564,-0.001167814596556127,-0.007038026116788387
-0.0070315636694431305,0.0008189653744921088,0.003027197439223528,-0.0024481869768351316,-0.0009706721175462008,-0.006596576888114214
-0.0068152775056660175,0.0008233709377236664,0.0028169869910925627,-0.0023108222521841526,-0.0009576076408848166,-0.007028450258076191
-0.0063562518917024136,0.0007274277159012854,0.0029027366545051336,-0.0022230525501072407,-0.0009391442290507257,-0.007206922862678766
-0.006429492030292749,0.0007464235532097518,0.0029373744037002325,-0.00214493740350008,-0.0009332665358670056,-0.007092025130987167
-0.006768191233277321,0.0007524195243604481,0.002958281198516488,-0.002283337991684675,-0.0008391462615691125,-0.006721858400851488
-0.006933143828064203,0.0006956197903491557,0.0027715659234672785,-0.0023866682313382626,-0.0007794878329150379,-0.0071876696310937405
-0.006909984163939953,0.0007488384726457298,0.003023617435246706,-0.0023617444094270468,-0.0006717459764331579,-0.00698325177654624
-0.0064911129884421825,0.0006936796708032489,0.003017999930307269,-0.0026384766679257154,-0.000584781460929662,-0.0067629520781338215
-0.00663076713681221,0.0007161282119341195,0.002893179887905717,-0.002858551451936364,-0.0005174219259060919,-0.00644547026604414
-0.00680080009624362,0.0007348920917138457,0.0026810718700289726,-0.0025511053390800953,-0.0005437753279693425,-0.006437381263822317
-0.00680080009624362,0.0007348920917138457,0.0026810718700289726,-0.0025511053390800953,-0.0005437753279693425,-0.006437381263822317
-0.0072195930406451225,0.0010070288553833961,0.002875199308618903,-0.0025611224118620157,-0.0005038114031776786,-0.007480744272470474
-0.007049092091619968,0.0009022321319207549,0.0029794052243232727,-0.0024995559360831976,-0.00046142752398736775,-0.0070744408294558525
-0.006527312099933624,0.0009006024338304996,0.00343901920132339,-0.002329004928469658,-0.0004251138889230788,-0.007096679415553808
-0.006518969312310219,0.0008882167749106884,0.0032670453656464815,-0.002123659010976553,-0.00045512011274695396,-0.007036674302071333
-0.006750478409230709,0.0008014889899641275,0.0030512444209307432,-0.002035892801359296,-0.00042815785855054855,-0.007271672133356333
-0.006670940201729536,0.0007213053177110851,0.0030020056292414665,-0.0019342816667631269,-0.00040114024886861444,-0.006888624280691147
-0.006256770808249712,0.0006582662463188171,0.0032602802384644747,-0.00183286820538342,-0.0004168154555372894,-0.006859217770397663
-0.0066413311287760735,0.0006495420821011066,0.003303489414975047,-0.0015894935932010412,-0.00040572896250523627,-0.006664810702204704
-0.006364868022501469,0.0006112275295890868,0.003518938086926937,-0.0014305391814559698,-0.000384846527595073,-0.007011499721556902
-0.006212598644196987,0.000549474498257041,0.0031942129135131836,-0.0013047195971012115,-0.0003224569372832775,-0.006742983590811491
-0.006115312688052654,0.00041911107837222517,0.002944356994703412,-0.0010987656423822045,-0.00028935499722138047,-0.007087712176144123
-0.006838181056082249,0.00030760455410927534,0.0028710777405649424,-0.0009362878045067191,-0.00029748515225946903,-0.00718091381713748
-0.0069785816594958305,0.0002806656120810658,0.0028313316870480776,-0.00081489491276443,-0.00030495336977764964,-0.0067781186662614346
-0.0063040913082659245,0.00026032692403532565,0.0030422655399888754,-0.0007213695207610726,-0.00032582329004071653,-0.0068177515640854836
-0.006183966062963009,0.00024276654585264623,0.0033007462043315172,-0.0007328553474508226,-0.00032052912865765393,-0.007123617455363274
-0.006494327913969755,0.0001384986098855734,0.0031143284868448973,-0.0006701649981550872,-0.00033795007038861513,-0.007446659728884697
-0.006434300914406776,2.955102718260605e-05,0.0030104052275419235,-0.0006133751594461501,-0.00033251504646614194,-0.007373304571956396
-0.006590995006263256,5.319080731425174e-09,0.002444220008328557,-0.0005240329774096608,-0.00047237006947398186,-0.006861677393317223
-0.005983248818665743,7.136224944304104e-11,0.00268526840955019,-0.000488457502797246,-0.0005028205923736095,-0.006852251011878252
-0.006060012616217136,9.574156788552668e-13,0.0032137574162334204,-0.000457407848443836,-0.00047881988575682044,-0.006694162264466286
-0.006692779716104269,1.2844953101382242e-14,0.0031143249943852425,-0.00043007201747968793,-0.000494962849188596,-0.006926797330379486
-0.006785753183066845,1.7233144715728837e-16,0.002638168167322874,-0.00040581979556009173,-0.0004744722682517022,-0.006992231123149395
-0.006430407054722309,2.3120467398826798e-18,0.0025372882373631,-0.0003841586585622281,-0.0005009977030567825,-0.007328501902520657
-0.006194790825247765,3.1019056482062596e-20,0.0027401999104768038,-0.0003646940167527646,-0.000552835816051811,-0.007389587815850973
-0.00628748070448637,4.161602510226556e-22,0.0026445840485394,-0.0003471059608273208,-0.0005613095127046108,-0.007089981343597174
-0.0063663809560239315,5.583321223313208e-24,0.0027864829171448946,-0.0003311379987280816,-0.0005968947079963982,-0.007713512051850557
-0.00605854531750083,7.490737810198168e-26,0.002701870398595929,-0.0003165747912134975,-0.0005868278094567358,-0.008108898065984249
-0.00605854531750083,7.490737810198168e-26,0.002701870398595929,-0.0003165747912134975,-0.0005868278094567358,-0.008108898065984249
-0.005882225930690765,-0.0014055052306503057,0.0023759081959724426,-0.000303238513879478,-0.0005731444107368588,-0.006727978587150574
-0.005648547317832708,-0.001348055200651288,0.002450186526402831,-0.000290980824502185,-0.0005277035525068641,-0.006282340735197067
-0.0061484999023377895,-0.0011800406500697136,0.0026979376561939716,-0.0002796763146761805,-0.0005381226656027138,-0.007030530832707882
-0.0065041808411479,-0.0008895029313862324,0.0028612283058464527,-0.0002692168054636568,-0.0005154492100700736,-0.007481172680854797
-0.006049796007573605,-0.0007778829312883317,0.0026084117125719786,-0.0002595120167825371,-0.000481967581436038,-0.007458821404725313
-0.006018863525241613,-0.0007565909763798118,0.0024804382119327784,-0.000223324925173074,-0.00046887004282325506,-0.00724834855645895
-0.00559728080406785,-0.000722802069503814,0.002207406098023057,-0.00021207379177212715,-0.00044129020534455776,-0.007755827158689499
-0.005966330878436565,-0.0006746898288838565,0.0023562402930110693,-0.00020493040210567415,-0.00040294326026923954,-0.008238915354013443
-0.006288519129157066,-0.0007734063547104597,0.002464052988216281,-0.00019845840870402753,-0.0003698693180922419,-0.00791043322533369
-0.006002048496156931,-0.001348591409623623,0.002377823693677783,-7.702357834205031e-05,-0.0003919531009159982,-0.007409817073494196
-0.006095197983086109,-0.0013172933831810951,0.0026980408001691103,-5.864054037374444e-05,-0.0003799561527557671,-0.007935062050819397
-0.00586041621863842,-0.0010617825901135802,0.002603505738079548,-5.578466516453773e-05,-0.0003559215401764959,-0.007858771830797195
-0.005914752837270498,-0.0009824326261878014,0.002364504849538207,-3.059374284930527e-05,-0.0003339655522722751,-0.007231180556118488
-0.006109628360718489,-0.0008762793149799109,0.0020055638160556555,-3.379004965609056e-06,-0.0003213330637663603,-0.0072820452041924
-0.006109628360718489,-0.0008762793149799109,0.0020055638160556555,-3.379004965609056e-06,-0.0003213330637663603,-0.0072820452041924
-0.005933583248406649,-0.0008062096312642097,0.0024943980388343334,-1.4405225456926019e-08,-0.0003122265334241092,-0.00791917834430933
-0.005784725304692984,-0.0008554005762562156,0.0023632885422557592,-9.405581868904278e-10,-0.0002975694078486413,-0.007699768524616957
-0.005694654770195484,-0.0016043659998103976,0.0019103247905150056,0.001093173399567604,-0.0003141323395539075,-0.006980664562433958
-0.005777041427791119,-0.001638584304600954,0.001862656674347818,0.0019907427486032248,-0.000310033792629838,-0.007969275116920471
-0.006092574447393417,-0.0014824493555352092,0.002103326143696904,0.0020164926536381245,-0.0002978233387693763,-0.00796474702656269
-0.005628875456750393,-0.001160395797342062,0.0021055918186903,0.00176581263076514,-0.0002860301174223423,-0.007241931278258562
-0.005903908517211676,-0.0010832191910594702,0.0022061639465391636,0.0015537500148639083,-0.00026548499590717256,-0.0071267979219555855
-0.006514102686196566,-0.0010167573345825076,0.0021461520809680223,0.0014257612638175488,-0.00024843550636433065,-0.007929330691695213
-0.005904519930481911,-0.0010292517254129052,0.0021519383881241083,0.0011758769396692514,-0.0002352843584958464,-0.007810893468558788
-0.006442612502723932,-0.0009555902215652168,0.0019297996768727899,0.0012713567120954394,-0.0002565779723227024,-0.007658402435481548
-0.006442612502723932,-0.0009555902215652168,0.0019297996768727899,0.0012713567120954394,-0.0002565779723227024,-0.007658402435481548
-0.0051303524523973465,-0.0010756658157333732,0.002023855457082391,0.0020743287168443203,-0.00025482766795903444,-0.007730926387012005
-0.005826358217746019,-0.001876931986771524,0.0018984819762408733,0.0026266705244779587,-0.00024398829555138946,-0.007705527823418379
-0.005894670262932777,-0.00193573790602386,0.002103037666529417,0.0030354615300893784,-0.00023348149261437356,-0.008061639964580536
-0.005908053833991289,-0.0017961296252906322,0.0018917900742962956,0.0029892483726143837,-0.00022380556038115174,-0.007200917229056358
-0.005548084620386362,-0.0015696717891842127,0.0019754506647586823,0.0029828990809619427,-0.00023242435418069363,-0.007765026297420263
-0.005471511743962765,-0.001594392117112875,0.0019772271625697613,0.0030508118215948343,-0.00023992237402126193,-0.00801044050604105
-0.006148057524114847,-0.0015410095220431685,0.0019978657364845276,0.0036919782869517803,-0.00023214920656755567,-0.007988919503986835
-0.005845398176461458,-0.001628787606023252,0.001751893782056868,0.004100108053535223,-0.0002239645109511912,-0.007713038008660078
-0.005799198988825083,-0.002570275915786624,0.0016302785370498896,0.004177060443907976,-0.0002162794698961079,-0.0077741690911352634
-0.005616860929876566,-0.0029068761505186558,0.0014597814297303557,0.004256025422364473,-0.00020910125749651343,-0.007670186460018158
-0.005477829836308956,-0.0025848466902971268,0.0012028496712446213,0.004887920804321766,-0.00022934447042644024,-0.007407420314848423
-0.005554655566811562,-0.0026849519927054644,0.0010546741541475058,0.005134065169841051,-0.00022396750864572823,-0.007312006317079067
-0.006305566988885403,-0.0026533750351518393,0.0001530327572254464,0.00496665807440877,-0.00021732157620135695,-0.008022816851735115
-0.005929562263190746,-0.002748771570622921,2.053129719570279e-06,0.005263757426291704,-0.0002109616034431383,-0.008350643329322338
-0.0054947505705058575,-0.0031560577917844057,-0.0016370374942198396,0.0059009394608438015,-0.00023059576051309705,-0.007715429179370403
-0.005595187656581402,-0.0032443904783576727,0.000579390674829483,0.005965272895991802,-0.00022050156258046627,-0.007715381216257811
-0.005865741055458784,-0.003337689209729433,0.0012331274338066578,0.005588245112448931,-0.00021027449110988528,-0.0077078258618712425
-0.0058516645804047585,-0.0031212116591632366,0.0009376566158607602,0.005043616518378258,-0.0002008899609791115,-0.00784993078559637
-0.0060682944022119045,-0.0030407572630792856,0.00011784108210122213,0.004696199670433998,-0.0001923034287756309,-0.007610843516886234
-0.005400858353823423,-0.0029583408031612635,1.5809885098860832e-06,0.004223083611577749,-0.00021638916223309934,-0.007473872043192387
-0.005253218114376068,-0.002948931185528636,2.121097963936336e-08,0.004368497524410486,-0.0002122698788298294,-0.007363158743828535
-0.005528013687580824,-0.002899955725297332,2.845723379163445e-10,0.00510103115811944,-0.00020451570162549615,-0.007702814880758524
-0.005483733024448156,-0.0031113491859287024,0.00047023320803418756,0.0047686463221907616,-0.00019706980674527586,-0.00836368091404438
-0.005574104841798544,-0.003132655518129468,0.0006420756690204144,0.0045574563555419445,-0.00021967491193208843,-0.008570842444896698
-0.005574104841798544,-0.003132655518129468,0.0006420756690204144,0.0045574563555419445,-0.00021967491193208843,-0.008570842444896698
-0.0060396259650588036,-0.002961335703730583,0.00036705966340377927,0.004500025417655706,-0.0002141344011761248,-0.007955594919621944
-0.005418671295046806,-0.00316298077814281,0.00015650386922061443,0.004105172120034695,-0.00020721633336506784,-0.007765551563352346
-0.005580871365964413,-0.0033023275900632143,0.00012838555267080665,0.003935683984309435,-0.00020062514522578567,-0.007504438515752554
-0.00581001304090023,-0.0035125911235809326,0.00011227429058635607,0.004307418595999479,-0.00019443323253653944,-0.007697452325373888
-0.0053037721663713455,-0.0032767863012850285,0.00012609356781467795,0.0049254316836595535,-0.00018861178250517696,-0.00794395711272955
-0.005712370853871107,-0.0035260245203971863,0.00012157580204075202,0.004745196085423231,-0.0001959679211722687,-0.008212500251829624
-0.00516096455976367,-0.0033043210860341787,3.7629819416906685e-05,0.0048213498666882515,-0.00020250777015462518,-0.008171928115189075
-0.005530979949980974,-0.003086975309997797,5.048520961281611e-07,0.004960672464221716,-0.00019773392705246806,-0.008065898902714252
-0.005386743228882551,-0.0030631553381681442,6.773235750046069e-09,0.004859962500631809,-0.00019249814795330167,-0.007804649882018566
-0.005488249938935041,-0.0031481704208999872,9.087160190990318e-11,0.0046641468070447445,-0.00018748853472061455,-0.008006499148905277
-0.005480397026985884,-0.0034414795227348804,1.2191585631662893e-12,0.00449851481243968,-0.0001827300584409386,-0.008159753866493702
-0.005182730499655008,-0.0037336857058107853,1.6356568741581964e-14,0.004192061256617308,-0.00017820742505136877,-0.007812050171196461
-0.004800311289727688,-0.0037489058449864388,2.1944425348163e-16,0.004467586055397987,-0.0001739026338327676,-0.008095967583358288
-0.005093961022794247,-0.0036816969513893127,2.944124810846194e-18,0.004710277076810598,-0.00016980120562948287,-0.008250880055129528
-0.005350786726921797,-0.0038258314598351717,5.299320679365859e-22,0.005008152686059475,-0.00016215271898545325,-0.008159775286912918
-0.005414594430476427,-0.003925972618162632,7.109714615665669e-24,0.004739429801702499,-0.00015858132974244654,-0.008344796486198902
-0.005507311783730984,-0.004006901755928993,9.53858867267764e-26,0.004672488197684288,-0.0001551634632050991,-0.00837621558457613
-0.00499999662861228,-0.003503283951431513,1.2797233442224671e-27,0.004699805751442909,-0.00015189031546469778,-0.008363187313079834
-0.004822458140552044,-0.0040893638506531715,1.716912228178258e-29,0.005136940162628889,-0.0001487520057708025,-0.008330944925546646
-0.004822458140552044,-0.0040893638506531715,1.716912228178258e-29,0.005136940162628889,-0.0001487520057708025,-0.008330944925546646
-0.005305330269038677,-0.004325101152062416,3.090381260467517e-33,0.004880028776824474,-0.0001428494433639571,-0.008784891106188297
-0.004887592513114214,-0.004442211706191301,4.14614105389143e-35,0.004615762270987034,-0.0001400703622493893,-0.008409070782363415
-0.005234117154031992,-0.004198343493044376,5.562577344194468e-37,0.004638597369194031,-0.00013739751011598855,-0.00838377419859171
-0.005234117154031992,-0.004198343493044376,5.562577344194468e-37,0.004638597369194031,-0.00013739751011598855,-0.00838377419859171
-0.004999825265258551,-0.004004918038845062,7.462907843140857e-39,0.004599258303642273,-0.00013482445501722395,-0.008372509852051735
-0.004798790439963341,-0.0038608876056969166,1.001241765744725e-40,0.005018024239689112,-0.00013234630750957876,-0.008789388462901115
-0.005011250264942646,-0.004434926901012659,1.3438452272874996e-42,0.00518233934417367,-0.00012995731958653778,-0.008630461990833282
-0.004735250491648912,-0.004591682925820351,0.0,0.0047954777255654335,-0.00012542950571514666,-0.009463819675147533
-0.004735250491648912,-0.004591682925820351,0.0,0.0047954777255654335,-0.00012542950571514666,-0.009463819675147533
-0.005004175938665867,-0.004582177381962538,-0.0,0.004921744577586651,-0.00012328173033893108,-0.008649715222418308
-0.004827400669455528,-0.004260789602994919,-0.0,0.0048227920196950436,-0.00012120632163714617,-0.008629086427390575
-0.004779493436217308,-0.004532555118203163,-0.0,0.004591257777065039,-0.00011919963435502723,-0.008995024487376213
-0.004818409215658903,-0.004171745385974646,-0.0,0.004837252665311098,-0.00011725852527888492,-0.009118130430579185
-0.0045778788626194,-0.004463664256036282,-0.0,0.005247463472187519,-0.00011537951650097966,-0.008761045522987843
-0.004489915911108255,-0.004532912280410528,-0.0,0.004834657534956932,-0.00011355958122294396,-0.00824386440217495
-0.0045410809107124805,-0.004602697677910328,-0.0,0.0049471440725028515,-0.00011179633293068036,-0.008375342935323715
-0.004589470103383064,-0.0046637472696602345,-0.0,0.0049641490913927555,-0.00011008699220838025,-0.008874115534126759
-0.004456345457583666,-0.0047164177522063255,-0.0,0.00481595192104578,-0.00010842911433428526,-0.009275240823626518
-0.004584731534123421,-0.00451881205663085,-0.0,0.005175015889108181,-0.00010682044376153499,-0.009358741343021393
-0.004730574786663055,-0.00489924568682909,-0.0,0.005073566921055317,-0.00010525883408263326,-0.009024702943861485
-0.004395215306431055,-0.004854791332036257,-0.0,0.004814285319298506,-0.0001037422553054057,-0.009041015058755875
-0.004301814362406731,-0.004829266108572483,-0.0,0.0047224657610058784,-8.503223216393963e-05,-0.008815864101052284
-0.004293879494071007,-0.005072304978966713,-0.0,0.004951209295541048,-8.333625737577677e-05,-0.008720586076378822
-0.004667855333536863,-0.004918334539979696,-0.0,0.004629886243492365,-8.181313023669645e-05,-0.008920660242438316
-0.004792728461325169,-0.004688291344791651,-0.0,0.004649574868381023,-8.035167411435395e-05,-0.009104774333536625
-0.0044069658033549786,-0.005225528497248888,-0.0,0.005517955869436264,-7.894218288129196e-05,-0.008952813223004341
-0.004506334196776152,-0.005229354370385408,-0.0,0.0052291154861450195,-7.758110587019473e-05,-0.009077411144971848
-0.0041565545834600925,-0.005097619257867336,-0.0,0.0049683996476233006,-7.626621663803235e-05,-0.009313429705798626
-0.004239059519022703,-0.005708213895559311,-0.0,0.004690142814069986,-7.499528146581724e-05,-0.009209232404828072
-0.004448660183697939,-0.005349189508706331,-0.0,0.004897731821984053,-7.376585563179106e-05,-0.009340750984847546
-0.004448660183697939,-0.005349189508706331,-0.0,0.004897731821984053,-7.376585563179106e-05,-0.009340750984847546
-0.004255017265677452,-0.005418742075562477,-0.0,0.005276966840028763,-7.2576200182084e-05,-0.008915581740438938
-0.004423452541232109,-0.005139829590916634,-0.0,0.005246773827821016,-7.142424146877602e-05,-0.008928496390581131
-0.004085845779627562,-0.00567861320450902,-0.0,0.004854416940361261,-6.922677130205557e-05,-0.009982530027627945
-0.004085845779627562,-0.00567861320450902,-0.0,0.004854416940361261,-6.922677130205557e-05,-0.009982530027627945
-0.003517506644129753,-0.005561977159231901,-0.0,0.0047815581783652306,-6.817784014856443e-05,-0.009244689717888832
-0.0035623323637992144,-0.005454753525555134,-0.0,0.004841370042413473,-7.970216393005103e-05,-0.009548638947308064
-0.004319542553275824,-0.005285554099828005,-0.0,0.004927363246679306,-7.934917812235653e-05,-0.009647495113313198
-0.004152062814682722,-0.005911222659051418,-0.0,0.004951243754476309,-7.825281500117853e-05,-0.009387708269059658
-0.0035185678862035275,-0.005937865935266018,-0.0,0.00469868304207921,-7.713845843682066e-05,-0.009332583285868168
-0.0035392092540860176,-0.005803960375487804,-0.0,0.004531229846179485,-7.605225982842967e-05,-0.009222173132002354
-0.0038335276767611504,-0.005302226170897484,-0.0,0.004237813409417868,-7.499605999328196e-05,-0.009667472913861275
-0.00390672730281949,-0.005574780981987715,-0.0,0.004368389956653118,-7.396880391752347e-05,-0.0096083153039217
-0.0034746364690363407,-0.005567463114857674,-0.0,0.004693661816418171,-7.296921830857173e-05,-0.009364069439470768
-0.003308960935100913,-0.005638607777655125,-0.0,0.004788750782608986,-7.199640094768256e-05,-0.009478063322603703
-0.003470715833827853,-0.005507335998117924,-0.0,0.0047386507503688335,-8.210716623580083e-05,-0.009624234400689602
-0.0035094423219561577,-0.005600100848823786,-0.0,0.004538793116807938,-8.176312985597178e-05,-0.01006624847650528
-0.0033833065535873175,-0.0050657023675739765,-0.0,0.004547542426735163,-8.076208177953959e-05,-0.009736507199704647
-0.0036986570339649916,-0.00543317012488842,-0.00021024206944275647,0.004799230955541134,-7.874638686189428e-05,-0.009282141923904419
-0.0038774656131863594,-0.005660088732838631,-0.00020094194042030722,0.004621666390448809,-7.777420250931755e-05,-0.009604941122233868
-0.003633112646639347,-0.0057058073580265045,-0.00019235294894315302,0.004626089241355658,-7.682584691792727e-05,-0.009901586920022964
-0.0036165276542305946,-0.005985200870782137,-0.00018446742615196854,0.004481987562030554,-7.590026507386938e-05,-0.010412400588393211
-0.003413529135286808,-0.004964478313922882,-0.00020845570543315262,0.004541752859950066,-8.431418245891109e-05,-0.009949962608516216
-0.003573782742023468,-0.005888002924621105,-0.0002045305591309443,0.004504830110818148,-8.461116522084922e-05,-0.009330847300589085
-0.0037062186747789383,-0.006354086101055145,-0.00019711760978680104,0.004405632149428129,-8.371147850994021e-05,-0.009725578129291534
-0.0037062186747789383,-0.006354086101055145,-0.00019711760978680104,0.004405632149428129,-8.371147850994021e-05,-0.009725578129291534
-0.0038873066660016775,-0.006217957939952612,-0.00019017646263819188,0.0046247863210737705,-8.275480649899691e-05,-0.01018560491502285
-0.003939962480217218,-0.0056363679468631744,-0.00020381198555696756,0.004998647142201662,-8.181480370694771e-05,-0.009442925453186035
-0.0034525382798165083,-0.00510559743270278,-0.00020713178673759103,0.005115529056638479,-8.089569018920884e-05,-0.009484334848821163
-0.003155489917844534,-0.005896946415305138,-0.00020066833531018347,0.005119308363646269,-7.999689114512876e-05,-0.009977476671338081
-0.0030770739540457726,-0.005608976352959871,-0.00022187286231201142,0.0048783621750772,-5.938355388934724e-05,-0.010032009333372116
-0.0031453389674425125,-0.005924661178141832,-0.00021559740707743913,0.004727750085294247,-0.00010704827582230791,-0.010265813209116459
-0.003497056197375059,-0.005493605975061655,-0.00020973705977667123,0.004635626915842295,-0.00010769025539048016,-0.009906146675348282
-0.0033532418310642242,-0.005791313014924526,-0.0002830284647643566,0.0048969462513923645,-0.00010537774505792186,-0.009824743494391441
-0.0030884509906172752,-0.0059412214905023575,-0.00026737237931229174,0.004801474045962095,-0.00010297985136276111,-0.010149660520255566
-0.0028715196531265974,-0.006258592940866947,-0.0002854405902326107,0.004742798861116171,-0.00011057587107643485,-0.0097936000674963
-0.0029317105654627085,-0.0063123502768576145,-0.0002865483984351158,0.004693905357271433,-0.00011750004341593012,-0.009631941094994545
-0.0032726856879889965,-0.005702612455934286,-0.0002723155776038766,0.004533727187663317,-0.00011559398990357295,-0.009898091666400433
-0.0032744305208325386,-0.005943815223872662,-0.0003006845072377473,0.0049020079895854,-0.00011321046622470021,-0.009917723014950752
-0.0030939190182834864,-0.006070584524422884,-0.00031560187926515937,0.005128182005137205,-0.0001108881551772356,-0.009875188581645489
-0.002735365182161331,-0.006040098611265421,-0.000315184413921088,0.0052663530223071575,-0.0001243913866346702,-0.009998864494264126
-0.002531986916437745,-0.006221453659236431,-0.0004302659071981907,0.004931347444653511,-0.00012411116040311754,-0.010344251990318298
-0.002677016891539097,-0.005887874402105808,-0.0004506099794525653,0.004529957193881273,-0.00012185220111859962,-0.00999236386269331
-0.002647966844961047,-0.006129126064479351,-0.0004889583797194064,0.004372270777821541,-0.00011954917863477021,-0.009894759394228458
-0.0027718839701265097,-0.005823170766234398,-0.00045122942538000643,0.004624883644282818,-0.00011732349230442196,-0.009869670495390892
-0.0025139532517641783,-0.005930325947701931,-0.0004848634998779744,0.00534843560308218,-0.00011517855455167592,-0.010592942126095295
-0.002386885927990079,-0.00564350513741374,-0.00048019905807450414,0.005318584851920605,-0.00011111550702480599,-0.010109955444931984
-0.0024035293608903885,-0.006106437649577856,-0.0005629066145047545,0.005077012814581394,-0.00010918968473561108,-0.010223216377198696
-0.002307666465640068,-0.006017143372446299,-0.0006213322631083429,0.004537145607173443,-0.00010732948430813849,-0.010088121518492699
-0.0024373927153646946,-0.005776727572083473,-0.0005882536061108112,0.004904088564217091,-0.00010553153697401285,-0.010470371693372726
-0.002310659969225526,-0.005781317595392466,-0.0006180218770168722,0.005574345588684082,-0.00010379291052231565,-0.010264450684189796
-0.0022032547276467085,-0.0061010015197098255,-0.0006410214118659496,0.005535006523132324,-0.00010929366544587538,-0.0106717050075531
-0.0022032547276467085,-0.0061010015197098255,-0.0006410214118659496,0.005535006523132324,-0.00010929366544587538,-0.0106717050075531
-0.001899105729535222,-0.00578130641952157,-0.0007604917045682669,0.005161826964467764,-0.00011435314081609249,-0.010284683667123318
-0.001653539715334773,-0.005839704070240259,-0.0008586862240917981,0.004932282492518425,-0.00011300215555820614,-0.010519799776375294
-0.001685142982751131,-0.006212075240910053,-0.0008654057164676487,0.004742654040455818,-0.00011128458572784439,-0.010732308030128479
-0.001996487844735384,-0.0061163464561104774,-0.0008726652595214546,0.004960041027516127,-0.00010959248174913228,-0.010196737945079803
-0.0022195354104042053,-0.006172911264002323,-0.0010027199750766158,0.005087166093289852,-0.00010794955596793443,-0.010499785654246807
-0.002231137827038765,-0.006478091236203909,-0.00099398463498801,0.005368325859308243,-0.00010635502985678613,-0.010314412415027618
-0.0019783242605626583,-0.006170330103486776,-0.0009908516658470035,0.005510916002094746,-0.00010480677883606404,-0.01042610127478838
-0.0017116217641159892,-0.006372529082000256,-0.00097853341139853,0.005137781146913767,-0.00010330311488360167,-0.010427665896713734
-0.0016604943666607141,-0.006014506798237562,-0.0011432119645178318,0.004789469297975302,-0.00010184194979956374,-0.011465054005384445
-0.0016350161749869585,-0.00583771662786603,-0.0011442014947533607,0.0050507900305092335,-0.0001357629371341318,-0.010052111931145191
-0.0016788069624453783,-0.00601199408993125,-0.0011342850048094988,0.00531883304938674,-0.00013668069732375443,-0.009899970144033432
-0.001953636296093464,-0.007054812740534544,-0.0014011309249326587,0.005409339442849159,-0.00013297103578224778,-0.010056902654469013
-0.0020144253503531218,-0.006436854135245085,-0.001321554183959961,0.005099453963339329,-0.00012917521235067397,-0.010757623240351677
-0.002066646236926317,-0.0062177288345992565,-0.0012687754351645708,0.005129617638885975,-0.0001255714742001146,-0.011247199028730392
-0.0019331502262502909,-0.006427158135920763,-0.0013291002251207829,0.005042777396738529,-0.00012216242612339556,-0.010978375561535358
-0.0016306854085996747,-0.006228025071322918,-0.001381280948407948,0.0050506023690104485,-0.00011893361806869507,-0.011375094763934612
-0.001604299759492278,-0.006523686461150646,-0.001444913912564516,0.0051226308569312096,-0.0001158708764705807,-0.0117619838565588
-0.0015068196225911379,-0.005458238534629345,-0.001487857080064714,0.005213011521846056,-0.0001129622251028195,-0.011301293969154358
-0.001355073880404234,-0.0033934565726667643,-0.001429133233614266,0.005182228982448578,-0.0001265334285562858,-0.011259256862103939
-0.001358300563879311,-0.0021853591315448284,-0.0016148450085893273,0.005214602220803499,-0.00012603630602825433,-0.011024456471204758
-0.0014734896831214428,-0.0030239245388656855,-0.0017765185330063105,0.005231052171438932,-0.0001231833448400721,-0.011062590405344963
-0.0014977632090449333,-0.0041597755625844,-0.0018078640569001436,0.0048624565824866295,-0.00013787319767288864,-0.011191804893314838
-0.0015458459965884686,-0.004325770307332277,-0.0016895938897505403,0.004822889808565378,-0.00013727245095651597,-0.011648367159068584
-0.001619473216123879,-0.003962760791182518,-0.0017190421931445599,0.005168578587472439,-0.00013449871039483696,-0.011441735550761223
-0.0014884446281939745,-0.003391951322555542,-0.0017562673892825842,0.005584474187344313,-0.00013169737940188497,-0.01109230611473322
-0.0014853875618427992,-0.003189234994351864,-0.0018350856844335794,0.0053003341890871525,-0.00012900114234071225,-0.01173892430961132
-0.0014853875618427992,-0.003189234994351864,-0.0018350856844335794,0.0053003341890871525,-0.00012900114234071225,-0.01173892430961132
-0.0013582147657871246,-0.0035158833488821983,-0.002128847409039736,0.005818797741085291,-0.0001421033521182835,-0.011414584703743458
-0.001311760046519339,-0.0037648878060281277,-0.0021276306360960007,0.0056796264834702015,-0.00014147513138595968,-0.011356906034052372
-0.0011568533955141902,-0.003367197699844837,-0.0022579580545425415,0.005628333892673254,-0.00013888732064515352,-0.011787480674684048
-0.0010989460861310363,-0.0029276255518198013,-0.0021951901726424694,0.005563808139413595,-0.00013626788859255612,-0.011734583415091038
-0.00107729306910187,-0.0027871730271726847,-0.002236975822597742,0.005768495611846447,-0.00013373744150158018,-0.012363236397504807
-0.001062823343090713,-0.002934971358627081,-0.002149054082110524,0.005406615324318409,-0.00013129855506122112,-0.01186891458928585
-0.0011867255670949817,-0.0032004958484321833,-0.00230670184828341,0.005572076886892319,-0.00012894706742372364,-0.012040936388075352
-0.0011347632389515638,-0.003168678842484951,-0.002327071037143469,0.005505525041371584,-0.00016944514936767519,-0.011950907297432423
-0.0010047336108982563,-0.003119997214525938,-0.0022850017994642258,0.005895563401281834,-0.0001692074874881655,-0.012021606788039207
-0.000985415419563651,-0.002902187639847398,-0.002588836010545492,0.005666046869009733,-0.00016346106713172048,-0.012100291438400745
-0.000873034237883985,-0.002910440554842353,-0.002561585046350956,0.005851034075021744,-0.0001577559596626088,-0.011904090642929077
-0.0007571367314085364,-0.003079240210354328,-0.0024615286383777857,0.005989904515445232,-0.0001524139806861058,-0.012104697525501251
-0.0007722615846432745,-0.003530685557052493,-0.002631669631227851,0.005693386308848858,-0.00017491406470071524,-0.012020215392112732
-0.0008649338269606233,-0.0033573023974895477,-0.0025358088314533234,0.005505493376404047,-0.00017116244998760521,-0.012133429758250713
-0.0008130953647196293,-0.0035385035444051027,-0.0024262487422674894,0.005236636381596327,-0.0001918236812343821,-0.012353486381471157
-0.0010331239318475127,-0.003662057453766465,-0.0027115321718156338,0.005573703441768885,-0.00020767709065694362,-0.012082865461707115
-0.0009115352877415717,-0.004031746182590723,-0.0028538648039102554,0.005705649498850107,-0.0003907516656909138,-0.011934667825698853
-0.0007977609056979418,-0.004188342485576868,-0.0026313541457057,0.0051931822672486305,-0.00044096491183154285,-0.0124750891700387
-0.0007080510258674622,-0.0036131187807768583,-0.0028332103975117207,0.005293404683470726,-0.0004255073727108538,-0.012496617622673512
-0.0006364815053530037,-0.003526173299178481,-0.0030049483757466078,0.005493896547704935,-0.0004525118274614215,-0.012418260797858238
-0.0005780528299510479,-0.003658250207081437,-0.003134913742542267,0.005806656088680029,-0.00042949270573444664,-0.012464447878301144
-0.0005294539732858539,-0.004326576367020607,-0.0032806231174618006,0.005815097596496344,-0.000444878067355603,-0.012284941039979458
-0.0005497589590959251,-0.004147839732468128,-0.0029704677872359753,0.005322996526956558,-0.000432054977864027,-0.012963335029780865
-0.0005497589590959251,-0.004147839732468128,-0.0029704677872359753,0.005322996526956558,-0.000432054977864027,-0.012963335029780865
-0.0005178910796530545,-0.003857380710542202,-0.003083256771788001,0.005591668654233217,-0.0005769184208475053,-0.012811819091439247
-0.00045283150393515825,-0.0037800290156155825,-0.003337614005431533,0.005858271382749081,-0.0006306974682956934,-0.013153530657291412
-0.00045283150393515825,-0.0037800290156155825,-0.003337614005431533,0.005858271382749081,-0.0006306974682956934,-0.013153530657291412
-0.0004260322020854801,-0.0038809720426797867,-0.003350344020873308,0.005805192515254021,-0.0005931924097239971,-0.013256880454719067
-0.0004022300709038973,-0.0037756450474262238,-0.0031607458367943764,0.006048482842743397,-0.000543412403203547,-0.013065548613667488
-0.0003809451009146869,-0.00348976394161582,-0.0034915569704025984,0.005412283353507519,-0.0005527613684535027,-0.012813994660973549
-0.00036180042661726475,-0.003823342267423868,-0.0037551906425505877,0.005627525970339775,-0.0005284493090584874,-0.012614943087100983
-0.0002677447337191552,-0.004111221991479397,-0.003776460187509656,0.005613874178379774,-0.0004932869342155755,-0.012800698168575764
-0.0002498612739145756,-0.0043677520006895065,-0.004152957815676928,0.006198213901370764,-0.00046170587302185595,-0.013156827539205551
-0.00023667735513299704,-0.004069217946380377,-0.004288391210138798,0.006097379140555859,-0.0004509864957071841,-0.01325617078691721
-0.00018051509687211365,-0.0038777559529989958,-0.004046188667416573,0.00578500609844923,-0.00041692101513035595,-0.013334441930055618
-0.00018072874809149653,-0.0038398096803575754,-0.0038767228834331036,0.005513839889317751,-0.00038200116250663996,-0.013028900139033794
-0.00015642507059965283,-0.004360881634056568,-0.0038579259999096394,0.005431205965578556,-0.0004038091574329883,-0.013454070314764977
-0.00013331786612980068,-0.004742157179862261,-0.004308338277041912,0.005621017888188362,-0.0003906310012098402,-0.013376051560044289
-1.788629333532299e-06,-0.004363927990198135,-0.00416612159460783,0.005597293842583895,-0.0004100287624169141,-0.013757823966443539
-2.3996745923682283e-08,-0.004002315457910299,-0.004236563108861446,0.005536708515137434,-0.00039813475450500846,-0.013247695751488209
-3.2194699683962824e-10,-0.0041297730058431625,-0.0046430123038589954,0.005546947475522757,-0.0004148253065068275,-0.013073695823550224
-4.3193296161980754e-12,-0.004095298703759909,-0.004722383804619312,0.005627725273370743,-0.000405641709221527,-0.013218973763287067
-7.774641195930549e-16,-0.004416350740939379,-0.004206689074635506,0.006219013128429651,-0.0005158861167728901,-0.013877065852284431
-1.0430673905219162e-17,-0.004679686389863491,-0.004052105359733105,0.005471741780638695,-0.0004761175368912518,-0.014284218661487103
-1.3994080044458733e-19,-0.004489135462790728,-0.004945423919707537,0.005386703182011843,-0.0005056453519500792,-0.014123102650046349
-1.877484309612998e-21,-0.004443877376616001,-0.00488533079624176,0.005193185061216354,-0.0004721713194157928,-0.013378549367189407
-2.5188846196460732e-23,-0.004621066618710756,-0.004935913719236851,0.005496429745107889,-0.0004395022115204483,-0.013498998247087002
-3.3794051761808186e-25,-0.0043014842085540295,-0.0047170622274279594,0.0059844632633030415,-0.00041084110853262246,-0.013794449158012867
-4.533902941489934e-27,-0.004532316699624062,-0.004762106575071812,0.006003700662404299,-0.00038567683077417314,-0.01409255899488926
-6.082809589957144e-29,-0.004217807203531265,-0.004773935303092003,0.00587770389392972,-0.0004117380012758076,-0.013772435486316681
-6.082809589957144e-29,-0.004217807203531265,-0.004773935303092003,0.00587770389392972,-0.0004117380012758076,-0.013772435486316681
-8.160865769001808e-31,-0.004489117302000523,-0.004897203296422958,0.0060282000340521336,-0.0003924397751688957,-0.013994559645652771
-1.0948843114358707e-32,-0.004537439905107021,-0.005325689911842346,0.005720131564885378,-0.0003723443078342825,-0.013979192823171616
-1.468927128146301e-34,-0.004716665484011173,-0.0058057876303792,0.006002665963023901,-0.0003649636637419462,-0.014606163837015629
-1.970753156844991e-36,-0.004296848550438881,-0.005209961906075478,0.00608382374048233,-0.000348354660673067,-0.015343704260885715
-2.6440167458567733e-38,-0.004402685444802046,-0.005228622350841761,0.0061156558804214,-0.00035546321305446327,-0.014228048734366894
0.00013897859025746584,-0.004340515471994877,-0.005092764273285866,0.006220173090696335,-0.0003605681995395571,-0.013457784429192543
0.001103484071791172,-0.004026914015412331,-0.005261574871838093,0.006151942536234856,-0.00033976160921156406,-0.014157157391309738
0.0008970748167484999,-0.004347598645836115,-0.005533549468964338,0.006042584776878357,-0.00036935199750587344,-0.014803449623286724
0.0008443237165920436,-0.004564129281789064,-0.005488002672791481,0.0061876303516328335,-0.00037646855344064534,-0.015351662412285805
0.0007687124889343977,-0.004745183978229761,-0.005565122701227665,0.006260063499212265,-0.00037949022953398526,-0.015221581794321537
0.0006733753834851086,-0.004637186415493488,-0.005208862479776144,0.006930200383067131,-0.0004507074481807649,-0.014867090620100498
0.0005986737669445574,-0.004291805904358625,-0.005242873448878527,0.006672672927379608,-0.000486242410261184,-0.014795579947531223
0.0005973536754027009,-0.004539001267403364,-0.00524766743183136,0.006487027741968632,-0.0004437855677679181,-0.014855335466563702
0.0005712172132916749,-0.0043830424547195435,-0.005642159841954708,0.006507481448352337,-0.00040423619793727994,-0.014332554303109646
0.0005240639438852668,-0.00435410812497139,-0.005827449727803469,0.006619191262871027,-0.00043980704504065216,-0.01459560077637434
0.00044929972500540316,-0.005012990441173315,-0.005370090715587139,0.006685406435281038,-0.0004129332664888352,-0.015445712022483349
0.00047680953866802156,-0.00479625491425395,-0.005430133081972599,0.00655960850417614,-0.0004141195095144212,-0.015462826006114483
0.0003842695150524378,-0.004674267023801804,-0.005731002427637577,0.006487729959189892,-0.0003903090546373278,-0.015474284067749977
0.0004291108052711934,-0.004253105726093054,-0.0061773695051670074,0.006261030212044716,-0.0004165220889262855,-0.0155135877430439
0.00048171367961913347,-0.004938085097819567,-0.006295477040112019,0.0065535129979252815,-0.0004176408110652119,-0.015421140007674694
0.001634543645195663,-0.004716310650110245,-0.0056100753135979176,0.007058055140078068,-0.0004031307762488723,-0.015623168088495731
0.0014818321214988828,-0.004987689666450024,-0.005957538727670908,0.006538242567330599,-0.000425828096922487,-0.015394732356071472
0.0012016940163448453,-0.004851517733186483,-0.006025209091603756,0.006363692693412304,-0.0004104301333427429,-0.01589314639568329
0.0010089533170685172,-0.004902482032775879,-0.006302893161773682,0.006467003840953112,-0.00038245608448050916,-0.01573023945093155
0.0009918081341311336,-0.00460238428786397,-0.005698330234736204,0.006810981314629316,-0.0003861422592308372,-0.016018569469451904
0.0008650250965729356,-0.004884533584117889,-0.005826748441904783,0.0068313367664813995,-0.000388885207939893,-0.016029737889766693
0.0008650250965729356,-0.004884533584117889,-0.005826748441904783,0.0068313367664813995,-0.000388885207939893,-0.016029737889766693
0.0009910129010677338,-0.004864227958023548,-0.006501129362732172,0.006602978799492121,-0.0003679061192087829,-0.016457591205835342
0.0017454000189900398,-0.0049074143171310425,-0.00687063205987215,0.006388048641383648,-0.00038432521978393197,-0.016164232045412064
0.001834244467318058,-0.004838733468204737,-0.0061903963796794415,0.006767649669200182,-0.0003757425583899021,-0.016258850693702698
0.0015699767973273993,-0.004485750105232,-0.00428454764187336,0.00686052767559886,-0.00035781553015112877,-0.016244729980826378
0.0014757388271391392,-0.004467172082513571,-0.0025272576604038477,0.006766231264919043,-0.0003420626453589648,-0.015999741852283478
0.001347360317595303,-0.004439078271389008,-0.0023094380740076303,0.006376187317073345,-0.00037074877764098346,-0.016078459098935127
0.0012651013676077127,-0.00461056362837553,-0.0028815511614084244,0.00549909146502614,-0.0003795080410782248,-0.016240617260336876
0.0011025296989828348,-0.00492992764338851,-0.004893396981060505,0.0053803566843271255,-0.0003834381641354412,-0.01651248149573803
0.0011692133266478777,-0.004766203463077545,-0.00430750846862793,0.005381301511079073,-0.00041174254147335887,-0.01643161103129387
0.001956986729055643,-0.004827611148357391,-0.003738605184480548,0.00710265664383769,-0.0004418722237460315,-0.016297657042741776
0.0022221242543309927,-0.004540019668638706,-0.003266586922109127,0.007546937558799982,-0.0005796889890916646,-0.015988241881132126
0.002607380971312523,-0.004385290667414665,-0.00316964671947062,0.0074090613052248955,-0.0007550206501036882,-0.0157356895506382
0.0021695562172681093,-0.004901878535747528,-0.003420366207137704,0.0069159152917563915,-0.0007898428593762219,-0.016343478113412857
0.0017655541887506843,-0.004868358839303255,-0.0036402391269803047,0.006697517819702625,-0.000809430901426822,-0.01664738915860653
0.0018946074414998293,-0.004986899439245462,-0.003267046296969056,0.007520145736634731,-0.001178421196527779,-0.016578909009695053
0.00205476232804358,-0.004856699611991644,-0.0033474743831902742,0.007738383486866951,-0.0010978271020576358,-0.01671358197927475
0.002870062133297324,-0.004336545243859291,-0.0036204401403665543,0.007469278294593096,-0.0010085251415148377,-0.016627678647637367
0.003237568773329258,-0.004408435430377722,-0.0038000887725502253,0.007333013229072094,-0.0009167743264697492,-0.016132168471813202
0.002773108659312129,-0.004172004759311676,-0.0037328582257032394,0.006645586807280779,-0.0009088597144000232,-0.01652851141989231
0.002606604713946581,-0.004289549309760332,-0.003659814363345504,0.006794312968850136,-0.0008980504935607314,-0.016885632649064064
0.0027421170379966497,-0.004522249568253756,-0.0042341467924416065,0.007048128172755241,-0.0008976428071036935,-0.017476508393883705
0.0031784079037606716,-0.00466308044269681,-0.004165477119386196,0.0071487389504909515,-0.0008999991696327925,-0.01762949861586094
0.0036177681758999825,-0.004639321472495794,-0.004238362889736891,0.007048153784126043,-0.0009151460253633559,-0.01712675392627716
0.0036177681758999825,-0.004639321472495794,-0.004238362889736891,0.007048153784126043,-0.0009151460253633559,-0.01712675392627716
0.003735401900485158,-0.0042521217837929726,-0.004485298879444599,0.006992147769778967,-0.000896415498573333,-0.01716645434498787
0.003339925082400441,-0.0041984934359788895,-0.004751939792186022,0.007342581637203693,-0.0008958392427302897,-0.017142431810498238
0.003420333145186305,-0.00420214980840683,-0.004492591600865126,0.007317293435335159,-0.0008212600951083004,-0.01745629869401455
0.0037909098900854588,-0.004883330315351486,-0.004542823880910873,0.007243217900395393,-0.0008209325606003404,-0.017353352159261703
0.0043276348151266575,-0.004500625655055046,-0.004271361511200666,0.007472771219909191,-0.0009417525725439191,-0.017146632075309753
0.0044390675611793995,-0.0045918854884803295,-0.004486906807869673,0.0073335240595042706,-0.0009593631839379668,-0.01770315133035183
0.004023578949272633,-0.004491087049245834,-0.004919198341667652,0.007403220050036907,-0.0013260410632938147,-0.017744366079568863
0.004134943708777428,-0.0045782048255205154,-0.004933706019073725,0.006822909228503704,-0.0013102289522066712,-0.017893152311444283
0.004599862731993198,-0.0047550383023917675,-0.005226461216807365,0.0072798952460289,-0.0012217586627230048,-0.017997680231928825
0.0047611971385777,-0.004464851692318916,-0.004903240595012903,0.008036533370614052,-0.0010846006916835904,-0.017910504713654518
0.004846316762268543,-0.004579406697303057,-0.004945388995110989,0.007912354543805122,-0.0010440134210512042,-0.01801333762705326
0.004908351227641106,-0.004559256602078676,-0.0050441427156329155,0.0068901460617780685,-0.0010186430299654603,-0.01821005903184414
0.005364362616091967,-0.004312179517000914,-0.005647811572998762,0.006597665138542652,-0.000937033852096647,-0.01835283637046814
0.005232404451817274,-0.004299071151763201,-0.00647479435428977,0.007003991864621639,-0.0009045758633874357,-0.018466059118509293
0.004990805871784687,-0.0044319103471934795,-0.005687779746949673,0.0073079378344118595,-0.0008352004224434495,-0.018216947093605995
0.005172842647880316,-0.004810207523405552,-0.005310135893523693,0.007016071118414402,-0.0008361181244254112,-0.018345559015870094
0.005166786722838879,-0.004454400390386581,-0.005520189180970192,0.007112937513738871,-0.000844924827106297,-0.018694356083869934
0.005857419688254595,-0.004310609772801399,-0.00523897260427475,0.0074420468881726265,-0.0008520092233084142,-0.01839900016784668
0.0063959029503166676,-0.0043754903599619865,-0.00641188770532608,0.007194878067821264,-0.0010611278703436255,-0.018680796027183533
0.0063959029503166676,-0.0043754903599619865,-0.00641188770532608,0.007194878067821264,-0.0010611278703436255,-0.018680796027183533
0.006212112959474325,-0.004311126656830311,-0.005851454101502895,0.008114148862659931,-0.001217940472997725,-0.018992358818650246
0.006908580660820007,-0.004534006584435701,-0.00552966445684433,0.00817464105784893,-0.0012875816319137812,-0.019017023965716362
0.007133146282285452,-0.004474078770726919,-0.005954903084784746,0.007999553345143795,-0.00122025515884161,-0.018844828009605408
0.007193949073553085,-0.005003907717764378,-0.0063537852838635445,0.007899990305304527,-0.0010406301589682698,-0.019324123859405518
0.007098461035639048,-0.004382789600640535,-0.005876741372048855,0.00873277522623539,-0.0010031800484284759,-0.01952890306711197
0.007658603135496378,-0.004433504305779934,-0.005970660597085953,0.008324203081429005,-0.0008748755208216608,-0.01943102292716503
0.007747736293822527,-0.004170239437371492,-0.005593255162239075,0.00795397162437439,-0.0008528182515874505,-0.019330838695168495
0.007747736293822527,-0.004170239437371492,-0.005593255162239075,0.00795397162437439,-0.0008528182515874505,-0.019330838695168495
0.007116264663636684,-0.003919833339750767,-0.006428184919059277,0.008186875842511654,-0.000925835280213505,-0.01912647671997547
0.007183147128671408,-0.004364512860774994,-0.006655435543507338,0.00818556360900402,-0.0012722475221380591,-0.01959112659096718
0.008129454217851162,-0.004559092223644257,-0.0060034883208572865,0.007643858902156353,-0.001412087120115757,-0.02029144950211048
0.00786331482231617,-0.004559236578643322,-0.006105209235101938,0.007892757654190063,-0.001242364989593625,-0.019702713936567307
0.007548170629888773,-0.004549266304820776,-0.005871948786079884,0.008051158860325813,-0.0011804579989984632,-0.019390953704714775
0.007864090614020824,-0.0043001375161111355,-0.006396693177521229,0.007916196249425411,-0.0010437237797304988,-0.019525274634361267
0.008272107690572739,-0.004533253610134125,-0.0067849913612008095,0.007351307664066553,-0.0009841426508501172,-0.01962665095925331
0.008452859707176685,-0.0037826807238161564,-0.006815839558839798,0.007421992719173431,-0.000968503940384835,-0.01944427564740181
0.00846016313880682,-0.003046348225325346,-0.006848628167062998,0.007741007953882217,-0.0009769503958523273,-0.019898228347301483
0.007911209017038345,-0.002823765855282545,-0.006514275446534157,0.007993211038410664,-0.001134744961746037,-0.02020961418747902
0.008550171740353107,-0.0029272246174514294,-0.007237342186272144,0.008054692298173904,-0.0012144665233790874,-0.02044162154197693
0.009193138219416142,-0.003503094892948866,-0.007144448347389698,0.008493604138493538,-0.0014439953956753016,-0.02018236182630062
0.008716298267245293,-0.0037357157561928034,-0.0066643268801271915,0.008129866793751717,-0.001583711476996541,-0.020511271432042122
0.00911762472242117,-0.0036769716534763575,-0.006551183294504881,0.007980385795235634,-0.0014836016343906522,-0.02099122852087021
0.009126297198235989,-0.0034780094865709543,-0.007228690665215254,0.008098761551082134,-0.0014597278786823153,-0.021876461803913116
0.009208189323544502,-0.003501607570797205,-0.007430273573845625,0.009087433107197285,-0.001400542096234858,-0.02069958671927452
0.009602591395378113,-0.003244867315515876,-0.006890498101711273,0.008420822210609913,-0.0013327085180208087,-0.02065284736454487
0.009180514141917229,-0.0038461803924292326,-0.007862716913223267,0.008064636029303074,-0.0011118005495518446,-0.020405054092407227
0.009537574835121632,-0.0039048176258802414,-0.007160220295190811,0.008549515157938004,-0.0010726375039666891,-0.020755255594849586
0.00954411644488573,-0.0034098781179636717,-0.006736144423484802,0.008438563905656338,-0.0010126162087544799,-0.02114262990653515
0.009291362017393112,-0.0035632317885756493,-0.0066358065232634544,0.008134052157402039,-0.0009393201908096671,-0.021421276032924652
0.0101054348051548,-0.0032380775082856417,-0.0068763913586735725,0.008506879210472107,-0.0008401881204918027,-0.0216809269040823
0.010546221397817135,-0.0033535799011588097,-0.007231360767036676,0.008648213930428028,-0.0007836891454644501,-0.02147023007273674
0.009735082276165485,-0.0034077551681548357,-0.007169757969677448,0.007991103455424309,-0.0007953866734169424,-0.021223172545433044
0.01029899064451456,-0.0033899876289069653,-0.006741397548466921,0.008214679546654224,-0.000807831936981529,-0.021436626091599464
0.010445673018693924,-0.003640074050053954,-0.007205406203866005,0.008966364897787571,-0.0007806274225004017,-0.021529557183384895
0.00995391234755516,-0.0034077817108482122,-0.00768072297796607,0.008768405765295029,-0.0009666124824434519,-0.02212546393275261
0.010602346621453762,-0.003584472928196192,-0.0075446018017828465,0.008417227305471897,-0.0010791464010253549,-0.022251803427934647
0.010796749964356422,-0.003769695060327649,-0.006704698316752911,0.008545209653675556,-0.0016246376326307654,-0.022390035912394524
0.011026682332158089,-0.0033919825218617916,-0.006671209819614887,0.008550348691642284,-0.0016548529965803027,-0.02198747545480728
0.011077151633799076,-0.003557362826541066,-0.007375445682555437,0.008504356257617474,-0.0014469142770394683,-0.0218651182949543
0.011077151633799076,-0.003557362826541066,-0.007375445682555437,0.008504356257617474,-0.0014469142770394683,-0.0218651182949543
0.011062675155699253,-0.0038544146809726954,-0.007601546589285135,0.008510995656251907,-0.001250000554136932,-0.022660156711935997
0.011205839924514294,-0.0033700268249958754,-0.0068898978643119335,0.0088434386998415,-0.0011685547651723027,-0.02314920723438263
0.011028677225112915,-0.0033633089624345303,-0.006569941993802786,0.008417824283242226,-0.0011079814285039902,-0.022877126932144165
0.010997440665960312,-0.003531810361891985,-0.007264279294759035,0.007708381861448288,-0.0010996537748724222,-0.021999897435307503
0.011634089052677155,-0.003672124817967415,-0.007355610840022564,0.008631604723632336,-0.0010804679477587342,-0.022265778854489326
0.012035427615046501,-0.0035507141146808863,-0.007201027125120163,0.0082277562469244,-0.0011950554326176643,-0.0220025647431612
0.011433222331106663,-0.0035781480837613344,-0.006698615849018097,0.007964782416820526,-0.001515670563094318,-0.022221315652132034
0.012244355864822865,-0.003985235001891851,-0.007286277133971453,0.008134132251143456,-0.00155839289072901,-0.02312237024307251
0.012350191362202168,-0.00391607778146863,-0.00810055248439312,0.008328929543495178,-0.0015919554280117154,-0.022761821746826172
0.011082464829087257,-0.00366881862282753,-0.007197134662419558,0.008311239071190357,-0.0015204460360109806,-0.022846193984150887
0.00961513351649046,-0.003400929970666766,-0.0073106903582811356,0.008320184424519539,-0.0014023409457877278,-0.023074664175510406
0.009197330102324486,-0.0035549947060644627,-0.007653736975044012,0.009552129544317722,-0.0012988324742764235,-0.024083789438009262
0.010554427281022072,-0.003987033851444721,-0.0074478695169091225,0.009232141077518463,-0.0011209817603230476,-0.023012401536107063
0.009762832894921303,-0.003657457185909152,-0.007436812389642,0.00912510883063078,-0.0008637126302346587,-0.02239535190165043
0.010363321751356125,-0.0035780644975602627,-0.007616491988301277,0.009456546977162361,-0.000867219059728086,-0.022847119718790054
0.010087506845593452,-0.0035870459396392107,-0.007469334173947573,0.008892358280718327,-0.0008898639935068786,-0.0236019529402256
0.010590697638690472,-0.0035399969201534986,-0.007476718630641699,0.009004801511764526,-0.001218724763020873,-0.023686064407229424
0.011234012432396412,-0.0035955829080194235,-0.007456471212208271,0.009200731292366982,-0.0016512386500835419,-0.023468991741538048
0.01040628645569086,-0.004038316197693348,-0.008193867281079292,0.009035944007337093,-0.002000193577259779,-0.023264044895768166
0.010911236517131329,-0.00411045690998435,-0.007778842933475971,0.00880247913300991,-0.0018075368134304881,-0.02322974056005478
0.010911236517131329,-0.00411045690998435,-0.007778842933475971,0.00880247913300991,-0.0018075368134304881,-0.02322974056005478
0.01120120007544756,-0.00385603541508317,-0.007709763012826443,0.00910994689911604,-0.0014452349860221148,-0.023038281127810478
0.01071398239582777,-0.003699295688420534,-0.007479504682123661,0.009395848028361797,-0.0012054044054821134,-0.022929484024643898
0.012097174301743507,-0.004186251200735569,-0.007893566973507404,0.009415911510586739,-0.001022891141474247,-0.023953299969434738
0.012097174301743507,-0.004186251200735569,-0.007893566973507404,0.009415911510586739,-0.001022891141474247,-0.023953299969434738
0.01072006393224001,-0.0038768684025853872,-0.007624094840139151,0.009424129500985146,-0.0010049066040664911,-0.023907218128442764
0.011828663758933544,-0.004133014939725399,-0.0074768043123185635,0.008885864168405533,-0.0008803864475339651,-0.023491958156228065
0.011359075084328651,-0.004204985685646534,-0.008416227996349335,0.009562981314957142,-0.0008711101254448295,-0.02374930866062641
0.011369412764906883,-0.004561612848192453,-0.008398580364882946,0.009465018287301064,-0.0009034794056788087,-0.024141108617186546
0.011856520548462868,-0.004288355819880962,-0.00794521439820528,0.009160658344626427,-0.0012162933126091957,-0.023950571194291115
0.011444427073001862,-0.0040079401805996895,-0.007869819179177284,0.009248240850865841,-0.0012897541746497154,-0.02406291291117668
0.011590022593736649,-0.004057622980326414,-0.008468222804367542,0.009397718124091625,-0.0014890137827023864,-0.024045350030064583
0.012013374827802181,-0.00395238446071744,-0.007731023244559765,0.008938103914260864,-0.0016601968090981245,-0.024322127923369408
0.011786472983658314,-0.003818127792328596,-0.008024318143725395,0.008889755234122276,-0.0015886309556663036,-0.024407140910625458
0.011938338167965412,-0.0038700769655406475,-0.008449902758002281,0.009155334904789925,-0.001556496019475162,-0.02444278448820114
0.01171632669866085,-0.004332348704338074,-0.008305897004902363,0.008610733784735203,-0.0016056835884228349,-0.02494506537914276
0.012172217480838299,-0.00455060787498951,-0.008202257566154003,0.00866322685033083,-0.0016097930492833257,-0.024907078593969345
0.011465896852314472,-0.0043857465498149395,-0.008367693051695824,0.009435595013201237,-0.0016065124655142426,-0.02496255561709404
0.011225506663322449,-0.004019097425043583,-0.008633270859718323,0.00923363957554102,-0.0015131672844290733,-0.024690845981240273
0.011681325733661652,-0.004268274642527103,-0.00799520779401064,0.008625383488833904,-0.001543254591524601,-0.024354897439479828
0.011473902501165867,-0.004174014087766409,-0.007681818213313818,0.009058685973286629,-0.0015408265171572566,-0.0243273563683033
0.011838898062705994,-0.004048141185194254,-0.008724752813577652,0.008829694241285324,-0.0016053076833486557,-0.025270557031035423
0.012128091417253017,-0.004000280052423477,-0.008348353207111359,0.009017037227749825,-0.0013719936832785606,-0.025070015341043472
0.012313996441662312,-0.00392229575663805,-0.008016838692128658,0.009113444946706295,-0.0012808471219614148,-0.025102894753217697
0.011844828724861145,-0.004125361330807209,-0.008896109648048878,0.009203251451253891,-0.0011856351047754288,-0.025236988440155983
0.012244882993400097,-0.00405768770724535,-0.008572247810661793,0.009900628589093685,-0.0011502619599923491,-0.025623463094234467
0.011603109538555145,-0.0042332434095442295,-0.008905822411179543,0.010079877451062202,-0.0011416597990319133,-0.025949031114578247
0.012376508675515652,-0.004078373312950134,-0.009165537543594837,0.010384437628090382,-0.0015041627921164036,-0.02576138637959957
0.01257853489369154,-0.003991839475929737,-0.008709155023097992,0.01003234088420868,-0.0014664728660136461,-0.025690775364637375
0.01233427133411169,-0.003953293431550264,-0.008654540404677391,0.009704181924462318,-0.0015943313483148813,-0.025826307013630867
0.01233427133411169,-0.003953293431550264,-0.008654540404677391,0.009704181924462318,-0.0015943313483148813,-0.025826307013630867
0.012764699757099152,-0.0042856959626078606,-0.008857951499521732,0.00944219809025526,-0.0015159125905483961,-0.026129238307476044
0.012572500854730606,-0.0043276953510940075,-0.009654478169977665,0.010031378827989101,-0.001421504421159625,-0.026485944166779518
0.012831117026507854,-0.004383142106235027,-0.00882201362401247,0.009962652809917927,-0.001421016058884561,-0.02620895765721798
0.01203243713825941,-0.004292622208595276,-0.00906585343182087,0.010100756771862507,-0.0014535769587382674,-0.02632255107164383
0.012550830841064453,-0.004045727197080851,-0.009574644267559052,0.010043679736554623,-0.0017048624577000737,-0.02659905143082142
0.011972998268902302,-0.00420745462179184,-0.009413763880729675,0.00995231419801712,-0.0018758948426693678,-0.026401495561003685
0.01237295288592577,-0.004669131711125374,-0.008449133485555649,0.010064852423965931,-0.0020218968857079744,-0.025947263464331627
0.012975967489182949,-0.004308732226490974,-0.009431546553969383,0.010791460052132607,-0.0019917155150324106,-0.026658635586500168
0.012541086412966251,-0.004484971985220909,-0.009176802821457386,0.01047640759497881,-0.0019417685689404607,-0.027943361550569534
0.01319153979420662,-0.00449520954862237,-0.009160708636045456,0.010423797182738781,-0.001718909596092999,-0.027767134830355644
0.01248141285032034,-0.004322520457208157,-0.009636255912482738,0.010033993050456047,-0.0015608585672453046,-0.02693491242825985
0.013205183669924736,-0.0040544685907661915,-0.009534891694784164,0.009705946780741215,-0.0014353918377310038,-0.025801843032240868
0.01292448490858078,-0.0042487867176532745,-0.009085044264793396,0.009645374491810799,-0.001502274302765727,-0.026173023506999016
0.013201158493757248,-0.00464214663952589,-0.00939615536481142,0.010254659689962864,-0.0017009811708703637,-0.027550743892788887
0.01336071640253067,-0.0046611991710960865,-0.009548484347760677,0.009806184098124504,-0.001742902910336852,-0.027776364237070084
0.013085011392831802,-0.004383373074233532,-0.00931390281766653,0.009473169222474098,-0.0016107282135635614,-0.027926018461585045
0.013068744912743568,-0.004523976240307093,-0.009776291437447071,0.009752742946147919,-0.001610247534699738,-0.028480133041739464
0.013209228403866291,-0.004199846647679806,-0.009718760848045349,0.009773398749530315,-0.0015564918285235763,-0.028554227203130722
0.01355085987597704,-0.00414492841809988,-0.009322091937065125,0.010317917913198471,-0.0016511296853423119,-0.027286360040307045
0.013807862065732479,-0.004382594488561153,-0.009624423459172249,0.010056061670184135,-0.001715869759209454,-0.028042906895279884
0.013493203558027744,-0.004543720278888941,-0.010101988911628723,0.010048703290522099,-0.00184997683390975,-0.02846749685704708
0.013920336961746216,-0.004622774198651314,-0.009306151419878006,0.010334284044802189,-0.00200033001601696,-0.028501180931925774
0.013555276207625866,-0.0042729624547064304,-0.009486820548772812,0.009946760721504688,-0.0019760113209486008,-0.028645014390349388
0.014216771349310875,-0.004246225580573082,-0.009441172704100609,0.010390548035502434,-0.0019278356339782476,-0.028509635478258133
0.013700096867978573,-0.004168407060205936,-0.00913664884865284,0.010719219222664833,-0.0019114597234874964,-0.028486764058470726
0.013827072456479073,-0.004868443589657545,-0.010291977785527706,0.010277563706040382,-0.002181898569688201,-0.028871141374111176
0.013673094101250172,-0.004962408449500799,-0.009148288518190384,0.01052458118647337,-0.002175027970224619,-0.029249591752886772
0.014354501850903034,-0.004568177741020918,-0.009782782755792141,0.0105855418369174,-0.0021612124983221292,-0.029596569016575813
0.014354501850903034,-0.004568177741020918,-0.009782782755792141,0.0105855418369174,-0.0021612124983221292,-0.029596569016575813
0.014169574715197086,-0.004613971803337336,-0.01190316304564476,0.010285131633281708,-0.001981739653274417,-0.02926631085574627
0.014213684014976025,-0.0044450233690440655,-0.009515427984297276,0.010832715779542923,-0.0018672470469027758,-0.02953188680112362
0.014295075088739395,-0.004372316878288984,-0.008214798755943775,0.010968102142214775,-0.0017435119953006506,-0.029130449518561363
0.014314227737486362,-0.004794627893716097,-0.009504315443336964,0.011066107079386711,-0.0016901121707633138,-0.029814517125487328
0.013917260803282261,-0.004680792801082134,-0.009872865863144398,0.010632941499352455,-0.001779342070221901,-0.030194880440831184
0.014476201497018337,-0.004887367133051157,-0.009705283679068089,0.010319098830223083,-0.0021652744617313147,-0.02963954210281372
0.01440517045557499,-0.004811602178961039,-0.010278260335326195,0.009993360377848148,-0.0023808327969163656,-0.02924574911594391
0.014649580232799053,-0.004376621451228857,-0.009412402287125587,0.010251255705952644,-0.0021312811877578497,-0.028437020257115364
0.014342423528432846,-0.004504214972257614,-0.008998104371130466,0.010434322990477085,-0.001870157546363771,-0.02976379543542862
0.014505309984087944,-0.004450665786862373,-0.009792778640985489,0.010160643607378006,-0.0017425765981897712,-0.029840795323252678
0.014637394808232784,-0.004736173432320356,-0.010001834481954575,0.010642551816999912,-0.0016227539163082838,-0.03024892322719097
0.01533554121851921,-0.004912869539111853,-0.010927412658929825,0.009820261970162392,-0.0016546535771340132,-0.031034180894494057
0.014421983622014523,-0.00480260793119669,-0.010463868267834187,0.009812934324145317,-0.0017395224422216415,-0.030606677755713463
0.014822270721197128,-0.004503047559410334,-0.009820869192481041,0.010599551722407341,-0.0020986974705010653,-0.029456140473484993
0.014455923810601234,-0.004329820163547993,-0.009758086875081062,0.010173938237130642,-0.001936439541168511,-0.029296206310391426
0.015138630755245686,-0.004686078988015652,-0.009878747165203094,0.010406049899756908,-0.0021049864590168,-0.031142225489020348
0.014281418174505234,-0.004757360555231571,-0.010089625604450703,0.0100391311571002,-0.002339902799576521,-0.03088129684329033
0.01558456290513277,-0.004625122994184494,-0.010678896680474281,0.010429425165057182,-0.002233110833913088,-0.030803751200437546
0.01605779305100441,-0.0047553409822285175,-0.009801016189157963,0.010729070752859116,-0.002125115366652608,-0.030744684860110283
0.015589868649840355,-0.004914005286991596,-0.010610894300043583,0.010367710143327713,-0.002059801947325468,-0.03097323328256607
0.015593490563333035,-0.004805238917469978,-0.010168701410293579,0.011036778800189495,-0.0020057938527315855,-0.030959930270910263
0.01558080967515707,-0.0043866862542927265,-0.009882030077278614,0.010692816227674484,-0.002244755392894149,-0.03082682192325592
0.015694258734583855,-0.00402833754196763,-0.010907845571637154,0.010839393362402916,-0.0022234786301851273,-0.031531400978565216
0.0162765271961689,-0.003544838400557637,-0.010674145072698593,0.011200794018805027,-0.0023966815788298845,-0.03153209760785103
0.016239967197179794,-0.003577169729396701,-0.009887874126434326,0.010611194185912609,-0.0022321694996207952,-0.0312255397439003
0.016239967197179794,-0.003577169729396701,-0.009887874126434326,0.010611194185912609,-0.0022321694996207952,-0.0312255397439003
0.0169691015034914,-0.004012164659798145,-0.010318196378648281,0.01089518517255783,-0.0021206901874393225,-0.031371187418699265
0.01691223308444023,-0.004293035250157118,-0.010041901841759682,0.01094912551343441,-0.0018134518759325147,-0.03177150711417198
0.017049700021743774,-0.004318529739975929,-0.009794390760362148,0.010729560628533363,-0.0017916439101099968,-0.031372200697660446
0.01719081960618496,-0.003993121907114983,-0.010722960345447063,0.01095148827880621,-0.0017866400303319097,-0.03204737603664398
0.017004314810037613,-0.003870160784572363,-0.010365048423409462,0.010303506627678871,-0.002005149843171239,-0.032766588032245636
0.01738254353404045,-0.004249424207955599,-0.009943713434040546,0.010513635352253914,-0.0022039490286260843,-0.032532528042793274
0.01720399409532547,-0.004330066964030266,-0.010690703056752682,0.010893057100474834,-0.0022343837190419436,-0.032291293144226074
0.017345966771245003,-0.004066083114594221,-0.009736576117575169,0.01127500832080841,-0.002385459141805768,-0.03216920420527458
0.017753420397639275,-0.003905663965269923,-0.009687839075922966,0.01131022535264492,-0.0022971145808696747,-0.032444242388010025
0.01756868325173855,-0.004262430127710104,-0.010148207657039165,0.010759222321212292,-0.0022139917127788067,-0.03293103352189064
0.017793744802474976,-0.004189297091215849,-0.010716184973716736,0.010567917488515377,-0.0019920608028769493,-0.03328896686434746
0.017519788816571236,-0.004035900346934795,-0.010276645421981812,0.011198097839951515,-0.0018711540615186095,-0.03328337147831917
0.017658758908510208,-0.004072343930602074,-0.010085235349833965,0.011465917341411114,-0.0017557755345478654,-0.033188894391059875
0.017510751262307167,-0.0040776426903903484,-0.009482627734541893,0.011955109424889088,-0.001851238077506423,-0.033522140234708786
0.017606839537620544,-0.0040229191072285175,-0.009609229862689972,0.012094000354409218,-0.0017821701476350427,-0.03359531983733177
0.01821010932326317,-0.003901761956512928,-0.009894678369164467,0.011277049779891968,-0.001960800727829337,-0.03363494947552681
0.01746647246181965,-0.0040603019297122955,-0.010426389053463936,0.010942281223833561,-0.0019226967124268413,-0.03375918045639992
0.0182206928730011,-0.003824193961918354,-0.009943194687366486,0.011043586768209934,-0.0018320658709853888,-0.03320760652422905
0.01842384599149227,-0.0042305802926421165,-0.00954456627368927,0.012477940879762173,-0.002156090224161744,-0.03427060693502426
0.018291519954800606,-0.004179768264293671,-0.009909149259328842,0.011320349760353565,-0.0026527277659624815,-0.035523030906915665
0.018411388620734215,-0.003977647516876459,-0.00996942725032568,0.011273299343883991,-0.002591588767245412,-0.03536733612418175
0.01842368394136429,-0.003838909324258566,-0.009643666446208954,0.011446732096374035,-0.0026276218704879284,-0.03409479930996895
0.01859993487596512,-0.003807199653238058,-0.010400842875242233,0.011071872897446156,-0.0025766214821487665,-0.033068668097257614
0.0186489038169384,-0.004319941159337759,-0.010033480823040009,0.011628693901002407,-0.002448502229526639,-0.03450523689389229
0.01805136725306511,-0.004165848717093468,-0.009595240466296673,0.01170305721461773,-0.002548176795244217,-0.03460771590471268
0.018748197704553604,-0.003915492445230484,-0.01061161421239376,0.011455722153186798,-0.002706303261220455,-0.03549126535654068
0.018771708011627197,-0.003955604508519173,-0.009895105846226215,0.012010769918560982,-0.0024145999923348427,-0.03608770668506622
0.018771708011627197,-0.003955604508519173,-0.009895105846226215,0.012010769918560982,-0.0024145999923348427,-0.03608770668506622
0.018551882356405258,-0.003951639868319035,-0.009935704991221428,0.012807373888790607,-0.0021535002160817385,-0.03498760238289833
0.0188490841537714,-0.004394860006868839,-0.010372450575232506,0.012472162023186684,-0.0022440378088504076,-0.03373228386044502
0.019019966945052147,-0.004114031326025724,-0.01047543715685606,0.01211734302341938,-0.0022597359493374825,-0.03506600856781006
0.01914307475090027,-0.0038813704159110785,-0.009958937764167786,0.012209724634885788,-0.002576075494289398,-0.03640789911150932
0.019445979967713356,-0.003777680918574333,-0.010425090789794922,0.012046181596815586,-0.0027316701598465443,-0.03613823652267456
0.019391298294067383,-0.0040177577175199986,-0.010090946219861507,0.012934550642967224,-0.0025937657337635756,-0.03570663183927536
0.019485531374812126,-0.003972744103521109,-0.009687792509794235,0.012400820851325989,-0.0024431373458355665,-0.03545587882399559
0.019302695989608765,-0.003885130397975445,-0.010761719197034836,0.011953595094382763,-0.0023391698487102985,-0.035634759813547134
0.019358590245246887,-0.0037776173558086157,-0.010309116914868355,0.012182141654193401,-0.002461179858073592,-0.03589397668838501
0.019482841715216637,-0.004241996444761753,-0.010341181419789791,0.011675282381474972,-0.00208002096042037,-0.035336509346961975
0.02029617875814438,-0.004147293511778116,-0.01054925937205553,0.012406422756612301,-0.0019596912898123264,-0.03550136834383011
0.019838349893689156,-0.0039295414462685585,-0.010106888599693775,0.0120152048766613,-0.002003687433898449,-0.03548514470458031
0.019381634891033173,-0.0038224428426474333,-0.01141983363777399,0.01243855431675911,-0.0020361123606562614,-0.0346829928457737
0.020339947193861008,-0.003724263748154044,-0.010736659169197083,0.012603696435689926,-0.002353475894778967,-0.03595412150025368
0.02014368213713169,-0.004120933823287487,-0.011208713985979557,0.012375010177493095,-0.0022799933794885874,-0.03648681566119194
0.020352162420749664,-0.003998317755758762,-0.010886367410421371,0.012178565375506878,-0.002301472006365657,-0.034575387835502625
0.020352162420749664,-0.003998317755758762,-0.010886367410421371,0.012178565375506878,-0.002301472006365657,-0.034575387835502625
0.020466426387429237,-0.0041619776748120785,-0.010605606250464916,0.012658442370593548,-0.002205303404480219,-0.0369139090180397
0.019882839173078537,-0.004171883221715689,-0.010141037404537201,0.01274943072348833,-0.002180148148909211,-0.037034645676612854
0.02061070315539837,-0.004448974039405584,-0.010816538706421852,0.012669006362557411,-0.002286674687638879,-0.03782835602760315
0.0212242528796196,-0.003983776550740004,-0.011221700347959995,0.012313393875956535,-0.002366491127759218,-0.03641115874052048
0.020834174007177353,-0.004124010913074017,-0.011182056739926338,0.012961333617568016,-0.0023015430197119713,-0.03565189987421036
0.02101224474608898,-0.004102937877178192,-0.010500563308596611,0.012788557447493076,-0.0024888208135962486,-0.03688469156622887
0.02158815786242485,-0.004049330949783325,-0.012735534459352493,0.01333591714501381,-0.002692506415769458,-0.03761235997080803
0.02142515778541565,-0.003971275873482227,-0.012984557077288628,0.013305418193340302,-0.0026337900198996067,-0.03757782652974129
0.021302765235304832,-0.003954238258302212,-0.013099845498800278,0.013841633684933186,-0.0022597413044422865,-0.03748979791998863
0.021287783980369568,-0.004094325006008148,-0.012683664448559284,0.013499189168214798,-0.0021944378968328238,-0.03630945459008217
0.021287783980369568,-0.004094325006008148,-0.012683664448559284,0.013499189168214798,-0.0021944378968328238,-0.03630945459008217
0.021771298721432686,-0.0039812372997403145,-0.013321531936526299,0.014118586666882038,-0.0020157627295702696,-0.037956640124320984
0.021853268146514893,-0.003783856052905321,-0.012703979387879372,0.013483647257089615,-0.001977974083274603,-0.03883383795619011
0.02139829844236374,-0.003742218017578125,-0.013472323305904865,0.013488995842635632,-0.002466889563947916,-0.038405876606702805
0.021405810490250587,-0.0037445013877004385,-0.013329488225281239,0.013026640750467777,-0.0029256639536470175,-0.03805706650018692
0.022608861327171326,-0.0038024510722607374,-0.013650783337652683,0.012682164087891579,-0.0029146696906536818,-0.03885098174214363
0.022579703480005264,-0.004245416726917028,-0.013685488142073154,0.012576960027217865,-0.0026996543165296316,-0.038811396807432175
0.02194742113351822,-0.004547528922557831,-0.014531796798110008,0.012025421485304832,-0.0026675481349229813,-0.0388665609061718
0.02219531498849392,-0.0041664717718958855,-0.013976139947772026,0.012195180170238018,-0.002589648822322488,-0.03928773105144501
0.022409547120332718,-0.0038701065350323915,-0.013653029687702656,0.012056064791977406,-0.0024477369152009487,-0.039792437106370926
0.0224912092089653,-0.0038794861175119877,-0.01374365109950304,0.012769287452101707,-0.0022283291909843683,-0.03958623483777046
0.02236662246286869,-0.004375093150883913,-0.013452555984258652,0.012971104122698307,-0.002173757879063487,-0.03919395059347153
0.02226027101278305,-0.004422168247401714,-0.013806737028062344,0.01335506234318018,-0.002168024890124798,-0.039043646305799484
0.022662943229079247,-0.00412765285000205,-0.014026937074959278,0.013212564401328564,-0.002357696183025837,-0.03962582349777222
0.022906454280018806,-0.003928033635020256,-0.014033608138561249,0.013623157516121864,-0.002389466157183051,-0.0398276261985302
0.023056937381625175,-0.004252386745065451,-0.013475374318659306,0.013761764392256737,-0.002646517939865589,-0.039917897433042526
0.02301192097365856,-0.004581426735967398,-0.01387887541204691,0.013422781601548195,-0.0026562619023025036,-0.040488969534635544
0.023317161947488785,-0.0043714335188269615,-0.014378771185874939,0.013017825782299042,-0.002741184551268816,-0.040699735283851624
0.023864666000008583,-0.00444793701171875,-0.013516027480363846,0.012779450975358486,-0.002975775394588709,-0.040086887776851654
0.023084579035639763,-0.004576878156512976,-0.014036104083061218,0.012214825488626957,-0.0032334215939044952,-0.04134674742817879
0.023081142455339432,-0.004602003842592239,-0.013522064313292503,0.01311533059924841,-0.00307843298651278,-0.04173506796360016
0.02365882322192192,-0.004095215816050768,-0.01407652534544468,0.013828874565660954,-0.002794330706819892,-0.04006790369749069
0.024309182539582253,-0.0038023614324629307,-0.01356998085975647,0.014105232432484627,-0.002385109895840287,-0.03988825902342796
0.02407890185713768,-0.004281277768313885,-0.01428650040179491,0.01361581590026617,-0.0022024360951036215,-0.03994223475456238
0.02346818335354328,-0.004107508342713118,-0.013991416431963444,0.013527171686291695,-0.0021404402796179056,-0.04199081286787987
0.02252162992954254,-0.004079880658537149,-0.014123193919658661,0.013370469212532043,-0.002221735194325447,-0.04307940602302551
0.02252162992954254,-0.004079880658537149,-0.014123193919658661,0.013370469212532043,-0.002221735194325447,-0.04307940602302551
0.02427954226732254,-0.0039204442873597145,-0.013498771004378796,0.013773996382951736,-0.002537983236834407,-0.041017502546310425
0.02430277317762375,-0.003798038698732853,-0.01405888982117176,0.014168551191687584,-0.0026904267724603415,-0.04042983427643776
0.023502007126808167,-0.0037448618095368147,-0.013578729704022408,0.014011962339282036,-0.002401710720732808,-0.04122144728899002
0.02438022568821907,-0.003671088954433799,-0.01385114248842001,0.01435923296958208,-0.002345417393371463,-0.04205024987459183
0.024800730869174004,-0.003700501751154661,-0.014138425700366497,0.013618186116218567,-0.002546279225498438,-0.042220067232847214
0.024934059008955956,-0.0038507548160851,-0.013927101157605648,0.013466979376971722,-0.0032516280189156532,-0.04184399172663689
0.024727599695324898,-0.004347540438175201,-0.013907170854508877,0.013226768933236599,-0.002917614998295903,-0.04219616949558258
0.023939883336424828,-0.004112736321985722,-0.013915386982262135,0.014146437868475914,-0.002795224543660879,-0.0425662063062191
0.023603368550539017,-0.004316193517297506,-0.013684581965208054,0.013376514427363873,-0.0023313553538173437,-0.04215312376618385
0.024510324001312256,-0.0042780982330441475,-0.013201043009757996,0.013790005818009377,-0.0022492087446153164,-0.04210970550775528
0.025537479668855667,-0.004074094817042351,-0.013880088925361633,0.0133534986525774,-0.0026320363394916058,-0.04240013286471367
0.025417743250727654,-0.004208764992654324,-0.013818887062370777,0.013968352228403091,-0.0029288246296346188,-0.04259401559829712
0.025162627920508385,-0.004256443120539188,-0.014077150262892246,0.0138739924877882,-0.0030122254975140095,-0.04290277138352394
0.02501847967505455,-0.004342368803918362,-0.013605169951915741,0.014507867395877838,-0.0027003861032426357,-0.04440032318234444
0.024823646992444992,-0.0041850535199046135,-0.01383931189775467,0.014084892347455025,-0.0025427856016904116,-0.043058693408966064
0.025039657950401306,-0.004874615464359522,-0.01322951540350914,0.014650271274149418,-0.002679812954738736,-0.0416121706366539
0.025647738948464394,-0.004530027508735657,-0.01372102927416563,0.014696866273880005,-0.0032342583872377872,-0.04369498789310455
0.025789661332964897,-0.0041162059642374516,-0.014148324728012085,0.01392550952732563,-0.0030719295609742403,-0.04536381736397743
0.025791186839342117,-0.004005452152341604,-0.01349642500281334,0.014106710441410542,-0.0024871337227523327,-0.043144211173057556
0.026180297136306763,-0.0043488373048603535,-0.013730683363974094,0.01367772463709116,-0.0023096511140465736,-0.04213019087910652
0.02615245431661606,-0.004914227873086929,-0.013366707600653172,0.014316325075924397,-0.0021271640434861183,-0.043702542781829834
0.026005038991570473,-0.0049051749520003796,-0.014188483357429504,0.01405494287610054,-0.0027920380234718323,-0.044415432959795
0.02559075318276882,-0.00448168721050024,-0.01363704726099968,0.014338851906359196,-0.0028840189334005117,-0.044338539242744446
0.02614673040807247,-0.004348060116171837,-0.013988512568175793,0.013883166015148163,-0.0028861176688224077,-0.04401334002614021
0.025943558663129807,-0.004198063164949417,-0.013730092905461788,0.014350291341543198,-0.002621003892272711,-0.044668760150671005
0.025741102173924446,-0.004881685134023428,-0.013630053028464317,0.014229479245841503,-0.00243940856307745,-0.0445152223110199
0.026414459571242332,-0.004983602091670036,-0.013582944869995117,0.014725985005497932,-0.0024673526640981436,-0.044164080172777176
0.02670835517346859,-0.0045260037295520306,-0.014024949632585049,0.01432378962635994,-0.002722607459872961,-0.044448841363191605
0.026557354256510735,-0.004391830880194902,-0.013947423547506332,0.01454711239784956,-0.0031911099795252085,-0.04489336907863617
0.02688625268638134,-0.004035398364067078,-0.013582500629127026,0.01427946612238884,-0.0031083321664482355,-0.04466515779495239
0.02688625268638134,-0.004035398364067078,-0.013582500629127026,0.01427946612238884,-0.0031083321664482355,-0.04466515779495239
0.02724609337747097,-0.0037272684276103973,-0.01369644608348608,0.014695238322019577,-0.0030156474094837904,-0.04320713132619858
0.026608150452375412,-0.003710955148562789,-0.013466937467455864,0.014357098378241062,-0.002653870265930891,-0.044764745980501175
0.026493264362215996,-0.004402485676109791,-0.01413700170814991,0.01450321264564991,-0.0025947722606360912,-0.04524269327521324
0.027164138853549957,-0.004627159796655178,-0.014033572748303413,0.0144596416503191,-0.0027388057205826044,-0.04488275200128555
0.026982741430401802,-0.00429352093487978,-0.01428156066685915,0.014816251583397388,-0.0030790711753070354,-0.04529862478375435
0.02706514671444893,-0.003936341963708401,-0.013747220858931541,0.014628136530518532,-0.0031110718846321106,-0.04551536589860916
0.026828719303011894,-0.004258779808878899,-0.014349821954965591,0.014784569852054119,-0.0029948537703603506,-0.04501606151461601
0.027643483132123947,-0.00413542240858078,-0.01423094142228365,0.014765665866434574,-0.002797686727717519,-0.04473601281642914
0.027768703177571297,-0.003918779548257589,-0.014515664428472519,0.015431954525411129,-0.0031058560125529766,-0.0446305051445961
0.02739604376256466,-0.00409354455769062,-0.014103751629590988,0.015104466117918491,-0.0033108415082097054,-0.045356132090091705
0.027578609064221382,-0.004236350301653147,-0.014486194588243961,0.015293319709599018,-0.0029158908873796463,-0.04640353098511696
0.026681002229452133,-0.004373418632894754,-0.014005242846906185,0.014635014347732067,-0.002732262248173356,-0.04477064684033394
0.027953993529081345,-0.004329633433371782,-0.01401751209050417,0.015047441236674786,-0.0028945892117917538,-0.04503566399216652
0.027533000335097313,-0.0045294249430298805,-0.014063971117138863,0.015369387343525887,-0.002883343957364559,-0.04544736444950104
0.027819454669952393,-0.004090473055839539,-0.013724973425269127,0.014787199907004833,-0.00266432692296803,-0.047864168882369995
0.029176920652389526,-0.003916787914931774,-0.014718728139996529,0.015164032578468323,-0.002496197586879134,-0.04553721100091934
0.028187131509184837,-0.004191258922219276,-0.014064440503716469,0.014725160785019398,-0.002490642247721553,-0.045419372618198395
0.028138423338532448,-0.004494389519095421,-0.014906419441103935,0.015084424987435341,-0.0025229312013834715,-0.04569212719798088
0.027480417862534523,-0.004787605721503496,-0.01444273442029953,0.01501097809523344,-0.002971061272546649,-0.04609309136867523
0.027370834723114967,-0.004633045755326748,-0.014617964625358582,0.015276625752449036,-0.0035013745073229074,-0.04622547701001167
0.02831471711397171,-0.004359826445579529,-0.013946509920060635,0.01553078182041645,-0.0032607854809612036,-0.04628326743841171
0.028611375018954277,-0.004047914408147335,-0.01511513814330101,0.015289545059204102,-0.0027724425308406353,-0.04605899378657341
0.028467999771237373,-0.004254855215549469,-0.01435326598584652,0.015543470159173012,-0.002425502287223935,-0.04587209224700928
0.028467999771237373,-0.004254855215549469,-0.01435326598584652,0.015543470159173012,-0.002425502287223935,-0.04587209224700928
0.02814789116382599,-0.00456172926351428,-0.015072301030158997,0.015203118324279785,-0.0023791505955159664,-0.046451862901449203
0.028616024181246758,-0.004651842638850212,-0.014567303471267223,0.015395891852676868,-0.002687518484890461,-0.04723522067070007
0.028645798563957214,-0.004770333878695965,-0.01502162590622902,0.015132405795156956,-0.0029261631425470114,-0.04600491747260094
0.028358763083815575,-0.004707439336925745,-0.014816982671618462,0.015606549568474293,-0.003258722834289074,-0.04727967083454132
0.02863619662821293,-0.004498985596001148,-0.014824830926954746,0.01476370356976986,-0.0033854488283395767,-0.048563968390226364
0.028597254306077957,-0.004046926274895668,-0.014492211863398552,0.015047401189804077,-0.0029969369061291218,-0.04907779023051262
0.02859298698604107,-0.004381407983601093,-0.01522111613303423,0.01450539380311966,-0.002734099980443716,-0.046685878187417984
0.02868715114891529,-0.004653869196772575,-0.015199257992208004,0.014916270039975643,-0.0030934829264879227,-0.047281406819820404
0.028540296480059624,-0.004707316402345896,-0.014537523500621319,0.014339510351419449,-0.00301371980458498,-0.047750525176525116
0.02864823490381241,-0.004686752334237099,-0.015308177098631859,0.014811336062848568,-0.003188004484400153,-0.04944629594683647
0.02733207307755947,-0.004689243622124195,-0.015181366354227066,0.015313924290239811,-0.0033299881033599377,-0.04814291372895241
0.029336972162127495,-0.004234105348587036,-0.015411305241286755,0.016029972583055496,-0.0031942150089889765,-0.04683727025985718
0.02957146242260933,-0.004458301700651646,-0.015165245160460472,0.016676895320415497,-0.002982732141390443,-0.048312507569789886
0.029220618307590485,-0.004218534100800753,-0.015124608762562275,0.016232453286647797,-0.002705598482862115,-0.047575369477272034
0.028695188462734222,-0.004288341850042343,-0.014981902204453945,0.015991955995559692,-0.002902331529185176,-0.04810138791799545
0.028768274933099747,-0.00455390103161335,-0.01567835547029972,0.015196467749774456,-0.0034478637389838696,-0.04918248578906059
0.02916303090751171,-0.004277973901480436,-0.014989840798079967,0.015194208361208439,-0.003730977885425091,-0.04926861822605133
0.030485931783914566,-0.004475989378988743,-0.015205435454845428,0.014610370621085167,-0.0037633797619491816,-0.04843701422214508
0.02931499481201172,-0.004348631016910076,-0.015574893914163113,0.01538159977644682,-0.0029168634209781885,-0.048811234533786774
0.029280751943588257,-0.004046962596476078,-0.015036915428936481,0.016420533880591393,-0.0027416241355240345,-0.048848312348127365
0.030112434178590775,-0.0038665644824504852,-0.015416906215250492,0.01675255037844181,-0.0028930879198014736,-0.0492766834795475
0.03032713197171688,-0.0041764164343476295,-0.015157202258706093,0.017069537192583084,-0.003226584056392312,-0.04982326179742813
0.030224870890378952,-0.0045041246339678764,-0.015669459477066994,0.01704847440123558,-0.0035980597604066133,-0.049921914935112
0.03093237429857254,-0.004647286608815193,-0.01573435217142105,0.016621975228190422,-0.003331569954752922,-0.049129314720630646
0.031142564490437508,-0.004163789097219706,-0.01576470397412777,0.017324410378932953,-0.003089308040216565,-0.05061356723308563
0.03066807985305786,-0.004411197267472744,-0.016664225608110428,0.01684785634279251,-0.0029621166177093983,-0.050750911235809326
0.03066807985305786,-0.004411197267472744,-0.016664225608110428,0.01684785634279251,-0.0029621166177093983,-0.050750911235809326
0.0300018098205328,-0.004421726334840059,-0.01647384837269783,0.016842080280184746,-0.0030011453200131655,-0.04992859065532684
0.03056626208126545,-0.004361421335488558,-0.016594495624303818,0.016561225056648254,-0.003379628760740161,-0.05040549859404564
0.031479086726903915,-0.004452355206012726,-0.0160722304135561,0.016526978462934494,-0.0037328547332435846,-0.05216837301850319
0.03146614134311676,-0.004103273618966341,-0.016645217314362526,0.016611184924840927,-0.003610196290537715,-0.049654241651296616
0.03173862025141716,-0.004432476591318846,-0.01640377938747406,0.016105586662888527,-0.003042011521756649,-0.049632925540208817
0.031516239047050476,-0.004123202059417963,-0.016353825107216835,0.01637517288327217,-0.002872501267120242,-0.050621598958969116
0.03155015408992767,-0.004464919678866863,-0.016570555046200752,0.0161338672041893,-0.0029875272884964943,-0.05307607352733612
0.031664080917835236,-0.004233027342706919,-0.016507573425769806,0.01647804118692875,-0.0032108270097523928,-0.0505518801510334
0.031701844185590744,-0.004010029137134552,-0.017108377069234848,0.01625533401966095,-0.0035456118639558554,-0.05134947970509529
0.03280659392476082,-0.004045641049742699,-0.016700949519872665,0.016295745968818665,-0.003634918248280883,-0.05212593078613281
0.03230501338839531,-0.004208147991448641,-0.017075881361961365,0.01666824333369732,-0.003507893765345216,-0.05174952372908592
0.0322921946644783,-0.004447156097739935,-0.017100246623158455,0.01662546955049038,-0.003442137036472559,-0.05226792395114899
0.03239542245864868,-0.004066880792379379,-0.017067372798919678,0.01727362349629402,-0.00335276429541409,-0.05243317410349846
0.03287706896662712,-0.004369775764644146,-0.01746249757707119,0.016738545149564743,-0.0033808876760303974,-0.05283958464860916
0.03343070298433304,-0.00473495339974761,-0.0170435830950737,0.016759341582655907,-0.0033968864008784294,-0.05306101217865944
0.03350897505879402,-0.004501636605709791,-0.017121216282248497,0.01657075434923172,-0.0036238781176507473,-0.053250350058078766
0.033138614147901535,-0.004468138329684734,-0.017296355217695236,0.01658608950674534,-0.003368685720488429,-0.051791951060295105
0.03349316492676735,-0.004799730610102415,-0.017702864482998848,0.016787398606538773,-0.002975022653117776,-0.05278449505567551
0.033777330070734024,-0.004215253982692957,-0.016697891056537628,0.017358049750328064,-0.003128268988803029,-0.05435032770037651
0.03410232439637184,-0.004447937943041325,-0.017238928005099297,0.017313336953520775,-0.0037229512818157673,-0.05409115180373192
0.03434840589761734,-0.004358949139714241,-0.01752461865544319,0.017162101343274117,-0.004067833535373211,-0.051681600511074066
0.0342777781188488,-0.004400688223540783,-0.017566226422786713,0.017255406826734543,-0.0037959227338433266,-0.052647557109594345
0.03446264937520027,-0.004823903553187847,-0.018265876919031143,0.016582010313868523,-0.0034399162977933884,-0.05464592203497887
0.03476673364639282,-0.0044421181082725525,-0.01767573319375515,0.016834530979394913,-0.0031916771549731493,-0.054813966155052185
0.0347762331366539,-0.004066758323460817,-0.017813576385378838,0.016616377979516983,-0.002950100228190422,-0.05239970237016678
0.03519488498568535,-0.004313896410167217,-0.017708521336317062,0.01684875786304474,-0.0029465367551892996,-0.052895866334438324
0.03628221154212952,-0.0045374417677521706,-0.017423901706933975,0.016655530780553818,-0.0030336226336658,-0.054507963359355927
0.03564029559493065,-0.0046630725264549255,-0.01832379214465618,0.016581008210778236,-0.003241283353418112,-0.054699886590242386
0.03432910144329071,-0.004607493989169598,-0.017981596291065216,0.017354218289256096,-0.0034390618093311787,-0.05376751720905304
0.03432910144329071,-0.004607493989169598,-0.017981596291065216,0.017354218289256096,-0.0034390618093311787,-0.05376751720905304
0.0360727421939373,-0.004337376449257135,-0.018109142780303955,0.017309602349996567,-0.003649979131296277,-0.05391007289290428
0.03584548830986023,-0.0044953543692827225,-0.018294816836714745,0.01756000705063343,-0.00356875779107213,-0.05451977625489235
0.03570392727851868,-0.004211552441120148,-0.01784438081085682,0.017649168148636818,-0.003428354626521468,-0.05409453809261322
0.037208203226327896,-0.004003607202321291,-0.018420403823256493,0.017190080136060715,-0.0035885185934603214,-0.05465665087103844
0.036825988441705704,-0.004285638220608234,-0.018726099282503128,0.01722274348139763,-0.003322414355352521,-0.0541536845266819
0.03512066975235939,-0.0049239229410886765,-0.01830584742128849,0.016771497204899788,-0.0031408413778990507,-0.053861383348703384
0.03648695722222328,-0.004965449217706919,-0.01838158443570137,0.017122341319918633,-0.0031322501599788666,-0.056109607219696045
0.03696860373020172,-0.004389949142932892,-0.018475180491805077,0.01709548756480217,-0.003464306937530637,-0.05565546825528145
0.03664417937397957,-0.004325657617300749,-0.017657514661550522,0.01662859506905079,-0.0037586637772619724,-0.05477013811469078
0.03665861859917641,-0.004523138049989939,-0.0188006479293108,0.01679680123925209,-0.003759491490200162,-0.05448627471923828
0.03645075857639313,-0.004654399584978819,-0.018117735162377357,0.016624020412564278,-0.0034789617639034986,-0.056352727115154266
0.037098534405231476,-0.0049288347363471985,-0.018373241648077965,0.017153818160295486,-0.003588528838008642,-0.05607634410262108
0.03701161965727806,-0.004664016421884298,-0.019258961081504822,0.017950549721717834,-0.003750534262508154,-0.05508918687701225
0.03698054701089859,-0.004808416590094566,-0.01896379329264164,0.018108367919921875,-0.0037614991888403893,-0.05610204115509987
0.0372578501701355,-0.004870083648711443,-0.01873624511063099,0.018570266664028168,-0.0037880095187574625,-0.05765964835882187
0.03714529424905777,-0.004791728686541319,-0.01924782805144787,0.0178969819098711,-0.0034518945030868053,-0.056901998817920685
0.03711789473891258,-0.004284509923309088,-0.018683873116970062,0.01736917346715927,-0.0035591358318924904,-0.05687865614891052
0.03724179044365883,-0.004939357750117779,-0.019347377121448517,0.017652476206421852,-0.003436851082369685,-0.05705956369638443
0.03711290284991264,-0.004871144890785217,-0.018820064142346382,0.018418412655591965,-0.004147861152887344,-0.05717865377664566
0.038748301565647125,-0.0045038447715342045,-0.01926437020301819,0.018471328541636467,-0.004163514357060194,-0.05680377036333084
0.039728663861751556,-0.004517096094787121,-0.019816212356090546,0.018246915191411972,-0.003490678733214736,-0.05727323144674301
0.036746494472026825,-0.004464068450033665,-0.01891467347741127,0.019201481714844704,-0.003374765394255519,-0.05761341005563736
0.036988746374845505,-0.004548609722405672,-0.018971402198076248,0.018615035340189934,-0.0030687041580677032,-0.056129466742277145
0.03845212608575821,-0.0043641855008900166,-0.01948891580104828,0.01825329288840294,-0.003391306847333908,-0.05825371295213699
0.03841223567724228,-0.00455141207203269,-0.01931905746459961,0.017784321680665016,-0.0037411516532301903,-0.05828166753053665
0.03869256004691124,-0.004587228409945965,-0.01965753361582756,0.01689208298921585,-0.0045690652914345264,-0.05682849884033203
0.03869256004691124,-0.004587228409945965,-0.01965753361582756,0.01689208298921585,-0.0045690652914345264,-0.05682849884033203
0.03933617100119591,-0.005092079285532236,-0.01994827762246132,0.017735134810209274,-0.004568664822727442,-0.059028737246990204
0.03835800290107727,-0.004943437408655882,-0.019231954589486122,0.01768757775425911,-0.003760542720556259,-0.05882684141397476
0.03803694620728493,-0.00443363469094038,-0.019166160374879837,0.01783597469329834,-0.0031120399944484234,-0.05741910636425018
0.038801830261945724,-0.0044788457453250885,-0.02000829204916954,0.018146010115742683,-0.0034642626997083426,-0.05819728970527649
0.03894657641649246,-0.005077578593045473,-0.019837521016597748,0.01856253109872341,-0.004226119723170996,-0.061051469296216965
0.038981031626462936,-0.005104534327983856,-0.019427254796028137,0.01860889606177807,-0.004209959413856268,-0.05821768939495087
0.03845410421490669,-0.0049163568764925,-0.01972905732691288,0.01844048500061035,-0.0037865370977669954,-0.05804762616753578
0.03874613344669342,-0.005190745461732149,-0.01991095021367073,0.018334077671170235,-0.0035008699633181095,-0.05982785299420357
0.03903904929757118,-0.0050299814902246,-0.019661787897348404,0.018452320247888565,-0.0033406519796699286,-0.059788741171360016
0.03943634405732155,-0.004928050097078085,-0.0202011875808239,0.018805449828505516,-0.003548495238646865,-0.05954080820083618
0.03948190063238144,-0.005193420685827732,-0.020255284383893013,0.01842520758509636,-0.003953189589083195,-0.05955091491341591
0.04006293788552284,-0.0049912347458302975,-0.0195552296936512,0.01839079149067402,-0.0038811659906059504,-0.059480175375938416
0.03837191313505173,-0.004872043617069721,-0.02004782296717167,0.018232041969895363,-0.0035423811059445143,-0.05963646247982979
0.039768870919942856,-0.005098005756735802,-0.020189927890896797,0.018119269981980324,-0.003248796099796891,-0.05963639169931412
0.03981028124690056,-0.00482327351346612,-0.019420746713876724,0.018521951511502266,-0.0033773500472307205,-0.059560950845479965
0.039408981800079346,-0.004191318526864052,-0.020002426579594612,0.017589086666703224,-0.003370364662259817,-0.059740565717220306
0.03974102810025215,-0.004253466613590717,-0.020478568971157074,0.01752612553536892,-0.004014200530946255,-0.059422340244054794
0.040146566927433014,-0.0045285532251000404,-0.020183773711323738,0.017698800191283226,-0.004128201864659786,-0.060200586915016174
0.04061617702245712,-0.004643149208277464,-0.02035488188266754,0.018043136224150658,-0.0035056413616985083,-0.06151115149259567
0.04087512940168381,-0.004475441761314869,-0.020909303799271584,0.01732262223958969,-0.0030127232894301414,-0.05954709276556969
0.04107435792684555,-0.004323744680732489,-0.020540278404951096,0.017541557550430298,-0.003019873518496752,-0.0603354275226593
0.04094984009861946,-0.004856456536799669,-0.0208889190107584,0.017950713634490967,-0.003470194758847356,-0.062491968274116516
0.040757227689027786,-0.004943298641592264,-0.020946552976965904,0.017932653427124023,-0.003819853998720646,-0.05964253842830658
0.04147128015756607,-0.004587316885590553,-0.020798709243535995,0.018288763239979744,-0.003659475827589631,-0.06077997386455536
0.04261137545108795,-0.0048975273966789246,-0.020335834473371506,0.018956918269395828,-0.0035777061711996794,-0.061019957065582275
0.0423235222697258,-0.004877530038356781,-0.020868266001343727,0.018589690327644348,-0.004173077177256346,-0.061299823224544525
0.040214359760284424,-0.00486908620223403,-0.020968487486243248,0.018793804571032524,-0.004343810025602579,-0.06072130426764488
0.042004939168691635,-0.004709525965154171,-0.02095053717494011,0.01874195784330368,-0.004284688737243414,-0.061800360679626465
0.042004939168691635,-0.004709525965154171,-0.02095053717494011,0.01874195784330368,-0.004284688737243414,-0.061800360679626465
0.04234715551137924,-0.004848869051784277,-0.01959381066262722,0.01854558475315571,-0.0036360740195959806,-0.06191214919090271
0.043181344866752625,-0.004772152751684189,-0.02051842398941517,0.019090741872787476,-0.0035737643484026194,-0.06180182471871376
0.04201054200530052,-0.004710320383310318,-0.021172277629375458,0.01884031482040882,-0.0037134550511837006,-0.06154964119195938
0.04096141830086708,-0.004587108734995127,-0.021133990958333015,0.01845351606607437,-0.0038584526628255844,-0.06165672466158867
0.04228750243782997,-0.004630907904356718,-0.01997140608727932,0.018674002960324287,-0.003937052562832832,-0.060864195227622986
0.04163230210542679,-0.005228777416050434,-0.02080881968140602,0.018801527097821236,-0.0038798339664936066,-0.061860863119363785
0.043080784380435944,-0.005027631763368845,-0.021030902862548828,0.019203735515475273,-0.00373266264796257,-0.0630951076745987
0.043250009417533875,-0.004904423840343952,-0.02028924599289894,0.019379587844014168,-0.0036827612202614546,-0.06042524054646492
0.042493078857660294,-0.004914248827844858,-0.020759712904691696,0.019316518679261208,-0.0038137526717036963,-0.06054770573973656
0.042974699288606644,-0.004891534335911274,-0.021247565746307373,0.019191376864910126,-0.00386926275677979,-0.06331422179937363
0.04269914701581001,-0.005196743179112673,-0.020844191312789917,0.019519338384270668,-0.003912267740815878,-0.06229037418961525
0.042486079037189484,-0.005514747463166714,-0.02147696539759636,0.019402705132961273,-0.0038786157965660095,-0.06178527697920799
0.042781129479408264,-0.005501835606992245,-0.02115672640502453,0.019667698070406914,-0.0038884428795427084,-0.06251341849565506
0.04257367551326752,-0.00556603679433465,-0.020344678312540054,0.0200981292873621,-0.004199577495455742,-0.06355175375938416
0.04215872287750244,-0.0052112252451479435,-0.020199643447995186,0.019847959280014038,-0.00429900735616684,-0.06336706876754761
0.04403946176171303,-0.0054472084157168865,-0.0210201907902956,0.01963387429714203,-0.004051045514643192,-0.06338848173618317
0.043034497648477554,-0.005035781767219305,-0.02133926935493946,0.02041449025273323,-0.003829250345006585,-0.06340695172548294
0.0420573391020298,-0.004960399586707354,-0.020676948130130768,0.020095905289053917,-0.004096316639333963,-0.06397968530654907
0.04306676238775253,-0.005178694613277912,-0.021361904218792915,0.018936138600111008,-0.004251732490956783,-0.06371680647134781
0.04439147561788559,-0.005339150317013264,-0.02144607901573181,0.01921745389699936,-0.00457169022411108,-0.06442667543888092
