davideferrari95/blind_handover_controller/data/Test 244 - [2024-02-08 -- 12-36-03]/joint_states_data.csv
shoulder_pan_joint,shoulder_lift_joint,elbow_joint,wrist_1_joint,wrist_2_joint,wrist_3_joint
0.004442974459379911,0.008646178990602493,-0.009543880820274353,0.0034581723157316446,0.0,0.004293079022318125
0.004442974459379911,0.008646178990602493,-0.009543880820274353,0.0034581723157316446,0.0,0.004293079022318125
0.004189426079392433,0.008725236169993877,-0.010332627221941948,0.003710881108418107,0.0,0.003944254945963621
0.00437379302456975,0.00817070808261633,-0.009901381097733974,0.003861339995637536,0.0,0.003540791803970933
0.004175664857029915,0.008256378583610058,-0.009633151814341545,0.0038448087871074677,0.0,0.0034190353471785784
0.004116764757782221,0.008682647719979286,-0.009825773537158966,0.0035274748224765062,0.0,0.0039365277625620365
0.004076672717928886,0.008655911311507225,-0.009708226658403873,0.0034756509121507406,0.0,0.004724396858364344
0.004377687815576792,0.008433482609689236,-0.009901588782668114,0.0031396823469549417,0.0,0.0048884558491408825
0.004177725408226252,0.009092776104807854,-0.009600581601262093,0.0031474782153964043,0.0,0.00461833318695426
0.003982612397521734,0.008492662571370602,-0.00945202074944973,0.0032966015860438347,0.0,0.004064090084284544
0.004423959646373987,0.008217304944992065,-0.00949137657880783,0.0032826780807226896,0.0,0.0034624256659299135
0.004691288806498051,0.008368398062884808,-0.00969039835035801,0.0031361535657197237,0.0,0.003339665476232767
0.004223820753395557,0.00883901584893465,-0.009252346120774746,0.0028756086248904467,0.0,0.003589812433347106
0.003924903925508261,0.008079810999333858,-0.009139366447925568,0.0027795976493507624,0.0,0.0038684981409460306
0.004097449127584696,0.00842272862792015,-0.009766013361513615,0.0027026361785829067,0.0,0.004347297362983227
0.004050413612276316,0.008546418510377407,-0.009478009305894375,0.0024951903615146875,0.0,0.004472597036510706
0.003870758693665266,0.008414141833782196,-0.009438917972147465,0.002540979068726301,0.0,0.00430289376527071
0.0042529539205133915,0.007860463112592697,-0.010234249755740166,0.0025950309354811907,0.0,0.004385044798254967
0.004640277475118637,0.008537118323147297,-0.009180096909403801,0.0024752370081841946,0.0,0.003717634826898575
0.004172715358436108,0.00844434555619955,-0.009790563024580479,0.0025815304834395647,0.0,0.003602715441957116
0.004265979398041964,0.0084238201379776,-0.01017136313021183,0.0026908330619335175,0.0,0.0036685920786112547
0.0042772069573402405,0.007963499054312706,-0.009606738574802876,0.002507888711988926,0.0,0.004098298028111458
0.0041288030333817005,0.008377393707633018,-0.009875718504190445,0.0026753805577754974,0.0,0.004296039696782827
0.003998992033302784,0.007767796982079744,-0.009625651873648167,0.0024527788627892733,0.0,0.004119019955396652
0.003998992033302784,0.007767796982079744,-0.009625651873648167,0.0024527788627892733,0.0,0.004119019955396652
0.003998992033302784,0.007767796982079744,-0.009625651873648167,0.0024527788627892733,0.0,0.004119019955396652
0.004467390477657318,0.00782105140388012,-0.009727375581860542,0.0025822699535638094,0.0,0.003688235767185688
0.004560122266411781,0.007099946960806847,-0.009541785344481468,0.002537135500460863,0.0,0.004304612521082163
0.004560122266411781,0.007099946960806847,-0.009541785344481468,0.002537135500460863,0.0,0.004304612521082163
0.004281003028154373,0.007458713836967945,-0.01021190918982029,0.0024183355271816254,0.0,0.004594435915350914
0.004330036696046591,0.00772785022854805,-0.009768839925527573,0.0023530919570475817,0.0,0.0045079318806529045
0.004558257758617401,0.007240734063088894,-0.01008609775453806,0.0025593473110347986,0.0,0.004386321175843477
0.004743428900837898,0.007322985213249922,-0.00990892294794321,0.0027681062929332256,0.0,0.003820647019892931
0.004363549407571554,0.007921315729618073,-0.009459090419113636,0.0028320951387286186,0.0,0.003485608845949173
0.004392612259835005,0.007637338247150183,-0.009123736061155796,0.0028242336120456457,0.0,0.0035936040803790092
0.004328371491283178,0.007307505700737238,-0.009600100107491016,0.0029145756270736456,0.0,0.0042293076403439045
0.004136904142796993,0.007986249402165413,-0.009757659398019314,0.0028755234088748693,0.0,0.004138126969337463
0.004289703443646431,0.008058167062699795,-0.009409918449819088,0.0028510212432593107,0.0,0.004069807007908821
0.004459650721400976,0.007592915091663599,-0.00975837279111147,0.0026722480542957783,0.0,0.003984692040830851
0.004643042106181383,0.007823432795703411,-0.00958571769297123,0.002623623237013817,0.0,0.003870816435664892
0.004464813508093357,0.007214414421468973,-0.009158818051218987,0.0027122930623590946,0.0,0.0037884770426899195
0.004345524590462446,0.007193876896053553,-0.010039249435067177,0.002606053836643696,0.0,0.003795068943873048
0.004071059636771679,0.00808914564549923,-0.009944239631295204,0.0027501918375492096,0.0,0.0039049023762345314
0.003954232204705477,0.0069346013478934765,-0.009583216160535812,0.0028549120761454105,0.0,0.0043167839758098125
0.003962731454521418,0.00683321338146925,-0.009859809651970863,0.0028436414431780577,0.0,0.004155118949711323
0.004128473810851574,0.007460399530827999,-0.009625301696360111,0.002754481043666601,0.0,0.003949121106415987
0.00435276422649622,0.0074355388060212135,-0.009473312646150589,0.002588939154520631,0.0,0.0038523743860423565
0.004237545654177666,0.006663171574473381,-0.009840549901127815,0.002480036811903119,0.0,0.004123069811612368
0.004322986584156752,0.007012599613517523,-0.009701913222670555,0.002387178596109152,0.0,0.004213401582092047
0.004322986584156752,0.007012599613517523,-0.009701913222670555,0.002387178596109152,0.0,0.004213401582092047
0.00406458368524909,0.007115650922060013,-0.009249833412468433,0.002760803559795022,0.0,0.004030242096632719
0.004653113428503275,0.00703593110665679,-0.009481605142354965,0.0027199655305594206,0.0,0.004221518523991108
0.004653113428503275,0.00703593110665679,-0.009481605142354965,0.0027199655305594206,0.0,0.004221518523991108
0.00448268186300993,0.0073550366796553135,-0.010174487717449665,0.0027115503326058388,0.0,0.004109458532184362
0.004445632919669151,0.007607294246554375,-0.010041515342891216,0.0026744811329990625,0.0,0.003989997319877148
0.004038955084979534,0.007501363754272461,-0.009792594239115715,0.002801666734740138,0.0,0.003636313136667013
0.004305962473154068,0.006706302519887686,-0.009646164253354073,0.00292788865044713,0.0,0.0034982862416654825
0.0041749062947928905,0.00696440739557147,-0.00948629155755043,0.0029265545308589935,0.0,0.0040220110677182674
0.003988327458500862,0.007453092373907566,-0.00896257534623146,0.002674270421266556,0.0,0.004145250655710697
0.004403899423778057,0.007280437275767326,-0.010418605990707874,0.0025019205641001463,7.149679959184141e-07,0.003995288163423538
0.0046143364161252975,0.0069313980638980865,-0.009145352989435196,0.0024041917640715837,4.66823024680707e-08,0.004096948076039553
0.004478828515857458,0.007039946038275957,-0.008853597566485405,0.0024990420788526535,3.048020724705225e-09,0.004070342052727938
0.004089741967618465,0.007529004942625761,-0.00970040075480938,0.0024650387931615114,1.9901395809096556e-10,0.0038840635679662228
0.0038692932575941086,0.007581019774079323,-0.009875699877738953,0.002511296421289444,1.2994189925452648e-11,0.003492459189146757
0.004313693847507238,0.00691055366769433,-0.008866112679243088,0.0026423893868923187,8.484277733492029e-13,0.0034908021334558725
0.004485933110117912,0.006952482741326094,-0.009096319787204266,0.002595815807580948,5.539626984668762e-14,0.003963998518884182
0.004360563587397337,0.007523172069340944,-0.009791737422347069,0.0026302002370357513,3.616980186091053e-15,0.0042169964872300625
0.004051911644637585,0.007295804563909769,-0.009157913736999035,0.0026446704287081957,2.361629765596456e-16,0.003892035223543644
0.004451748915016651,0.007043054327368736,-0.00924090389162302,0.002455972135066986,1.5419755040009257e-17,0.0035608564503490925
0.004477834794670343,0.007331084460020065,-0.008927884511649609,0.0025917720049619675,1.0067997806416206e-18,0.003503361251205206
0.00424819253385067,0.007561116013675928,-0.008580084890127182,0.0026859070640057325,6.573683168611045e-20,0.003731409553438425
0.004298823419958353,0.0076282271184027195,-0.009079808369278908,0.0025208184961229563,4.292145686690328e-21,0.0037863992620259523
0.004031927790492773,0.007173735182732344,-0.00946792121976614,0.0023471852764487267,2.8024643378549225e-22,0.0036486792378127575
0.004302541259676218,0.007209254894405603,-0.00908863265067339,0.0022319089621305466,1.8298089391370018e-23,0.003553334390744567
0.004302541259676218,0.007209254894405603,-0.00908863265067339,0.0022319089621305466,1.8298089391370018e-23,0.003553334390744567
0.0043441434390842915,0.007563430350273848,-0.008505797944962978,0.0023658950813114643,1.1947344755150406e-24,0.0035232086665928364
0.004629959352314472,0.0075128208845853806,-0.009507290087640285,0.0024122726172208786,7.80076137854519e-26,0.0034128210972994566
0.004386209417134523,0.007801277097314596,-0.009513817727565765,0.002970825880765915,2.171370606963222e-29,0.0034781789872795343
0.004386209417134523,0.007801277097314596,-0.009513817727565765,0.002970825880765915,2.171370606963222e-29,0.0034781789872795343
0.004117683973163366,0.007630341686308384,-0.0090450095012784,0.002661552745848894,1.4177500067527434e-30,0.0037456173449754715
0.00453218724578619,0.007672397885471582,-0.009100571274757385,0.002711528679355979,9.256893998071502e-32,0.003849511966109276
0.004625073634088039,0.007101119030267,-0.009180799126625061,0.0025801120791584253,6.044090731500804e-33,0.0035152670461684465
0.004413439426571131,0.007411574944853783,-0.00986719410866499,0.0023921900428831577,3.9463590734985255e-34,0.0035269635263830423
0.004376030992716551,0.007300123106688261,-0.009021102450788021,0.0022763137239962816,2.576690504664666e-35,0.0036186841316521168
0.004553183913230896,0.007898246869444847,-0.009678724221885204,0.0022656270302832127,1.682394900528798e-36,0.003707324620336294
0.004175620619207621,0.007915056310594082,-0.009668068028986454,0.002252366626635194,1.0984836955858357e-37,0.0038125058636069298
0.004326511640101671,0.007907381281256676,-0.008876929059624672,0.0024149417877197266,7.172313574101498e-39,0.0038524733390659094
0.004248188342899084,0.007116386666893959,-0.008887514472007751,0.002253689570352435,4.6830133509117494e-40,0.0033238648902624846
0.004476865287870169,0.007196448743343353,-0.009285446256399155,0.0022808690555393696,3.057633249156751e-41,0.0031058753374964
0.004483198747038841,0.007615090813487768,-0.008726312778890133,0.0023315628059208393,1.9968503116628643e-42,0.003291175002232194
0.004619687329977751,0.007798603270202875,-0.008828962221741676,0.0022107271943241358,1.3032075718220799e-43,0.003664223477244377
0.004291228950023651,0.007597426418215036,-0.009416976943612099,0.0021917447447776794,8.407790785948902e-45,0.004124770872294903
0.004463383462280035,0.007666656747460365,-0.009544883854687214,0.0021104374900460243,0.0,0.0036161267198622227
0.004612417425960302,0.007067826576530933,-0.008879871107637882,0.002344035543501377,0.0,0.0035786707885563374
0.004329252522438765,0.008045668713748455,-0.009544871747493744,0.002443724311888218,0.0,0.0032952658366411924
0.00503358943387866,0.0078776516020298,-0.009194718673825264,0.0024412469938397408,0.0,0.0035308226943016052
0.004999564494937658,0.007609539199620485,-0.009359183721244335,0.0025181297678500414,0.0,0.003749258117750287
0.0048371669836342335,0.00683143874630332,-0.008978721685707569,0.0023384313099086285,0.0,0.003532003378495574
0.00461112055927515,0.007245857734233141,-0.009000932797789574,0.002435518428683281,0.0,0.003402791917324066
0.0043842000886797905,0.0080761993303895,-0.008577030152082443,0.0023791140411049128,0.0,0.003418276784941554
0.004814210347831249,0.007643405813723803,-0.008888104930520058,0.002320403466001153,0.0,0.0035742789041250944
0.004919985309243202,0.006963700987398624,-0.009136644192039967,0.0024040231946855783,0.0,0.0034980939235538244
0.004919985309243202,0.006963700987398624,-0.009136644192039967,0.0024040231946855783,0.0,0.0034980939235538244
0.0048818583600223064,0.008012290112674236,-0.00910498108714819,0.0024600259494036436,0.0,0.003675886197015643
0.0048818583600223064,0.008012290112674236,-0.00910498108714819,0.0024600259494036436,0.0,0.003675886197015643
0.004750388674438,0.006884290371090174,-0.008373581804335117,0.002896408550441265,0.0,0.0033474622759968042
0.004503707401454449,0.007273334078490734,-0.008855476975440979,0.0028688344173133373,0.0,0.003612776752561331
0.004645750857889652,0.008128595538437366,-0.009002857841551304,0.0026078044902533293,0.0,0.00336482678540051
0.004901713691651821,0.007471088320016861,-0.008693120442330837,0.002367882989346981,0.0,0.0035530393943190575
0.005092419683933258,0.006743008736521006,-0.008279814384877682,0.002315348479896784,0.0,0.0033591827377676964
0.005517119076102972,0.00688159978017211,-0.008828626945614815,0.0025322637520730495,0.0,0.003256258787587285
0.00529500050470233,0.007232786621898413,-0.009187188930809498,0.0027994064148515463,0.0,0.003326927777379751
0.004800063092261553,0.007044184487313032,-0.008216636255383492,0.002829602686688304,0.0,0.0032332693226635456
0.005424985662102699,0.0069708675146102905,-0.008463608101010323,0.0026410056743770838,0.0,0.0032731208484619856
0.0053241923451423645,0.007010115310549736,-0.009376628324389458,0.0025105334352701902,0.0,0.003127211472019553
0.005402036942541599,0.007592272479087114,-0.00862155668437481,0.0023070306051522493,0.0,0.003430471057072282
0.005564437247812748,0.007114140782505274,-0.008298264816403389,0.0024173639249056578,0.0,0.0032615438103675842
0.005109598860144615,0.00722001725807786,-0.009225008077919483,0.0027200228068977594,0.0,0.00338547071442008
0.00552813895046711,0.007668244186788797,-0.009090807288885117,0.0024903961457312107,0.0,0.003477142658084631
0.005343747790902853,0.007242544554173946,-0.008662810549139977,0.002503347350284457,0.0,0.0033476261887699366
0.005366329103708267,0.007264483254402876,-0.008949448354542255,0.002263881964609027,0.0,0.0031064252834767103
0.0055762953124940395,0.0067382934503257275,-0.009354701265692711,0.0021297018975019455,0.0,0.0031849981751292944
0.005459425039589405,0.00713217630982399,-0.008556869812309742,0.0022772210650146008,0.0,0.0033005541190505028
0.0056297252885997295,0.00827369000762701,-0.00819588452577591,0.00259569613263011,0.0,0.0032475378829985857
0.005226991605013609,0.007904892787337303,-0.00947307888418436,0.002645340980961919,0.0,0.0031917416490614414
0.005233106669038534,0.0068261693231761456,-0.00929468497633934,0.0026502422988414764,0.0,0.003145227674394846
0.005370990838855505,0.006719788070768118,-0.00939872395247221,0.002345036016777158,0.0,0.0029796219896525145
0.005580396391451359,0.007602514233440161,-0.009341459721326828,0.0021980861201882362,0.0,0.002909974195063114
0.005580396391451359,0.007602514233440161,-0.009341459721326828,0.0021980861201882362,0.0,0.002909974195063114
0.005289878696203232,0.007398244924843311,-0.009518011473119259,0.002279360080137849,0.0,0.0028581630904227495
0.005696247331798077,0.006778655108064413,-0.008864909410476685,0.0023211126681417227,0.0,0.003053421387448907
0.005693245213478804,0.00741057563573122,-0.00912979431450367,0.00259179575368762,0.0,0.0034732683561742306
0.005655593704432249,0.007076243404299021,-0.00876423716545105,0.002485130913555622,0.0,0.0032750610262155533
0.005714953411370516,0.007445909082889557,-0.008756715804338455,0.0025615692138671875,0.0,0.0030476946849375963
0.005259689874947071,0.00773296132683754,-0.009501395747065544,0.0025879074819386005,0.0,0.0028365212492644787
0.00578721659258008,0.007929066196084023,-0.00900227576494217,0.002490566810593009,0.0,0.002986716106534004
0.005781799089163542,0.007194743491709232,-0.009258098900318146,0.0024789904709905386,0.0,0.0033122291788458824
0.0055870539508759975,0.007252087816596031,-0.009330544620752335,0.002536916406825185,0.0,0.0032435134053230286
0.0053126076236367226,0.006876825820654631,-0.009068379178643227,0.0023937681689858437,0.0,0.003052248852327466
0.005675989203155041,0.008043580688536167,-0.009040030650794506,0.0023207729682326317,0.0,0.002747592981904745
0.005822331178933382,0.007871333509683609,-0.009750785306096077,0.002023095730692148,0.0,0.002630895236507058
0.006168382707983255,0.00755894323810935,-0.009448165073990822,0.0022583254612982273,0.0,0.0028710588812828064
0.005869489628821611,0.007694785017520189,-0.009148967452347279,0.0029632309451699257,-4.755362533614971e-05,0.003135271603241563
0.005599540192633867,0.00794979464262724,-0.010439381934702396,0.003029359970241785,-5.291694469633512e-05,0.0029248783830553293
0.00575001398101449,0.007771245203912258,-0.009833330288529396,0.002690172055736184,-5.2683211833937094e-05,0.0027047921903431416
0.005823446903377771,0.007006188854575157,-0.009027634747326374,0.0024459108244627714,-5.209825758356601e-05,0.0026454112958163023
0.00612122006714344,0.006888448726385832,-0.010015535168349743,0.0023327888920903206,-5.150451397639699e-05,0.002530654426664114
0.00533910421654582,0.007309847045689821,-0.00962356012314558,0.002262480091303587,-5.09211968164891e-05,0.0028445993084460497
0.005404507275670767,0.007340680342167616,-0.009417661465704441,0.002469652332365513,-5.0352042308077216e-05,0.0030568076763302088
0.005638842936605215,0.007135517429560423,-0.010096429847180843,0.002587019233033061,-4.979431469109841e-05,0.0030924377497285604
0.005974597297608852,0.006789089646190405,-0.01015966571867466,0.002552793128415942,-6.414163635781733e-06,0.0027929069474339485
0.005553203169256449,0.006962307728827,-0.0093205776065588,0.0026228385977447033,-4.187990896298288e-07,0.002425958402454853
0.005900089628994465,0.007037498988211155,-0.009701228700578213,0.0027209147810935974,-2.7344587039124235e-08,0.0021686300169676542
0.005900089628994465,0.007037498988211155,-0.009701228700578213,0.0027209147810935974,-2.7344587039124235e-08,0.0021686300169676542
0.005818746984004974,0.0071610198356211185,-0.009654679335653782,0.002612269716337323,-1.7854061562516677e-09,0.00211076601408422
0.006102933082729578,0.007375277578830719,-0.009836884215474129,0.002542839152738452,-1.1657426413069771e-10,0.002452520653605461
0.005605993792414665,0.0074409074150025845,-0.009904464706778526,0.0024150654207915068,-7.611467012225148e-12,0.002659713849425316
0.005861676763743162,0.007368410937488079,-0.009277003817260265,0.0023283674381673336,-4.969744234195606e-13,0.0029220434371382
0.005837109871208668,0.007262065075337887,-0.009042213670909405,0.0027678348124027252,-3.244887675614774e-14,0.0032100453972816467
0.0058800894767045975,0.007721565663814545,-0.00977525394409895,0.0025901629123836756,-1.3833465485360395e-16,0.0025752095971256495
0.005747993476688862,0.007682047318667173,-0.00983157567679882,0.0023385477252304554,-9.032264695513552e-18,0.0022962128277868032
0.006175241898745298,0.006985395681113005,-0.00977255403995514,0.002405003644526005,-5.897423468275907e-19,0.0020268934313207865
0.006329750642180443,0.007260792423039675,-0.010130162350833416,0.002377345459535718,-3.8505961910333815e-20,0.0020727687515318394
0.005870525259524584,0.0078085316345095634,-0.008821000345051289,0.0026696801651269197,-2.5141643789118183e-21,0.002441560849547386
0.005620664916932583,0.007835929282009602,-0.010166425257921219,0.0030257918406277895,-1.6415698139734604e-22,0.0028447231743484735
0.005569169297814369,0.006755654700100422,-0.009866917505860329,0.0027667470276355743,-1.0718277573925949e-23,0.003370939753949642
0.0061524598859250546,0.006782211363315582,-0.009248376823961735,0.002714400179684162,-6.998269080141475e-25,0.003125032177194953
0.0058991797268390656,0.007040295284241438,-0.009290877729654312,0.0024080181028693914,-4.5693692495646163e-26,0.002673405222594738
0.005910118576139212,0.007449740078300238,-0.00973042007535696,0.002235434018075466,-2.9834717509528722e-27,0.0022904707584530115
0.005663181655108929,0.007226054091006517,-0.009569626301527023,0.0022766725160181522,-1.9479939996832436e-28,0.0020241891033947468
0.005602984223514795,0.007047365885227919,-0.009554443880915642,0.002436621580272913,-1.271900987160344e-29,0.002050759270787239
0.006428273394703865,0.007049715146422386,-0.009549559094011784,0.0024354944471269846,-8.304603337429396e-31,0.002382587641477585
0.006213558837771416,0.00724527845159173,-0.009247677400708199,0.002295259851962328,-5.422312700759767e-32,0.002814999083057046
0.006380555685609579,0.007045445032417774,-0.009067928418517113,0.0022334542591124773,-3.5403829058233514e-33,0.002725949278101325
0.006064517889171839,0.007350102066993713,-0.009978316724300385,0.00227318680845201,-2.311616987731721e-34,0.002554863691329956
0.005802794359624386,0.007111603859812021,-0.009574458934366703,0.00244720745831728,-1.509320684145468e-35,0.0022041420452296734
0.006116574164479971,0.0075603327713906765,-0.009185895323753357,0.002449974650517106,-9.85478368742944e-37,0.0020795322488993406
0.0063692545518279076,0.006907247006893158,-0.00934615544974804,0.0027394648641347885,-6.434469957060209e-38,0.002139813033863902
0.0063692545518279076,0.006907247006893158,-0.00934615544974804,0.0027394648641347885,-6.434469957060209e-38,0.002139813033863902
0.006069097202271223,0.0067397309467196465,-0.00942873116582632,0.0025742575526237488,-2.7431118088390457e-40,0.0025552245788276196
0.005921829957515001,0.007149278651922941,-0.009429153054952621,0.002568098483607173,-1.7909995672535487e-41,0.0026283564511686563
0.007035776041448116,0.006873643025755882,-0.009709012694656849,0.002391481539234519,-1.1700842177112223e-42,0.0025260283146053553
0.007035776041448116,0.006873643025755882,-0.009709012694656849,0.002391481539234519,-1.1700842177112223e-42,0.0025260283146053553
0.006247666664421558,0.006591298617422581,-0.00902536790817976,0.002359295729547739,-7.567011707354012e-44,0.002317980630323291
0.007027792278677225,0.006147000938653946,-0.009663814678788185,0.0024840575642883778,-5.605193857299268e-45,0.0021988446824252605
0.006242783740162849,0.006130514666438103,-0.009257184341549873,0.0026446469128131866,-0.0,0.0021038425620645285
0.0060320692136883736,0.006899782456457615,-0.00944447424262762,0.0026764904614537954,-0.0,0.002095905365422368
0.006590257398784161,0.0062673683278262615,-0.009240524843335152,0.0028154796455055475,-0.0,0.0024269705172628164
0.006556173786520958,0.006388429552316666,-0.00876328069716692,0.0028709368780255318,-0.0,0.002518097637221217
0.006374032236635685,0.00679358933120966,-0.00937427394092083,0.002881757216528058,-0.0,0.002382951555773616
0.0060856700874865055,0.006671891547739506,-0.009421344846487045,0.0029445586260408163,-0.0,0.0023529906757175922
0.0066845309920609,0.006336051505059004,-0.009164885617792606,0.0027753645554184914,-0.0,0.002152669243514538
0.00695066899061203,0.006109211593866348,-0.009872520342469215,0.002477433765307069,-0.0,0.0020320978946983814
0.006436709314584732,0.006197808310389519,-0.009623742662370205,0.0024939721915870905,-0.0,0.0019340359140187502
0.006085262633860111,0.006134734954684973,-0.00904376246035099,0.0026204832829535007,-0.0,0.0019197033252567053
0.006601408589631319,0.006226074416190386,-0.009098413400352001,0.0027902056463062763,-0.0,0.0017952490597963333
0.006965018808841705,0.006209562998265028,-0.009329821914434433,0.002731235232204199,-0.0,0.0017586647300049663
0.006967839784920216,0.0060742879286408424,-0.009521272033452988,0.0027387018781155348,-0.0,0.0017351960996165872
0.0068286992609500885,0.006283311638981104,-0.009128373116254807,0.0027622038032859564,-0.0,0.0016629232559353113
0.006601574365049601,0.006846470292657614,-0.010298681445419788,0.0027403908316046,-0.0,0.0017004057299345732
0.007092712912708521,0.006681057624518871,-0.009566051885485649,0.002876763930544257,-0.0,0.0018602581694722176
0.007142483722418547,0.006468870677053928,-0.009448125027120113,0.003075348911806941,-0.0,0.0019859750755131245
0.006681089289486408,0.006249706260859966,-0.00993835087865591,0.0030062375590205193,-0.0,0.002317813690751791
0.006733716931194067,0.006627910304814577,-0.009536880068480968,0.0029275394044816494,-0.0,0.0022998175118118525
0.007463992107659578,0.006767273414880037,-0.009825744666159153,0.0026953062042593956,-0.0,0.002425271784886718
0.007050598505884409,0.006418123841285706,-0.009405164048075676,0.0027588040102273226,-0.0,0.0018468978814780712
0.007050598505884409,0.006418123841285706,-0.009405164048075676,0.0027588040102273226,-0.0,0.0018468978814780712
0.0065115573816001415,0.006461971905082464,-0.009134959429502487,0.002727238228544593,-0.0,0.0017110855551436543
0.007012285757809877,0.006342360749840736,-0.009897571057081223,0.0027306941337883472,-0.0,0.0016259854892268777
0.0071191671304404736,0.006398883182555437,-0.009651297703385353,0.0030591972172260284,-0.0,0.0016643493436276913
0.006657752674072981,0.006628790870308876,-0.010561618022620678,0.0034382520243525505,-0.0,0.002069586655125022
0.006657752674072981,0.006628790870308876,-0.010561618022620678,0.0034382520243525505,-0.0,0.002069586655125022
0.00758272223174572,0.006379714235663414,-0.009439079090952873,0.0032063289545476437,-0.0,0.0019069573609158397
0.007813461124897003,0.006683113053441048,-0.009029988199472427,0.0029144848231226206,-0.0,0.0018443353474140167
0.007104672025889158,0.00677652470767498,-0.009793899022042751,0.0028836100827902555,-0.0,0.0015305900014936924
0.007456676568835974,0.006531468592584133,-0.009727364405989647,0.0029240651056170464,-0.0,0.0013532128650695086
0.007083609700202942,0.006114783696830273,-0.009747895412147045,0.003264097264036536,-0.0,0.0013574917102232575
0.007027796003967524,0.00635118642821908,-0.01026978436857462,0.003123172791674733,-0.0,0.0014497818192467093
0.007124396041035652,0.006711103487759829,-0.009488136507570744,0.0028712425846606493,-0.0,0.0015505492920055985
0.007093645166605711,0.0068223257549107075,-0.00959143228828907,0.002979020122438669,-0.0,0.0018644792726263404
0.006914743222296238,0.006365680601447821,-0.010251772589981556,0.003420815570279956,-5.267963933874853e-05,0.0018161071930080652
0.007680359296500683,0.006291080731898546,-0.00964389368891716,0.0033206224907189608,-5.6268356274813414e-05,0.0017598374979570508
0.007626185193657875,0.006560989655554295,-0.009521867148578167,0.0031949966214597225,-5.584742029896006e-05,0.0017439390067011118
0.007243291474878788,0.006090060342103243,-0.009759446606040001,0.0032285540364682674,-5.5180695198941976e-05,0.0015761734684929252
0.007017174735665321,0.006170999724417925,-0.009911823086440563,0.0030517459381371737,-5.4513453505933285e-05,0.0013811227399855852
0.007953772321343422,0.006022854242473841,-0.010350883938372135,0.0031474297866225243,-5.3861043852521107e-05,0.0011060761753469706
0.007705852389335632,0.006027099676430225,-0.010979905724525452,0.0032529672607779503,-5.322403376339935e-05,0.0011369421845301986
0.0080903060734272,0.006620306987315416,-0.00988146010786295,0.0031517434399574995,-5.2601862989831716e-05,0.0011027107248082757
0.007930451072752476,0.0065688565373420715,-0.009473603218793869,0.0034760902635753155,-5.1994153182022274e-05,0.0010713511146605015
0.007819642312824726,0.0059761363081634045,-0.01052709948271513,0.0037789144553244114,-5.140023858984932e-05,0.0010591872269287705
0.007696178741753101,0.006345625035464764,-0.009863005951046944,0.003919709008187056,-5.08197263116017e-05,0.0010334777180105448
0.008111592382192612,0.006649293936789036,-0.009816945530474186,0.0036606015637516975,-5.025223799748346e-05,0.0009812890784814954
0.007999631576240063,0.006389601621776819,-0.01018182747066021,0.0034696287475526333,-4.9697271606419235e-05,0.0009153135470114648
0.007711990270763636,0.006180279888212681,-0.010335334576666355,0.003545681945979595,-3.244876552344067e-06,0.0008857767097651958
0.007901146076619625,0.006478443741798401,-0.009913595393300056,0.0032834848389029503,-2.1186724552535452e-07,0.0008860892849043012
0.0075266407802701,0.006313337478786707,-0.010194108821451664,0.003370722522959113,-1.3833417966679917e-08,0.0008789982530288398
0.007934002205729485,0.006529569160193205,-0.009946709498763084,0.0033629308454692364,-9.032233294625769e-10,0.0007847152883186936
0.008330894634127617,0.006776273716241121,-0.010700421407818794,0.0034343726001679897,-5.897403398957834e-11,0.0007910257554613054
0.008368607610464096,0.005930247716605663,-0.010629979893565178,0.0036505130119621754,-3.8505830468604785e-12,0.0007439593318849802
0.0077367424964904785,0.006495294626802206,-0.010051009245216846,0.003906799014657736,-1.641563743119169e-14,0.0007495334139093757
0.00805028434842825,0.007548617664724588,-0.01034962385892868,0.003856959519907832,-1.071823844752567e-15,0.0007648805622011423
0.00805028434842825,0.007548617664724588,-0.01034962385892868,0.003856959519907832,-1.071823844752567e-15,0.0007648805622011423
0.007814978249371052,0.006534134969115257,-0.01019580103456974,0.0037727574817836285,-6.998243120241173e-17,0.0007381077739410102
0.007421338930726051,0.006233349908143282,-0.010715479031205177,0.0034144562669098377,-4.5693527347781316e-18,0.0009407447068952024
0.00794590637087822,0.006057222373783588,-0.010254819877445698,0.003552242647856474,-2.9834610746834234e-19,0.0008762252982705832
0.0086116474121809,0.006463338620960712,-0.00981882680207491,0.0038155883084982634,-1.9479867549902253e-20,0.0008188599604181945
0.008365057408809662,0.00670207804068923,-0.010787976905703545,0.00393220828846097,-1.2718963156801376e-21,0.0007718693232163787
0.007745579816401005,0.006694923620671034,-0.010442516766488552,0.0037095239385962486,-8.304573514266985e-23,0.0006906333146616817
0.007891891524195671,0.006101841572672129,-0.010236957110464573,0.0035177450627088547,-5.422293018882706e-24,0.0007050043204799294
0.008078883402049541,0.005918470211327076,-0.010548455640673637,0.0036102822050452232,-3.5403695321818043e-25,0.000649050809442997
0.00819898210465908,0.006121249403804541,-0.010649243369698524,0.0037314635701477528,-2.3116085091072595e-26,0.0005738565814681351
0.008443964645266533,0.007025034632533789,-0.010104110464453697,0.003514257026836276,-0.00011361189535818994,0.0005835526972077787
0.00815917830914259,0.0063345725648105145,-0.010802441276609898,0.003383124014362693,-0.00013597052020486444,0.0005911770276725292
0.008352388627827168,0.0062906150706112385,-0.010340931825339794,0.0034093791618943214,-0.0001336175628239289,0.0006181167555041611
0.008013902232050896,0.0057097855024039745,-0.010790000669658184,0.0036353538744151592,-0.00012987136142328382,0.0006051179952919483
0.008626332506537437,0.006153397262096405,-0.010617529973387718,0.0038311246316879988,-0.0001262350269826129,0.0006838629487901926
0.008429983630776405,0.006814349442720413,-0.010297060012817383,0.003953675739467144,-0.00012279069051146507,0.0006320147076621652
0.00797206535935402,0.006175646558403969,-0.010943872854113579,0.004354025237262249,-0.00013126862177159637,0.0006098623853176832
0.008606776595115662,0.005882269237190485,-0.01075902208685875,0.0041807363741099834,-0.00013892883725930005,0.0005906794685870409
0.00865817628800869,0.0059653534553945065,-0.011273764073848724,0.003912772051990032,-0.00013614699128083885,0.0005351927829906344
0.008492526598274708,0.006228082813322544,-0.01157894916832447,0.0037385670002549887,-0.0001328446378465742,0.0004870666889473796
0.008699275553226471,0.00634519848972559,-0.01108606532216072,0.003702764865010977,-0.00012965775385964662,0.0005158970016054809
0.008909473195672035,0.006375513505190611,-0.011116382665932178,0.004248881246894598,-0.00012661769869737327,0.0004810041864402592
0.009135877713561058,0.005848282482475042,-0.01017117127776146,0.004165350925177336,-0.00012371687626000494,0.00044712895760312676
0.008592103607952595,0.005960472859442234,-0.010385456494987011,0.0043699792586266994,-0.00012094590056221932,0.0004175054491497576
0.008954396471381187,0.006269213743507862,-0.011297687888145447,0.0041163102723658085,-0.0001366958167636767,0.00039154471596702933
0.009294708259403706,0.006198308430612087,-0.01068155374377966,0.0039397794753313065,-0.0001349676022073254,0.0003686196287162602
0.009294708259403706,0.006198308430612087,-0.01068155374377966,0.0039397794753313065,-0.0001349676022073254,0.0003686196287162602
0.008272882550954819,0.0060073332861065865,-0.010376004502177238,0.0038118285592645407,-0.00013221352128311992,0.00034823911846615374
0.00898818951100111,0.0065866573713719845,-0.01112979557365179,0.004081760533154011,-0.00013312902592588216,0.0003411606012377888
0.00898818951100111,0.0065866573713719845,-0.01112979557365179,0.004081760533154011,-0.00013312902592588216,0.0003411606012377888
0.00925838015973568,0.006203347351402044,-0.011301681399345398,0.0042810821905732155,-0.00013881501217838377,0.0003258929937146604
0.008862477727234364,0.005852456670254469,-0.010241769254207611,0.004201635718345642,-0.00013671813940163702,0.0003117891028523445
0.008937245234847069,0.006175557151436806,-0.010624286718666553,0.003948613535612822,-0.00013420480536296964,0.00029884596006013453
0.00849916785955429,0.005712009500712156,-0.010083407163619995,0.003926957957446575,-0.00013175132335163653,0.00028693402418866754
0.008529937826097012,0.00592526001855731,-0.009783047251403332,0.003962688148021698,-0.00012938384315930307,0.00027593551203608513
0.009576312266290188,0.006302941124886274,-0.01025525201112032,0.004343993496149778,-0.00012709978909697384,0.00026574917137622833
0.008682101964950562,0.0060542067512869835,-0.011355970054864883,0.004121033474802971,-0.00015819596592336893,0.00025628841831348836
0.009313931688666344,0.005934495944529772,-0.010698880068957806,0.0043695964850485325,-0.00016335872351191938,0.00024747822317294776
0.009543338790535927,0.005920609459280968,-0.010726862587034702,0.004228729289025068,-0.00015832380449865013,0.00023925359710119665
0.00953301414847374,0.0063132839277386665,-0.010208090767264366,0.0043647694401443005,-0.00015298697690013796,0.0002315585734322667
0.009636040776968002,0.0065369070507586,-0.0109776696190238,0.004444839898496866,-0.00016246754967141896,0.0002243427006760612
0.009365921840071678,0.005836900323629379,-0.011008036322891712,0.004139743745326996,-0.00017091436893679202,0.00021756307978648692
0.008907154202461243,0.005932541098445654,-0.010729189962148666,0.004019428510218859,-0.0001665310119278729,0.00021118120639584959
0.009064595215022564,0.006371482741087675,-0.011226383037865162,0.00402119429782033,-0.00016160488303285092,0.00020516342192422599
0.009530146606266499,0.006315161474049091,-0.010503954254090786,0.004502144642174244,-0.00017628283239901066,0.00019947839609812945
0.009111978113651276,0.006351793650537729,-0.00981152430176735,0.00463557755574584,-0.0001774520642356947,0.0001941006485139951
0.009213518351316452,0.0057121384888887405,-0.010825027711689472,0.0045797452330589294,-0.00017298059538006783,0.00018900530994869769
0.009355928748846054,0.005692712962627411,-0.010839818976819515,0.004712290596216917,-0.0001683828595560044,0.00016418051382061094
0.009538247250020504,0.00600933562964201,-0.010665170848369598,0.004701453261077404,-0.00016400113236159086,0.0001573276094859466
0.00937945768237114,0.00607079453766346,-0.010859383270144463,0.004709160421043634,-0.00017966738960240036,0.0001533189497422427
0.009728456847369671,0.006227959878742695,-0.010361186228692532,0.004770388826727867,-0.00017795778694562614,0.00014966462913434952
0.009918787516653538,0.0063761211931705475,-0.010683823376893997,0.004977796226739883,-0.0001738392747938633,9.821757703321055e-05
0.009458214044570923,0.005734037607908249,-0.010829933919012547,0.005398671608418226,-0.00016975202015601099,5.022229015594348e-05
0.009619051590561867,0.006349189672619104,-0.01054469309747219,0.005116150714457035,-0.00024731908342801034,4.597679799189791e-05
0.009184491820633411,0.00632134173065424,-0.010736257769167423,0.004971808288246393,-0.00023357577447313815,4.355005512479693e-05
0.00971165020018816,0.006237765308469534,-0.01029073167592287,0.004702267702668905,-0.00022209409507922828,2.675764699233696e-05
0.009642244316637516,0.006230291910469532,-0.010596505366265774,0.004937117453664541,-0.00024290069995913655,2.112848414981272e-05
0.009642244316637516,0.006230291910469532,-0.010596505366265774,0.004937117453664541,-0.00024290069995913655,2.112848414981272e-05
0.009317593649029732,0.0060655842535197735,-0.010788032785058022,0.004910604562610388,-0.00024184455105569214,5.2700274864037056e-06
0.010034534148871899,0.006314398255199194,-0.011301862075924873,0.004811911843717098,-0.0002320902276551351,3.4409512750244176e-07
0.009704183787107468,0.006322966422885656,-0.011070079170167446,0.004766877740621567,-0.00022256422380451113,2.2466950966304466e-08
0.009399273432791233,0.005748741328716278,-0.010548503138124943,0.0045370375737547874,-0.00021375542564783245,1.466931354165979e-09
0.010226518847048283,0.005837206728756428,-0.011089884676039219,0.004881642758846283,-0.0002056143421214074,9.578014076305763e-11
0.010149792768061161,0.006050934083759785,-0.011141433380544186,0.0050140502862632275,-0.00019807193893939257,6.2537592292188915e-12
0.009628692641854286,0.006155035924166441,-0.011452121660113335,0.005386210512369871,-0.00019106273248326033,4.083257983036187e-13
0.009922005236148834,0.006007680669426918,-0.011326819658279419,0.0051352484151721,-0.00018453226948622614,2.6660756732182524e-14
0.010253435000777245,0.006058075465261936,-0.010845324024558067,0.004894043318927288,-0.0001930131547851488,-0.0005840859957970679
0.009663012810051441,0.006137758027762175,-0.011435900814831257,0.005000417586416006,-0.000200523849343881,-0.0009293380426242948
0.009834243915975094,0.006665040738880634,-0.010536017827689648,0.005073612090200186,-0.00019520273781381547,-0.0009537700680084527
0.010191245004534721,0.00616493122652173,-0.010256165638566017,0.005689545534551144,-0.00018939246365334839,-0.0008947752648964524
0.009219042956829071,0.005883689038455486,-0.010694226250052452,0.005389485042542219,-0.00018386819283477962,-0.0008413712494075298
0.009755990467965603,0.006200284231454134,-0.011243371292948723,0.0053339144214987755,-0.0001786538923624903,-0.0007639646646566689
0.009760335087776184,0.0063041141256690025,-0.01034595724195242,0.005390704143792391,-0.00017372691945638508,-0.0007964911637827754
0.009516404010355473,0.006374484393745661,-0.010889698751270771,0.005125285591930151,-0.00016906473319977522,-0.0008118685218505561
0.009852061048150063,0.006422058213502169,-0.01072451751679182,0.005409604404121637,-0.0001646456657908857,-0.000822866742964834
0.009615003131330013,0.005877370946109295,-0.01094952691346407,0.00532414298504591,-0.00017171198851428926,-0.0009397072135470808
0.009806203655898571,0.006033346056938171,-0.011660835705697536,0.0056989542208611965,-0.00017805818060878664,-0.001155030564405024
0.010201944038271904,0.0060798777267336845,-0.010878195986151695,0.005444206763058901,-0.00017443600518163294,-0.001165010966360569
0.008838489651679993,0.006224183831363916,-0.01087119709700346,0.0052455575205385685,-0.00017035403288900852,-0.001531074522063136
0.011174952611327171,0.0060489666648209095,-0.010570952668786049,0.005551218520849943,-0.0001664191368035972,-0.0014650385128334165
0.010615905746817589,0.006029215175658464,-0.010091244243085384,0.006030227988958359,-0.00016265948943328112,-0.0014002291718497872
0.010615905746817589,0.006029215175658464,-0.010091244243085384,0.006030227988958359,-0.00016265948943328112,-0.0014002291718497872
0.009946957230567932,0.00626228004693985,-0.011353431269526482,0.005693166516721249,-0.00015562758198939264,-0.0013386369682848454
0.010315348394215107,0.006124215666204691,-0.01108571793884039,0.005477594677358866,-0.00015268853167071939,-0.0012923849280923605
0.010265900753438473,0.005926044192165136,-0.010986214503645897,0.00569968530908227,-0.00014298125461209565,-0.0014294099528342485
0.011060705408453941,0.005967147648334503,-0.01033585611730814,0.005844826810061932,-0.00013826994108967483,-0.0014231292298063636
0.010268671438097954,0.005649324506521225,-0.010991276241838932,0.006124623119831085,-0.00013412760745268315,-0.0019064353546127677
0.00969986617565155,0.0061076320707798,-0.011216869577765465,0.00563681498169899,-0.00013024396321270615,-0.0018466368783265352
0.010352745652198792,0.0065952492877841,-0.011173060163855553,0.005382312927395105,-0.00012658005289267749,-0.0021190743427723646
0.010527798905968666,0.005806893575936556,-0.011433809995651245,0.005115896929055452,-0.00014449241280090064,-0.0020399491768330336
0.010470924898982048,0.006015815306454897,-0.011751873418688774,0.005838015116751194,-0.00014359339547809213,-0.0022003070916980505
0.01114798802882433,0.006300888489931822,-0.011633996851742268,0.005632977467030287,-0.00014006099081598222,-0.0019580526277422905
0.010525419376790524,0.006221904419362545,-0.01106151845306158,0.0057980832643806934,-0.0001365321222692728,-0.002027173526585102
0.010462365113198757,0.006319630425423384,-0.0110029811039567,0.0057224384509027,-0.00013316559488885105,-0.0020506680011749268
0.011671599932014942,0.006246733944863081,-0.0121917137876153,0.005559559911489487,-0.00014877149078529328,-0.002017687074840069
0.012041247449815273,0.0059998431243002415,-0.011510136537253857,0.005548498593270779,-0.00014787122199777514,-0.002026686677709222
0.012281624600291252,0.006008346099406481,-0.011229090392589569,0.005718369502574205,-0.00014464564446825534,-0.0020645959302783012
0.012292415834963322,0.006472296081483364,-0.011246814392507076,0.005626070778816938,-0.0001414097350789234,-0.0020727585069835186
0.012252937071025372,0.006039927713572979,-0.01105025876313448,0.005600893869996071,-0.00013830602983944118,-0.002017902210354805
0.0126822954043746,0.005579481832683086,-0.012004388496279716,0.0056056128814816475,-0.00015337826334871352,-0.0018880967982113361
0.01215276401489973,0.005559468641877174,-0.011485480703413486,0.006065105088055134,-0.00015133144916035235,-0.0018715065671131015
0.0124488715082407,0.006090146489441395,-0.011228950694203377,0.005813720170408487,-0.000148291393998079,-0.0021834808867424726
0.011958856135606766,0.006575239356607199,-0.011781560257077217,0.006077006924897432,-0.00014536536764353514,-0.002624492160975933
0.012292799539864063,0.006125642918050289,-0.011216829530894756,0.006113885436207056,-0.00021945689513813704,-0.004022618755698204
0.013028314337134361,0.005653553642332554,-0.011473467573523521,0.006097440142184496,-0.00021431049390230328,-0.004166943021118641
0.01244167797267437,0.00563860172405839,-0.011183219030499458,0.00622089859098196,-0.0002403996913926676,-0.0035426823887974024
0.01272548083215952,0.0058987014926970005,-0.011850164271891117,0.006556439679116011,-0.0002348352427361533,-0.0029620369896292686
0.0120973140001297,0.0057445187121629715,-0.012102525681257248,0.006034278776496649,-0.0002253526181448251,-0.0027028510812669992
0.0121653713285923,0.006245721597224474,-0.01193245779722929,0.006512058898806572,-0.00024236462195403874,-0.0026218772400170565
0.01253413874655962,0.005675075110048056,-0.011903706938028336,0.006756247952580452,-0.0002336550533073023,-0.0029789607506245375
0.012537823989987373,0.005919262301176786,-0.011782716028392315,0.006318953819572926,-0.00022531543800141662,-0.003203916596248746
0.012537823989987373,0.005919262301176786,-0.011782716028392315,0.006318953819572926,-0.00022531543800141662,-0.003203916596248746
0.012932083569467068,0.006246078293770552,-0.011735420674085617,0.0058601172640919685,-0.00023978583340067416,-0.0037101679481565952
0.012932083569467068,0.006246078293770552,-0.011735420674085617,0.0058601172640919685,-0.00023978583340067416,-0.0037101679481565952
0.01217773649841547,0.005574550945311785,-0.012081879191100597,0.006279483903199434,-0.00030345810228027403,-0.0038632869254797697
0.012642249464988708,0.005794038064777851,-0.011781617999076843,0.006394070107489824,-0.00034711865009739995,-0.0036478249821811914
0.01206416916102171,0.005894864909350872,-0.011689397506415844,0.006507534999400377,-0.0003827401378657669,-0.003494035452604294
0.012687516398727894,0.005858503747731447,-0.012178437784314156,0.006057105027139187,-0.00036484983866102993,-0.0036253693979233503
0.01283439714461565,0.0062033976428210735,-0.011705057695508003,0.006169642321765423,-0.00036997729330323637,-0.0033435008954256773
0.012524278834462166,0.0057107978500425816,-0.01204482838511467,0.005869467742741108,-0.0003735932696145028,-0.0032100221142172813
0.012782560661435127,0.005889625288546085,-0.011784243397414684,0.006319001317024231,-0.0003542527265381068,-0.0031660643871873617
0.012755893170833588,0.005805395543575287,-0.012113218195736408,0.006790948566049337,-0.0003354909713380039,-0.0033624330535531044
0.0127879548817873,0.006166162900626659,-0.012085288763046265,0.0064071789383888245,-0.0003185282403137535,-0.0036827586591243744
0.012552662752568722,0.005748549941927195,-0.01184909138828516,0.006118549033999443,-0.0003031947708223015,-0.00358826806768775
0.013034466654062271,0.005763066466897726,-0.01244147215038538,0.006088842637836933,-0.00028926992672495544,-0.0035208032932132483
0.01300588808953762,0.005828544497489929,-0.011889063753187656,0.006211344618350267,-0.0003133788995910436,-0.0039072646759450436
0.012877071276307106,0.0058562071062624454,-0.01215564925223589,0.006024976726621389,-0.0003026067861355841,-0.004125398118048906
0.012870860286056995,0.0062325699254870415,-0.012098219245672226,0.0060338242910802364,-0.0002905489527620375,-0.003930611535906792
0.013148361817002296,0.006111043505370617,-0.012101653963327408,0.0064082760363817215,-0.00027928760391660035,-0.0036600299645215273
0.01289375964552164,0.0057232012040913105,-0.01208746712654829,0.0062460885383188725,-0.000282327615423128,-0.0035331272520124912
0.012958342209458351,0.005535524804145098,-0.0119264405220747,0.006339263170957565,-0.0002786295081023127,-0.0036198662128299475
0.012976866215467453,0.005654995795339346,-0.012850726023316383,0.006529919803142548,-0.0002632278192322701,-0.0037016160786151886
0.012595155276358128,0.005862455349415541,-0.011778273619711399,0.006406218279153109,-0.00028540403582155704,-0.0037241228856146336
0.012595155276358128,0.005862455349415541,-0.011778273619711399,0.006406218279153109,-0.00028540403582155704,-0.0037241228856146336
0.013012699782848358,0.006156534422188997,-0.012017969973385334,0.006372431758791208,-0.000281987915514037,-0.004155454691499472
0.013040471822023392,0.006182576064020395,-0.011744638904929161,0.006835899781435728,-0.00026870518922805786,-0.004051747731864452
0.013557079248130322,0.0058220671489834785,-0.01187446340918541,0.006412317976355553,-0.0002727849059738219,-0.004006542265415192
0.013557079248130322,0.0058220671489834785,-0.01187446340918541,0.006412317976355553,-0.0002727849059738219,-0.004006542265415192
0.013732469640672207,0.0063429479487240314,-0.011960718780755997,0.006657727062702179,-0.00026148222968913615,-0.0043886080384254456
0.013783440925180912,0.0058914911933243275,-0.011681441217660904,0.007289325352758169,-0.0002510618360247463,-0.004399917554110289
0.013545919209718704,0.005684471223503351,-0.011685975827276707,0.007105480879545212,-0.00024143821792677045,-0.004348306450992823
0.013288356363773346,0.006088925525546074,-0.012690010480582714,0.006798486690968275,-0.00023252572282217443,-0.004060829523950815
0.013669922947883606,0.00562580581754446,-0.011775262653827667,0.006840652786195278,-0.00022424772032536566,-0.004222538322210312
0.013275296427309513,0.00639328034594655,-0.012493721209466457,0.006763644050806761,-0.00021653879957739264,-0.004577302373945713
0.013893205672502518,0.005910550244152546,-0.012198928743600845,0.007016960997134447,-0.00023722855257801712,-0.004636692348867655
0.013507441617548466,0.00595075823366642,-0.012155100703239441,0.006713374983519316,-0.00023142222198657691,-0.004820908419787884
0.014419397339224815,0.005687049590051174,-0.011957814916968346,0.006547144148498774,-0.00022432960395235568,-0.004710225388407707
0.014084303751587868,0.005756133235991001,-0.011578317731618881,0.006696290336549282,-0.00021755817579105496,-0.004689248278737068
0.013998467475175858,0.006052966229617596,-0.012359430082142353,0.007091047242283821,-0.00021117682626936585,-0.004684383049607277
0.013751656748354435,0.006007848773151636,-0.012128832750022411,0.007382997311651707,-0.00020515933283604681,-0.00422965781763196
0.014322069473564625,0.005992766469717026,-0.01244857907295227,0.006754902191460133,-0.0001994748308788985,-0.004382140468806028
0.013764132745563984,0.005625218618661165,-0.012019846588373184,0.0070106228813529015,-0.00019409717060625553,-0.004313482437282801
0.014515453949570656,0.005768157541751862,-0.011604424566030502,0.007087772246450186,-0.00019303185399621725,-0.004430759698152542
0.014141745865345001,0.006249979604035616,-0.012284772470593452,0.0069974446669220924,-0.00018675193132366985,-0.004486278165131807
0.014591624960303307,0.005673405714333057,-0.012024929746985435,0.007346523925662041,-0.0001794182026060298,-0.00463338615372777
0.013919888995587826,0.005946814548224211,-0.012698236852884293,0.007303898222744465,-0.00017254419799428433,-0.004747222177684307
0.014388962648808956,0.0055446140468120575,-0.012052185833454132,0.007060802076011896,-0.00016617232176940888,-0.004811280872672796
0.014181507751345634,0.005792033392935991,-0.01236629392951727,0.00726840877905488,-0.00016025430522859097,-0.005210517439991236
0.014320396818220615,0.005782718304544687,-0.012251610867679119,0.007008773274719715,-0.0001699093118077144,-0.004935517907142639
0.01386104803532362,0.0060908920131623745,-0.012031620368361473,0.0070810806937515736,-0.00017848658899310976,-0.004556633997708559
0.014369864016771317,0.005566508509218693,-0.01300630159676075,0.007016523275524378,-0.00017367344116792083,-0.0050666602328419685
0.014303071424365044,0.005897757597267628,-0.011690591461956501,0.006905918009579182,-0.00016831993707455695,-0.004877655301243067
0.014303071424365044,0.005897757597267628,-0.011690591461956501,0.006905918009579182,-0.00016831993707455695,-0.004877655301243067
0.014629564248025417,0.0055188145488500595,-0.012312911450862885,0.006738435011357069,-0.00017658255819696933,-0.0046815164387226105
0.014115777797996998,0.006043071858584881,-0.012278953567147255,0.006663126405328512,-0.00018394812650512904,-0.004404662176966667
0.014367732219398022,0.0057017323561012745,-0.012284156866371632,0.007072989363223314,-0.00017952421330846846,-0.0046991161070764065
0.014833837747573853,0.0053894962184131145,-0.012085954658687115,0.007324253208935261,-0.00016989641881082207,-0.005289738532155752
0.014316275715827942,0.005351402796804905,-0.012401249259710312,0.007037589326500893,-0.00018748367438092828,-0.005279830191284418
0.014720012433826923,0.005453140940517187,-0.012486771680414677,0.007700959220528603,-0.0001841273478930816,-0.004645842127501965
0.014414267614483833,0.0061345454305410385,-0.012186015024781227,0.00787805113941431,-0.00017962735728360713,-0.00488838367164135
0.014980501495301723,0.005693040322512388,-0.011775679886341095,0.007120339199900627,-0.00023584764858242124,-0.005560232326388359
0.014525401405990124,0.005399123765528202,-0.011907626874744892,0.00724794901907444,-0.0002324832312297076,-0.005309720989316702
0.0153125561773777,0.0054376693442463875,-0.012196985073387623,0.006919693201780319,-0.00022160843946039677,-0.005697484128177166
0.01480791438370943,0.006057495716959238,-0.011932769790291786,0.00716701103374362,-0.000231876052566804,-0.005377548281103373
0.015158172696828842,0.006103688385337591,-0.012599237263202667,0.007197346538305283,-0.00024071116058621556,-0.0050013442523777485
0.01489192619919777,0.005949705373495817,-0.01211709063500166,0.007227050606161356,-0.00023163770674727857,-0.005320352967828512
0.015045979991555214,0.006018693093210459,-0.012626598589122295,0.00755304517224431,-0.00022218689264263958,-0.005340388510376215
0.01507898885756731,0.00546170212328434,-0.012153769843280315,0.007764207664877176,-0.0002442434779368341,-0.005503085441887379
0.015361594967544079,0.00587622681632638,-0.012402751483023167,0.007961360737681389,-0.00023920238891150802,-0.005236583296209574
0.014993896707892418,0.00541566452011466,-0.0127273453399539,0.008134431205689907,-0.00023071766190696508,-0.005269613582640886
0.01526368223130703,0.0046560317277908325,-0.012410120107233524,0.00743546336889267,-0.00022258353419601917,-0.005339942406862974
0.015006341971457005,0.004424237180501223,-0.012793643400073051,0.007820706814527512,-0.00024362441035918891,-0.005282068159431219
0.0150331761687994,0.004925754386931658,-0.012191563844680786,0.008153320290148258,-0.00023745612998027354,-0.005789591930806637
0.01536775566637516,0.004968913272023201,-0.012657013721764088,0.008155670948326588,-0.0002299920452060178,-0.005708624143153429
0.015234090387821198,0.004741774406284094,-0.012590075843036175,0.00822124071419239,-0.0002960615383926779,-0.005386746022850275
0.01531436201184988,0.0046196505427360535,-0.012566163204610348,0.008005350828170776,-0.0002879461389966309,-0.0053339311853051186
0.015217925421893597,0.005070236045867205,-0.013079741969704628,0.007496020756661892,-0.00032178766559809446,-0.005550536792725325
0.015217925421893597,0.005070236045867205,-0.013079741969704628,0.007496020756661892,-0.00032178766559809446,-0.005550536792725325
0.015433977358043194,0.004681256599724293,-0.012770268134772778,0.007462760433554649,-0.00030683737713843584,-0.00542153837159276
0.01594555750489235,0.004420620389282703,-0.011996935121715069,0.007677996531128883,-0.0003212417068425566,-0.005968437530100346
0.01594555750489235,0.004420620389282703,-0.011996935121715069,0.007677996531128883,-0.0003212417068425566,-0.005968437530100346
0.015354519709944725,0.0045064291916787624,-0.012894636020064354,0.007600665092468262,-0.0003060098097193986,-0.005526991095393896
0.015471303835511208,0.0043358453549444675,-0.013035695999860764,0.007608288433402777,-0.00031841342570260167,-0.005471321754157543
0.015871960669755936,0.004455534741282463,-0.01374777965247631,0.007327248342335224,-0.00030523567693307996,-0.005754309706389904
0.015837330371141434,0.00450145173817873,-0.01299228984862566,0.007184288464486599,-0.00038830674020573497,-0.00614105025306344
0.015759630128741264,0.0045592812821269035,-0.012583024799823761,0.00811256654560566,-0.00038669785135425627,-0.005560789257287979
0.01564260758459568,0.0043870629742741585,-0.013070234097540379,0.00850722473114729,-0.00041056491318158805,-0.005562192760407925
0.015738265588879585,0.0045372978784143925,-0.013746813870966434,0.0080053536221385,-0.00039682656642980874,-0.00535814231261611
0.015869829803705215,0.004555664490908384,-0.01311744935810566,0.0075277420692145824,-0.00040065275970846415,-0.005941113457083702
0.015281434170901775,0.004672301467508078,-0.013636766001582146,0.007029470056295395,-0.00040263705886900425,-0.006451969034969807
0.015639320015907288,0.0046286797150969505,-0.0129094822332263,0.00723474333062768,-0.0003801403508987278,-0.005833504255861044
0.015927918255329132,0.004606221802532673,-0.013260955922305584,0.007385905832052231,-0.0003586088423617184,-0.005918521899729967
0.016191396862268448,0.004619305487722158,-0.013064767234027386,0.00741336727514863,-0.00038442222285084426,-0.0056928955018520355
0.016409751027822495,0.005110508296638727,-0.013489392586052418,0.00802248902618885,-0.000367726810509339,-0.0062341406010091305
0.0163099505007267,0.0049852062948048115,-0.013216473162174225,0.008104595355689526,-0.0003500364546198398,-0.006742422003298998
0.016211971640586853,0.004697267431765795,-0.013631025329232216,0.00834095198661089,-0.0003785493317991495,-0.006492389366030693
0.016257982701063156,0.004780516028404236,-0.013462796807289124,0.00795032735913992,-0.0003636134206317365,-0.006371289025992155
0.015994856134057045,0.004813768435269594,-0.013396011665463448,0.008718974888324738,-0.00033736301702447236,-0.0063463556580245495
0.01447433140128851,0.00494648702442646,-0.013152912259101868,0.008646072819828987,-0.00031388315255753696,-0.0062001729384064674
0.017018811777234077,0.005301543511450291,-0.013133164495229721,0.008552161045372486,-0.00034799028071574867,-0.006655468605458736
0.017053669318556786,0.00540782930329442,-0.013332914561033249,0.008718928322196007,-0.00033025885932147503,-0.00665764044970274
0.016790665686130524,0.005081287119537592,-0.012564856559038162,0.008188275620341301,-0.000336717494064942,-0.006603541783988476
0.016589051112532616,0.004974315874278545,-0.013563623651862144,0.008047593757510185,-0.00034180094371549785,-0.006763676181435585
0.016193680465221405,0.005165755283087492,-0.013199147768318653,0.007936502806842327,-0.000359986413968727,-0.006950517650693655
0.01672467030584812,0.005067996680736542,-0.013611001893877983,0.008832881227135658,-0.0004109289147891104,-0.007089391816407442
0.016272082924842834,0.005363197531551123,-0.013241874054074287,0.008425846695899963,-0.0004286371695343405,-0.006738179828971624
0.016859032213687897,0.005052290391176939,-0.013735286891460419,0.008051963523030281,-0.000468092825030908,-0.006957860663533211
0.016935819759964943,0.005286545027047396,-0.013303456827998161,0.0087965726852417,-0.0004705076280515641,-0.007007305044680834
0.01714314892888069,0.005456769373267889,-0.013378058560192585,0.008813748136162758,-0.0004679118865169585,-0.006738079711794853
0.01714314892888069,0.005456769373267889,-0.013378058560192585,0.008813748136162758,-0.0004679118865169585,-0.006738079711794853
0.016866514459252357,0.005034924019128084,-0.01330304890871048,0.008594036102294922,-0.0004375193384476006,-0.0062826452776789665
0.01656406745314598,0.005215303506702185,-0.013242658227682114,0.008855490945279598,-0.00043863413156941533,-0.006603521760553122
0.016747206449508667,0.005004430655390024,-0.013163729570806026,0.009012570604681969,-0.0004138611548114568,-0.006627893541008234
0.017704619094729424,0.005162735469639301,-0.013328144326806068,0.009031441062688828,-0.00046677261707372963,-0.0064772991463541985
0.01757066324353218,0.005078217945992947,-0.012971548363566399,0.009133652783930302,-0.00044653372606262565,-0.006424144841730595
0.01754596270620823,0.005126023665070534,-0.013749300502240658,0.009259875863790512,-0.0004077450430486351,-0.006675516255199909
0.017778601497411728,0.005402213893830776,-0.013338441029191017,0.00923866592347622,-0.00044340064050629735,-0.0069245630875229836
0.01720566302537918,0.005054572597146034,-0.013718034140765667,0.009035399183630943,-0.00044738323776982725,-0.006854357197880745
0.01734672486782074,0.0052617695182561874,-0.013270741328597069,0.009253006428480148,-0.0004465164674911648,-0.006223654840141535
0.017371106892824173,0.005172927398234606,-0.013884133659303188,0.00870694313198328,-0.00046286743599921465,-0.006437708158046007
0.017140522599220276,0.005771625321358442,-0.01355760544538498,0.009045468643307686,-0.00044792727567255497,-0.006969680078327656
0.01764143817126751,0.0053903465159237385,-0.014014429412782192,0.0092017762362957,-0.00042253732681274414,-0.007062502205371857
0.0175572969019413,0.0050660790875554085,-0.013473770581185818,0.00897288043051958,-0.00045517514809034765,-0.007214313838630915
0.017956441268324852,0.005172907840460539,-0.013681723736226559,0.009071264415979385,-0.00043172211735509336,-0.0070066736079752445
0.017994027584791183,0.005566384643316269,-0.013771547004580498,0.009588929824531078,-0.00039510487113147974,-0.006959710270166397
0.017769239842891693,0.00551677867770195,-0.013829375617206097,0.009258085861802101,-0.00036326731787994504,-0.0069493139162659645
0.018539413809776306,0.0052424948662519455,-0.013804829679429531,0.009007804095745087,-0.0003361151902936399,-0.007151339203119278
0.018231941387057304,0.00554420193657279,-0.014249321073293686,0.009389485232532024,-0.00034310255432501435,-0.0071586607955396175
0.017867544665932655,0.005461795721203089,-0.01395693514496088,0.009250509552657604,-0.00034878618316724896,-0.006734008435159922
0.018375620245933533,0.00578203285112977,-0.013695977628231049,0.009146115742623806,-0.0003293284971732646,-0.007136646658182144
0.018025971949100494,0.005905295256525278,-0.014090154320001602,0.00921065267175436,-0.0003552685375325382,-0.007097835652530193
0.01805863529443741,0.005404273513704538,-0.01395034696906805,0.009504139423370361,-0.0003421012661419809,-0.006300400942564011
0.01810133084654808,0.005255348049104214,-0.013688775710761547,0.009242628701031208,-0.0003248562279623002,-0.005932428874075413
0.017585514113307,0.005605412647128105,-0.01358240470290184,0.00934597011655569,-0.000347162684192881,-0.005970187019556761
0.01844249852001667,0.005359501112252474,-0.014114282093942165,0.010305480100214481,-0.0003361881244927645,-0.006394988391548395
0.01842651516199112,0.005772348493337631,-0.013529321178793907,0.00937654823064804,-0.0003329872852191329,-0.006974956952035427
0.01842651516199112,0.005772348493337631,-0.013529321178793907,0.00937654823064804,-0.0003329872852191329,-0.006974956952035427
0.018119584769010544,0.005516483448445797,-0.014107456430792809,0.00951116718351841,-0.00031456208671443164,-0.006745589897036552
0.01833185739815235,0.005294616799801588,-0.014318209141492844,0.008720270358026028,-0.00027624162612482905,-0.006682720500975847
0.0183746125549078,0.005130222998559475,-0.013539471663534641,0.008987180888652802,-0.0002602585591375828,-0.006618119776248932
0.018952716141939163,0.0058693354949355125,-0.014310336671769619,0.010311488062143326,-0.00024602405028417706,-0.0068627577275037766
0.01865268684923649,0.006209775805473328,-0.013556688092648983,0.00946455355733633,-0.0002560230204835534,-0.006873429287225008
0.019198931753635406,0.005880431272089481,-0.013778194785118103,0.0100029231980443,-0.00025351581280119717,-0.007209365721791983
0.019198931753635406,0.005880431272089481,-0.013778194785118103,0.0100029231980443,-0.00025351581280119717,-0.007209365721791983
0.019262181594967842,0.005521930754184723,-0.01416075136512518,0.009168841876089573,-0.00024223164655268192,-0.007049341686069965
0.019148891791701317,0.006064696703106165,-0.013817211613059044,0.00908743403851986,-0.00023183520534075797,-0.007415573112666607
0.01885203644633293,0.005966781172901392,-0.014307305216789246,0.009707670658826828,-0.00025439937599003315,-0.00673805782571435
0.019023528322577477,0.0056380173191428185,-0.014194846153259277,0.009647400118410587,-0.0002487605670467019,-0.0067060841247439384
0.019293703138828278,0.005462209228426218,-0.015012264251708984,0.009399918839335442,-0.00023958692327141762,-0.006997164338827133
0.01936023123562336,0.005497095175087452,-0.014037913642823696,0.009702173061668873,-0.000230826175538823,-0.007034128997474909
0.019016608595848083,0.00572590995579958,-0.014577249065041542,0.009563283994793892,-0.00022266744053922594,-0.007203389890491962
0.018912488594651222,0.006139581557363272,-0.014123782515525818,0.008880654349923134,-0.00024171565019059926,-0.006948184687644243
0.019426418468356133,0.005610395222902298,-0.014439688064157963,0.0095610236749053,-0.00023740867618471384,-0.007222129497677088
0.019018208608031273,0.005460237618535757,-0.014092530123889446,0.00970429927110672,-0.00023006142873782665,-0.007327383849769831
0.019740959629416466,0.005301629193127155,-0.014436389319598675,0.009320772252976894,-0.0002270049590151757,-0.007476446684449911
0.01986624300479889,0.0057640522718429565,-0.014395681209862232,0.009830568917095661,-0.0002206007920904085,-0.007062545046210289
0.019830085337162018,0.0064230370335280895,-0.015335550531744957,0.010611617006361485,-0.000210584606975317,-0.007056582253426313
0.01947401836514473,0.006143101956695318,-0.014985423535108566,0.010048631578683853,-0.00023867460549809039,-0.007067343220114708
0.01991705410182476,0.0055426936596632,-0.014914611354470253,0.009923765435814857,-0.00023091259936336428,-0.007360358256846666
0.019256209954619408,0.005161655601114035,-0.014192652888596058,0.010100283659994602,-0.0002536070242058486,-0.00746046332642436
0.018976863473653793,0.005773444660007954,-0.014951348304748535,0.009820893406867981,-0.00024802546249702573,-0.007332698442041874
0.019565124064683914,0.005912591703236103,-0.014515751972794533,0.010008844546973705,-0.00023890666489023715,-0.007007228210568428
0.019565124064683914,0.005912591703236103,-0.014515751972794533,0.010008844546973705,-0.00023890666489023715,-0.007007228210568428
0.019435059279203415,0.006176497787237167,-0.015532104298472404,0.009931004606187344,-0.00026085085119120777,-0.006902354769408703
0.019994335249066353,0.005442456807941198,-0.014946463517844677,0.009567213244736195,-0.00036906354944221675,-0.007077293004840612
0.019704286009073257,0.005322909448295832,-0.015665069222450256,0.009990962222218513,-0.0004407106898725033,-0.00740846386179328
0.019820820540189743,0.006261973641812801,-0.015716953203082085,0.01019605528563261,-0.000448465725639835,-0.007456659805029631
0.02086758427321911,0.005960188340395689,-0.015016423538327217,0.010215808637440205,-0.0004788873193319887,-0.007371176965534687
0.020010273903608322,0.005936155095696449,-0.015057752840220928,0.009603369049727917,-0.0004961505183018744,-0.0078152846544981
0.019014140591025352,0.005707144271582365,-0.01590672880411148,0.009018665179610252,-0.0004781477910000831,-0.007419579196721315
0.01983955129981041,0.00564447371289134,-0.015626782551407814,0.009559279307723045,-0.0006054787081666291,-0.007299243938177824
0.020111558958888054,0.004696889780461788,-0.015769831836223602,0.009802749380469322,-0.0006366913439705968,-0.0072767906822264194
0.02002517692744732,0.005067302845418453,-0.015210013836622238,0.010498769581317902,-0.0005930908373557031,-0.007583686616271734
0.019673172384500504,0.005421899259090424,-0.015555332414805889,0.010505160316824913,-0.0006187476101331413,-0.0074950833804905415
0.020244713872671127,0.00507959583774209,-0.014964086934924126,0.010119645856320858,-0.0006279026274569333,-0.007554793264716864
0.020358102396130562,0.005460036918520927,-0.01549032423645258,0.009957260452210903,-0.0005947492318227887,-0.0075736031867563725
0.019657980650663376,0.00531335175037384,-0.014996113255620003,0.010210382752120495,-0.0005504712462425232,-0.00800254475325346
0.019994698464870453,0.004948578774929047,-0.015706973150372505,0.009262686595320702,-0.0005853435723111033,-0.00816833134740591
0.020027561113238335,0.005313067231327295,-0.014923123642802238,0.009387776255607605,-0.0006067415815778077,-0.007803979329764843
0.020106887444853783,0.005137068685144186,-0.015341298654675484,0.010655729100108147,-0.0006367085734382272,-0.008195905014872551
0.020516254007816315,0.004874108824878931,-0.015133040025830269,0.01023777388036251,-0.0006403903826139867,-0.008861648850142956
0.020319612696766853,0.005230837035924196,-0.01536474283784628,0.009848587214946747,-0.0006237803027033806,-0.008579785004258156
0.0203254334628582,0.005163408350199461,-0.01476676668971777,0.010098290629684925,-0.0005765542737208307,-0.008060374297201633
0.020010931417346,0.004725036211311817,-0.015210616402328014,0.009845942258834839,-0.0006656770710833371,-0.008200514130294323
0.02058694139122963,0.004950905218720436,-0.01560409739613533,0.009726927615702152,-0.0005898304516449571,-0.008153460919857025
0.020213009789586067,0.005343957804143429,-0.015336808748543262,0.010444244369864464,-0.0006187169929035008,-0.008620950393378735
0.01985207200050354,0.004789817146956921,-0.015580163337290287,0.010288231074810028,-0.0006057271384634078,-0.008363954722881317
0.020645946264266968,0.004884496796876192,-0.01522875763475895,0.01071803830564022,-0.0005898643285036087,-0.008475462906062603
0.02028483711183071,0.004879670683294535,-0.01565607450902462,0.011002196930348873,-0.0005985264433547854,-0.008970865048468113
0.019637353718280792,0.004764409735798836,-0.015265604481101036,0.01062858011573553,-0.0005689388490281999,-0.008439120836555958
0.020452655851840973,0.004795952700078487,-0.0156492181122303,0.010913410224020481,-0.0005283250939100981,-0.008418457582592964
0.020452655851840973,0.004795952700078487,-0.0156492181122303,0.010913410224020481,-0.0005283250939100981,-0.008418457582592964
0.02063288353383541,0.0051080649718642235,-0.014735205098986626,0.011140163987874985,-0.000501499860547483,-0.008951370604336262
0.02012963779270649,0.004922274500131607,-0.01556697953492403,0.011259982362389565,-0.0004612641059793532,-0.007907715626060963
0.02149873971939087,0.004910928662866354,-0.015965469181537628,0.01114985253661871,-0.0004571469617076218,-0.009145652875304222
0.020377598702907562,0.004803135991096497,-0.015163915231823921,0.010586393997073174,-0.0004236594832036644,-0.009010589681565762
0.020306771621108055,0.004803238436579704,-0.015590555965900421,0.010637904517352581,-0.00042473015491850674,-0.008179069496691227
0.02080715447664261,0.005203145556151867,-0.015902256593108177,0.010571065358817577,-0.00042514828965067863,-0.0083890026435256
0.021093571558594704,0.004893142729997635,-0.015785247087478638,0.010614526458084583,-0.00042784211109392345,-0.008648773655295372
0.02072017267346382,0.004492069594562054,-0.015762021765112877,0.010493486188352108,-0.0004281003202777356,-0.008476183749735355
0.02063036896288395,0.004992380738258362,-0.015244151465594769,0.00988049991428852,-0.00044521113159134984,-0.00821667816489935
0.021420273929834366,0.004828352015465498,-0.0160551518201828,0.01055939868092537,-0.0004408562381286174,-0.008136244490742683
0.021927719935774803,0.004849622026085854,-0.015601970255374908,0.010972367599606514,-0.0004734493850264698,-0.008457846939563751
0.021203303709626198,0.004774642642587423,-0.01569800078868866,0.010228147730231285,-0.0004984976258128881,-0.008394491858780384
0.021574921905994415,0.004925750195980072,-0.015107189305126667,0.010125605389475822,-0.0004781291645485908,-0.008544513024389744
0.021041469648480415,0.00479883560910821,-0.015986204147338867,0.010333741083741188,-0.0005004104459658265,-0.00861934944987297
0.02078334242105484,0.004432769026607275,-0.015653742477297783,0.010585912503302097,-0.00047495783655904233,-0.008494921028614044
0.021301493048667908,0.004559804685413837,-0.015666376799345016,0.01132457796484232,-0.0005773039301857352,-0.008535996079444885
0.021590759977698326,0.0045806183479726315,-0.01547237578779459,0.010588666424155235,-0.0005515636876225471,-0.008593033067882061
0.021510809659957886,0.005119146313518286,-0.015693118795752525,0.010500232689082623,-0.0004938999190926552,-0.009080484509468079
0.021360833197832108,0.004539132583886385,-0.015957973897457123,0.010958950035274029,-0.0004451610438991338,-0.008408432826399803
0.021511733531951904,0.00455202953889966,-0.015796488150954247,0.010850002057850361,-0.00047483525122515857,-0.00841559749096632
0.022385500371456146,0.004477932117879391,-0.016189884394407272,0.011216065846383572,-0.00044515152694657445,-0.008567391894757748
0.022242998704314232,0.004876427352428436,-0.015323392115533352,0.010906620882451534,-0.00041179911931976676,-0.008624015375971794
0.022496717050671577,0.004714039154350758,-0.015752773731946945,0.010795583948493004,-0.00038263644091784954,-0.00894866045564413
0.021604089066386223,0.004823095630854368,-0.01536694448441267,0.011414889246225357,-0.0004087623383384198,-0.00899258442223072
0.021367741748690605,0.004476690664887428,-0.016179697588086128,0.010972750373184681,-0.00039044502773322165,-0.008704022504389286
0.022137921303510666,0.004443008918315172,-0.01576646976172924,0.011028043925762177,-0.00036808245931752026,-0.008608097210526466
0.02266911044716835,0.004427796695381403,-0.015887463465332985,0.011529798619449139,-0.00034778440021909773,-0.008203434757888317
0.022608783096075058,0.004481810610741377,-0.015811467543244362,0.011714550666511059,-0.0003734234778676182,-0.008518275804817677
0.022608783096075058,0.004481810610741377,-0.015811467543244362,0.011714550666511059,-0.0003734234778676182,-0.008518275804817677
0.022238869220018387,0.00484698498621583,-0.015547821298241615,0.011584799736738205,-0.0003577259194571525,-0.0092886658385396
0.022605743259191513,0.00448832381516695,-0.0157823134213686,0.011111434549093246,-0.00032555731013417244,-0.007856577634811401
0.02228163555264473,0.004390169866383076,-0.016050860285758972,0.011525711044669151,-0.00028477716841734946,-0.008105937391519547
0.022395947948098183,0.004514075815677643,-0.015308481641113758,0.010947192087769508,-0.0002604842302389443,-0.008648725226521492
0.022432034835219383,0.004744953941553831,-0.01592279225587845,0.011089330539107323,-0.00026969469035975635,-0.008562290109694004
0.022644970566034317,0.004594982601702213,-0.016323145478963852,0.010910586453974247,-0.0002779319474939257,-0.00855237990617752
0.02283053658902645,0.004463932476937771,-0.016500884667038918,0.010943197645246983,-0.0002873255289159715,-0.008540909737348557
0.023347292095422745,0.004927652422338724,-0.01591506600379944,0.011465933173894882,-0.0002940694394055754,-0.00860561989247799
0.022395798936486244,0.005032152868807316,-0.015860410407185555,0.010759863071143627,-0.0003171496500726789,-0.008451046422123909
0.022915581241250038,0.0047900015488266945,-0.016737425699830055,0.01109969150274992,-0.00030869682086631656,-0.009330783039331436
0.02339092083275318,0.00473980326205492,-0.01609531044960022,0.01162051409482956,-0.0005162706365808845,-0.009597050957381725
0.023031191900372505,0.004677535500377417,-0.016239413991570473,0.01133156567811966,-0.0005234515992924571,-0.009120798669755459
0.022924654185771942,0.0047768582589924335,-0.015621020458638668,0.011446560733020306,-0.0005158224375918508,-0.00920168962329626
0.023074205964803696,0.004749126732349396,-0.016775473952293396,0.011082560755312443,-0.0005114742671139538,-0.009346222504973412
0.02340644598007202,0.004965329542756081,-0.016537148505449295,0.011471182107925415,-0.0005052302149124444,-0.008786696009337902
0.024089183658361435,0.004781065974384546,-0.016223592683672905,0.01185214426368475,-0.0005191273521631956,-0.009539563208818436
0.023724395781755447,0.004644976928830147,-0.016521168872714043,0.011860091239213943,-0.0004986366839148104,-0.00926885288208723
0.02343345247209072,0.004653376992791891,-0.01608497090637684,0.011530451476573944,-0.000545468763448298,-0.00897225271910429
0.02386070415377617,0.005146112758666277,-0.017087871208786964,0.010475548915565014,-0.0005603157333098352,-0.008817397989332676
0.02398509345948696,0.00455848453566432,-0.016619432717561722,0.010896632447838783,-0.0005491772899404168,-0.00940215028822422
0.023968782275915146,0.004639750346541405,-0.0168597511947155,0.011247347109019756,-0.0005414797924458981,-0.009143402799963951
0.02450336515903473,0.004725477192550898,-0.016184912994503975,0.01090111956000328,-0.0005323803052306175,-0.008896294981241226
0.02444894053041935,0.004926178604364395,-0.016526803374290466,0.01157230045646429,-0.0005272166454233229,-0.008974979631602764
0.02404625155031681,0.004873073194175959,-0.016671789810061455,0.011400928720831871,-0.0005209444207139313,-0.009095849469304085
0.024533551186323166,0.005001306068152189,-0.01682385988533497,0.011111799627542496,-0.000631287635769695,-0.009486008435487747
0.02440064586699009,0.004892283584922552,-0.016652952879667282,0.011263992637395859,-0.0005714634316973388,-0.009464805945754051
0.02440064586699009,0.004892283584922552,-0.016652952879667282,0.011263992637395859,-0.0005714634316973388,-0.009464805945754051
0.0246797576546669,0.00490964762866497,-0.016835594549775124,0.011661883443593979,-0.0005970916245132685,-0.009672711603343487
0.02520972676575184,0.004635010380297899,-0.01679845340549946,0.012020946480333805,-0.0006077838479541242,-0.00895875133574009
0.02515171468257904,0.004342136904597282,-0.01676282286643982,0.011426512151956558,-0.0005786999245174229,-0.009149834513664246
0.02518373355269432,0.004882887937128544,-0.017058953642845154,0.012074758298695087,-0.0006532032275572419,-0.008985488675534725
0.025132080540060997,0.004948357120156288,-0.016467928886413574,0.011729380115866661,-0.0006348575698211789,-0.009174039587378502
0.025682121515274048,0.004820272792130709,-0.017206531018018723,0.012016176246106625,-0.0006126471562311053,-0.00924026407301426
0.026086391881108284,0.004928067792207003,-0.01682377979159355,0.011865911073982716,-0.0005530974012799561,-0.009607973508536816
0.026003839448094368,0.00476046884432435,-0.016677236184477806,0.012116366997361183,-0.0005794608150608838,-0.009857497178018093
0.023542167618870735,0.004781404044479132,-0.01687128096818924,0.012888812460005283,-0.0005722554633393884,-0.009808609262108803
0.026075689122080803,0.005105069372802973,-0.016657182946801186,0.011842909269034863,-0.0005615627742372453,-0.009573128074407578
0.02664642035961151,0.004883899353444576,-0.01724976673722267,0.012165183201432228,-0.0005667090881615877,-0.009492569603025913
0.02608480118215084,0.004902626387774944,-0.016578828915953636,0.011938218027353287,-0.0005856095813214779,-0.009395137429237366
0.02577478624880314,0.005029954016208649,-0.016962772235274315,0.012086533941328526,-0.0005493964999914169,-0.009964046999812126
0.026217125356197357,0.005177780520170927,-0.017367688938975334,0.012569040060043335,-0.0005610226071439683,-0.009340396150946617
0.026616821065545082,0.004802612587809563,-0.017090853303670883,0.012683341279625893,-0.0005325024831108749,-0.00938655436038971
0.02661225199699402,0.004671171307563782,-0.0177561417222023,0.012370334938168526,-0.0005437314393930137,-0.009539441205561161
0.026135506108403206,0.005068372003734112,-0.016555264592170715,0.01253886241465807,-0.0005205050692893565,-0.009751588106155396
0.025723299011588097,0.004913571290671825,-0.016798874363303185,0.013321146368980408,-0.00048637809231877327,-0.010389520786702633
0.026689017191529274,0.005264292936772108,-0.016834134235978127,0.013381151482462883,-0.0005083915893919766,-0.010194653645157814
0.02717721275985241,0.005459419451653957,-0.017138738185167313,0.013536719605326653,-0.0005334722227416933,-0.010519920848309994
0.02673712745308876,0.005001840181648731,-0.0175306536257267,0.012701260857284069,-0.0005669192760251462,-0.01021877396851778
0.02687305212020874,0.004943563137203455,-0.016303451731801033,0.012766912579536438,-0.0005388848949223757,-0.009684490039944649
0.0270191989839077,0.004858332220464945,-0.01727437973022461,0.012635823339223862,-0.0005589699139818549,-0.009988921694457531
0.027116606011986732,0.004752145614475012,-0.016717344522476196,0.013241643086075783,-0.0005265115178190172,-0.01004217378795147
0.027031786739826202,0.005262754857540131,-0.01699475757777691,0.012894921936094761,-0.0006298974622040987,-0.009745338931679726
0.027031786739826202,0.005262754857540131,-0.01699475757777691,0.012894921936094761,-0.0006298974622040987,-0.009745338931679726
0.026736481115221977,0.005648482125252485,-0.017331555485725403,0.012172372080385685,-0.0005948609323240817,-0.009830223396420479
0.026892179623246193,0.004998448304831982,-0.016737276688218117,0.012727239169180393,-0.0006188087281771004,-0.011374032124876976
0.026725763455033302,0.00476236455142498,-0.017279870808124542,0.012820348143577576,-0.0005663117626681924,-0.010481132194399834
0.02668720670044422,0.004892989993095398,-0.01708148792386055,0.012805858626961708,-0.000545304617844522,-0.010077221319079399
0.02698878012597561,0.005337437614798546,-0.017677977681159973,0.01307270210236311,-0.0005030030151829123,-0.01065358892083168
0.026262477040290833,0.005482493434101343,-0.0171132143586874,0.012932627461850643,-0.0005233059055171907,-0.010373447090387344
0.026894554495811462,0.004996738862246275,-0.01766982302069664,0.012701034545898438,-0.0004951369483023882,-0.010583920404314995
0.02714688889682293,0.0052878702990710735,-0.017152344807982445,0.013538885861635208,-0.000463741656858474,-0.010264316573739052
0.02697119675576687,0.005159125663340092,-0.017702508717775345,0.013368832878768444,-0.00043569697299972177,-0.010333661921322346
0.02585553005337715,0.005406664684414864,-0.017726846039295197,0.013424637727439404,-0.0003995976585429162,-0.010472982190549374
0.027295077219605446,0.005703379400074482,-0.016902541741728783,0.01276441104710102,-0.0003665277035906911,-0.01022092904895544
0.027834298089146614,0.005112711805850267,-0.01774156466126442,0.013083113357424736,-0.00040185690158978105,-0.010825995355844498
0.028491588309407234,0.004684533458203077,-0.018023570999503136,0.012929320335388184,-0.00037783244624733925,-0.011276588775217533
0.02783677540719509,0.005228296387940645,-0.01844704896211624,0.013377061113715172,-0.00035336113069206476,-0.010676689445972443
0.02681053802371025,0.0050338623113930225,-0.018212417140603065,0.013441196642816067,-0.0003794562362600118,-0.010795309208333492
0.027378134429454803,0.005332454107701778,-0.016989726573228836,0.013868086040019989,-0.0003640543145593256,-0.010971982963383198
0.028109094128012657,0.005167282652109861,-0.018211187794804573,0.013554070144891739,-0.0003871582739520818,-0.010904550552368164
0.028594575822353363,0.004964443854987621,-0.018848545849323273,0.013384210877120495,-0.0003729573218151927,-0.010763941332697868
0.02816910855472088,0.005153042264282703,-0.017979174852371216,0.013459866866469383,-0.00044644137960858643,-0.010731182061135769
0.028543313965201378,0.0050459252670407295,-0.017768802121281624,0.013547882437705994,-0.00041915307519957423,-0.0102476105093956
0.02868047170341015,0.005078772082924843,-0.017991747707128525,0.013712453655898571,-0.00045051981578581035,-0.010458996519446373
0.029097024351358414,0.005434396211057901,-0.018485892564058304,0.013325477950274944,-0.0004241855349391699,-0.010227720253169537
0.02784670889377594,0.005152144003659487,-0.018149659037590027,0.013278153724968433,-0.0004256586835253984,-0.010620435699820518
0.027663718909025192,0.005099995993077755,-0.01728973537683487,0.01300594862550497,-0.0004260433779563755,-0.010961209423840046
0.02840772457420826,0.0044160266406834126,-0.0179585088044405,0.013228990137577057,-0.0004008356190752238,-0.011198737658560276
0.02853401191532612,0.004524867516011,-0.018781742081046104,0.012817013077437878,-0.0003769652103073895,-0.01142988819628954
0.028758475556969643,0.0043480307795107365,-0.018150748685002327,0.013390643522143364,-0.00040297614759765565,-0.010382581502199173
0.028560619801282883,0.004985411651432514,-0.01809753105044365,0.014841615222394466,-0.00040645175613462925,-0.010607816278934479
0.028560619801282883,0.004985411651432514,-0.01809753105044365,0.014841615222394466,-0.00040645175613462925,-0.010607816278934479
0.02817581035196781,0.004761646501719952,-0.01782841794192791,0.014844582416117191,-0.0003867189516313374,-0.010543858632445335
0.028237581253051758,0.004224421922117472,-0.018109625205397606,0.015136143192648888,-0.0004186174483038485,-0.01085843425244093
0.02838190458714962,0.004318389110267162,-0.017591342329978943,0.01438764575868845,-0.00039633354754187167,-0.010849392972886562
0.02880675531923771,0.005027389619499445,-0.01806933805346489,0.01441938616335392,-0.0004229697515256703,-0.010747173801064491
0.0286245197057724,0.0048940759152174,-0.018558526411652565,0.013768939301371574,-0.00040319032268598676,-0.01080009713768959
0.02858911082148552,0.004779698792845011,-0.017597034573554993,0.014391379430890083,-0.00042981182923540473,-0.010571694932878017
0.028764812275767326,0.004885444883257151,-0.018049534410238266,0.013880640268325806,-0.0005070536863058805,-0.010441419668495655
0.029404427856206894,0.004224785603582859,-0.018272003158926964,0.014328770339488983,-0.0006183420191518962,-0.010709207504987717
0.0279763862490654,0.0043359072878956795,-0.01812707632780075,0.014143300242722034,-0.000582048436626792,-0.0108275031670928
0.02930261567234993,0.004107413813471794,-0.01850104331970215,0.014669248834252357,-0.0006086790817789733,-0.011273462325334549
0.02912185899913311,0.004460734315216541,-0.0181310772895813,0.014291904866695404,-0.0005986326141282916,-0.011161145754158497
0.02918202616274357,0.004565179347991943,-0.018275555223226547,0.014189807698130608,-0.0005853652255609632,-0.011290699243545532
0.028790688142180443,0.004851619713008404,-0.018372997641563416,0.013503250665962696,-0.0005455078789964318,-0.011676806956529617
0.029215041548013687,0.0047228955663740635,-0.01767485775053501,0.014148110523819923,-0.000613063748460263,-0.011613965965807438
0.029508670791983604,0.004159230273216963,-0.01802775263786316,0.013958626426756382,-0.0006418020348064601,-0.011407887563109398
0.029736259952187538,0.004259455483406782,-0.018247419968247414,0.01423601619899273,-0.0006568010430783033,-0.011162151582539082
0.02915116399526596,0.004317959304898977,-0.018136654049158096,0.014235527254641056,-0.0006153585854917765,-0.010955007746815681
0.02965456433594227,0.004304331261664629,-0.018727563321590424,0.013840707950294018,-0.0006310771568678319,-0.011238244362175465
0.029873158782720566,0.004261330235749483,-0.018216120079159737,0.013919539749622345,-0.000588919734582305,-0.010985355824232101
0.029950182884931564,0.004912846256047487,-0.017810143530368805,0.013835553079843521,-0.0006385351298376918,-0.011181944981217384
0.030072705820202827,0.004436864051967859,-0.018334323540329933,0.01412192452698946,-0.0006720660021528602,-0.011661102063953876
0.030309215188026428,0.004444218706339598,-0.01816631853580475,0.013573307543992996,-0.0006979209720157087,-0.011809739284217358
0.029978374019265175,0.004196368157863617,-0.018351128324866295,0.013953602872788906,-0.0007066550897434354,-0.011869838461279869
0.029942311346530914,0.003982148598879576,-0.018646566197276115,0.014086187817156315,-0.0006629476556554437,-0.011899874545633793
0.029978981241583824,0.004191058222204447,-0.01812283881008625,0.014631985686719418,-0.000770078448113054,-0.012034088373184204
0.029978981241583824,0.004191058222204447,-0.01812283881008625,0.014631985686719418,-0.000770078448113054,-0.012034088373184204
0.030740048736333847,0.0046769254840910435,-0.01864035055041313,0.015429062768816948,-0.0007977053173817694,-0.01202392578125
0.030850669369101524,0.004750014748424292,-0.018475091084837914,0.015280303545296192,-0.0007667138706892729,-0.011449513956904411
0.029121389612555504,0.004077790305018425,-0.01839911751449108,0.015044250525534153,-0.0007434398285113275,-0.011909005232155323
0.02992304228246212,0.004006379749625921,-0.01810980588197708,0.015477695502340794,-0.000764566648285836,-0.012622370384633541
0.030796343460679054,0.00415645819157362,-0.01822260022163391,0.015140119940042496,-0.0007985093980096281,-0.012158399447798729
0.03017595037817955,0.004971174988895655,-0.01866139844059944,0.015554535202682018,-0.0007110825972631574,-0.011948684230446815
0.030954139307141304,0.005000678822398186,-0.018083026632666588,0.015228310599923134,-0.0007192573393695056,-0.012062929570674896
0.03159870579838753,0.004509260877966881,-0.01861017383635044,0.015920348465442657,-0.0006564651848748326,-0.011822039261460304
0.03075878508388996,0.004323696717619896,-0.01857076957821846,0.015541492961347103,-0.0005951719358563423,-0.01143983006477356
0.030240025371313095,0.004117473028600216,-0.018118802458047867,0.015229886397719383,-0.0006107429508119822,-0.011835006065666676
0.0301462821662426,0.00438509788364172,-0.018882576376199722,0.014829005114734173,-0.000571351614780724,-0.01224187295883894
0.031307440251111984,0.004644839093089104,-0.018893135711550713,0.015163515694439411,-0.0005298695177771151,-0.012006690725684166
0.03162016719579697,0.004687400069087744,-0.018439114093780518,0.015219460241496563,-0.00047880742931738496,-0.01207069493830204
0.030656980350613594,0.004845751915127039,-0.018825316801667213,0.01567206345498562,-0.0004312465316615999,-0.01240742951631546
0.03209741786122322,0.004995392635464668,-0.019778188318014145,0.015357841737568378,-0.0003933941188734025,-0.012165404856204987
0.031565167009830475,0.004865678958594799,-0.018837565556168556,0.015355570241808891,-0.00042412959737703204,-0.012653100304305553
0.030850673094391823,0.004328086972236633,-0.01921658031642437,0.015345832332968712,-0.00040110645932145417,-0.01271305326372385
0.03151863068342209,0.004395399242639542,-0.019176838919520378,0.014911907725036144,-0.0003738745581358671,-0.012751842848956585
0.03159618750214577,0.004487308673560619,-0.01865987665951252,0.014713919721543789,-0.0004000508051831275,-0.012635638937354088
0.031407680362463,0.005105135962367058,-0.019318917766213417,0.014558152295649052,-0.0003826274478342384,-0.012781282886862755
0.0318131260573864,0.004905092995613813,-0.019605686888098717,0.015197820030152798,-0.00038626365130767226,-0.012808958068490028
0.031854115426540375,0.004571415949612856,-0.019109675660729408,0.015185297466814518,-0.0003886442573275417,-0.012570716440677643
0.032344330102205276,0.004343838896602392,-0.019126130267977715,0.015434782020747662,-0.0003718406951520592,-0.012246903963387012
0.03218740224838257,0.004537566099315882,-0.019804827868938446,0.015296760946512222,-0.0003960604371968657,-0.012609506957232952
0.031901925802230835,0.00477245356887579,-0.01946876011788845,0.01563798263669014,-0.0004308618663344532,-0.012757542543113232
0.03208264335989952,0.004368339665234089,-0.019716670736670494,0.015158943831920624,-0.0004401802143547684,-0.01305143628269434
0.03208264335989952,0.004368339665234089,-0.019716670736670494,0.015158943831920624,-0.0004401802143547684,-0.01305143628269434
0.03337615728378296,0.0050144256092607975,-0.019781989976763725,0.015631381422281265,-0.00044011749560013413,-0.012849865481257439
0.03236369043588638,0.004887338727712631,-0.019377250224351883,0.015517006628215313,-0.0004566979478113353,-0.013232753612101078
0.032663024961948395,0.004068147391080856,-0.019574863836169243,0.015152357518672943,-0.0006931654061190784,-0.012808112427592278
0.03331959620118141,0.0043576001189649105,-0.01914486289024353,0.015598882921040058,-0.0006773679633624852,-0.012841466814279556
0.032512370496988297,0.004177858121693134,-0.018703948706388474,0.015797842293977737,-0.0006995543953962624,-0.013274612836539745
0.03346102684736252,0.004235904198139906,-0.02017594873905182,0.016036802902817726,-0.0007195772486738861,-0.013353267684578896
0.03317994251847267,0.00463442038744688,-0.019622543826699257,0.0161274466663599,-0.0007830256363376975,-0.013189266435801983
0.032332584261894226,0.00474885618314147,-0.01966159977018833,0.015619754791259766,-0.0007674173102714121,-0.013014066033065319
0.031585924327373505,0.004353382624685764,-0.020053211599588394,0.015821533277630806,-0.0007844190113246441,-0.013027094304561615
0.03362555056810379,0.004476770758628845,-0.019684216007590294,0.015282689593732357,-0.0006921819294802845,-0.012912720441818237
0.03407538682222366,0.00439846096560359,-0.019458197057247162,0.01548348180949688,-0.0007086710538715124,-0.013137266971170902
0.033214181661605835,0.004334780387580395,-0.019655760377645493,0.015120997093617916,-0.0006867125048302114,-0.013529420830309391
0.0334499254822731,0.004436285234987736,-0.01962558552622795,0.01615111343562603,-0.0006635859608650208,-0.01299266517162323
0.033118121325969696,0.004670817870646715,-0.01992158219218254,0.016137873753905296,-0.0006111619877628982,-0.013302512466907501
0.033325642347335815,0.0047217165119946,-0.02017020992934704,0.0162866972386837,-0.0005493415519595146,-0.013522634282708168
0.03325358405709267,0.004464179743081331,-0.020073099061846733,0.016314111649990082,-0.0005744945956394076,-0.013494165614247322
0.033689532428979874,0.004252252168953419,-0.019685965031385422,0.01620965637266636,-0.0005942129646427929,-0.01349578145891428
0.03375593572854996,0.004485663957893848,-0.019750984385609627,0.016834063455462456,-0.0005618458962999284,-0.013570908457040787
0.03380163386464119,0.0045576803386211395,-0.020008163526654243,0.016351453959941864,-0.0005856717471033335,-0.013559079729020596
0.033806152641773224,0.004896202124655247,-0.01974669098854065,0.016368288546800613,-0.0005497036618180573,-0.013479426503181458
0.034195512533187866,0.004475953057408333,-0.02029559575021267,0.015609713271260262,-0.0006496329442597926,-0.013782747089862823
0.034276481717824936,0.004337977152317762,-0.02031838521361351,0.01584828644990921,-0.0006771578919142485,-0.013629158027470112
0.03405037894845009,0.004502702504396439,-0.019619546830654144,0.016271287575364113,-0.000702272227499634,-0.013698934577405453
0.03455311059951782,0.004665648564696312,-0.019444819539785385,0.016424041241407394,-0.0007224996224977076,-0.013775032013654709
0.034069765359163284,0.0043978276662528515,-0.019955608993768692,0.017021486535668373,-0.0008349228301085532,-0.0139146838337183
0.034069765359163284,0.0043978276662528515,-0.019955608993768692,0.017021486535668373,-0.0008349228301085532,-0.0139146838337183
0.03501218557357788,0.00434391712769866,-0.020041298121213913,0.016693944111466408,-0.0007704728632234037,-0.014101708307862282
0.03501218557357788,0.00434391712769866,-0.020041298121213913,0.016693944111466408,-0.0007704728632234037,-0.014101708307862282
0.03472107648849487,0.0044949897564947605,-0.020266251638531685,0.016086624935269356,-0.0006812007050029933,-0.013993943110108376
0.0343460738658905,0.004703834652900696,-0.020391596481204033,0.016210956498980522,-0.0006052314420230687,-0.014374534599483013
0.03426878899335861,0.004489986225962639,-0.019611816853284836,0.016452761366963387,-0.0005758487386628985,-0.014532454311847687
0.034552011638879776,0.00453218212351203,-0.020489012822508812,0.01691853255033493,-0.000598299375269562,-0.014428769238293171
0.035188086330890656,0.004348451737314463,-0.02016144059598446,0.016385024413466454,-0.0005589381908066571,-0.014344271272420883
0.034943122416734695,0.0044680992141366005,-0.020404813811182976,0.01687256246805191,-0.00048395415069535375,-0.014221646822988987
0.03445347025990486,0.004555074498057365,-0.02077534794807434,0.016930997371673584,-0.0005168957868590951,-0.014095054008066654
0.034101568162441254,0.004594928584992886,-0.0204137172549963,0.017657995223999023,-0.0005449410527944565,-0.013369952328503132
0.034395065158605576,0.004385657608509064,-0.020071841776371002,0.018145408481359482,-0.0005733931320719421,-0.014101455919444561
0.03622053563594818,0.0040593817830085754,-0.020613331347703934,0.017802519723773003,-0.0008107191533781588,-0.014127882197499275
0.03578588366508484,0.004431233741343021,-0.02045617252588272,0.01742868684232235,-0.0009062947938218713,-0.014333123341202736
0.03407669439911842,0.004139474593102932,-0.019772250205278397,0.016610918566584587,-0.0009106063516810536,-0.014380700886249542
0.03382500633597374,0.004341137129813433,-0.02030920796096325,0.01673087477684021,-0.0008580918656662107,-0.014584535732865334
0.035164203494787216,0.004550893325358629,-0.020388569682836533,0.01681448146700859,-0.0008106711320579052,-0.014008928090333939
0.035179175436496735,0.004148808307945728,-0.020233003422617912,0.016779843717813492,-0.0007391541148535907,-0.01422424241900444
0.03622109815478325,0.004471359308809042,-0.020095717161893845,0.01741936430335045,-0.0006954332930035889,-0.0143695417791605
0.035591624677181244,0.0046775625087320805,-0.020652268081903458,0.017609143629670143,-0.000694255402777344,-0.014732065610587597
0.03457081317901611,0.004694122821092606,-0.021070856600999832,0.017945516854524612,-0.0006390464259311557,-0.015082448720932007
0.03468144312500954,0.004702290520071983,-0.021063990890979767,0.017796320840716362,-0.0005729154217988253,-0.014929237775504589
0.036102294921875,0.004684419836848974,-0.020373232662677765,0.017144009470939636,-0.000592305907048285,-0.014323609881103039
0.035562992095947266,0.004350526724010706,-0.02101042866706848,0.017352908849716187,-0.0005505933077074587,-0.014104146510362625
0.03528787940740585,0.0044756196439266205,-0.020213117823004723,0.01705847680568695,-0.0005693761049769819,-0.013727721758186817
0.03558091074228287,0.004658357240259647,-0.020399024710059166,0.017037417739629745,-0.0005355468019843102,-0.013976323418319225
0.03575265780091286,0.004619749262928963,-0.020884612575173378,0.01687290146946907,-0.0005001720855943859,-0.014630078338086605
0.03527938574552536,0.004047463182359934,-0.021287210285663605,0.016954602673649788,-0.0005184364272281528,-0.0148587916046381
0.03552757948637009,0.004381842911243439,-0.020756211131811142,0.017666969448328018,-0.0005519077531062067,-0.015856575220823288
0.035451535135507584,0.004542527720332146,-0.02072998508810997,0.017817460000514984,-0.0005621848977170885,-0.014497623778879642
0.035451535135507584,0.004542527720332146,-0.02072998508810997,0.017817460000514984,-0.0005621848977170885,-0.014497623778879642
0.03545515611767769,0.003987083211541176,-0.020963618531823158,0.01748313568532467,-0.0007689628400839865,-0.014509031549096107
0.03522156551480293,0.0038232672959566116,-0.020590661093592644,0.017258258536458015,-0.0007565590785816312,-0.014523508958518505
0.03638676926493645,0.004104368854314089,-0.020535096526145935,0.017444657161831856,-0.0007163760019466281,-0.014869052916765213
0.03637693077325821,0.0041501703672111034,-0.02050391584634781,0.01687653921544552,-0.0007268374902196229,-0.014811595901846886
0.03493022918701172,0.004285518079996109,-0.020049970597028732,0.017138050869107246,-0.000708412320818752,-0.0146460747346282
0.034590624272823334,0.003976017702370882,-0.020462272688746452,0.01726597361266613,-0.0006829689955338836,-0.014477349817752838
0.03566836938261986,0.004318699240684509,-0.020928068086504936,0.01700885035097599,-0.0006727807922288775,-0.015111228451132774
0.03573228046298027,0.004144727718085051,-0.020993631333112717,0.017503466457128525,-0.0007042531506158412,-0.014905137941241264
0.036609943956136703,0.003923540469259024,-0.02057708613574505,0.01742999255657196,-0.0007200646796263754,-0.014909484423696995
0.036219142377376556,0.004164640326052904,-0.02052602730691433,0.017928309738636017,-0.0007262390572577715,-0.014643239788711071
0.034437570720911026,0.004124204628169537,-0.020700514316558838,0.01822255551815033,-0.0008819708018563688,-0.015092053450644016
0.03457894176244736,0.004012513905763626,-0.020376581698656082,0.01770743541419506,-0.0009358880924992263,-0.014852986671030521
0.03669380396604538,0.003942637704312801,-0.02063610777258873,0.01787518337368965,-0.0009432100341655314,-0.014943847432732582
0.036396708339452744,0.004364599473774433,-0.021021800115704536,0.01778975874185562,-0.0009476459235884249,-0.014853367581963539
0.03630133345723152,0.004151605069637299,-0.02094639465212822,0.01762409321963787,-0.0011767776450142264,-0.015295668505132198
0.03638842701911926,0.004074583761394024,-0.020292971283197403,0.017834734171628952,-0.0010983531828969717,-0.015121204778552055
0.03630509600043297,0.0039112926460802555,-0.02076408825814724,0.01761666312813759,-0.0009971873369067907,-0.015000137500464916
0.036356426775455475,0.003755089594051242,-0.020872415974736214,0.01800975389778614,-0.0009705281117931008,-0.014880548231303692
0.03669905290007591,0.003520539728924632,-0.020554834976792336,0.018003905192017555,-0.000874341290909797,-0.015184728428721428
0.03685610741376877,0.0037426433991640806,-0.020757269114255905,0.01740623451769352,-0.0007624126737937331,-0.015236981213092804
0.036454785615205765,0.0040924507193267345,-0.0210832841694355,0.017667653039097786,-0.0007744836620986462,-0.015354687348008156
0.03673822060227394,0.004471481777727604,-0.02086973935365677,0.01762380450963974,-0.0007898047915659845,-0.01552560180425644
0.037587180733680725,0.0036401310935616493,-0.020441168919205666,0.018098043277859688,-0.0007952740998007357,-0.015738194808363914
0.03763632848858833,0.0034853769466280937,-0.020865652710199356,0.018936527892947197,-0.0007271253853105009,-0.01598139852285385
0.037242840975522995,0.0041590239852666855,-0.021054111421108246,0.017984556034207344,-0.0007316690753214061,-0.015458835288882256
0.03776745870709419,0.004184394609183073,-0.02071525529026985,0.018066776916384697,-0.0007166965515352786,-0.015333140268921852
0.03789539262652397,0.004430214874446392,-0.0206602830439806,0.017785899341106415,-0.0006828132318332791,-0.015116734430193901
0.03769034892320633,0.0041373963467776775,-0.021287361159920692,0.017269840463995934,-0.0007035116432234645,-0.015623643063008785
