davideferrari95/blind_handover_controller/data/Test 120 - [2024-02-07 -- 16-31-27]/joint_states_data.csv
shoulder_pan_joint,shoulder_lift_joint,elbow_joint,wrist_1_joint,wrist_2_joint,wrist_3_joint
0.008936775848269463,0.008827717043459415,-0.016237333416938782,0.005869660060852766,-0.0,0.008756820112466812
0.008936775848269463,0.008827717043459415,-0.016237333416938782,0.005869660060852766,-0.0,0.008756820112466812
0.00913197174668312,0.008372045122087002,-0.016007492318749428,0.0062499805353581905,-0.0,0.009050123393535614
0.008715717121958733,0.008442903868854046,-0.015623069368302822,0.006413671653717756,-0.0,0.009271048940718174
0.008924358524382114,0.008073974400758743,-0.016482042148709297,0.006943877320736647,-0.0,0.009072677232325077
0.009224075824022293,0.009311185218393803,-0.0159084964543581,0.0064064874313771725,-0.0,0.009147807024419308
0.008733198046684265,0.008631720207631588,-0.016201481223106384,0.005822653416544199,-0.0,0.00907221157103777
0.008949912153184414,0.00816824845969677,-0.01531733013689518,0.005684466101229191,-0.0,0.008889325894415379
0.008744251914322376,0.008324434980750084,-0.015973296016454697,0.006246697623282671,-0.0,0.008870584890246391
0.008744251914322376,0.008324434980750084,-0.015973296016454697,0.006246697623282671,-0.0,0.008870584890246391
0.008899272419512272,0.007874843664467335,-0.015775183215737343,0.0067340959794819355,-0.0,0.009140834212303162
0.009038814343512058,0.007968653924763203,-0.015979230403900146,0.00612992700189352,-0.0,0.008879554457962513
0.0088161900639534,0.008177029900252819,-0.016020501032471657,0.0060011716559529305,-0.0,0.008860732428729534
0.008910603821277618,0.008299272507429123,-0.01577206328511238,0.0063391015864908695,-0.0,0.009085733443498611
0.008650253526866436,0.008174864575266838,-0.015826093032956123,0.0065940972417593,-0.0,0.008994155563414097
0.008999492973089218,0.008796189911663532,-0.016118908300995827,0.006359806749969721,-0.0,0.009081079624593258
0.008762153796851635,0.00829903781414032,-0.015638155862689018,0.005940865725278854,-0.0,0.009186724200844765
0.0092749809846282,0.008308813907206059,-0.01611706241965294,0.006216366775333881,-0.0,0.008970854803919792
0.00900473352521658,0.008541980758309364,-0.015956467017531395,0.006619511172175407,-0.0,0.008973316289484501
0.008896015584468842,0.008440040983259678,-0.016494447365403175,0.006518598645925522,-0.0,0.008929516188800335
0.008549433201551437,0.008104773238301277,-0.016279980540275574,0.006047900300472975,-0.0,0.009188960306346416
0.009009934030473232,0.00821141991764307,-0.0156698040664196,0.006216058507561684,-0.0,0.008731158450245857
0.008917706087231636,0.008621104061603546,-0.016185760498046875,0.006695874035358429,-0.0,0.009208595380187035
0.008392632938921452,0.008653351105749607,-0.0160059817135334,0.00652100145816803,-0.0,0.009056256152689457
0.009603336453437805,0.008444804698228836,-0.016196327283978462,0.006530453450977802,-0.0,0.009150045923888683
0.008794453926384449,0.008541426621377468,-0.015600071288645267,0.006201849319040775,-0.0,0.009029057808220387
0.008530410006642342,0.008728573098778725,-0.016081565991044044,0.006409874651581049,-0.0,0.00903946440666914
0.008996245451271534,0.008497683331370354,-0.015915583819150925,0.006630897521972656,-0.0,0.008738971315324306
0.008465558290481567,0.007851572707295418,-0.016467934474349022,0.006648999638855457,-0.0,0.00846351869404316
0.008747508749365807,0.008337360806763172,-0.016563834622502327,0.0067263999953866005,-0.0,0.00863306038081646
0.0089391078799963,0.007984325289726257,-0.015944719314575195,0.006651589181274176,-0.0,0.008569150231778622
0.008809857070446014,0.007917171344161034,-0.017170289531350136,0.007295436225831509,-0.0,0.008747270330786705
0.008805813267827034,0.008495926856994629,-0.01615937240421772,0.0071131521835923195,-0.0,0.008163333870470524
0.008420408703386784,0.008650259114801884,-0.016509048640727997,0.006930995732545853,-0.0,0.008474869653582573
0.008822941221296787,0.008454551920294762,-0.016025077551603317,0.0066672274842858315,-0.0,0.007876414805650711
0.009289097040891647,0.00789923220872879,-0.016018228605389595,0.006954633165150881,-0.0,0.009373249486088753
0.009289097040891647,0.00789923220872879,-0.016018228605389595,0.006954633165150881,-0.0,0.009373249486088753
0.00841472391039133,0.008959032595157623,-0.016072247177362442,0.006962100509554148,-0.0,0.008975787088274956
0.008404284715652466,0.008104168809950352,-0.01638190820813179,0.006214731838554144,-0.0,0.008696086704730988
0.009202863089740276,0.007924063131213188,-0.016626466065645218,0.0058692325837910175,-0.0,0.00863643642514944
0.008649781346321106,0.007716638036072254,-0.015923291444778442,0.0060686529614031315,-0.0,0.009021824225783348
0.00875867996364832,0.008730833418667316,-0.016513865441083908,0.006446268409490585,-0.0,0.009053685702383518
0.008898753672838211,0.007939273491501808,-0.015962950885295868,0.006750043481588364,-0.0,0.008825819008052349
0.009084690362215042,0.008280252106487751,-0.016011107712984085,0.006473194342106581,-0.0,0.008207877166569233
0.008333558216691017,0.008728565648198128,-0.016593465581536293,0.006136086769402027,-0.0,0.008252408355474472
0.008669462986290455,0.008671226911246777,-0.016006048768758774,0.006528822705149651,-0.0,0.008457101881504059
0.008444943465292454,0.008060728199779987,-0.01593879982829094,0.006719653960317373,-0.0,0.00832329411059618
0.008213261142373085,0.008482977747917175,-0.016456065699458122,0.006069399416446686,-0.0,0.008195972070097923
0.008410374633967876,0.008743589743971825,-0.0154452845454216,0.005970522295683622,-0.0,0.008454130962491035
0.008823296055197716,0.00847146101295948,-0.015624858438968658,0.006843734998255968,-0.0,0.008668550290167332
0.008525953628122807,0.008342090994119644,-0.015161200426518917,0.006550069432705641,-0.0,0.008144794963300228
0.00865438673645258,0.008331391960382462,-0.01589019037783146,0.006322895176708698,-0.0,0.008366486988961697
0.008471405133605003,0.008844878524541855,-0.01576085202395916,0.006423075217753649,-0.0,0.008499596267938614
0.00837952084839344,0.008171897381544113,-0.01597973331809044,0.007059024181216955,-0.0,0.008453384041786194
0.00833252351731062,0.008727557957172394,-0.015305336564779282,0.007279016077518463,-0.0,0.008308647200465202
0.009561661630868912,0.00857203733175993,-0.015549829229712486,0.007012654095888138,-0.0,0.008326924405992031
0.008988539688289165,0.008596301078796387,-0.01588805764913559,0.007165585644543171,-0.0,0.008445964194834232
0.00829277653247118,0.008769433945417404,-0.015270546078681946,0.006886898074299097,-0.0,0.008397014811635017
0.00837754551321268,0.008960207924246788,-0.015621829777956009,0.007309999782592058,-0.0,0.008401017636060715
0.009014351293444633,0.008539419621229172,-0.015190633945167065,0.006921273656189442,-0.0,0.008665109984576702
0.008911320939660072,0.008310934528708458,-0.015766311436891556,0.006630339194089174,-0.0,0.008512990549206734
0.00880135502666235,0.00899887178093195,-0.015260946936905384,0.0064603416249156,-0.0,0.008201896212995052
0.00880135502666235,0.00899887178093195,-0.015260946936905384,0.0064603416249156,-0.0,0.008201896212995052
0.009261620230972767,0.008612317964434624,-0.015493461862206459,0.006600827444344759,-0.0,0.00812050886452198
0.008783012628555298,0.008550850674510002,-0.014816642738878727,0.007011977955698967,-0.0,0.008472389541566372
0.008239987306296825,0.009340409189462662,-0.015415139496326447,0.006770143285393715,-0.0,0.008483869023621082
0.008551254868507385,0.008779051713645458,-0.014701170846819878,0.006418345961719751,-0.0,0.008270978927612305
0.009072750806808472,0.008441665209829807,-0.015222735702991486,0.006780114024877548,-0.0,0.008395778015255928
0.008546078577637672,0.009054387919604778,-0.015087750740349293,0.006985558196902275,-0.0,0.00832771509885788
0.009013434872031212,0.008589242585003376,-0.014562709257006645,0.007023445330560207,-0.0,0.008196963928639889
0.009009618312120438,0.008461612276732922,-0.015054487623274326,0.006672616116702557,-0.0,0.00869889184832573
0.008778917603194714,0.009209347888827324,-0.015228594653308392,0.007901296019554138,-0.0,0.008684078231453896
0.008716716431081295,0.008892964571714401,-0.015141267329454422,0.007942340336740017,-0.0,0.008324299938976765
0.008920076303184032,0.008678940124809742,-0.01510460302233696,0.007093457970768213,-0.0,0.00824898574501276
0.008601587265729904,0.009509097784757614,-0.014769580215215683,0.006768376566469669,-0.0,0.008339193649590015
0.008980882354080677,0.009392079897224903,-0.015149062499403954,0.007355649955570698,-0.0,0.008491052314639091
0.00877766590565443,0.009015190415084362,-0.015143509954214096,0.007056602742522955,-0.0,0.008013751357793808
0.008684748783707619,0.009023136459290981,-0.015641065314412117,0.006845810450613499,-0.0,0.008269697427749634
0.009086649864912033,0.009404302574694157,-0.014653644524514675,0.006888806354254484,-0.0,0.00826685968786478
0.0091311139985919,0.009086759760975838,-0.015223413705825806,0.007330127991735935,-0.0,0.008221539668738842
0.009109496138989925,0.009260675869882107,-0.014427888207137585,0.007558012846857309,-0.0,0.00831499695777893
0.008642693981528282,0.009103876538574696,-0.015038490295410156,0.007079890463501215,-0.0,0.00790699664503336
0.009179570712149143,0.008699451573193073,-0.014574743807315826,0.00666448287665844,-0.0,0.007862449623644352
0.008631709963083267,0.008565062656998634,-0.01499250065535307,0.006757935509085655,-0.0,0.007480259984731674
0.00836921762675047,0.00941350869834423,-0.014652670361101627,0.0073006777092814445,-0.0,0.007622853387147188
0.008972997777163982,0.008818733505904675,-0.015244253911077976,0.007346983067691326,-0.0,0.00766483461484313
0.008599461987614632,0.008813067339360714,-0.014615497551858425,0.006610331125557423,-0.0,0.007823421619832516
0.0084629375487566,0.009630301035940647,-0.015033162198960781,0.006369865965098143,-0.0,0.007721695117652416
0.009491277858614922,0.010169045999646187,-0.014563778415322304,0.007028872612863779,-0.0,0.008014562539756298
0.009355157613754272,0.008054970763623714,-0.0154339037835598,0.0073159560561180115,-0.0,0.007856816053390503
0.009061157703399658,0.010993264615535736,-0.015163903124630451,0.007382163777947426,-0.0,0.008131477981805801
0.009061157703399658,0.010993264615535736,-0.015163903124630451,0.007382163777947426,-0.0,0.008131477981805801
0.008795464411377907,0.008568188175559044,-0.015672100707888603,0.006703758146613836,-0.0,0.00799747183918953
0.009055959060788155,0.009105064906179905,-0.015276400372385979,0.007037500385195017,-0.0,0.00811365433037281
0.008730774745345116,0.00932146143168211,-0.01530626229941845,0.0068292501382529736,-0.0,0.007688636891543865
0.008689947426319122,0.009294218383729458,-0.015477626584470272,0.006802511867135763,-0.0,0.007465007249265909
0.009021804668009281,0.009376061148941517,-0.015367703512310982,0.006655081640928984,-0.0,0.0073994859121739864
0.009175019338726997,0.010125244967639446,-0.015223470516502857,0.007191523443907499,-0.0,0.007514609955251217
0.009486734867095947,0.009237745776772499,-0.015405133366584778,0.007230515591800213,-0.0,0.008085092529654503
0.009114324115216732,0.009507173672318459,-0.015241976827383041,0.006692628376185894,-0.0,0.008542070165276527
0.008919090032577515,0.009474232792854309,-0.01450114045292139,0.006726362742483616,-0.0,0.008093380369246006
0.009390546940267086,0.009242050349712372,-0.01511702872812748,0.007273705676198006,-0.0,0.0077930050902068615
0.009258003905415535,0.009585537947714329,-0.015766233205795288,0.007374129723757505,-0.0,0.007578592281788588
0.008571470156311989,0.009942501783370972,-0.014618859626352787,0.006984170060604811,-0.0,0.007645003963261843
0.009061560966074467,0.009547155350446701,-0.015157111920416355,0.007133534178137779,-0.0,0.0075966049917042255
0.009844695217907429,0.009305540472269058,-0.014642616733908653,0.007676480803638697,-0.0,0.007512205746024847
0.009408376179635525,0.009931229054927826,-0.015253805555403233,0.007209224160760641,-0.0,0.007538643199950457
0.009088180959224701,0.009862326085567474,-0.014977993443608284,0.006906377151608467,-0.0,0.007924491539597511
0.009337815456092358,0.009192606434226036,-0.015294412150979042,0.006732891779392958,-0.0,0.007865729741752148
0.008963611908257008,0.009480485692620277,-0.015176377259194851,0.007197469938546419,-0.0,0.008052607998251915
0.008962246589362621,0.009453244507312775,-0.015337053686380386,0.0071850912645459175,-0.0,0.007623089477419853
0.009345853701233864,0.00931684672832489,-0.01478356309235096,0.007160285487771034,-0.0,0.008037240244448185
0.00905159953981638,0.009981202892959118,-0.014903316274285316,0.007079551927745342,-0.0,0.007917676120996475
0.00899999774992466,0.009030568413436413,-0.015504063107073307,0.007048106286674738,-0.0,0.007648892235010862
0.009525744244456291,0.009376073256134987,-0.015313295647501945,0.006844231393188238,-0.0,0.007130677346140146
0.009525744244456291,0.009376073256134987,-0.015313295647501945,0.006844231393188238,-0.0,0.007130677346140146
0.00935923121869564,0.009715178050100803,-0.015576791949570179,0.0067243739031255245,-0.0,0.007716914173215628
0.009783007204532623,0.009273114614188671,-0.015088344924151897,0.006700893398374319,-0.0,0.007243188098073006
0.00978592224419117,0.009097029455006123,-0.01543409749865532,0.007110232021659613,-0.0,0.007307393942028284
0.009337453171610832,0.009956068359315395,-0.014580752700567245,0.007459534332156181,-0.0,0.007904437370598316
0.009455280378460884,0.00922377035021782,-0.014965895563364029,0.006865398492664099,-0.0,0.007479031104594469
0.009455280378460884,0.00922377035021782,-0.014965895563364029,0.006865398492664099,-0.0,0.007479031104594469
0.009112553671002388,0.009259494952857494,-0.014986288733780384,0.006795589346438646,-0.0,0.007462803274393082
0.009854440577328205,0.008579659275710583,-0.015286250039935112,0.0067314752377569675,-0.0,0.007710732519626617
0.009712083265185356,0.008194557391107082,-0.014517838135361671,0.0069535886868834496,-0.0,0.007655012886971235
0.008988481014966965,0.00817128922790289,-0.015344633720815182,0.007027897983789444,-0.0,0.007363155484199524
0.009023668244481087,0.008294785395264626,-0.015048648230731487,0.0069874986074864864,-0.0,0.00732335913926363
0.009341703727841377,0.00830061174929142,-0.015398316085338593,0.007763638161122799,-0.0,0.007480413652956486
0.009134070947766304,0.008495239540934563,-0.014769117347896099,0.007932620123028755,-0.0,0.007668170612305403
0.009433314204216003,0.008011171594262123,-0.015062372200191021,0.007722947746515274,-0.0,0.007516320329159498
0.009946462698280811,0.00829106941819191,-0.014639529399573803,0.007174700032919645,-0.0,0.00709169078618288
0.009396642446517944,0.008503235876560211,-0.014937551692128181,0.00753228273242712,-0.0,0.006910822354257107
0.009068351238965988,0.008192705921828747,-0.014916517771780491,0.007495573256164789,-0.0,0.007379768881946802
0.009321033023297787,0.007818751037120819,-0.014638522639870644,0.0073020881973207,-0.0,0.006937951315194368
0.009178766049444675,0.007684867363423109,-0.014792066998779774,0.007425845135003328,-0.0,0.0069432612508535385
0.009022699669003487,0.0077573019079864025,-0.014636264182627201,0.0072298417799174786,-0.0,0.006895334459841251
0.009390229359269142,0.0082591213285923,-0.015178767032921314,0.007200826425105333,-0.0,0.007135886233299971
0.009495682083070278,0.007601391989737749,-0.015067092142999172,0.0065964567475020885,-0.0,0.007253163028508425
0.008907168172299862,0.008057567290961742,-0.01537872664630413,0.0070401267148554325,-0.0,0.0072551267221570015
0.010205020196735859,0.00792370829731226,-0.015094678848981857,0.007441790774464607,-0.0,0.007280551362782717
0.00986197404563427,0.007745955139398575,-0.01538030244410038,0.007540776394307613,-0.0,0.00731269083917141
0.009304448962211609,0.007375175599008799,-0.015052985399961472,0.007512890268117189,-0.0,0.0071109263226389885
0.009565937332808971,0.007534210104495287,-0.015573589131236076,0.0076076253317296505,-0.0,0.006973251234740019
0.009565937332808971,0.007534210104495287,-0.015573589131236076,0.0076076253317296505,-0.0,0.006973251234740019
0.00954822264611721,0.007944758981466293,-0.014822235330939293,0.007625632919371128,-0.0,0.006910241674631834
0.009014739654958248,0.0080385971814394,-0.015196377411484718,0.006876494735479355,-0.0,0.0074376314878463745
0.009545493870973587,0.007566747721284628,-0.014785343781113625,0.006575868930667639,-0.0,0.006988587789237499
0.00994391180574894,0.008144465275108814,-0.015525839291512966,0.006992487236857414,-0.0,0.0068765548057854176
0.009697642177343369,0.00785218458622694,-0.01460842601954937,0.007416171487420797,-0.0,0.007013428490608931
0.01023328211158514,0.008071858435869217,-0.01551906205713749,0.007264048792421818,-0.0,0.006901332642883062
0.009459453634917736,0.007700332906097174,-0.015315884724259377,0.007905237376689911,-0.0,0.006989070679992437
0.009847489185631275,0.008527607657015324,-0.014980742707848549,0.008153769187629223,-0.0,0.006877967622131109
0.010362334549427032,0.008450569584965706,-0.015473023056983948,0.007171275559812784,-0.0,0.0065555996261537075
0.00984570849686861,0.007810420356690884,-0.01549280621111393,0.007102429401129484,-0.0,0.00651128264144063
0.010801971890032291,0.008323256857693195,-0.015198964625597,0.007955153472721577,-0.0,0.006505950819700956
0.010333886370062828,0.007862052880227566,-0.015242746099829674,0.007834049873054028,-0.0,0.006785719655454159
0.01016297098249197,0.007820719853043556,-0.015048615634441376,0.00802549533545971,-0.0,0.0067881508730351925
0.010453655384480953,0.007779719773679972,-0.015643510967493057,0.007164612412452698,-0.0,0.006864146329462528
0.010161938145756721,0.008647577837109566,-0.015679728239774704,0.007970389910042286,-0.0,0.006807840894907713
0.01018317136913538,0.008607086725533009,-0.016008909791707993,0.007799091748893261,-0.0,0.0066454363986849785
0.011067528277635574,0.008039908483624458,-0.01498025469481945,0.007571497932076454,-0.0,0.006496218033134937
0.010060462169349194,0.00820212159305811,-0.015275628305971622,0.0074156238697469234,-0.0,0.006346256006509066
0.009959794580936432,0.008408404886722565,-0.015109221450984478,0.00780354393646121,-0.0,0.00655910512432456
0.01009329129010439,0.008297997526824474,-0.01596919447183609,0.007538708858191967,-0.0,0.006833920255303383
0.010480358265340328,0.0081704156473279,-0.01619022712111473,0.007068723905831575,-0.0,0.006651485338807106
0.0100708594545722,0.0084400475025177,-0.01603919267654419,0.006745585706084967,-0.0,0.006247555371373892
0.010403722524642944,0.008211360312998295,-0.01606186106801033,0.007289676461368799,-0.0,0.0066218869760632515
0.01026920322328806,0.008147712796926498,-0.015668580308556557,0.007686389610171318,-0.0,0.006852291524410248
0.010512635111808777,0.0082462253049016,-0.015783976763486862,0.007662407122552395,-0.0,0.006880857981741428
0.010512635111808777,0.0082462253049016,-0.015783976763486862,0.007662407122552395,-0.0,0.006880857981741428
0.010238784365355968,0.008042505010962486,-0.016071751713752747,0.00782750640064478,-0.0,0.007317667361348867
0.010724459774792194,0.007747952360659838,-0.015430036000907421,0.008212212473154068,-0.0,0.006639592815190554
0.01020182017236948,0.008999306708574295,-0.015625596046447754,0.007947051897644997,-0.0,0.006153468508273363
0.010391892865300179,0.00811152532696724,-0.015472166240215302,0.008132163435220718,-0.0,0.005872002802789211
0.010282162576913834,0.00801919586956501,-0.01580194942653179,0.00881402101367712,-0.0,0.006250545382499695
0.010282162576913834,0.00801919586956501,-0.01580194942653179,0.00881402101367712,-0.0,0.006250545382499695
0.010278347879648209,0.008195488713681698,-0.013915926218032837,0.008605953305959702,-0.0,0.0067404755391180515
0.010178858414292336,0.0084301782771945,-0.016041992232203484,0.008115124888718128,-0.0,0.006810276303440332
0.010744163766503334,0.00828596856445074,-0.016290167346596718,0.00800629798322916,-0.0,0.006336693651974201
0.010760675184428692,0.008288764394819736,-0.01579795777797699,0.008359394967556,-0.0,0.005990650504827499
0.011322411708533764,0.008840356953442097,-0.015371239744126797,0.00785739254206419,-0.0,0.005978278815746307
0.010367867536842823,0.008123146370053291,-0.016490520909428596,0.00792017113417387,-0.0,0.006127053406089544
0.010954215191304684,0.008143821731209755,-0.015666000545024872,0.007310248911380768,-0.0,0.006056337151676416
0.010291524231433868,0.00886237621307373,-0.015576877631247044,0.007195017300546169,-0.0,0.005911135580390692
0.01006032433360815,0.00801039021462202,-0.015060169622302055,0.007458816282451153,-0.0,0.006151529029011726
0.010774659924209118,0.00790737196803093,-0.01612330600619316,0.00832177884876728,-0.0,0.005982331931591034
0.010551736690104008,0.008281801827251911,-0.015587469562888145,0.008136926218867302,-0.0,0.005817811470478773
0.010660747066140175,0.008852350525557995,-0.015456851571798325,0.007993858307600021,-0.0,0.006064684130251408
0.011016352102160454,0.008024086244404316,-0.014945374801754951,0.00806742999702692,-0.0,0.005486838519573212
0.010980035178363323,0.007894408889114857,-0.015538258478045464,0.008553668856620789,-0.0,0.00513485400006175
0.011283164843916893,0.008142436854541302,-0.01575370319187641,0.008415238931775093,-0.0,0.00589374965056777
0.01118388120085001,0.008444161154329777,-0.015503652393817902,0.007918677292764187,-0.0,0.006337378174066544
0.011176958680152893,0.007944461889564991,-0.015469841659069061,0.007998167537152767,-0.0,0.005740713328123093
0.011377156712114811,0.008207042701542377,-0.014894013293087482,0.00792904756963253,-0.0,0.005749712698161602
0.011266585439443588,0.008000701665878296,-0.015684252604842186,0.007936932146549225,-0.0,0.005440492648631334
0.01024540327489376,0.007905117236077785,-0.014993330463767052,0.007535459008067846,-0.0,0.005853745155036449
0.010930705815553665,0.007840014062821865,-0.015700941905379295,0.008064893074333668,-0.0,0.00585362920537591
0.01163199357688427,0.008594418875873089,-0.015022212639451027,0.007804908324033022,-0.0,0.005408887751400471
0.01066601276397705,0.008485570549964905,-0.015672633424401283,0.008024357259273529,-0.0,0.005478532053530216
0.010907923802733421,0.007844056002795696,-0.01501970924437046,0.007714343722909689,-0.0,0.00606251647695899
0.010680603794753551,0.00777107197791338,-0.015667863190174103,0.007652008440345526,-0.0,0.006016634404659271
0.011022193357348442,0.008660863153636456,-0.015009446069598198,0.00802905485033989,-0.0,0.005882738623768091
0.010884576477110386,0.008165246807038784,-0.015246322378516197,0.008179837837815285,-0.0,0.00547800725325942
0.010884576477110386,0.008165246807038784,-0.015246322378516197,0.008179837837815285,-0.0,0.00547800725325942
0.010641701519489288,0.008170029148459435,-0.015277673490345478,0.007717007305473089,-0.0,0.005636956542730331
0.010808895342051983,0.007886741310358047,-0.015754014253616333,0.0076722814701497555,-0.0,0.005288119427859783
0.010430955328047276,0.008356200531125069,-0.015759775415062904,0.007525227963924408,-0.0,0.005517938174307346
0.010537968948483467,0.008731351234018803,-0.014372392557561398,0.008480959571897984,-0.0,0.005352491047233343
0.010537968948483467,0.008731351234018803,-0.014372392557561398,0.008480959571897984,-0.0,0.005352491047233343
0.010674159973859787,0.00839175470173359,-0.015308752655982971,0.008595233783125877,-0.0,0.005185232497751713
0.0110087925568223,0.007995602674782276,-0.015083648264408112,0.008174764923751354,-0.0,0.005154609680175781
0.010632826946675777,0.007783547509461641,-0.01564476080238819,0.008026987314224243,-0.0,0.005639119539409876
0.010541771538555622,0.008925656788051128,-0.015118553303182125,0.008422101847827435,-0.0,0.0058420742861926556
0.010483378544449806,0.008073370903730392,-0.015604354441165924,0.008224943652749062,-0.0,0.005637312773615122
0.010624329559504986,0.007527640555053949,-0.015011158771812916,0.007901366800069809,-0.0,0.005174054764211178
0.011017573066055775,0.008060088381171227,-0.015377582982182503,0.008786880411207676,-0.0,0.0048440005630254745
0.01102371048182249,0.008323309011757374,-0.014876768924295902,0.008627070114016533,-0.0,0.00509673124179244
0.011401238851249218,0.008197056129574776,-0.015523751266300678,0.008061344735324383,-0.0,0.005108431912958622
0.011488702148199081,0.00769683625549078,-0.01512105017900467,0.007919052615761757,-0.0,0.005297153722494841
0.010310240089893341,0.008321714587509632,-0.015379983931779861,0.008267569355666637,-0.0,0.005408865865319967
0.010785016231238842,0.008176319301128387,-0.015204724855720997,0.008618531748652458,-0.0,0.0050636883825063705
0.010456239804625511,0.007763842586427927,-0.015145200304687023,0.008047860115766525,-0.0,0.0045424592681229115
0.010325700044631958,0.007826214656233788,-0.01514569204300642,0.008076231926679611,-0.0,0.00437381025403738
0.010813644155859947,0.008376672863960266,-0.015468386933207512,0.008188520558178425,-0.0,0.004092599265277386
0.010340863838791847,0.00825429055839777,-0.015672197565436363,0.008306948468089104,-0.0,0.004456864669919014
0.010450031608343124,0.0076414537616074085,-0.014907610602676868,0.008402377367019653,-0.0,0.004690578207373619
0.010837474837899208,0.008046884089708328,-0.01560848206281662,0.008273639716207981,-0.0,0.004753433167934418
0.01069903839379549,0.008186674676835537,-0.015423213131725788,0.008383284322917461,-0.0,0.005028982181102037
0.011124922893941402,0.007643484976142645,-0.015978453680872917,0.008025582879781723,-0.0,0.004533146508038044
0.011056741699576378,0.008180714212357998,-0.015066936612129211,0.008682277984917164,-0.0,0.0040760100819170475
0.010195855982601643,0.008615842089056969,-0.015543760731816292,0.00860508345067501,-0.0,0.004419053439050913
0.010195855982601643,0.008615842089056969,-0.015543760731816292,0.00860508345067501,-0.0,0.004419053439050913
0.01077139750123024,0.007831931114196777,-0.015497993677854538,0.008179837837815285,-0.0,0.004601222928613424
0.01171395555138588,0.007652836386114359,-0.016222616657614708,0.00750977685675025,-0.0,0.004605214577168226
0.010418519377708435,0.0076016392558813095,-0.015512262471020222,0.008141189813613892,-0.0,0.004126405343413353
0.010999477468430996,0.00818288791924715,-0.015706295147538185,0.008459016680717468,-0.0,0.0038430967833846807
0.011752692051231861,0.007621164433658123,-0.015787743031978607,0.008130642585456371,-0.0,0.0040910448879003525
0.011540248058736324,0.00784782599657774,-0.0156959630548954,0.008999132551252842,-0.0,0.004531423095613718
0.011480643413960934,0.008319846354424953,-0.015000926330685616,0.008110717870295048,-0.0,0.004167560487985611
0.011556294746696949,0.007902678102254868,-0.01601499691605568,0.007861056365072727,-0.0,0.004162852186709642
0.011231767013669014,0.0077294958755373955,-0.01534232310950756,0.008076128549873829,-0.0,0.004558348562568426
0.011050512082874775,0.007742565590888262,-0.015357507392764091,0.00836365669965744,-0.0,0.004316444043070078
0.011297054588794708,0.007988682016730309,-0.01491356361657381,0.007832973264157772,-0.0,0.004445766564458609
0.010665381327271461,0.007606560830026865,-0.015617034398019314,0.00802900455892086,-0.0,0.0042190863750875
0.01105573121458292,0.0073431069031357765,-0.01535880845040083,0.008399426937103271,-0.0,0.004035082180052996
0.011254734359681606,0.007611306384205818,-0.015767091885209084,0.008293300867080688,-0.0,0.003869804320856929
0.010836542584002018,0.007858538068830967,-0.015674099326133728,0.00797134917229414,-0.0,0.0043403287418186665
0.01117957103997469,0.007401574403047562,-0.015655571594834328,0.007846541702747345,-0.0,0.0041423668153584
0.011072449386119843,0.007229992654174566,-0.01597355119884014,0.008292978629469872,-0.0,0.004265517462044954
0.01111824531108141,0.007377149537205696,-0.015308110974729061,0.008239121176302433,-0.0,0.003944966476410627
0.011616529896855354,0.007430641911923885,-0.015323794446885586,0.007871408015489578,-0.0,0.003665513824671507
0.011064860038459301,0.007160859648138285,-0.014816581271588802,0.008318346925079823,-0.0,0.0034742385614663363
0.01164480485022068,0.007106615696102381,-0.015564260073006153,0.008276274427771568,-0.0,0.0035988762974739075
0.01154733169823885,0.007362471893429756,-0.015103123150765896,0.00795468594878912,-0.0,0.00379736116155982
0.011503814719617367,0.007345119491219521,-0.015964757651090622,0.007769383490085602,-0.0,0.00397174246609211
0.012217511422932148,0.007138964720070362,-0.01509259082376957,0.008263949304819107,-0.0,0.004055692348629236
0.012000255286693573,0.007188307587057352,-0.015630139037966728,0.008780251257121563,-0.0,0.004022316541522741
0.011436733417212963,0.00756070576608181,-0.01495321188122034,0.00847612414509058,-0.0,0.003522544866427779
0.011436733417212963,0.00756070576608181,-0.01495321188122034,0.00847612414509058,-0.0,0.003522544866427779
0.011677293106913567,0.007345905527472496,-0.015099748969078064,0.008636749349534512,-0.0,0.0036139264702796936
0.012055340223014355,0.007211100775748491,-0.015127226710319519,0.008889391086995602,-0.0,0.0038676615804433823
0.012564115226268768,0.007132576312869787,-0.015572646632790565,0.007944411598145962,-0.0,0.00352585781365633
0.01169312559068203,0.007068820297718048,-0.01583184115588665,0.008088534697890282,-0.0,0.003877573646605015
0.012251409702003002,0.006728181149810553,-0.01584727130830288,0.009257033467292786,-0.0,0.004062110558152199
0.012117265723645687,0.006796154659241438,-0.015175055712461472,0.008862254209816456,-0.0,0.003514486365020275
0.011960133910179138,0.007286855950951576,-0.015352449379861355,0.00965295359492302,-0.0,0.0032367652747780085
0.012389968149363995,0.00702954875305295,-0.014901489019393921,0.009025393053889275,-0.0,0.0032137385569512844
0.012427412904798985,0.006588317453861237,-0.015531761571764946,0.009008280001580715,-0.0,0.0034305776935070753
0.012164521962404251,0.0065867542289197445,-0.015221892856061459,0.008765778504312038,-0.0,0.0036234697327017784
0.012411325238645077,0.006751675624400377,-0.015688559040427208,0.008815640583634377,-0.0,0.003540453966706991
0.01250614132732153,0.007230500690639019,-0.014775148592889309,0.00853435043245554,-0.0,0.003292118664830923
0.01246547419577837,0.0071107507683336735,-0.015581624582409859,0.008778148330748081,-0.0,0.0032752775587141514
0.012301215901970863,0.007002328988164663,-0.015048166736960411,0.009137866087257862,-0.0,0.0035979286767542362
0.012246903963387012,0.006810344289988279,-0.015123468823730946,0.008596023544669151,-0.0,0.0038099000230431557
0.012574417516589165,0.007374709937721491,-0.015095545910298824,0.007871146313846111,-0.0,0.0034019392915070057
0.011745443567633629,0.006705345585942268,-0.015573319979012012,0.008382633328437805,-0.0,0.003004491562023759
0.012074447236955166,0.006519902963191271,-0.01569771207869053,0.008501965552568436,-0.0,0.0029060745146125555
0.012044206261634827,0.00660564424470067,-0.014995879493653774,0.00848069041967392,-0.0,0.002889708150178194
0.012105441652238369,0.007158621214330196,-0.015129742212593555,0.008470465429127216,-0.0,0.003362685441970825
0.012475615367293358,0.007008162327110767,-0.015191434882581234,0.008991987444460392,-0.0,0.003239551791921258
0.012070974335074425,0.006296806503087282,-0.015436526387929916,0.008712423034012318,-0.0,0.003014747053384781
0.012511668726801872,0.00645922776311636,-0.015138961374759674,0.008322085253894329,-0.0,0.0029432387091219425
0.011491969227790833,0.006386695429682732,-0.015330687165260315,0.008490627631545067,-0.0,0.003077248577028513
0.01274836901575327,0.007087135221809149,-0.014747594483196735,0.00873438362032175,-0.0,0.003275515977293253
0.012663882225751877,0.006454675458371639,-0.015622228384017944,0.008663618005812168,-0.0,0.0031805115286260843
0.012403660453855991,0.006385279353708029,-0.01499982550740242,0.009011045098304749,-0.0,0.0033752103336155415
0.012666105292737484,0.006876000668853521,-0.015655461698770523,0.008729618974030018,-0.0,0.0031928890384733677
0.012319506146013737,0.006743384059518576,-0.014819812029600143,0.008857849054038525,-0.0,0.0032434940803796053
0.012702720239758492,0.007291499990969896,-0.01569834165275097,0.008493038825690746,-0.0,0.0032421762589365244
0.012702720239758492,0.007291499990969896,-0.01569834165275097,0.008493038825690746,-0.0,0.0032421762589365244
0.012647000141441822,0.0067163752391934395,-0.015211953781545162,0.00866430252790451,-0.0,0.0025742396246641874
0.012647000141441822,0.0067163752391934395,-0.015211953781545162,0.00866430252790451,-0.0,0.0025742396246641874
0.012954792007803917,0.0072417366318404675,-0.015622429549694061,0.009003862738609314,-0.0,0.0024222794454544783
0.012757042422890663,0.006494166795164347,-0.01566527783870697,0.00897091906517744,-0.0,0.0022910013794898987
0.01277101133018732,0.00622248649597168,-0.015926893800497055,0.008656409569084644,-0.0,0.002416942734271288
0.012857422232627869,0.006635804194957018,-0.015478014014661312,0.009539656341075897,-0.0,0.0024840140249580145
0.012621023692190647,0.006706735119223595,-0.015030098147690296,0.009201419539749622,-0.0,0.0024423624854534864
0.012964734807610512,0.006827391218394041,-0.016287894919514656,0.009371455758810043,-0.0,0.0025397303979843855
0.012660600244998932,0.006561514921486378,-0.01532665453851223,0.00880468264222145,-0.0,0.0025461367331445217
0.013022556900978088,0.006291329860687256,-0.01586240902543068,0.009158890694379807,-0.0,0.0024693398736417294
0.012986899353563786,0.006343793123960495,-0.015150448307394981,0.008793551474809647,-0.0,0.0024520070292055607
0.013216878287494183,0.006929962430149317,-0.015424459241330624,0.008704197593033314,-0.0,0.0022634221240878105
0.01319812424480915,0.006434496026486158,-0.015271755866706371,0.009065886959433556,-0.0,0.002049590926617384
0.012905682437121868,0.00637595122680068,-0.01576954685151577,0.009135889820754528,-0.0,0.0018366614822298288
0.013445941731333733,0.0064801620319485664,-0.016126634553074837,0.009140525944530964,-0.0,0.001607618760317564
0.013071748428046703,0.0066255792044103146,-0.015954144299030304,0.00904907751828432,-0.0,0.0016263950383290648
0.0134635204449296,0.007048932835459709,-0.01577257551252842,0.00909807812422514,-0.0,0.001778078731149435
0.01296924613416195,0.006888778880238533,-0.015166310593485832,0.008682210929691792,-0.0,0.001836891402490437
0.013368693180382252,0.006404009182006121,-0.016008201986551285,0.008891621604561806,-0.0,0.0019937632605433464
0.013176621869206429,0.006681102328002453,-0.01521744579076767,0.00917178113013506,-0.0,0.0019985304679721594
0.013346804305911064,0.007225764915347099,-0.016029173508286476,0.008837084285914898,-0.0,0.001764852087944746
0.013181215152144432,0.006931015755981207,-0.015616885386407375,0.008944064378738403,-0.0,0.001744822016917169
0.013275506906211376,0.006459185853600502,-0.016096757724881172,0.008897063322365284,-0.0,0.0016104690730571747
0.013308117166161537,0.00620559835806489,-0.01578075811266899,0.008797668851912022,-0.0,0.0015498175052925944
0.013310815207660198,0.00670049199834466,-0.0156949944794178,0.00896143913269043,-0.0,0.0016001563053578138
0.013522853143513203,0.006883279886096716,-0.015461022034287453,0.008532198145985603,-0.0,0.0017590749775990844
0.013087584637105465,0.006892018020153046,-0.01544251199811697,0.008680318482220173,-0.0,0.0017954458016902208
0.013087584637105465,0.006892018020153046,-0.01544251199811697,0.008680318482220173,-0.0,0.0017954458016902208
0.013429203070700169,0.00699908472597599,-0.015699829906225204,0.008887025527656078,-0.0,0.0019506579264998436
0.013005389831960201,0.0065527320839464664,-0.01550612784922123,0.008899696171283722,-0.0,0.001858645468018949
0.013635709881782532,0.00680794520303607,-0.016097061336040497,0.009425124153494835,-0.0,0.0016426139045506716
0.013425137847661972,0.006794185843318701,-0.015158260241150856,0.008948476985096931,-0.0,0.0015927874483168125
0.013444886542856693,0.006768836174160242,-0.014977149665355682,0.009378780610859394,-0.0,0.0013584736734628677
0.013688406907022,0.00685845734551549,-0.01586797647178173,0.008919188752770424,-0.0,0.0012612188002094626
0.013563417829573154,0.006685713771730661,-0.015222452580928802,0.008495022542774677,-0.0,0.0012854121159762144
0.01390716154128313,0.006441328674554825,-0.015690011903643608,0.009222541935741901,-0.0,0.001240354380570352
0.013854614458978176,0.006406673230230808,-0.015615498647093773,0.009465068578720093,-0.0,0.0013400767929852009
0.013907388783991337,0.006177818868309259,-0.01563606783747673,0.009631448425352573,-0.0,0.0013398712035268545
0.01380167342722416,0.006723472382873297,-0.015545722097158432,0.009184015914797783,-0.0,0.0016281205462291837
0.014019300229847431,0.006663317326456308,-0.015688790008425713,0.008814714848995209,-0.0,0.0014782623620703816
0.013869250193238258,0.006369132082909346,-0.01590384542942047,0.008638521656394005,-0.0,0.0013214419595897198
0.013993832282721996,0.006168082356452942,-0.015542457811534405,0.008938126266002655,-3.3140415780508192e-06,0.001178966136649251
0.014194580726325512,0.00674064364284277,-0.015745574608445168,0.009310586377978325,-2.1638322778017027e-07,0.0010168561711907387
0.01428009569644928,0.006916232407093048,-0.014973265118896961,0.009746573865413666,-1.4128278991165644e-08,0.0007920993375591934
0.014514917507767677,0.006694229319691658,-0.015552551485598087,0.00931418314576149,-9.224755959102993e-10,0.0006650506402365863
0.014355023391544819,0.006566999014467001,-0.015352594666182995,0.009600763209164143,-6.023106319252847e-11,0.0006778020178899169
0.01467644888907671,0.0063537065871059895,-0.015756960958242416,0.009353002533316612,-3.932658018679369e-12,0.0006886804476380348
0.014514652080833912,0.006987485568970442,-0.01534570287913084,0.009069697931408882,-2.567744465404448e-13,0.0007093954482115805
0.014494175091385841,0.0066908374428749084,-0.015580427832901478,0.009392720647156239,-1.6765536577307075e-14,0.0007534621399827302
0.014196867123246193,0.00672187190502882,-0.015046445652842522,0.009113566018640995,-1.094669805647673e-15,0.0008014555787667632
0.014691808260977268,0.006102106999605894,-0.015424251556396484,0.008798439055681229,-7.147411577953066e-17,0.0008723098435439169
0.0140910679474473,0.006217126734554768,-0.015938108786940575,0.009264740161597729,-4.666749116003188e-18,0.0008395218173973262
0.014699317514896393,0.006731376051902771,-0.015423214994370937,0.01014482881873846,-3.0470536862007345e-19,0.0011200373992323875
0.014699317514896393,0.006731376051902771,-0.015423214994370937,0.01014482881873846,-3.0470536862007345e-19,0.0011200373992323875
0.014853507280349731,0.006347311660647392,-0.015230034478008747,0.009706727229058743,-7.3419751061010174e-06,0.0008609631331637502
0.014894604682922363,0.006256891880184412,-0.01593494415283203,0.01008387841284275,-0.00029684865148738027,0.0008570171776227653
0.01454802043735981,0.006850889418274164,-0.015217467211186886,0.009039778262376785,-0.00029624105081893504,0.0007608199375681579
0.01454802043735981,0.006850889418274164,-0.015217467211186886,0.009039778262376785,-0.00029624105081893504,0.0007608199375681579
0.01481463760137558,0.0059043653309345245,-0.015256806276738644,0.009232842363417149,-0.00030834157951176167,0.0006996711599640548
0.01494552567601204,0.005969358142465353,-0.015690041705965996,0.009200806729495525,-0.0002975692041218281,0.000604286789894104
0.015102327801287174,0.006268911529332399,-0.01603672467172146,0.010061481967568398,-0.0003231522860005498,0.0005055364454165101
0.014983944594860077,0.006542709656059742,-0.015996048226952553,0.00983823835849762,-0.00031271507032215595,0.0004525711992755532
0.014838055707514286,0.006528283003717661,-0.015536349266767502,0.008942048996686935,-0.00029827115940861404,0.00048184406477957964
0.015255231410264969,0.0065586501732468605,-0.015865379944443703,0.009150700643658638,-0.0003148570831399411,0.000451170199085027
0.014761176891624928,0.0064354692585766315,-0.015776751562952995,0.009570754133164883,-0.0003107199736405164,0.00041693574166856706
0.014968919567763805,0.006396619603037834,-0.015465282835066319,0.009176756255328655,-0.00029845599783584476,0.000434481626143679
0.014764797873795033,0.0064582908526062965,-0.016025809571146965,0.009916495531797409,-0.0003684262337628752,0.00042024682625196874
0.01555510051548481,0.006466286722570658,-0.015663938596844673,0.01002189889550209,-0.00035202718572691083,0.0003948600497096777
0.015644226223230362,0.006550234742462635,-0.01636471226811409,0.00967306550592184,-0.0003272258909419179,0.0004210253828205168
0.015945009887218475,0.006155568175017834,-0.015628455206751823,0.010192057117819786,-0.0003499554004520178,0.0004008067771792412
0.015380414202809334,0.006418304983526468,-0.0159689299762249,0.009730030782520771,-0.00034178889472968876,0.0003798629913944751
0.015685321763157845,0.006779531482607126,-0.016084736213088036,0.010621092282235622,-0.0003222989907953888,0.0003608346451073885
0.01540884654968977,0.006816031876951456,-0.016549590975046158,0.011109321378171444,-0.00032889473368413746,0.00034361029975116253
0.015542981214821339,0.0062593622133135796,-0.016676872968673706,0.010306512005627155,-0.00033426654408685863,0.00032795374863781035
0.015550362877547741,0.0064054373651742935,-0.016404224559664726,0.0095983250066638,-0.00031883889460004866,0.00031523650977760553
0.015679869800806046,0.006615747231990099,-0.01704833097755909,0.010079614818096161,-0.0003411250072531402,0.00027853689971379936
0.015635553747415543,0.007171723060309887,-0.016520485281944275,0.010589590296149254,-0.0003306096186861396,0.0002612322859931737
0.015516573563218117,0.006638393737375736,-0.016866566613316536,0.00934015866369009,-0.0003164142544846982,0.0002468235034029931
0.015790225937962532,0.006557289510965347,-0.01616637222468853,0.009467175230383873,-0.00030319197685457766,0.0002339808561373502
0.01571795344352722,0.006931290961802006,-0.016313761472702026,0.00958319567143917,-0.00032784236827865243,0.00022241243277676404
0.01593145914375782,0.00697299325838685,-0.016980716958642006,0.009215112775564194,-0.0003084252239204943,0.00021193441352806985
0.01573093608021736,0.006791064515709877,-0.016471901908516884,0.010055594146251678,-0.0002888199524022639,0.0002023995912168175
0.01616746187210083,0.006300230976194143,-0.01681492291390896,0.00986538641154766,-0.0002714041038416326,0.00019368596258573234
0.01616746187210083,0.006300230976194143,-0.01681492291390896,0.00986538641154766,-0.0002714041038416326,0.00019368596258573234
0.015941135585308075,0.006613776087760925,-0.0163232684135437,0.009353864006698132,-0.00030360836535692215,0.0001856918097473681
0.015756653621792793,0.006227069068700075,-0.016697855666279793,0.009619252756237984,-0.00030309276189655066,0.00013333026436157525
0.015756653621792793,0.006227069068700075,-0.016697855666279793,0.009619252756237984,-0.00030309276189655066,0.00013333026436157525
0.016257835552096367,0.0065116239711642265,-0.01685412786900997,0.010128580965101719,-0.00029171223286539316,0.00012757904187310487
0.015961401164531708,0.007186697795987129,-0.01622428558766842,0.010307017713785172,-0.00027896533720195293,0.0001231472269864753
0.016294922679662704,0.006513488013297319,-0.016505513340234756,0.009730497375130653,-0.00026714455452747643,0.00011906951840501279
0.016318367794156075,0.006227149628102779,-0.01622723415493965,0.010091175325214863,-0.00025627619470469654,0.00011525650916155428
0.01659775711596012,0.0066262525506317616,-0.016946639865636826,0.01042801234871149,-0.0002722672070376575,0.00011168054334120825
0.016410980373620987,0.006986125372350216,-0.01677396148443222,0.010096140205860138,-0.0002702494675759226,0.00010832009866135195
0.016140302643179893,0.006917333696037531,-0.016310108825564384,0.01089831255376339,-0.0002609879011288285,0.00010515596659388393
0.01642790623009205,0.006407684646546841,-0.01690695993602276,0.010425090789794922,-0.00025189106236211956,8.963276195572689e-05
0.016215730458498,0.007074321154505014,-0.016263296827673912,0.01001186203211546,-0.00024337782815564424,7.53627173253335e-05
0.016891926527023315,0.006636019330471754,-0.016931165009737015,0.010366833768785,-0.0002505920419935137,7.256754179252312e-05
0.016696924343705177,0.0069665308110415936,-0.016299141570925713,0.010212041437625885,-0.00023983308346942067,-3.9549850043840706e-05
0.01666611060500145,0.006564582698047161,-0.016389932483434677,0.009985578246414661,-0.00022785470355302095,-7.255333912326023e-05
0.016712920740246773,0.006679023150354624,-0.016682511195540428,0.01017848588526249,-0.00021688101696781814,-0.00010550289880484343
0.016357213258743286,0.00618772441521287,-0.01622476987540722,0.009870263747870922,-0.00020690716337412596,-0.00010378510341979563
0.016897959634661674,0.006478005088865757,-0.016163714230060577,0.010734579525887966,-0.00019780978618655354,-0.00013119463983457536
0.01643276773393154,0.0064541189931333065,-0.015810281038284302,0.010476318188011646,-0.00018947862554341555,-0.00014431036834139377
0.01682673580944538,0.006307581439614296,-0.01619127206504345,0.01001479011029005,-0.0002133407979272306,-0.00015423601143993437
0.016238035634160042,0.006199362222105265,-0.015685517340898514,0.010414466261863708,-0.0002093946241075173,-0.0004779227601829916
0.016714278608560562,0.006251425947993994,-0.016615260392427444,0.010118263773620129,-0.0002018491068156436,-0.0005755525198765099
0.016714278608560562,0.006251425947993994,-0.016615260392427444,0.010118263773620129,-0.0002018491068156436,-0.0005755525198765099
0.01664726808667183,0.0065453434363007545,-0.016304319724440575,0.010588262230157852,-0.00018782512051984668,-0.0005164977046661079
0.01664726808667183,0.0065453434363007545,-0.016304319724440575,0.010588262230157852,-0.00018782512051984668,-0.0005164977046661079
0.016989214345812798,0.00639555836096406,-0.016741683706641197,0.010862484574317932,-0.00019829306984320283,-0.0005173656390979886
0.016715524718165398,0.006395125295966864,-0.015894165262579918,0.010415258817374706,-0.0001923544186865911,-0.0005491782212629914
0.014841178432106972,0.006259466055780649,-0.016187267377972603,0.01019587367773056,-0.00018666175310499966,-0.0006289943703450263
0.014841178432106972,0.006259466055780649,-0.016187267377972603,0.01019587367773056,-0.00018666175310499966,-0.0006289943703450263
0.017413131892681122,0.006655646953731775,-0.016020772978663445,0.01027685310691595,-0.00018129058298654854,-0.0007375214481726289
0.01786905899643898,0.006205079145729542,-0.01650184392929077,0.010305753909051418,-0.00017621932784095407,-0.0014348035911098123
0.01672733761370182,0.00631157960742712,-0.016714081168174744,0.010100123472511768,-0.0001857875322457403,-0.0011934729991480708
0.01672733761370182,0.00631157960742712,-0.016714081168174744,0.010100123472511768,-0.0001857875322457403,-0.0011934729991480708
0.01751176081597805,0.006201434880495071,-0.0158533975481987,0.010064561851322651,-0.00018112575344275683,-0.0009922225726768374
0.01751176081597805,0.006201434880495071,-0.0158533975481987,0.010064561851322651,-0.00018112575344275683,-0.0009922225726768374
0.017711881548166275,0.006950301583856344,-0.016104189679026604,0.010271865874528885,-0.0001724501053104177,-0.0010545019758865237
0.01719932071864605,0.006852705962955952,-0.016469191759824753,0.010259089060127735,-0.00017347975517623127,-0.001177063095383346
0.017139405012130737,0.006609291769564152,-0.016797015443444252,0.010018018074333668,-0.00016895773296710104,-0.0013215987710282207
0.017648784443736076,0.005843081511557102,-0.01603042520582676,0.010088341310620308,-0.0001629682956263423,-0.0018199000041931868
0.016904106363654137,0.006392558105289936,-0.01665487326681614,0.010873561725020409,-0.00015727998106740415,-0.0019410515669733286
0.017349647358059883,0.0066826920956373215,-0.01597200520336628,0.011327425017952919,-0.0001519684010418132,-0.0017711910186335444
0.01754716783761978,0.006439368240535259,-0.01668032631278038,0.010454997420310974,-0.00014700336032547057,-0.0017571174539625645
0.017583396285772324,0.006325792986899614,-0.016057027503848076,0.010615477338433266,-0.000167055957717821,-0.0016239234246313572
0.018179768696427345,0.006358115002512932,-0.016421029344201088,0.010242520831525326,-0.00016533880261704326,-0.0016065791714936495
0.018179768696427345,0.006358115002512932,-0.016421029344201088,0.010242520831525326,-0.00016533880261704326,-0.0016065791714936495
0.017477264627814293,0.0063452767208218575,-0.016294287517666817,0.010889319702982903,-0.00015601464838255197,-0.002109707333147526
0.01753537356853485,0.006203196942806244,-0.016565104946494102,0.01026161853224039,-0.00016404000052716583,-0.002167572733014822
0.01753537356853485,0.006203196942806244,-0.016565104946494102,0.01026161853224039,-0.00016404000052716583,-0.002167572733014822
0.01745656691491604,0.006647350732237101,-0.01613311469554901,0.009943004697561264,-0.0001712342636892572,-0.0023483603727072477
0.017848726361989975,0.006408280227333307,-0.01668884977698326,0.010257614776492119,-0.00016744446475058794,-0.002303814049810171
0.017823174595832825,0.0063088033348321915,-0.016855388879776,0.010305346921086311,-0.00016315749962814152,-0.002281125169247389
0.018210886046290398,0.00620365422219038,-0.01655622012913227,0.01078228559345007,-0.00015904160682111979,-0.002266860334202647
0.017672168090939522,0.0063218106515705585,-0.016692891716957092,0.011087658815085888,-0.00015139751485548913,-0.0022638102527707815
0.01806972362101078,0.006395972799509764,-0.017118072137236595,0.01067719142884016,-0.00016350368969142437,-0.0023039791267365217
0.018368469551205635,0.006342088803648949,-0.01626794971525669,0.010503173805773258,-0.00016473418509121984,-0.002190022263675928
0.018137658014893532,0.0061254906468093395,-0.01698773168027401,0.009724397212266922,-0.0001613665372133255,-0.0023735861759632826
0.01858753338456154,0.006010014098137617,-0.0172730702906847,0.010138428770005703,-0.00015785006689839065,-0.0023994699586182833
0.018556905910372734,0.005863821133971214,-0.017511339858174324,0.009998639114201069,-0.00015446501492988318,-0.002705958439037204
0.018549319356679916,0.006207984406501055,-0.017544345930218697,0.009758363477885723,-0.0001757099526003003,-0.003112080041319132
0.018741367384791374,0.0063257343135774136,-0.016347046941518784,0.010410669259727001,-0.0001916002802317962,-0.00314046791754663
0.018212515860795975,0.0060653118416666985,-0.017331227660179138,0.010485281236469746,-0.00018524061306379735,-0.0029621608555316925
0.0183419156819582,0.006054701283574104,-0.01728706993162632,0.01036767940968275,-0.00017801170179154724,-0.0027024804148823023
0.01862679421901703,0.006287009920924902,-0.017423680052161217,0.010916823521256447,-0.00017124260193668306,-0.002705572172999382
0.01853979006409645,0.006313548423349857,-0.017574653029441833,0.01049109734594822,-0.00016496493481099606,-0.0028299111872911453
0.018235428258776665,0.006425904575735331,-0.01663544401526451,0.01022690162062645,-0.00018673291197046638,-0.00266243820078671
0.018506795167922974,0.006463311612606049,-0.017476359382271767,0.010695590637624264,-0.00018415754311718047,-0.002782168099656701
0.01850372552871704,0.006061706691980362,-0.017024580389261246,0.010124947875738144,-0.00017832362209446728,-0.002712337765842676
0.0188343096524477,0.005865619517862797,-0.016782134771347046,0.01009900402277708,-0.00017263837798964232,-0.0026831438299268484
0.018920673057436943,0.006833740975707769,-0.017047466710209846,0.010718556120991707,-0.00016729043272789568,-0.0025995548348873854
0.018328003585338593,0.006277037318795919,-0.017103219404816628,0.010312085039913654,-0.00018229082343168557,-0.003115162020549178
0.018328003585338593,0.006277037318795919,-0.017103219404816628,0.010312085039913654,-0.00018229082343168557,-0.003115162020549178
0.019018713384866714,0.006013196427375078,-0.01759520173072815,0.010990003123879433,-0.00018332593026570976,-0.00368386204354465
0.0189131461083889,0.006473877467215061,-0.017022360116243362,0.011495104059576988,-0.000178544272785075,-0.003944200463593006
0.018566830083727837,0.006838230881839991,-0.017211709171533585,0.011763229966163635,-0.00017364993982482702,-0.003859885735437274
0.01940445601940155,0.006582851056009531,-0.017343858256936073,0.012260327115654945,-0.00016899291949812323,-0.003647340927273035
0.01900956593453884,0.006233150605112314,-0.0167836993932724,0.012107518501579762,-0.00018499171710573137,-0.0035407047253102064
0.018670829012989998,0.00612042099237442,-0.017022106796503067,0.012542915530502796,-0.00018309857114218175,-0.0034404993057250977
0.019284836947917938,0.006120721343904734,-0.01665715128183365,0.011865521781146526,-0.00017873707110993564,-0.0036149178631603718
0.018872695043683052,0.006650275085121393,-0.016952401027083397,0.011084681376814842,-0.00017029423906933516,-0.0040414053946733475
0.019316304475069046,0.006119993049651384,-0.016423029825091362,0.010535166598856449,-0.00020006901468150318,-0.00385619536973536
0.01922113075852394,0.0060778288170695305,-0.01732863485813141,0.011460535228252411,-0.00020219826546963304,-0.0037182560190558434
0.018218524754047394,0.006461685989052057,-0.016559459269046783,0.011084765195846558,-0.0001941981608979404,-0.004069021437317133
0.019637275487184525,0.007241805084049702,-0.01712329499423504,0.010903898626565933,-0.0002044254943029955,-0.0037132820580154657
0.01961800642311573,0.006376124918460846,-0.017191298305988312,0.011243841610848904,-0.0002133307425538078,-0.0035478263162076473
0.019411496818065643,0.0059826853685081005,-0.016812579706311226,0.01149917021393776,-0.00020629004575312138,-0.003996622283011675
0.019686179235577583,0.006468408741056919,-0.017279943451285362,0.011411968618631363,-0.000198768189875409,-0.004145478829741478
0.01965889148414135,0.006863781716674566,-0.01627262309193611,0.011203029192984104,-0.00021942703460808843,-0.003985338378697634
0.01917356066405773,0.006415596231818199,-0.016981126740574837,0.010981816798448563,-0.00021572134573943913,-0.003379442263394594
0.01913471892476082,0.006294685881584883,-0.016671359539031982,0.011394753120839596,-0.00020881960517726839,-0.003299388336017728
0.01866436004638672,0.005637804977595806,-0.01690742000937462,0.011145378462970257,-0.00020213502284605056,-0.003625021781772375
0.01905110850930214,0.005994100589305162,-0.017006050795316696,0.010775244794785976,-0.0002219447196694091,-0.004015074111521244
0.019908562302589417,0.006360257044434547,-0.01647230237722397,0.011279134079813957,-0.00021695812756661326,-0.004424238111823797
0.019658712670207024,0.006557817105203867,-0.01747807115316391,0.011285195127129555,-0.000210719314054586,-0.004583708010613918
0.018663091585040092,0.006254257634282112,-0.01686183363199234,0.011219320818781853,-0.0002047342131845653,-0.004387928172945976
0.0195835642516613,0.005936468951404095,-0.016965612769126892,0.011000970378518105,-0.00024329204461537302,-0.0041383784264326096
0.019995443522930145,0.005785511340945959,-0.017198195680975914,0.010906829498708248,-0.0002708112297113985,-0.0044229356572031975
0.019740477204322815,0.006318575702607632,-0.016800008714199066,0.011746835894882679,-0.00028319336706772447,-0.0046085333451628685
0.019740477204322815,0.006318575702607632,-0.016800008714199066,0.011746835894882679,-0.00028319336706772447,-0.0046085333451628685
0.019632989540696144,0.006837129592895508,-0.01737625151872635,0.011405310593545437,-0.0002913246862590313,-0.004514491185545921
0.019656315445899963,0.0061002327129244804,-0.016456259414553642,0.011279361322522163,-0.00027786209830082953,-0.004367910325527191
0.019559798762202263,0.005964142270386219,-0.01714257337152958,0.011497712694108486,-0.00030250774580053985,-0.004404009785503149
0.019658856093883514,0.0065029580146074295,-0.01733286678791046,0.010921301320195198,-0.00029363881913013756,-0.004839359316974878
0.019480464980006218,0.006932349875569344,-0.016972724348306656,0.011556966230273247,-0.00031827358179725707,-0.004834604915231466
0.020266437903046608,0.005819390993565321,-0.017104795202612877,0.011394387111067772,-0.00029473871109075844,-0.00510532408952713
0.01988498494029045,0.00579265458509326,-0.017593778669834137,0.01159233134239912,-0.00035997427767142653,-0.004667011089622974
0.0196104533970356,0.006067671813070774,-0.017380287870764732,0.011669881641864777,-0.00040052461554296315,-0.004628317430615425
0.01972159370779991,0.00636226125061512,-0.016810953617095947,0.011945351958274841,-0.00037214707117527723,-0.004882963374257088
0.02011307328939438,0.006372855976223946,-0.017489641904830933,0.011699405498802662,-0.00037732484634034336,-0.00496365362778306
0.01994294859468937,0.006046956870704889,-0.017195073887705803,0.011840026825666428,-0.00038115837378427386,-0.0048332614824175835
0.019988154992461205,0.006523666903376579,-0.018161749467253685,0.012003046460449696,-0.00035788273089565337,-0.004805759526789188
0.02021021954715252,0.006293045356869698,-0.017994467169046402,0.011876625940203667,-0.00038412626599892974,-0.005269673652946949
0.01991961896419525,0.006491197273135185,-0.016792383044958115,0.01215957198292017,-0.0003682830138131976,-0.005199412815272808
0.01959877647459507,0.006421840284019709,-0.01759280264377594,0.011944770812988281,-0.00037259762757457793,-0.005278755910694599
0.02019883692264557,0.005951370112597942,-0.01766086183488369,0.012588810175657272,-0.0003756064106710255,-0.00505519425496459
0.020086759701371193,0.005862439051270485,-0.01847010850906372,0.011933449655771255,-0.00039840940735302866,-0.005573301110416651
0.019829243421554565,0.006559925619512796,-0.0176658034324646,0.011771072633564472,-0.00040167724364437163,-0.005376696120947599
0.020157525315880775,0.006828539073467255,-0.017034055665135384,0.012602586299180984,-0.0004255369713064283,-0.004985871724784374
0.02007320523262024,0.005944862030446529,-0.018146326765418053,0.011781170964241028,-0.0004102409875486046,-0.005159707739949226
0.020061539486050606,0.00641749519854784,-0.017509255558252335,0.011855704709887505,-0.0004373308620415628,-0.005084056872874498
0.02044476568698883,0.005889565218240023,-0.017115948721766472,0.011723894625902176,-0.00044494104804471135,-0.005091930739581585
0.020574571564793587,0.006134225986897945,-0.01734827272593975,0.01135969627648592,-0.0004445257654879242,-0.005342490971088409
0.018502729013562202,0.006144848186522722,-0.017254283651709557,0.012054518796503544,-0.0005159651627764106,-0.005602840334177017
0.018502729013562202,0.006144848186522722,-0.017254283651709557,0.012054518796503544,-0.0005159651627764106,-0.005602840334177017
0.02037314884364605,0.006022590212523937,-0.017813585698604584,0.01164329145103693,-0.0005441693938337266,-0.005944333504885435
0.02132350206375122,0.00603365758433938,-0.017497669905424118,0.012421666644513607,-0.0005817670025862753,-0.005652263760566711
0.020799631252884865,0.006165787111967802,-0.017597127705812454,0.012173166498541832,-0.0005956055247224867,-0.005666122771799564
0.020482638850808144,0.006006091367453337,-0.01778595522046089,0.011865934357047081,-0.0006016416009515524,-0.005508762784302235
0.02042783610522747,0.006451317574828863,-0.01696711964905262,0.012445260770618916,-0.000589553324971348,-0.005823176819831133
0.020992757752537727,0.00642071757465601,-0.017596060410141945,0.011585581116378307,-0.0007142608519643545,-0.005532377865165472
0.020559264346957207,0.005431165918707848,-0.01733744516968727,0.011929907836019993,-0.0007451770943589509,-0.005923546385020018
0.021275723353028297,0.00499016884714365,-0.01779322512447834,0.011934188194572926,-0.0006866647163406014,-0.005854390561580658
0.021568844094872475,0.005146432667970657,-0.016626302152872086,0.012114634737372398,-0.0007028272957541049,-0.006307648029178381
0.02090008184313774,0.00586298294365406,-0.017620548605918884,0.012279630638659,-0.0007377499132417142,-0.005855165887624025
0.020949117839336395,0.005413468461483717,-0.017402982339262962,0.012684131972491741,-0.0007276209071278572,-0.005855288356542587
0.020185649394989014,0.004963854793459177,-0.017055567353963852,0.011717690154910088,-0.0006922787288203835,-0.005710135214030743
0.020706597715616226,0.005278691183775663,-0.017475461587309837,0.012077724561095238,-0.0007052103173919022,-0.005665712058544159
0.021174272522330284,0.005195916164666414,-0.016813931986689568,0.012151670642197132,-0.0006895087426528335,-0.005919295828789473
0.021409565582871437,0.004980156198143959,-0.017464004456996918,0.012056411243975163,-0.0006664191605523229,-0.006216777488589287
0.02115057222545147,0.005267903208732605,-0.01743253320455551,0.012007201090455055,-0.0006538648158311844,-0.006169316824525595
0.021046284586191177,0.005163215566426516,-0.017258217558264732,0.011894527822732925,-0.0006673344178125262,-0.005775272846221924
0.021391145884990692,0.004992328584194183,-0.017711006104946136,0.01209588348865509,-0.0006940080202184618,-0.0059442538768053055
0.021835634484887123,0.005206799600273371,-0.016741754487156868,0.012021848931908607,-0.0006698067300021648,-0.006100563798099756
0.02170136384665966,0.005049143917858601,-0.017699657008051872,0.012728854082524776,-0.0006831462378613651,-0.006060651503503323
0.021839920431375504,0.004814415704458952,-0.017902106046676636,0.01223789807409048,-0.0006333694909699261,-0.006455712951719761
0.02120736613869667,0.0047927615232765675,-0.017116857692599297,0.011995305307209492,-0.0007095710025168955,-0.005944575183093548
0.02132754772901535,0.004853344056755304,-0.01748383231461048,0.012311656959354877,-0.0006318605737760663,-0.006052379962056875
0.021909641101956367,0.004950993228703737,-0.016762500628829002,0.012049533426761627,-0.0006359792896546423,-0.006777770351618528
0.022305332124233246,0.00562885869294405,-0.017517291009426117,0.012185736559331417,-0.000591037969570607,-0.006909092888236046
0.02232309803366661,0.005382499657571316,-0.01777307130396366,0.011684408411383629,-0.000534123508259654,-0.006468207109719515
0.022078337147831917,0.004857917781919241,-0.01715664565563202,0.011931954883038998,-0.0005558779812417924,-0.006439731922000647
0.02248317189514637,0.004784708376973867,-0.01760220341384411,0.01221141591668129,-0.000519498367793858,-0.006872513331472874
0.02249658852815628,0.004854775965213776,-0.016861427575349808,0.012291149236261845,-0.0004804674244951457,-0.006888603325933218
0.02249658852815628,0.004854775965213776,-0.016861427575349808,0.012291149236261845,-0.0004804674244951457,-0.006888603325933218
0.022234516218304634,0.005237109027802944,-0.01758127473294735,0.012912238016724586,-0.0005057306261733174,-0.006648259703069925
0.022158470004796982,0.005512998905032873,-0.017568303272128105,0.012793424539268017,-0.00047613930655643344,-0.006779824383556843
0.02267567440867424,0.005493516568094492,-0.01683022640645504,0.013353418558835983,-0.00043644881225191057,-0.0066974409855902195
0.02240763232111931,0.005615538917481899,-0.01755913533270359,0.012683087028563023,-0.000390332454117015,-0.00649851281195879
0.021989841014146805,0.005226380657404661,-0.01694624498486519,0.01287706196308136,-0.0004112820024602115,-0.007074255961924791
0.022765953093767166,0.005728573072701693,-0.017176087945699692,0.01286579854786396,-0.0003710507298819721,-0.006657289806753397
0.02283821627497673,0.005449582822620869,-0.016449693590402603,0.013417142443358898,-0.00037538164178840816,-0.006668853107839823
0.023303396999835968,0.005369529128074646,-0.017245255410671234,0.012884409166872501,-0.00037869441439397633,-0.006900415755808353
0.02318917214870453,0.005241887178272009,-0.016824156045913696,0.013125731609761715,-0.00035881291842088103,-0.007453810423612595
0.023048188537359238,0.005076788365840912,-0.017382444813847542,0.012525161728262901,-0.0003815573581960052,-0.007122011389583349
0.023143183439970016,0.005495109129697084,-0.017414957284927368,0.013357456773519516,-0.0003678135108202696,-0.007087883539497852
0.023303942754864693,0.005235383287072182,-0.017414288595318794,0.012957105413079262,-0.00042797718197107315,-0.007321697194129229
0.02388121746480465,0.0058279517106711864,-0.01707332767546177,0.013345295563340187,-0.00040201388765126467,-0.007633228320628405
0.023873232305049896,0.005595131777226925,-0.016437115147709846,0.012953845784068108,-0.0004384590720292181,-0.007608749903738499
0.02346501499414444,0.005329516250640154,-0.017405586317181587,0.013175703585147858,-0.0004598937521222979,-0.007809176109731197
0.02371479757130146,0.005332194734364748,-0.018361030146479607,0.012927019968628883,-0.00044340029126033187,-0.007834743708372116
0.023817412555217743,0.006120635196566582,-0.018273670226335526,0.013157309032976627,-0.0004588507872540504,-0.007649540435522795
0.02388383075594902,0.005744344089180231,-0.018424535170197487,0.013309924863278866,-0.0004442144127096981,-0.0074110692366957664
0.02385869063436985,0.006086910143494606,-0.017406519502401352,0.0131970951333642,-0.00042047223541885614,-0.007796236779540777
0.024180224165320396,0.005979626905173063,-0.017827298492193222,0.013231325894594193,-0.0005129220662638545,-0.007947610691189766
0.02398127317428589,0.0052705369889736176,-0.01779203489422798,0.012640267610549927,-0.0004686950705945492,-0.008110231719911098
0.02393607422709465,0.005414467770606279,-0.01745043694972992,0.012862791307270527,-0.00048718444304540753,-0.007646998390555382
0.024225110188126564,0.005771340802311897,-0.018169065937399864,0.012357553467154503,-0.000464477576315403,-0.007568646222352982
0.024225110188126564,0.005771340802311897,-0.018169065937399864,0.012357553467154503,-0.000464477576315403,-0.007568646222352982
0.024244442582130432,0.006036232225596905,-0.017985669896006584,0.013016274198889732,-0.0004288245108909905,-0.007843324914574623
0.02483302727341652,0.005663870368152857,-0.017781313508749008,0.012546234764158726,-0.00045888181193731725,-0.00771761778742075
0.024900274351239204,0.00544512877240777,-0.018297970294952393,0.012469093315303326,-0.00043145898962393403,-0.00804390199482441
0.024524079635739326,0.005548418033868074,-0.017869921401143074,0.012707337737083435,-0.00045773095916956663,-0.007796948309987783
0.024346644058823586,0.006055829580873251,-0.018447674810886383,0.012751997448503971,-0.0004336694546509534,-0.007470143958926201
0.024768618866801262,0.005932517349720001,-0.018364515155553818,0.013154109008610249,-0.00044888959382660687,-0.007398755289614201
0.025858281180262566,0.005872219335287809,-0.018306568264961243,0.012882224284112453,-0.00045338663039729,-0.0078807407990098
0.025749173015356064,0.005483285058289766,-0.017962751910090446,0.012249221093952656,-0.0004544274415820837,-0.008307502605021
0.024597803130745888,0.005841913167387247,-0.01841563731431961,0.01248534582555294,-0.00045289911213330925,-0.00861599761992693
0.02460727095603943,0.0063999611884355545,-0.01735007017850876,0.01282734889537096,-0.0004768136132042855,-0.008429508656263351
0.025594621896743774,0.005949204321950674,-0.01714327745139599,0.012912750244140625,-0.0004550349258352071,-0.008283706381917
0.02588295191526413,0.00539827486500144,-0.01830197125673294,0.013029392808675766,-0.0005826492561027408,-0.008326294831931591
0.024768823757767677,0.005545622669160366,-0.01799630932509899,0.012698916718363762,-0.0006035699043422937,-0.008313970640301704
0.025649741291999817,0.006127556785941124,-0.017682993784546852,0.01327806618064642,-0.0005647161160595715,-0.00862585287541151
0.02618405409157276,0.006092575378715992,-0.018528686836361885,0.01321654487401247,-0.0005862075486220419,-0.008886357769370079
0.026010731235146523,0.0064084152691066265,-0.018111784011125565,0.013794520869851112,-0.0006026949267834425,-0.008397508412599564
0.025394702330231667,0.00569733465090394,-0.017817005515098572,0.013423300348222256,-0.0005730545381084085,-0.00827842578291893
0.024475106969475746,0.005781142506748438,-0.01795012131333351,0.013399994000792503,-0.0006390213966369629,-0.008455951698124409
0.024986185133457184,0.00639804732054472,-0.017559316009283066,0.012924415990710258,-0.0006594572332687676,-0.009407555684447289
0.025835664942860603,0.006252714898437262,-0.018326766788959503,0.012676619924604893,-0.0006114713614806533,-0.00893318746238947
0.025739308446645737,0.006279318127781153,-0.018495874479413033,0.01300895120948553,-0.0006178593030199409,-0.008822141215205193
0.02528446353971958,0.005625699646770954,-0.017727559432387352,0.013223418034613132,-0.0005815285840071738,-0.008640294894576073
0.0256329532712698,0.005997869186103344,-0.018400147557258606,0.013475781306624413,-0.00058948271907866,-0.008775119669735432
0.0256329532712698,0.005997869186103344,-0.018400147557258606,0.013475781306624413,-0.00058948271907866,-0.008775119669735432
0.02586819790303707,0.006093737669289112,-0.017713654786348343,0.01363757811486721,-0.0005692619597539306,-0.009420162066817284
0.025805417448282242,0.006390976253896952,-0.01835300400853157,0.012871374376118183,-0.0005725094815716147,-0.009354520589113235
0.02611699141561985,0.005726728588342667,-0.01787431910634041,0.013200486078858376,-0.0005593079840764403,-0.009632949717342854
0.02609540894627571,0.005946333985775709,-0.018311060965061188,0.012915955856442451,-0.0005826550768688321,-0.009564971551299095
0.02582690678536892,0.005747353658080101,-0.018328329548239708,0.013003719970583916,-0.0005425681592896581,-0.009426577016711235
0.025653203949332237,0.005815642420202494,-0.017818812280893326,0.013447431847453117,-0.0005665061762556434,-0.00938810221850872
0.025694899260997772,0.005455922335386276,-0.017588602378964424,0.013531384989619255,-0.0005800101207569242,-0.009479733183979988
0.025694899260997772,0.005455922335386276,-0.017588602378964424,0.013531384989619255,-0.0005800101207569242,-0.009479733183979988
0.026032580062747,0.0060090310871601105,-0.018397530540823936,0.013309209607541561,-0.0005408638971857727,-0.009667355567216873
0.02638363651931286,0.005591406486928463,-0.01875893585383892,0.013437226414680481,-0.00048454877105541527,-0.010060417465865612
0.026683341711759567,0.0058526042848825455,-0.017809156328439713,0.013009980320930481,-0.0005186725175008178,-0.009893244132399559
0.026628512889146805,0.006175221409648657,-0.018025025725364685,0.013527502305805683,-0.0004780233430210501,-0.009525088593363762
0.026636390015482903,0.005974741652607918,-0.01860758848488331,0.013566726818680763,-0.0005025978898629546,-0.010204898193478584
0.02579524740576744,0.006117878016084433,-0.01770930550992489,0.013922542333602905,-0.00047342656762339175,-0.010097295977175236
0.027455799281597137,0.005623177625238895,-0.017948152497410774,0.01400003582239151,-0.0004994032788090408,-0.010106745176017284
0.027567192912101746,0.005798142869025469,-0.018280023708939552,0.014804464764893055,-0.0004706027975771576,-0.010504260659217834
0.027364572510123253,0.005865053273737431,-0.018394622951745987,0.013850185088813305,-0.0004694591334555298,-0.010325263254344463
0.026594750583171844,0.005857714917510748,-0.018486883491277695,0.01403489988297224,-0.0004932949668727815,-0.010505509562790394
0.02628065086901188,0.005473474506288767,-0.01784556545317173,0.013312296941876411,-0.0004701320140156895,-0.010794317349791527
0.026845470070838928,0.005314350593835115,-0.018073704093694687,0.013421461917459965,-0.0004959972575306892,-0.01037472765892744
0.027658769860863686,0.005436511244624853,-0.018429523333907127,0.01299520768225193,-0.0005001666722819209,-0.010449220426380634
0.02696811966598034,0.006138754542917013,-0.01714196801185608,0.013835562393069267,-0.0004959324141964316,-0.010334811173379421
0.02707705833017826,0.005559403914958239,-0.01833602413535118,0.013981889933347702,-0.000465812801849097,-0.010287580080330372
0.027917491272091866,0.005262840539216995,-0.01845785230398178,0.01434873603284359,-0.0005712581914849579,-0.01063746027648449
0.027666037902235985,0.005208536982536316,-0.017957119271159172,0.013929879292845726,-0.0005257715238258243,-0.01039921399205923
0.027418384328484535,0.0056910403072834015,-0.018365975469350815,0.014414135366678238,-0.000553114281501621,-0.01043002400547266
0.027166999876499176,0.0058576799929142,-0.018252365291118622,0.013709837570786476,-0.0005117412656545639,-0.010005608201026917
0.02714979276061058,0.006138693541288376,-0.01866087131202221,0.01416187733411789,-0.0005252411356195807,-0.01033320277929306
0.027982471510767937,0.005293691996484995,-0.018425289541482925,0.014282691292464733,-0.0005011697066947818,-0.010669290088117123
0.027907071635127068,0.00489321444183588,-0.01777324080467224,0.01497566793113947,-0.0005141320289112628,-0.010869369842112064
0.027870604768395424,0.004859805107116699,-0.01854577101767063,0.014653908088803291,-0.000494095147587359,-0.010695655830204487
0.027833396568894386,0.004935581237077713,-0.019458193331956863,0.01441181730479002,-0.0004925529938191175,-0.010368876159191132
0.0277921874076128,0.00574672082439065,-0.019006667658686638,0.013911675661802292,-0.000469954073196277,-0.010610979050397873
0.028066761791706085,0.004675582051277161,-0.018884774297475815,0.014124410226941109,-0.0004653808136936277,-0.010773123241961002
0.028066761791706085,0.004675582051277161,-0.018884774297475815,0.014124410226941109,-0.0004653808136936277,-0.010773123241961002
0.02776467055082321,0.004905046429485083,-0.018174154683947563,0.014355170540511608,-0.00043068788363598287,-0.010792233049869537
0.028098316863179207,0.005363693926483393,-0.018538327887654305,0.0141475023701787,-0.0004608136077877134,-0.010903969407081604
0.028402242809534073,0.005045347847044468,-0.018870484083890915,0.014401626773178577,-0.0004331567033659667,-0.011250888928771019
0.028359483927488327,0.005580582190304995,-0.01898014359176159,0.014508464373648167,-0.00045941490679979324,-0.010912090539932251
0.028427118435502052,0.005023422185331583,-0.019437072798609734,0.01505865715444088,-0.0004858510219492018,-0.010886055417358875
0.028601644560694695,0.004416015464812517,-0.01891644299030304,0.014351829886436462,-0.0004847323289141059,-0.010844032280147076
0.026383081451058388,0.0040514604188501835,-0.01815379597246647,0.014629838056862354,-0.0005164638278074563,-0.010450690984725952
0.028492219746112823,0.004247711040079594,-0.01869395188987255,0.01434872206300497,-0.000539765227586031,-0.009960486553609371
0.028709758073091507,0.00449720723554492,-0.018404649570584297,0.014484613202512264,-0.0005145255126990378,-0.010077127255499363
0.028303518891334534,0.004184000659734011,-0.018636032938957214,0.013976898975670338,-0.0005355876637622714,-0.010074890218675137
0.028376661241054535,0.004438803996890783,-0.01893722638487816,0.014369483105838299,-0.0005074491491541266,-0.010524090379476547
0.028596181422472,0.0040734573267400265,-0.01849358156323433,0.013952422887086868,-0.0006272906321100891,-0.010617638938128948
0.028493111953139305,0.0038599595427513123,-0.019118744879961014,0.014157016761600971,-0.0006433415692299604,-0.010792439803481102
0.028728405013680458,0.004146885592490435,-0.019115036353468895,0.014332083985209465,-0.0005978281842544675,-0.011163940653204918
0.028712239116430283,0.004249798599630594,-0.018280789256095886,0.014466413296759129,-0.0005396911292336881,-0.01046103984117508
0.029156802222132683,0.0043216124176979065,-0.01868593879044056,0.014372105710208416,-0.0005666033830493689,-0.010283788666129112
0.02941318042576313,0.004161280579864979,-0.019106201827526093,0.014159034937620163,-0.0005243666819296777,-0.010549831204116344
0.029357418417930603,0.00441453792154789,-0.018375128507614136,0.014271685853600502,-0.0005440509994514287,-0.010663569904863834
0.029363704845309258,0.00459790276363492,-0.019117407500743866,0.014575290493667126,-0.0005170144722796977,-0.010920869186520576
0.029578210785984993,0.004618355073034763,-0.019547469913959503,0.014466922730207443,-0.0005068923928774893,-0.011015035212039948
0.029675787314772606,0.004435717593878508,-0.01863093674182892,0.014405220746994019,-0.0004583642876241356,-0.010911054909229279
0.02942713163793087,0.004886038601398468,-0.018651777878403664,0.014291123487055302,-0.0004933687159791589,-0.011032444424927235
0.029296601191163063,0.004841658752411604,-0.01888439618051052,0.01436090748757124,-0.000512514088768512,-0.011398693546652794
0.029997358098626137,0.004835772793740034,-0.018507173284888268,0.014210056513547897,-0.0004902337095700204,-0.010767608880996704
0.029997358098626137,0.004835772793740034,-0.018507173284888268,0.014210056513547897,-0.0004902337095700204,-0.010767608880996704
0.030590075999498367,0.004522144328802824,-0.018619971349835396,0.013928613625466824,-0.00045589011278934777,-0.010400370694696903
0.029675723984837532,0.004648739006370306,-0.01865953765809536,0.014345313422381878,-0.0004550945886876434,-0.010239164344966412
0.029319077730178833,0.0046781436540186405,-0.018791673704981804,0.014602115377783775,-0.0004965089610777795,-0.010828036814928055
0.030438929796218872,0.004683367908000946,-0.01861991547048092,0.014624512754380703,-0.0004525583644863218,-0.011193371377885342
0.030438929796218872,0.004683367908000946,-0.01861991547048092,0.014624512754380703,-0.0004525583644863218,-0.011193371377885342
0.030611231923103333,0.005038709845393896,-0.01862839236855507,0.014941966161131859,-0.0004885089583694935,-0.01136752124875784
0.031185396015644073,0.00487955566495657,-0.01836422085762024,0.015253206714987755,-0.00048443026025779545,-0.011113268323242664
0.030025234445929527,0.004563485272228718,-0.018705861642956734,0.01528711337596178,-0.0004993185284547508,-0.011138959787786007
0.029501086100935936,0.004722134675830603,-0.018659573048353195,0.014900918118655682,-0.0004816350992769003,-0.011031481437385082
0.029507435858249664,0.0048050656914711,-0.01815979555249214,0.015586364082992077,-0.0005693887360394001,-0.010907957330346107
0.03006177395582199,0.004890210926532745,-0.018481623381376266,0.0153814647346735,-0.0006094502750784159,-0.011387327685952187
0.030756568536162376,0.0049369013868272305,-0.01872367598116398,0.015501548536121845,-0.0005537591641768813,-0.011186043731868267
0.029223937541246414,0.004999467637389898,-0.018162628635764122,0.014742638915777206,-0.0005747369723394513,-0.011419232934713364
0.03089027665555477,0.004863087087869644,-0.01893649250268936,0.014983043074607849,-0.0005356587353162467,-0.011702780611813068
0.031643472611904144,0.004710525739938021,-0.01902288757264614,0.014538845047354698,-0.000546072144061327,-0.011480065062642097
0.03107156604528427,0.004688173998147249,-0.018197957426309586,0.014842426404356956,-0.00052254757611081,-0.011561433784663677
0.030616987496614456,0.004607648588716984,-0.018847886472940445,0.014631632715463638,-0.0005503545398823917,-0.012573723681271076
0.031237322837114334,0.0048828949220478535,-0.01884637027978897,0.01519535668194294,-0.0005108906771056354,-0.012234699912369251
0.03160151094198227,0.005027196370065212,-0.018749425187706947,0.015125039033591747,-0.0005454443162307143,-0.011912853457033634
0.031691618263721466,0.004715170245617628,-0.01899700053036213,0.015280667692422867,-0.0005702186608687043,-0.012093077413737774
0.03135696426033974,0.004713313188403845,-0.01897871308028698,0.015544025227427483,-0.0005606386694125831,-0.011531803756952286
0.03109748475253582,0.004952165298163891,-0.01904331147670746,0.015436162240803242,-0.0006766238366253674,-0.012031706050038338
0.031520821154117584,0.0050210244953632355,-0.019028156995773315,0.015319702215492725,-0.0006686621927656233,-0.012278765439987183
0.030912816524505615,0.004981559701263905,-0.019550535827875137,0.015380696393549442,-0.0006423542508855462,-0.01238443236798048
0.032051946967840195,0.005023736972361803,-0.02027702145278454,0.01570633053779602,-0.0005771126598119736,-0.013018343597650528
0.032051946967840195,0.005023736972361803,-0.02027702145278454,0.01570633053779602,-0.0005771126598119736,-0.013018343597650528
0.03312518820166588,0.005023600533604622,-0.020152496173977852,0.016127265989780426,-0.0006021622102707624,-0.012548800557851791
0.03136424720287323,0.004889428615570068,-0.01874658651649952,0.01604405976831913,-0.0005544004961848259,-0.012588904239237309
0.031026849523186684,0.004836113657802343,-0.019803112372756004,0.016330527141690254,-0.0005726565723307431,-0.012118635699152946
0.032265614718198776,0.005081113427877426,-0.019855007529258728,0.01637309230864048,-0.0005383830866776407,-0.012454620562493801
0.031702905893325806,0.0051870085299015045,-0.019232815131545067,0.016947025433182716,-0.0005052431952208281,-0.012561196461319923
0.031822569668293,0.005217389669269323,-0.019539648666977882,0.016816172748804092,-0.0004712595255114138,-0.01267525739967823
0.03247944265604019,0.004793302156031132,-0.018933860585093498,0.015628930181264877,-0.00045790235162712634,-0.012881486676633358
0.031385231763124466,0.005021181423217058,-0.019375354051589966,0.01447589136660099,-0.000430532090831548,-0.012541348114609718
0.03102131187915802,0.004998256452381611,-0.019769296050071716,0.015004660002887249,-0.0004611349431797862,-0.012170168571174145
0.03311805799603462,0.004825138952583075,-0.0193638913333416,0.014828689396381378,-0.00043346473830752075,-0.012612489052116871
0.03340642899274826,0.005129690282046795,-0.020143721252679825,0.015219077467918396,-0.00044846037053503096,-0.012151850387454033
0.032098304480314255,0.0051297275349497795,-0.02005978859961033,0.015207035467028618,-0.0004347076755948365,-0.012573856860399246
0.03259992226958275,0.004929129965603352,-0.01930684596300125,0.015657512471079826,-0.0004107695713173598,-0.012596267275512218
0.03238653019070625,0.005220914259552956,-0.019468337297439575,0.015265258960425854,-0.0004413830174598843,-0.012823492288589478
0.03267933055758476,0.005151117220520973,-0.019885286688804626,0.015761852264404297,-0.0004100449150428176,-0.012895562686026096
0.032207030802965164,0.005424610339105129,-0.019395695999264717,0.015628308057785034,-0.00044621253618970513,-0.01292375847697258
0.0329255685210228,0.005421576555818319,-0.019277377054095268,0.016532422974705696,-0.0004673756193369627,-0.013202649541199207
0.03297974914312363,0.004968035966157913,-0.019756287336349487,0.016307266429066658,-0.0004813871637452394,-0.013292239047586918
0.032970111817121506,0.005495548248291016,-0.019660701975226402,0.016244787722826004,-0.0004790588282048702,-0.013462861999869347
0.03279006481170654,0.005266326945275068,-0.019628658890724182,0.016072232276201248,-0.0006443752208724618,-0.01317400299012661
0.033123698085546494,0.005407145246863365,-0.019903458654880524,0.015342244878411293,-0.0006994708091951907,-0.013086198829114437
0.032951172441244125,0.005592514295130968,-0.01984635926783085,0.015456898137927055,-0.00071710319025442,-0.012885461561381817
0.032817184925079346,0.005011759232729673,-0.019375378265976906,0.015635794028639793,-0.0006551946862600744,-0.013081470504403114
0.03340814635157585,0.004806011449545622,-0.0198527704924345,0.016437387093901634,-0.0006729245069436729,-0.013212631456553936
0.03297046571969986,0.005336274392902851,-0.019787129014730453,0.016064478084445,-0.0006201104843057692,-0.013298749923706055
0.03297046571969986,0.005336274392902851,-0.019787129014730453,0.016064478084445,-0.0006201104843057692,-0.013298749923706055
0.03160076215863228,0.005104838404804468,-0.019154323264956474,0.016919400542974472,-0.0006558359018526971,-0.013097618706524372
0.033892519772052765,0.005211112555116415,-0.01950233243405819,0.016209999099373817,-0.0005854724440723658,-0.01294338796287775
0.033573854714632034,0.0049061160534620285,-0.01967019774019718,0.01588338054716587,-0.0006149429827928543,-0.013547458685934544
0.03284189850091934,0.004760590381920338,-0.019077589735388756,0.01587080769240856,-0.0005576962139457464,-0.013338908553123474
0.0336269736289978,0.005009894259274006,-0.019557148218154907,0.015942607074975967,-0.0005763902445323765,-0.013700192794203758
0.03388550132513046,0.005183905828744173,-0.018673278391361237,0.015739191323518753,-0.0005653061671182513,-0.013833881355822086
0.03388550132513046,0.005183905828744173,-0.018673278391361237,0.015739191323518753,-0.0005653061671182513,-0.013833881355822086
0.033778753131628036,0.00486255856230855,-0.019819609820842743,0.01573178544640541,-0.0005112962098792195,-0.013644333928823471
0.0337328165769577,0.0050393990240991116,-0.019755136221647263,0.016103096306324005,-0.00046354997903108597,-0.013873291201889515
0.03384164720773697,0.0054199909791350365,-0.01985168270766735,0.01592303067445755,-0.0004985493142157793,-0.013845766894519329
0.033731888979673386,0.005088414065539837,-0.01976853795349598,0.016171639785170555,-0.0005273544229567051,-0.013649865053594112
0.03387663513422012,0.005570432171225548,-0.019193138927221298,0.01650097593665123,-0.0005472282064147294,-0.014022077433764935
0.03502858802676201,0.005359308328479528,-0.019724804908037186,0.0164404958486557,-0.0005241249455139041,-0.013741065748035908
0.03460884466767311,0.004874328151345253,-0.02003348618745804,0.016764206811785698,-0.0006483114557340741,-0.013836401514708996
0.03304344415664673,0.004694417584687471,-0.019243480637669563,0.016405723989009857,-0.0006749758613295853,-0.014064309187233448
0.03339492157101631,0.005194328259676695,-0.019339915364980698,0.016785163432359695,-0.0006246478878892958,-0.01403901632875204
0.03443638235330582,0.0050429897382855415,-0.02001209557056427,0.016576191410422325,-0.0005614323308691382,-0.01384152751415968
0.03438698500394821,0.0054897163063287735,-0.020481865853071213,0.01668916456401348,-0.0005872543551959097,-0.013393287546932697
0.035167396068573,0.005224669352173805,-0.020126843824982643,0.016844116151332855,-0.0005418453365564346,-0.014918080531060696
0.03497089818120003,0.004422056023031473,-0.020088201388716698,0.016655204817652702,-0.0004992063040845096,-0.01338091492652893
0.03387941047549248,0.00403351616114378,-0.019684510305523872,0.01679106242954731,-0.0005195889389142394,-0.013570579700171947
0.033693183213472366,0.004259907640516758,-0.01918291673064232,0.015961069613695145,-0.0004918555496260524,-0.014136590994894505
0.03499339520931244,0.0049899788573384285,-0.020099757239222527,0.01595338061451912,-0.00046290375757962465,-0.014600686728954315
0.03499339520931244,0.0049899788573384285,-0.020099757239222527,0.01595338061451912,-0.00046290375757962465,-0.014600686728954315
0.03473857417702675,0.00495941611006856,-0.020388061180710793,0.015640391036868095,-0.0004275927203707397,-0.014291278086602688
0.03459909185767174,0.004638658370822668,-0.020216135308146477,0.016236038878560066,-0.00039097340777516365,-0.014302985742688179
0.03517751768231392,0.00454894732683897,-0.019597290083765984,0.01652979664504528,-0.00035972619662061334,-0.014358249492943287
0.03483600914478302,0.004414776340126991,-0.020208464935421944,0.016644690185785294,-0.00039499843842349946,-0.014641853049397469
0.0347459577023983,0.004503313917666674,-0.020114919170737267,0.016985192894935608,-0.00040193862514570355,-0.014538273215293884
0.0349702350795269,0.004296311642974615,-0.02065538801252842,0.016167640686035156,-0.00040404536412097514,-0.014543185941874981
0.03522447869181633,0.004154265392571688,-0.019799720495939255,0.01659156009554863,-0.0003847639891318977,-0.015076951123774052
0.03527919203042984,0.004333966411650181,-0.01978173665702343,0.016466176137328148,-0.00038719471194781363,-0.014827579259872437
0.034916412085294724,0.0044431379064917564,-0.0205081757158041,0.016438579186797142,-0.00036886578891426325,-0.014830374158918858
0.03551967069506645,0.00400271313264966,-0.020275427028536797,0.016273483633995056,-0.00035203536390326917,-0.014707580208778381
0.03615732118487358,0.0038469356950372458,-0.020263047888875008,0.016925301402807236,-0.00037493216223083436,-0.014815033413469791
0.034991227090358734,0.0042404904961586,-0.020601460710167885,0.016616467386484146,-0.00034924375358968973,-0.0148856732994318
0.034108057618141174,0.00423688068985939,-0.020297877490520477,0.016997605562210083,-0.0003719474480021745,-0.014970465563237667
0.0352635458111763,0.004463886376470327,-0.02029600739479065,0.017330223694443703,-0.00036185907083563507,-0.014940949156880379
0.034811124205589294,0.004154739435762167,-0.020091038197278976,0.017086107283830643,-0.0003400339628569782,-0.015038627199828625
0.035946764051914215,0.004149250686168671,-0.02057041972875595,0.017592551186680794,-0.0003592219145502895,-0.014936051331460476
0.036487895995378494,0.003922958392649889,-0.020967286080121994,0.017063729465007782,-0.0003514656564220786,-0.014858193695545197
0.03459193557500839,0.0037421919405460358,-0.020653674378991127,0.017462721094489098,-0.00037490896647796035,-0.015073171816766262
0.03383669629693031,0.003791752504184842,-0.020553553476929665,0.01715606078505516,-0.00036176765570417047,-0.01492723636329174
0.035838160663843155,0.004350542090833187,-0.0210134107619524,0.016673989593982697,-0.00043896070565097034,-0.015184570103883743
0.03631647676229477,0.004593901336193085,-0.020494697615504265,0.017430732026696205,-0.00041331342072226107,-0.015339209698140621
0.03600865602493286,0.004704496823251247,-0.020566515624523163,0.0169653482735157,-0.0004498786001931876,-0.015554224140942097
0.035336725413799286,0.004252151120454073,-0.021435078233480453,0.017447827383875847,-0.0004709416825789958,-0.01572093367576599
0.035336725413799286,0.004252151120454073,-0.021435078233480453,0.017447827383875847,-0.0004709416825789958,-0.01572093367576599
0.03558803349733353,0.004249777644872665,-0.02143641747534275,0.01741841807961464,-0.0004532968159765005,-0.015590026043355465
0.03610619530081749,0.004081840626895428,-0.0211277287453413,0.016901690512895584,-0.00048016771324910223,-0.015408391132950783
0.036457762122154236,0.0042963516898453236,-0.021296100690960884,0.017033429816365242,-0.00061897182604298,-0.015693945810198784
0.03643585741519928,0.004635985475033522,-0.02161218412220478,0.016497114673256874,-0.0006954543059691787,-0.015679817646741867
0.0361221618950367,0.004627699498087168,-0.021899020299315453,0.017589885741472244,-0.0006315244827419519,-0.015417948365211487
0.03635271638631821,0.004457259550690651,-0.021256551146507263,0.01717689074575901,-0.0006538472953252494,-0.015478365123271942
0.036701325327157974,0.004570417106151581,-0.021743636578321457,0.01691434346139431,-0.0006185134407132864,-0.01545422337949276
0.0367150716483593,0.004207008983939886,-0.021586949005723,0.016301099210977554,-0.0005739250918850303,-0.01564023829996586
0.0367150716483593,0.004207008983939886,-0.021586949005723,0.016301099210977554,-0.0005739250918850303,-0.01564023829996586
0.0375971682369709,0.004223997704684734,-0.021251225844025612,0.01644076220691204,-0.0005318187177181244,-0.015654848888516426
0.03704952076077461,0.004438086412847042,-0.021786527708172798,0.016876377165317535,-0.0005650757229886949,-0.015846939757466316
0.037147775292396545,0.004571343772113323,-0.02174386940896511,0.017177551984786987,-0.0005167978815734386,-0.016016630455851555
0.037390243262052536,0.004678315948694944,-0.021465661004185677,0.01704547181725502,-0.0005449971067719162,-0.016254110261797905
0.037153273820877075,0.004160154610872269,-0.021332040429115295,0.017365625128149986,-0.0005590567016042769,-0.01591901294887066
0.03768075630068779,0.004410288762301207,-0.021794486790895462,0.017328817397356033,-0.0005343209486454725,-0.015807388350367546
0.03743163123726845,0.004517143126577139,-0.02190742827951908,0.01777590438723564,-0.0005972275394015014,-0.015487194061279297
0.03741136193275452,0.0043962267227470875,-0.021761197596788406,0.01786654070019722,-0.0006352249765768647,-0.015526629984378815
0.037528250366449356,0.0042754472233355045,-0.02142961136996746,0.017375806346535683,-0.0006638772902078927,-0.015443834476172924
0.03755413368344307,0.004844332113862038,-0.021530475467443466,0.017666421830654144,-0.0006755527574568987,-0.015499197877943516
0.03801768273115158,0.004837521351873875,-0.02200092189013958,0.017453711479902267,-0.0006363222491927445,-0.016076955944299698
0.03784334659576416,0.004328598268330097,-0.02209007553756237,0.017844967544078827,-0.0007377396104857326,-0.01662517338991165
0.03772157430648804,0.004443860147148371,-0.02206648513674736,0.018184561282396317,-0.0007441641646437347,-0.01686382107436657
0.03845596686005592,0.004225479904562235,-0.022164812311530113,0.017931673675775528,-0.0007070397259667516,-0.01644461415708065
0.039111796766519547,0.0042989845387637615,-0.02182529866695404,0.018450945615768433,-0.000678794807754457,-0.01638670079410076
0.037824470549821854,0.004619049374014139,-0.020922940224409103,0.01852070540189743,-0.0006534635904245079,-0.01663024351000786
0.03687065839767456,0.004250607453286648,-0.021541880443692207,0.01803750731050968,-0.0006678470526821911,-0.01673290878534317
0.03859814256429672,0.0044097029604017735,-0.024044277146458626,0.018001055344939232,-0.0006259718793444335,-0.01677398942410946
0.039037179201841354,0.004096389282494783,-0.02182799205183983,0.017905471846461296,-0.0006000719149596989,-0.016900869086384773
0.03895910084247589,0.004430612549185753,-0.0206943079829216,0.01832832209765911,-0.000610346149187535,-0.016965387389063835
0.03996971994638443,0.004283888731151819,-0.021854868158698082,0.018792694434523582,-0.0005698560271412134,-0.016811417415738106
0.03996971994638443,0.004283888731151819,-0.021854868158698082,0.018792694434523582,-0.0005698560271412134,-0.016811417415738106
0.03751293942332268,0.004359838552772999,-0.0232335664331913,0.018068959936499596,-0.0005967564065940678,-0.016795780509710312
0.0378844253718853,0.0046060592867434025,-0.022510001435875893,0.018048249185085297,-0.0006232678424566984,-0.017063099890947342
0.03937903419137001,0.004672881215810776,-0.021496474742889404,0.018095148727297783,-0.000739388691727072,-0.01753751002252102
0.03933737426996231,0.004373316653072834,-0.021674297749996185,0.018737616017460823,-0.000679248187225312,-0.017450731247663498
0.03887464478611946,0.0040842387825250626,-0.022056108340620995,0.018210725858807564,-0.000696958159096539,-0.017432020977139473
0.03922607749700546,0.004225906915962696,-0.022811884060502052,0.01731305941939354,-0.0007108150166459382,-0.017788924276828766
0.03944624215364456,0.004478041082620621,-0.022018086165189743,0.017623191699385643,-0.0006613352452404797,-0.017578886821866035
0.03954783454537392,0.0047760009765625,-0.021907350048422813,0.017749488353729248,-0.0006601669592782855,-0.017616676166653633
0.03888973221182823,0.004778079688549042,-0.022129710763692856,0.01832590252161026,-0.000680765020661056,-0.017324173822999
0.039897285401821136,0.004612226504832506,-0.02240130305290222,0.01841054856777191,-0.0006918314029462636,-0.017505725845694542
0.04149126261472702,0.004733782261610031,-0.021997682750225067,0.01794969104230404,-0.0006448424537666142,-0.017870377749204636
0.038284365087747574,0.004912366159260273,-0.022027060389518738,0.018294652923941612,-0.0006640701903961599,-0.017726240679621696
0.03873709589242935,0.004775994457304478,-0.02227991446852684,0.018237048760056496,-0.0006784083088859916,-0.017896486446261406
0.03976384177803993,0.0044805388897657394,-0.022382570430636406,0.01825074478983879,-0.0006486149504780769,-0.018069084733724594
0.04018336907029152,0.00461076432839036,-0.022209877148270607,0.018556296825408936,-0.0006685781991109252,-0.017742449417710304
0.04092935845255852,0.004885691683739424,-0.021608712151646614,0.018208054825663567,-0.000680728699080646,-0.017297839745879173
0.04014366492629051,0.004835022147744894,-0.022117041051387787,0.01850595884025097,-0.0006355217774398625,-0.017398489639163017
0.03881581872701645,0.00450884597375989,-0.022164255380630493,0.01856420561671257,-0.0006553573766723275,-0.017713380977511406
0.04052816703915596,0.00433427793905139,-0.021922394633293152,0.01812780648469925,-0.0007207579328678548,-0.017953980714082718
0.040380317717790604,0.004346509464085102,-0.02168533205986023,0.01865617372095585,-0.0007574984920211136,-0.018033530563116074
0.0401749461889267,0.0044455030001699924,-0.02216511219739914,0.01990296132862568,-0.0007759479340165854,-0.018497509881854057
0.03999810665845871,0.004285451024770737,-0.022191930562257767,0.019498012959957123,-0.0007700368296355009,-0.018715811893343925
0.040281422436237335,0.004408772103488445,-0.021967316046357155,0.019435925409197807,-0.0007161422981880605,-0.01833423227071762
0.040281422436237335,0.004408772103488445,-0.021967316046357155,0.019435925409197807,-0.0007161422981880605,-0.01833423227071762
0.040456876158714294,0.0042293742299079895,-0.021562380716204643,0.019101697951555252,-0.0007804969791322947,-0.018209652975201607
0.04026566073298454,0.004349070135504007,-0.021337199956178665,0.018365459516644478,-0.0008108721813187003,-0.017908284440636635
0.040305882692337036,0.004954880569130182,-0.022018663585186005,0.018683865666389465,-0.0007133239996619523,-0.01708196848630905
0.04024431109428406,0.004526883363723755,-0.022061346098780632,0.018559101969003677,-0.0007278083940036595,-0.018081432208418846
0.04049839824438095,0.004638197366148233,-0.021380236372351646,0.019070539623498917,-0.0006580750341527164,-0.018544424325227737
0.040738172829151154,0.004392505623400211,-0.02193378284573555,0.019178295508027077,-0.0006406661123037338,-0.019168967381119728
0.04096860811114311,0.004496805835515261,-0.02211662568151951,0.018924254924058914,-0.0005820596707053483,-0.018534516915678978
0.04099298268556595,0.004578993655741215,-0.021588481962680817,0.019848596304655075,-0.0006054479745216668,-0.01858183927834034
0.04114176332950592,0.004457644186913967,-0.02186165191233158,0.019633281975984573,-0.0006229581777006388,-0.019106565043330193
0.04122477397322655,0.0041365232318639755,-0.022334584966301918,0.018940651789307594,-0.0005865306011401117,-0.019537651911377907
0.04119235649704933,0.003983625210821629,-0.023038344457745552,0.01887228526175022,-0.0006091906107030809,-0.01882176101207733
0.0417301282286644,0.004236026667058468,-0.022464945912361145,0.018376847729086876,-0.0006906301714479923,-0.018239455297589302
0.04163385182619095,0.004007091745734215,-0.02167120948433876,0.018545646220445633,-0.0007296058465726674,-0.018140684813261032
0.041950952261686325,0.004280476365238428,-0.02159535139799118,0.019491584971547127,-0.0007235956727527082,-0.019021570682525635
0.041854944080114365,0.004247174598276615,-0.022537292912602425,0.01970209740102291,-0.0006935919518582523,-0.019275948405265808
0.04294082522392273,0.004469526465982199,-0.022344306111335754,0.019574353471398354,-0.0007048480911180377,-0.020493734627962112
0.041150469332933426,0.00422517117112875,-0.02212262898683548,0.019726620987057686,-0.0006567686796188354,-0.01914655975997448
0.04178021848201752,0.003749646944925189,-0.021807705983519554,0.019904201850295067,-0.0006857725093141198,-0.01869841292500496
0.04148947075009346,0.003580953925848007,-0.02218848466873169,0.01968865841627121,-0.0007056239992380142,-0.018685605376958847
0.041630711406469345,0.0039736623875796795,-0.023004010319709778,0.01992536149919033,-0.0006877009873278439,-0.01937643624842167
0.04382823407649994,0.004192933440208435,-0.022493723779916763,0.01991443522274494,-0.0006618129555135965,-0.01955452747642994
0.04232703149318695,0.004070632625371218,-0.022258801385760307,0.019660335034132004,-0.0006430321955122054,-0.019304309040308
0.04108061641454697,0.0038362322375178337,-0.02211477793753147,0.01956784538924694,-0.0006248450954444706,-0.019550472497940063
0.04215341433882713,0.004010425414890051,-0.022085146978497505,0.019830171018838882,-0.0006371630588546395,-0.019380884245038033
0.04205263778567314,0.004014878999441862,-0.02189304120838642,0.019409609958529472,-0.0006736727664247155,-0.01933240331709385
0.04205263778567314,0.004014878999441862,-0.02189304120838642,0.019409609958529472,-0.0006736727664247155,-0.01933240331709385
0.043573517352342606,0.0039284382946789265,-0.021788541227579117,0.019177574664354324,-0.0006992791895754635,-0.019314078614115715
0.043311987072229385,0.003772212192416191,-0.023143285885453224,0.019587159156799316,-0.0007195276557467878,-0.019714243710041046
0.04125704616308212,0.00361530389636755,-0.022977177053689957,0.020083483308553696,-0.0009154040017165244,-0.019808664917945862
0.04255780950188637,0.003572182497009635,-0.022540941834449768,0.020150210708379745,-0.0009324289276264608,-0.019961358979344368
0.042830824851989746,0.004174903966486454,-0.022423140704631805,0.02075735479593277,-0.0008240645984187722,-0.019509609788656235
