davideferrari95/blind_handover_controller/data/Test 57 - [2024-02-07 -- 15-41-49]/joint_states_data.csv
shoulder_pan_joint,shoulder_lift_joint,elbow_joint,wrist_1_joint,wrist_2_joint,wrist_3_joint
0.007694951258599758,-7.365853349483586e-08,-0.008082086220383644,0.009734821505844593,0.0,0.008591569028794765
0.007694951258599758,-7.365853349483586e-08,-0.008082086220383644,0.009734821505844593,0.0,0.008591569028794765
0.007694951258599758,-7.365853349483586e-08,-0.008082086220383644,0.009734821505844593,0.0,0.008591569028794765
0.0077570523135364056,-9.882231699620547e-10,-0.007165804505348206,0.008834119886159897,0.0,0.008774777874350548
0.008501486852765083,0.0006097927689552307,-0.007039343938231468,0.008769753389060497,0.0,0.008635331876575947
0.00853165052831173,8.355738827958703e-05,-0.007493224460631609,0.007982847280800343,0.0,0.008328759111464024
0.007813149131834507,1.1210289585505961e-06,-0.0077477446757256985,0.008131857961416245,0.0,0.007845297455787659
0.007777024060487747,1.504003321883829e-08,-0.006643436383455992,0.007908605970442295,0.0,0.007731234654784203
0.00822613574564457,2.01781244490995e-10,-0.006634680554270744,0.007907995022833347,0.0,0.00766201876103878
0.00823325477540493,2.707153078096436e-12,-0.0072543988935649395,0.007972029969096184,0.0,0.008210965432226658
0.007629747502505779,3.631991558092178e-14,-0.008308318443596363,0.008301044814288616,0.0,0.0080181285738945
0.008167281746864319,4.872780434020201e-16,-0.008713237941265106,0.00797275360673666,0.0,0.008622050285339355
0.008375344797968864,6.53745694878065e-18,-0.0077348812483251095,0.007695585023611784,0.0,0.008134851232171059
0.007666134741157293,8.770832556856154e-20,-0.00815266091376543,0.008203163743019104,0.0,0.007362353149801493
0.007628690451383591,1.1767191493708425e-21,-0.007955540902912617,0.008454998955130577,0.0,0.007750123273581266
0.007668174337595701,1.578718930626223e-23,-0.007785730995237827,0.008216106332838535,0.0,0.007953863590955734
0.007624955382198095,2.1180528270302543e-25,-0.0067680031061172485,0.007434847764670849,0.0,0.008212264627218246
0.0076050288043916225,2.8416379883494353e-27,-0.008945920504629612,0.006925017572939396,0.0,0.008146601729094982
0.007556039374321699,3.812420153705513e-29,-0.008504117839038372,0.0076506976038217545,0.0,0.0077591934241354465
0.007705192547291517,5.114848164919423e-31,-0.008194793947041035,0.00788058154284954,0.0,0.007516563404351473
0.008198242634534836,6.8622208406777e-33,-0.007905814796686172,0.008162249810993671,0.0,0.008187969215214252
0.007825649343430996,9.206545224037082e-35,-0.007810310460627079,0.007888050749897957,0.0,0.008264218457043171
0.007852494716644287,1.2351754954724535e-36,-0.0074467468075454235,0.008085494861006737,0.0,0.007817081175744534
0.00783019233494997,1.657145576123392e-38,-0.007820951752364635,0.007899720221757889,0.0,0.007591634523123503
0.00743078114464879,2.9833644305475355e-42,-0.008651414886116982,0.007714742328971624,0.0,0.007810418028384447
0.00743078114464879,2.9833644305475355e-42,-0.008651414886116982,0.007714742328971624,0.0,0.007810418028384447
0.008102471008896828,0.0,-0.007924886420369148,0.007830861955881119,0.0,0.008265523239970207
0.007729720789939165,0.0,-0.00813214760273695,0.007379000540822744,0.0,0.008325094357132912
0.006907853297889233,0.0,-0.008164910599589348,0.0070956069976091385,0.0,0.007989143952727318
0.00716137420386076,0.0,-0.007715771906077862,0.007362250238656998,0.0,0.007747532334178686
0.008044550195336342,0.0,-0.008246807381510735,0.0074202376417815685,0.0,0.007838721387088299
0.007921173237264156,0.0,-0.009010301902890205,0.007479953113943338,0.0,0.007734138052910566
0.007065907120704651,0.0,-0.00847779680043459,0.007113134488463402,0.0,0.007736011408269405
0.007065907120704651,0.0,-0.00847779680043459,0.007113134488463402,0.0,0.007736011408269405
0.00675211800262332,0.0,-0.007651366293430328,0.007500301580876112,0.0,0.007652841974049807
0.007195794954895973,0.0,-0.008892574347555637,0.00764857791364193,0.0,0.008221803233027458
0.008050831034779549,0.0002973397495225072,-0.008107315748929977,0.007431840058416128,0.0,0.008226499892771244
0.007094566244632006,0.0003386686439625919,-0.007656674366444349,0.007368010003119707,0.0,0.008239117451012135
0.006900944281369448,0.0003762826381716877,-0.007773646619170904,0.007892074063420296,0.0,0.008031057193875313
0.007386759854853153,0.00035403657238930464,-0.008622877299785614,0.007726662326604128,0.0,0.007860095240175724
0.007461645640432835,0.00038537185173481703,-0.008672620169818401,0.007218230981379747,0.0,0.007570182904601097
0.008039329200983047,0.0004111039452254772,-0.007853913120925426,0.007269951514899731,0.0,0.007404601201415062
0.006957508623600006,0.0006044360343366861,-0.007973079569637775,0.008057108148932457,0.0,0.0074304318986833096
0.007154962979257107,0.0007322626770474017,-0.00810136366635561,0.008351962082087994,0.0,0.008049579337239265
0.007371227722615004,0.0007289474597200751,-0.007496982347220182,0.00819521863013506,0.0,0.008042237721383572
0.0072866869159042835,0.000683742924593389,-0.007494694087654352,0.007953152060508728,0.0,0.007793277967721224
0.0072092702612280846,0.0007016013259999454,-0.008813910186290741,0.007933836430311203,0.0,0.007859495468437672
0.00806182436645031,0.0006466090562753379,-0.008373635821044445,0.007385322358459234,0.0,0.007750358432531357
0.007924182340502739,0.0007237617974169552,-0.00771265709772706,0.006920637562870979,0.0,0.007472623605281115
0.006997120101004839,0.0007451334386132658,-0.00788133218884468,0.007538405247032642,0.0,0.007457673083990812
0.006837345659732819,0.0007301580626517534,-0.00906767975538969,0.007867238484323025,0.0,0.00798827689141035
0.007298149634152651,0.0006846272153779864,-0.00803898461163044,0.007376294117420912,0.0,0.008170066401362419
0.007112226914614439,0.0006508879014290869,-0.008204677142202854,0.00745546817779541,0.0,0.007625805214047432
0.007173984311521053,0.0006436861003749073,-0.008829598315060139,0.007645810022950172,0.0,0.0076807052828371525
0.007374937180429697,0.0006751875625923276,-0.008561113849282265,0.007035988382995129,0.0,0.007487935479730368
0.007363803219050169,0.0007001911289989948,-0.00777527317404747,0.007134745828807354,0.0,0.007627371698617935
0.007134123705327511,0.0007105331751517951,-0.008313161320984364,0.007916809059679508,0.0,0.007992278784513474
0.006978165823966265,0.0006556565640494227,-0.008083620108664036,0.00782681442797184,0.0,0.00826675072312355
0.007330404128879309,0.0007334996480494738,-0.008062535896897316,0.0073717148043215275,0.0,0.008297947235405445
0.007391402497887611,0.0007580176461488008,-0.007724975701421499,0.007310350891202688,0.0,0.007804585620760918
0.007559886202216148,0.0007666725432500243,-0.008193639107048512,0.007465784903615713,0.0,0.007497156970202923
0.007559886202216148,0.0007666725432500243,-0.008193639107048512,0.007465784903615713,0.0,0.007497156970202923
0.007173020858317614,0.0007587022264488041,-0.008069478906691074,0.007509286981076002,0.0,0.007550482638180256
0.007624656893312931,0.0008625976042822003,-0.007840004749596119,0.007957004941999912,0.0,0.008056825026869774
0.007612987887114286,0.0009366858284920454,-0.007853904739022255,0.00791164766997099,0.0,0.008102165535092354
0.007337053306400776,0.0009359309915453196,-0.008093484677374363,0.0081591522321105,0.0,0.008196704089641571
0.007026784587651491,0.0009362523560412228,-0.008220541290938854,0.007975992746651173,0.0,0.008324926719069481
0.007660368923097849,0.0011941054835915565,-0.0077613345347344875,0.007579514291137457,0.0,0.007972187362611294
0.00767690222710371,0.0011418410576879978,-0.007932753302156925,0.00763678690418601,0.0,0.007936734706163406
0.0073387050069868565,0.0010100577492266893,-0.008381208404898643,0.00762910395860672,0.0,0.0076027484610676765
0.007248039357364178,0.0009899134747684002,-0.008402727544307709,0.0073511735536158085,0.0,0.007223188411444426
0.007487456314265728,0.0009041345911100507,-0.007947730831801891,0.007397003471851349,0.0,0.007321943063288927
0.007481812033802271,0.0008920726249925792,-0.008261751383543015,0.007897373288869858,0.0,0.007455611601471901
0.00766741530969739,0.0009035842958837748,-0.0075384327210485935,0.00819700863212347,0.0,0.007971171289682388
0.007619423326104879,0.0009082437609322369,-0.007238016929477453,0.008260754868388176,0.0,0.007767371833324432
0.007779324427247047,0.0011548721231520176,-0.007429876364767551,0.007920597679913044,0.0,0.007979560643434525
0.008699247613549232,0.001149597461335361,-0.008148265071213245,0.007747777737677097,0.0,0.008084329776465893
0.007660939358174801,0.0011283329222351313,-0.00732859130948782,0.007824570871889591,0.0,0.00809432752430439
0.007952817715704441,0.001096908817999065,-0.007626658771187067,0.0071536884643137455,0.0,0.007618181873112917
0.007800455670803785,0.0011664550984278321,-0.00872845109552145,0.00727863609790802,0.0,0.007478882092982531
0.007693524472415447,0.001187579007819295,-0.007955851033329964,0.0074359457939863205,0.0,0.0074012926779687405
0.007730548735707998,0.0011910307221114635,-0.007502456661313772,0.008017919957637787,0.0,0.008052906021475792
0.008262671530246735,0.0012864562449976802,-0.007587903644889593,0.00768844923004508,0.0,0.008359692990779877
0.007815183140337467,0.0015428602928295732,-0.00789080560207367,0.007840937003493309,0.0,0.008701260201632977
0.007815183140337467,0.0015428602928295732,-0.00789080560207367,0.007840937003493309,0.0,0.008701260201632977
0.008083251304924488,0.0014946571318432689,-0.007581998594105244,0.00749009195715189,0.0,0.007767686620354652
0.008344653062522411,0.0014081270201131701,-0.007748926989734173,0.007240664679557085,0.0,0.00709100067615509
0.008141879923641682,0.001472517498768866,-0.008417950943112373,0.0068120332434773445,0.0,0.007780898828059435
0.0076286508701741695,0.001366473501548171,-0.007702401373535395,0.00746930344030261,0.0,0.008090991526842117
0.007415731903165579,0.001411918899975717,-0.008033097721636295,0.0072095985524356365,0.0,0.00837691966444254
0.008225761353969574,0.0014939004322513938,-0.0077663082629442215,0.007218883838504553,0.0,0.007838614284992218
0.008372942917048931,0.0014457585057243705,-0.007698467466980219,0.00722070038318634,0.0,0.007526845205575228
0.007738097570836544,0.001659467234276235,-0.007498984225094318,0.007764910813421011,0.0,0.008090140298008919
0.007596291601657867,0.001675729057751596,-0.007739747874438763,0.00779587309807539,0.0,0.00818094052374363
0.007624594960361719,0.0017202106537297368,-0.007793806493282318,0.007555132266134024,0.0,0.008190633729100227
0.007924415171146393,0.001740923267789185,-0.007907780818641186,0.0073271808214485645,0.0,0.00823298655450344
0.007675770670175552,0.001867160084657371,-0.007575054187327623,0.007820909842848778,0.0,0.00817311741411686
0.007719771470874548,0.0018704445101320744,-0.0072861178778111935,0.008312440477311611,0.0,0.008158410899341106
0.008375581353902817,0.0017219356959685683,-0.007370056584477425,0.007923252880573273,0.0,0.007675487082451582
0.008474403992295265,0.001741271698847413,-0.007591281086206436,0.0075400169007480145,0.0,0.008118531666696072
0.008023249916732311,0.0017635964322835207,-0.00738883949816227,0.007426218129694462,0.0,0.00842111837118864
0.007846429012715816,0.002022866625338793,-0.007238234393298626,0.007918104529380798,0.0,0.008632848039269447
0.008120620623230934,0.0022674526553601027,-0.007436247076839209,0.007821214385330677,0.0,0.00809524580836296
0.008037710562348366,0.0021658074110746384,-0.008230972103774548,0.007687612436711788,0.0,0.008101576939225197
0.007650640327483416,0.0020294710993766785,-0.007913978770375252,0.007971941493451595,0.0,0.008214235305786133
0.008189295418560505,0.001910983002744615,-0.0076654814183712006,0.007771188858896494,0.0,0.008711624890565872
0.0075647360645234585,0.0018470775103196502,-0.007525037042796612,0.007845327258110046,0.0,0.00839171651750803
0.008001931942999363,0.001704701571725309,-0.007958023808896542,0.008636197075247765,0.0,0.008349551819264889
0.007950176484882832,0.0017759829061105847,-0.0079076262190938,0.008161148056387901,0.0,0.007798497099429369
0.008495669811964035,0.0020330920815467834,-0.007841566577553749,0.008047634735703468,0.0,0.00806253869086504
0.007913156412541866,0.0020427305717021227,-0.007736036088317633,0.008213510736823082,0.0,0.007798247970640659
0.00834407564252615,0.0018647781107574701,-0.0077499570325016975,0.007993105798959732,0.0,0.007946060970425606
0.008888991549611092,0.0018458918202668428,-0.00740571366623044,0.008030279539525509,0.0,0.008218836039304733
0.008315447717905045,0.002038172446191311,-0.007970830425620079,0.007682200521230698,0.0,0.008292479440569878
0.008174236863851547,0.002026395872235298,-0.007606155704706907,0.008107754401862621,0.0,0.008296772837638855
0.008145971223711967,0.0020937668159604073,-0.007180882152169943,0.007814716547727585,0.0,0.008032812736928463
0.008145971223711967,0.0020937668159604073,-0.007180882152169943,0.007814716547727585,0.0,0.008032812736928463
0.008444155566394329,0.0020968352910131216,-0.007235551252961159,0.007873836904764175,0.0,0.00875130482017994
0.008292324841022491,0.0021633035503327847,-0.008271764032542706,0.00809391401708126,0.0,0.008569523692131042
0.008423274382948875,0.002161261159926653,-0.00845885369926691,0.00808031391352415,0.0,0.008366627618670464
0.008662360720336437,0.0022906188387423754,-0.007854326628148556,0.008552310988307,0.0,0.008572310209274292
0.008092259056866169,0.0020831741858273745,-0.007626683451235294,0.008277072571218014,0.0,0.008531569503247738
0.008308432064950466,0.0020303658675402403,-0.008152298629283905,0.008815476670861244,0.0,0.008226530626416206
0.008619319647550583,0.001921998686157167,-0.007746120914816856,0.008662691339850426,0.0,0.008264497853815556
0.008599460124969482,0.0019214433850720525,-0.007311809342354536,0.007898292504251003,0.0,0.008464260026812553
0.008481658063828945,0.002174349268898368,-0.007707147393375635,0.007345317397266626,0.0,0.008238120935857296
0.00865261722356081,0.002092950511723757,-0.008358167484402657,0.007975208573043346,0.0,0.008787116967141628
0.008807777427136898,0.0021916087716817856,-0.007770353462547064,0.007612878922373056,0.0,0.008469359949231148
0.00864571426063776,0.0020871551241725683,-0.00809270516037941,0.007166628260165453,0.0,0.008635550737380981
0.008642767556011677,0.0014457569923251867,-0.008057444356381893,0.007354773115366697,0.0,0.008376969024538994
0.008637749589979649,0.0003092728729825467,-0.007918078452348709,0.008015841245651245,0.0,0.008226092904806137
0.008517147041857243,0.0001935675390996039,-0.0076873041689395905,0.008151446469128132,0.0,0.008391164243221283
0.008749881759285927,0.00029716850258409977,-0.007471515331417322,0.008250748738646507,0.0,0.008311398327350616
0.008645876310765743,0.00038374686846509576,-0.008017786778509617,0.0079862792044878,0.0,0.008391420356929302
0.008967360481619835,0.00040922907646745443,-0.00812437292188406,0.0075328657403588295,0.0,0.008709938265383244
0.008967360481619835,0.00040922907646745443,-0.00812437292188406,0.0075328657403588295,0.0,0.008709938265383244
0.008251730352640152,0.000395246286643669,-0.007820366881787777,0.007274752948433161,0.0,0.008989894762635231
0.008639346808195114,0.0003452784148976207,-0.007861022837460041,0.007700421381741762,0.0,0.008217898197472095
0.008560150861740112,0.0003061113820876926,-0.007978558540344238,0.008013035170733929,0.0,0.008228312246501446
0.008557809516787529,0.00027492348453961313,-0.006514817010611296,0.008087758906185627,0.0,0.008321426808834076
0.009675821289420128,0.0002495057415217161,-0.008919898420572281,0.007705673109740019,0.0,0.008178547956049442
0.00827386137098074,0.000228390796110034,-0.008613219484686852,0.008141516707837582,0.0,0.008250639773905277
0.007971071638166904,0.00021057362027931958,-0.007874958217144012,0.0077542890794575214,0.0,0.008242691867053509
0.008434480987489223,0.0001953351020347327,-0.007553630508482456,0.007460474967956543,0.0,0.008248421363532543
0.008943168446421623,0.000182153467903845,-0.008265847340226173,0.007446505594998598,0.0,0.008279313333332539
0.008858375251293182,0.00017063974519260228,-0.00825519859790802,0.007931213825941086,0.0,0.008499830029904842
0.00839079450815916,0.00019550604338292032,-0.00829180609434843,0.007550559472292662,0.0,0.00814924854785204
0.008838464505970478,0.00020173653319943696,-0.007908424362540245,0.007132173981517553,0.0,0.00837436318397522
0.008817557245492935,0.0001912492443807423,-0.008806951344013214,0.007400596980005503,1.6047538338170853e-06,0.008807004429399967
0.008549228310585022,0.00018160328909289092,-0.008504746481776237,0.007912900298833847,1.0477895528993031e-07,0.008147726766765118
0.009147277101874352,0.00017288184608332813,-0.007872953079640865,0.008328065276145935,6.841317734540553e-09,0.007456616032868624
0.008862722665071487,0.00020130944903939962,-0.008399897255003452,0.007846795953810215,4.4668918564028104e-10,0.007929104380309582
0.008773383684456348,0.00019709848857019097,-0.008559363894164562,0.007819379679858685,2.9165614368054094e-11,0.008068447932600975
0.008722004480659962,0.00021669019770342857,-0.007789494004100561,0.0081536415964365,1.9043063567009133e-12,0.008506511338055134
0.008915485814213753,0.0002488172031007707,-0.007544573396444321,0.007953183725476265,1.2433760618324463e-13,0.008514439687132835
0.008842924609780312,0.0002516607928555459,-0.008699965663254261,0.007559087127447128,8.118357636805688e-15,0.008034144528210163
0.008391052484512329,0.0002801832160912454,-0.00835942942649126,0.008289707824587822,5.300707302324586e-16,0.008163036778569221
0.00959745142608881,0.00030662104836665094,-0.008122473955154419,0.008644660003483295,3.4609832399259716e-17,0.008181564509868622
0.009140662848949432,0.0008467207080684602,-0.00885674636811018,0.00833127275109291,2.2597749222287694e-18,0.008388813585042953
0.009023693390190601,0.000860072672367096,-0.008539238944649696,0.007889867760241032,1.4754715269201577e-19,0.008636828511953354
0.008858168497681618,0.0007555104093626142,-0.008043106645345688,0.007822208106517792,9.633774352176609e-21,0.008734487928450108
0.008927068673074245,0.0005903742858208716,-0.008839921094477177,0.007442768197506666,4.107029175912239e-23,0.008630689233541489
0.008713770657777786,0.0006170736160129309,-0.008532697334885597,0.007726550567895174,2.6815967660079053e-24,0.00846223346889019
0.008936635218560696,0.0005650829407386482,-0.008085899986326694,0.00833169836550951,1.7508909539824264e-25,0.008664211258292198
0.008936635218560696,0.0005650829407386482,-0.008085899986326694,0.00833169836550951,1.7508909539824264e-25,0.008664211258292198
0.008650069124996662,0.0005915982183068991,-0.008377729915082455,0.007976102642714977,1.143206669750195e-26,0.008483022451400757
0.008745362982153893,0.0005483990535140038,-0.00856857281178236,0.008094298653304577,7.464322352119235e-28,0.008679887279868126
0.009043030440807343,0.0004672447685152292,-0.00866143498569727,0.008276861160993576,4.8736689420798573e-29,0.00852664653211832
0.008751589804887772,0.0004780720337294042,-0.008334430865943432,0.0082100136205554,3.18215762338219e-30,0.00846309494227171
0.009476886130869389,0.00046354313963092864,-0.008726545609533787,0.008297096006572247,2.0777212948100477e-31,0.008121085353195667
0.009192418307065964,0.0004954344476573169,-0.008523520082235336,0.007910551503300667,1.3566035001374466e-32,0.00838825386017561
0.00974020641297102,0.0005049314349889755,-0.008243242278695107,0.008134664967656136,8.857652072228296e-34,0.008745184168219566
0.008634514175355434,0.0004914873279631138,-0.008664900436997414,0.00786892231553793,5.783413838946423e-35,0.008522676303982735
0.009436148218810558,0.000463627657154575,-0.008862154558300972,0.007789758034050465,3.776156144125112e-36,0.00837431289255619
0.009212285280227661,0.0005675664870068431,-0.008859030902385712,0.007789627183228731,2.4655599851265435e-37,0.009122648276388645
0.009169045835733414,0.0005946874734945595,-0.008609327487647533,0.007731344550848007,1.6098345169813183e-38,0.008766049519181252
0.008706102147698402,0.0005455818609334528,-0.009562872350215912,0.007869326509535313,1.0511069715977237e-39,0.00817008875310421
0.009029031731188297,0.0005747384275309741,-0.008492126129567623,0.007715855725109577,6.862999358877224e-41,0.008623845875263214
0.008976160548627377,0.0005789074348285794,-0.008360291831195354,0.00875400472432375,4.481352488910765e-42,0.008647182025015354
0.0089071374386549,0.0005579660646617413,-0.009394579567015171,0.008497358299791813,2.9287137904388677e-43,0.008536100387573242
0.009313271380960941,0.0005944993463344872,-0.008940836414694786,0.008622368797659874,1.961817850054744e-44,0.008443453349173069
0.009296276606619358,0.0005595601978711784,-0.00897151418030262,0.008900096639990807,1.401298464324817e-45,0.008652308955788612
0.00901989545673132,0.0005934464861638844,-0.008808977901935577,0.008530345745384693,0.0,0.008989713154733181
0.009202172979712486,0.0005380874499678612,-0.008821583352982998,0.008513805456459522,0.0,0.008588185533881187
0.009216108359396458,0.0005674559506587684,-0.008420669473707676,0.008774247951805592,0.0,0.008666993118822575
0.008867752738296986,0.0005234112613834441,-0.0086491284891963,0.008467667736113071,0.0,0.008821615017950535
0.00930523406714201,0.0005513264914043248,-0.009081322699785233,0.008507614955306053,0.0,0.00890316627919674
0.009704956784844398,0.0006075993296690285,-0.008660834282636642,0.008353585377335548,0.0,0.009144761599600315
0.010127006098628044,0.0006709970766678452,-0.009274362586438656,0.008463512174785137,0.0,0.009027632884681225
0.009758627973496914,0.0006734193884767592,-0.008610405959188938,0.008663549087941647,0.0,0.009216275997459888
0.009297680109739304,0.0006411204230971634,-0.008103817701339722,0.007901190780103207,0.0,0.00898768100887537
0.009297680109739304,0.0006411204230971634,-0.008103817701339722,0.007901190780103207,0.0,0.00898768100887537
0.008943112567067146,0.0008095356170088053,-0.008341677486896515,0.008190995082259178,0.0,0.009154465049505234
0.009644630365073681,0.0008315203012898564,-0.009208623319864273,0.007941121235489845,0.0,0.008735391311347485
0.009327517822384834,0.0008276165463030338,-0.008417123928666115,0.007812783122062683,-7.380289025604725e-05,0.009146544151008129
0.009362299926578999,0.0007429280667565763,-0.008399690501391888,0.007354866247624159,-9.374629735248163e-05,0.009108579717576504
0.009487847797572613,0.0007480091298930347,-0.008679628372192383,0.007453538943082094,-9.320731624029577e-05,0.0092885447666049
0.009277417324483395,0.0006881784647703171,-0.008554667234420776,0.007740916684269905,-9.140569454757497e-05,0.009436788968741894
0.009166191332042217,0.0006577294552698731,-0.00840765517205,0.007775669451802969,-8.959171827882528e-05,0.009588056243956089
0.009416806511580944,0.0006877774139866233,-0.008047725073993206,0.007488602306693792,-8.784323290456086e-05,0.008961677551269531
0.009159503504633904,0.0007779505103826523,-0.008655553683638573,0.00811654981225729,-8.616124250693247e-05,0.00897168181836605
0.008856342174112797,0.0009925909107550979,-0.008603558875620365,0.007726728916168213,-8.454259659629315e-05,0.00879072118550539
0.009498038329184055,0.001078867120668292,-0.00893302820622921,0.007440589368343353,-8.298356260638684e-05,0.008918060921132565
0.009394216351211071,0.001014973851852119,-0.008643087930977345,0.007866560481488705,-8.148089546011761e-05,0.009080220945179462
0.009108891710639,0.0009135094005614519,-0.008056229911744595,0.008053002879023552,-8.003172115422785e-05,0.008909502997994423
0.010030075907707214,0.0008492535562254488,-0.009307976812124252,0.008494609966874123,-8.87554997461848e-05,0.009111299179494381
0.010030075907707214,0.0008492535562254488,-0.009307976812124252,0.008494609966874123,-8.87554997461848e-05,0.009111299179494381
0.009088979102671146,0.0008597956621088088,-0.008732949383556843,0.008538530208170414,-9.091353422263637e-05,0.010239127092063427
0.009580722078680992,0.0008655053097754717,-0.008409473113715649,0.00841753464192152,-8.964269363787025e-05,0.00846661813557148
0.009580676443874836,0.0008786102989688516,-0.008311659097671509,0.008299178443849087,-8.81942905834876e-05,0.008002834394574165
0.009085351601243019,0.001007342361845076,-0.008635442703962326,0.008763754740357399,-8.677795267431065e-05,0.00894687045365572
0.009215478785336018,0.0010154555784538388,-0.008613651618361473,0.008530596271157265,-8.540554699720815e-05,0.008892037905752659
0.009455773048102856,0.0009932232787832618,-0.008167190477252007,0.008541278541088104,-9.625712846172974e-05,0.009435238316655159
0.009499557316303253,0.0009422963485121727,-0.0086656603962183,0.008755672723054886,-9.646514081396163e-05,0.009606565348803997
0.009244275279343128,0.0008664457709528506,-0.008820663206279278,0.008194182999432087,-9.511846292298287e-05,0.009185241535305977
0.00915491208434105,0.0008211942040361464,-0.008040348999202251,0.0076853507198393345,-9.233787568518892e-05,0.00956794898957014
0.009450114332139492,0.0008349306299351156,-0.00878837238997221,0.007630619686096907,-9.100404713535681e-05,0.009554109536111355
0.00958816334605217,0.0008426032727584243,-0.008401145227253437,0.007726602256298065,-8.970811904873699e-05,0.009247548878192902
0.009677053429186344,0.0010857576271519065,-0.008521049283444881,0.007689936552196741,-8.844875264912844e-05,0.009320441633462906
0.009729055687785149,0.0009594761650077999,-0.008595983497798443,0.008120293729007244,-8.722415077500045e-05,0.009443077258765697
0.009729055687785149,0.0009594761650077999,-0.008595983497798443,0.008120293729007244,-8.722415077500045e-05,0.009443077258765697
0.010154861025512218,0.0009490564116276801,-0.008681634441018105,0.008353345096111298,-9.208913979819044e-05,0.009541550651192665
0.010120585560798645,0.0009425070602446795,-0.008722380734980106,0.008321440778672695,-9.659174247644842e-05,0.009237379767000675
0.009717508219182491,0.0009123297641053796,-0.008196227252483368,0.00826442614197731,-9.568290261086076e-05,0.009276474826037884
0.010327422060072422,0.0009199178894050419,-0.008694075047969818,0.008383340202271938,-9.445218165637925e-05,0.009227285161614418
0.009851353242993355,0.001001838711090386,-0.008341613225638866,0.00845297984778881,-9.323070844402537e-05,0.00966537557542324
0.009643376804888248,0.001118939951993525,-0.00834790337830782,0.008291369304060936,-9.20390521059744e-05,0.009288175031542778
0.010329400189220905,0.0011508564930409193,-0.009101093746721745,0.008297126740217209,-9.087735088542104e-05,0.009419321082532406
0.01065537054091692,0.0011070590699091554,-0.008480925112962723,0.007953491993248463,-0.00012037230771966279,0.009525859728455544
0.010335193015635014,0.001086692907847464,-0.008182274177670479,0.008178827352821827,-0.0001269130443688482,0.009637821465730667
0.010689589194953442,0.0010654160287231207,-0.008458190597593784,0.008274116553366184,-0.00012406297901179641,0.00943773239850998
0.009921316057443619,0.001044217380695045,-0.008941041305661201,0.007786252535879612,-0.00012077561405021697,0.009248966351151466
0.01042491290718317,0.0010249773040413857,-0.008452707901597023,0.00801513995975256,-0.00013505459355656058,0.009763885289430618
0.010597340762615204,0.0010074569145217538,-0.008200060576200485,0.00828532874584198,-0.00013715233944822103,0.009467151015996933
0.010444127954542637,0.0011313848663121462,-0.008887464180588722,0.008244437165558338,-0.00013410761312115937,0.009383434429764748
0.011136332526803017,0.0009857241529971361,-0.008674406446516514,0.008276251144707203,-0.00013088047853671014,0.010255267843604088
0.010468026623129845,0.0009708820725791156,-0.00840612594038248,0.008640417829155922,-0.00013825143105350435,0.009482449851930141
0.010045591741800308,0.0009619437041692436,-0.009338474832475185,0.00842132419347763,-0.00014492867921944708,0.009475156664848328
0.010363331995904446,0.0010846159420907497,-0.008645295165479183,0.008079823106527328,-0.00014229887165129185,0.0096835782751441
0.010036672465503216,0.001166446367278695,-0.00836255494505167,0.008274460211396217,-0.00013919692719355226,0.00945533812046051
0.010590286925435066,0.001361945760436356,-0.007839725352823734,0.00831599161028862,-0.00013619060337077826,0.00943257287144661
0.01095560658723116,0.00138356804382056,-0.00879986584186554,0.008129522204399109,-0.00013330877118278295,0.009662285447120667
0.011155851185321808,0.001219860976561904,-0.009294459596276283,0.007772944867610931,-0.00012789611355401576,0.010366951115429401
0.011190777644515038,0.0010500785429030657,-0.008662673644721508,0.008603889495134354,-0.0001420654880348593,0.010082636959850788
0.010139541700482368,0.0010191603796556592,-0.008336490020155907,0.008677675388753414,-0.00014038583321962506,0.00980648584663868
0.010210106149315834,0.0010969311697408557,-0.008371507748961449,0.008557192981243134,-0.0001377706357743591,0.009693287312984467
0.010399987921118736,0.0011908478336408734,-0.008445403538644314,0.008814956992864609,-0.00013518855848815292,0.00973319262266159
0.010399987921118736,0.0011908478336408734,-0.008445403538644314,0.008814956992864609,-0.00013518855848815292,0.00973319262266159
0.009940828196704388,0.001218773308210075,-0.009093203581869602,0.008412370458245277,-0.00013269727060105652,0.00935587752610445
0.010645751841366291,0.0011655929265543818,-0.008482098579406738,0.00826755166053772,-0.00016971079458016902,0.010119912214577198
0.011076749302446842,0.0011434177868068218,-0.008326774463057518,0.00888233445584774,-0.000199480215087533,0.010090412572026253
0.010210600681602955,0.0012675501639023423,-0.008324048481881618,0.009028020314872265,-0.00019334643729962409,0.009586641564965248
0.01033990178257227,0.0012131525436416268,-0.008474706672132015,0.008470219559967518,-0.0001855327282100916,0.009196259081363678
0.010315877385437489,0.0013517366023734212,-0.00834925938397646,0.00845667440444231,-0.00020908925216645002,0.009501311928033829
0.010325205512344837,0.001470767194405198,-0.00876061525195837,0.0090073486790061,-0.0002053784264717251,0.010429912246763706
0.010693695396184921,0.00140725530218333,-0.009253273718059063,0.00848490558564663,-0.00019811953825410455,0.010383072309195995
0.010379540733993053,0.0013764479663223028,-0.008580751717090607,0.008294561877846718,-0.00020673085236921906,0.010465607978403568
0.011187114752829075,0.0014252798864617944,-0.008079574443399906,0.008977399207651615,-0.00021429581101983786,0.00967080146074295
0.01054390799254179,0.0013661925913766026,-0.008863560855388641,0.00857487041503191,-0.0002081683778669685,0.0093021709471941
0.010317962616682053,0.001414499245584011,-0.008911977522075176,0.008280648849904537,-0.0002015699283219874,0.010891750454902649
0.010326744057238102,0.0013619036180898547,-0.008329257369041443,0.008397489786148071,-0.00019532375154085457,0.009790657088160515
0.010782687924802303,0.0015420073177665472,-0.009095566347241402,0.009336107410490513,-0.00018944968178402632,0.009481704793870449
0.010448833927512169,0.0016426944639533758,-0.00884276907891035,0.008367295376956463,-0.00018391849880572408,0.009721840731799603
0.010610006749629974,0.001565943006426096,-0.00876059290021658,0.007996105588972569,-0.00020251415844541043,0.009885136038064957
0.010534124448895454,0.0020617335103452206,-0.009385285899043083,0.007822593674063683,-0.00019325777248013765,0.009986361488699913
0.010932055301964283,0.0021105059422552586,-0.008850613608956337,0.008018305525183678,-0.00018821240519173443,0.009857233613729477
0.011153331957757473,0.0018508870853111148,-0.008507556281983852,0.008365401066839695,-0.00023821298964321613,0.010032971389591694
0.01047670841217041,0.0016848377417773008,-0.0096500925719738,0.008486497215926647,-0.00023386605607811362,0.010202058590948582
0.01079628150910139,0.0016532392473891377,-0.009315349161624908,0.00820534024387598,-0.00022280901612248272,0.010083272121846676
0.01079628150910139,0.0016532392473891377,-0.009315349161624908,0.00820534024387598,-0.00022280901612248272,0.010083272121846676
0.01068423967808485,0.001477354671806097,-0.008995940908789635,0.007847828790545464,-0.0002330677380086854,0.010221886448562145
0.011120068840682507,0.0015639314660802484,-0.009370358660817146,0.008769653737545013,-0.00024189412943087518,0.01038941740989685
0.010493472218513489,0.0019821871537715197,-0.009300627745687962,0.008690360933542252,-0.00025169929722324014,0.010202707722783089
0.010402918793261051,0.0020533965434879065,-0.0086329011246562,0.008375583216547966,-0.0002590928634162992,0.010306602343916893
0.010955647565424442,0.0021057715639472008,-0.009080502204596996,0.008229103870689869,-0.00024997146101668477,0.01063532754778862
0.010732577182352543,0.0018473484087735415,-0.009084473364055157,0.00877898558974266,-0.00024050252977758646,0.010099224746227264
0.010422366671264172,0.0016546804690733552,-0.009091426618397236,0.009142348542809486,-0.0002603608008939773,0.009933418594300747
0.010870895348489285,0.0014644258189946413,-0.009175929240882397,0.008034722879529,-0.00025507889222353697,0.010185619816184044
0.010556740686297417,0.001209409674629569,-0.009688984602689743,0.00830551702529192,-0.00031367538031190634,0.010265388526022434
0.010834422893822193,0.001150566735304892,-0.009389243088662624,0.00885400827974081,-0.0003526865039020777,0.010735790245234966
0.011018202640116215,0.0010644313879311085,-0.008979173377156258,0.008392426185309887,-0.00033090898068621755,0.010935747995972633
0.01054041925817728,0.0009300880483351648,-0.009432492777705193,0.008281382732093334,-0.0003384447190910578,0.010100307874381542
0.01074041984975338,0.0009097529691644013,-0.009073412977159023,0.007913139648735523,-0.00034436717396602035,0.009905977174639702
0.010677502490580082,0.0009962150361388922,-0.008980289101600647,0.00795714184641838,-0.00032540876418352127,0.010027299635112286
0.010953335091471672,0.0012240174692124128,-0.009408615529537201,0.007845993153750896,-0.00030701677314937115,0.009923161938786507
0.011333422735333443,0.0014284596545621753,-0.009449557401239872,0.007721929345279932,-0.00032620353158563375,0.010719832964241505
0.011061592027544975,0.0013351590605452657,-0.008936397731304169,0.008116292767226696,-0.000320781342452392,0.010441558435559273
0.011329276487231255,0.0013258334947749972,-0.010232717730104923,0.008163842372596264,-0.0003059319278690964,0.010351440869271755
0.011557606048882008,0.0012904289178550243,-0.00975755788385868,0.007854637689888477,-0.00029180606361478567,0.0105121536180377
0.011271238327026367,0.001023334451019764,-0.01085839606821537,0.008042537607252598,-0.0003048671642318368,0.010517987422645092
0.011539139784872532,0.0009621982462704182,-0.01010933332145214,0.007619138807058334,-0.00031647621653974056,0.010978195816278458
0.01115353312343359,0.0008824578253552318,-0.009277572855353355,0.008077656850218773,-0.00031767459586262703,0.010280291549861431
0.01115353312343359,0.0008824578253552318,-0.009277572855353355,0.008077656850218773,-0.00031767459586262703,0.010280291549861431
0.011685454286634922,0.00072115333750844,-0.009844544343650341,0.008354134857654572,-0.00029815867310389876,0.010040847584605217
0.011306521482765675,0.0007235542288981378,-0.009532182477414608,0.008080014027655125,-0.0002797165943775326,0.010366803035140038
0.011631987057626247,0.000761251023504883,-0.010182619094848633,0.00865968968719244,-0.00029183103470131755,0.010495864786207676
0.011631987057626247,0.000761251023504883,-0.010182619094848633,0.00865968968719244,-0.00029183103470131755,0.010495864786207676
0.012540765106678009,0.0008837186614982784,-0.009874269366264343,0.008653285913169384,-0.00028245424618944526,0.010742603801190853
0.01190861128270626,0.0009685407276265323,-0.009516933001577854,0.008368158712983131,-0.00026877643540501595,0.01009612251073122
0.01144133135676384,0.0009479309665039182,-0.010055194608867168,0.00809356290847063,-0.0002560527063906193,0.010459436103701591
0.011908641085028648,0.0009414525702595711,-0.009698512963950634,0.008841023780405521,-0.0002444598649162799,0.010124939493834972
0.01206581573933363,0.0009564044885337353,-0.009545410983264446,0.00919495988637209,-0.00023387011606246233,0.010128741152584553
0.012131046503782272,0.0009471661760471761,-0.010529775172472,0.008377444930374622,-0.000224159870413132,0.010402356274425983
0.012164714746177197,0.000939944467972964,-0.010083255358040333,0.008333456702530384,-0.0002152239321731031,0.009885033592581749
0.012216891162097454,0.0008554463274776936,-0.009595943614840508,0.008797556161880493,-0.00022386036289390177,0.010482536628842354
0.01239303220063448,0.0008596351253800094,-0.010052130557596684,0.009260247461497784,-0.00023140413395594805,0.01107239443808794
0.01187029667198658,0.0008707945817150176,-0.010391036979854107,0.00899533275514841,-0.00022419846209231764,0.011013561859726906
0.012514383532106876,0.0008789141429588199,-0.009279347024857998,0.009596254676580429,-0.00021655813907273114,0.011246010661125183
0.01225564256310463,0.0008782194927334785,-0.010086019523441792,0.008957690559327602,-0.00020936504006385803,0.010333455167710781
0.01250761654227972,0.0008808195707388222,-0.010379585437476635,0.008206105791032314,-0.00020263067563064396,0.010535107925534248
0.011894365772604942,0.000921025697607547,-0.009687592275440693,0.008955594152212143,-0.00019631571194622666,0.011169412173330784
0.011525020003318787,0.0009301552781835198,-0.009961853735148907,0.008777739480137825,-0.00019038261962123215,0.010964412242174149
0.011915775947272778,0.0008110034978017211,-0.009544167667627335,0.008904228918254375,-0.00020473099721129984,0.011293871328234673
0.012314220890402794,0.000820081913843751,-0.010634401813149452,0.009010388515889645,-0.00019946362590417266,0.011287030763924122
0.012185569852590561,0.0008126402972266078,-0.010030824691057205,0.008792269043624401,-0.00019411215907894075,0.011324306949973106
0.012118530459702015,0.0008282425114884973,-0.009770145639777184,0.009405136108398438,-0.00018901776638813317,0.01109691895544529
0.012118530459702015,0.0008282425114884973,-0.009770145639777184,0.009405136108398438,-0.00018901776638813317,0.01109691895544529
0.012463747523725033,0.0008343591471202672,-0.010701463557779789,0.008588653057813644,-0.0001847654057200998,0.010779330506920815
0.011918778531253338,0.0008420096710324287,-0.009912475943565369,0.009445643983781338,-0.0001668832264840603,0.011233553290367126
0.012460720725357533,0.0009104767814278603,-0.009676558896899223,0.009660143405199051,-0.00016021914780139923,0.01129929255694151
0.012418754398822784,0.0009242747910320759,-0.010379582643508911,0.009499157778918743,-0.00015466455079149455,0.011115758679807186
0.012639413587749004,0.0009208639385178685,-0.010503721423447132,0.008692744188010693,-0.00014952158380765468,0.01187367457896471
0.013087618164718151,0.0009360302938148379,-0.010080446489155293,0.0083460109308362,-0.0001447126705897972,0.011447972618043423
0.012728981673717499,0.0011986189056187868,-0.010537473484873772,0.009000727906823158,-0.0001663542352616787,0.011591054499149323
0.012890067882835865,0.0012583717470988631,-0.010042830370366573,0.009033511392772198,-0.0001630366314202547,0.011425367556512356
0.013387313112616539,0.001137512270361185,-0.010645406320691109,0.008759536780416965,-0.0001583663106430322,0.011192836798727512
0.012702460400760174,0.0012495670234784484,-0.010269817896187305,0.009245635010302067,-0.00015386116865556687,0.011460170149803162
0.011993455700576305,0.0011829470749944448,-0.010272598825395107,0.00902738980948925,-0.0001680710120126605,0.011442613787949085
0.01294263731688261,0.0011363433441147208,-0.010364820249378681,0.008944978937506676,-0.000169404738699086,0.011976126581430435
0.012879662215709686,0.0010683831060305238,-0.01048252172768116,0.00924777053296566,-0.00016534095630049706,0.011481942608952522
0.013163382187485695,0.0011718750465661287,-0.010146623477339745,0.009589195251464844,-0.00016113693709485233,0.011382716707885265
0.013016849756240845,0.0011674677953124046,-0.010607176460325718,0.008995601907372475,-0.0001571195898577571,0.011936244554817677
0.013259392231702805,0.0015649894485250115,-0.009682836011052132,0.009296555072069168,-0.00016953064186964184,0.011947796680033207
0.013510767370462418,0.001493126037530601,-0.010500787757337093,0.009570347145199776,-0.0001706639741314575,0.011813374236226082
0.013248509727418423,0.0013972066808491945,-0.01067407988011837,0.009027992375195026,-0.00016704079462215304,0.011611886322498322
0.013575272634625435,0.0014443777035921812,-0.010089259594678879,0.009020780213177204,-0.00020494374621193856,0.011665093712508678
0.01290464773774147,0.0013296923134475946,-0.010424972511827946,0.009445635601878166,-0.00023404625244438648,0.011908345855772495
0.013742897659540176,0.001284562749788165,-0.010374858044087887,0.009118618443608284,-0.00022494597942568362,0.011683742515742779
0.013359753414988518,0.0013405598001554608,-0.00989901926368475,0.009173077531158924,-0.0002543371811043471,0.011739338748157024
0.013654396869242191,0.0013907584361732006,-0.010514197871088982,0.009517948143184185,-0.00024539264268241823,0.011622070334851742
0.013886744156479836,0.001354982377961278,-0.01020028442144394,0.008775508031249046,-0.00025761930737644434,0.011552962474524975
0.013693924061954021,0.001385782496072352,-0.010989776812493801,0.009230588562786579,-0.0002517850953154266,0.011324676685035229
0.01363943237811327,0.001310278894379735,-0.010478266514837742,0.009716995991766453,-0.00026799459010362625,0.011747452430427074
0.01384003832936287,0.0012574532302096486,-0.01007795613259077,0.009520938619971275,-0.00026618203264661133,0.01143478974699974
0.013792254030704498,0.0013047362444922328,-0.010376205667853355,0.009892456233501434,-0.000257201143540442,0.01134441141039133
0.01385965570807457,0.0012796277878805995,-0.010360710322856903,0.010012857615947723,-0.0002483625721652061,0.01144201960414648
0.01385965570807457,0.0012796277878805995,-0.010360710322856903,0.010012857615947723,-0.0002483625721652061,0.01144201960414648
0.014128782786428928,0.001439365092664957,-0.009771781042218208,0.009514308534562588,-0.0003041108720935881,0.011495697312057018
0.014152150601148605,0.0014010024024173617,-0.01084962673485279,0.010373535566031933,-0.0003414793754927814,0.011784350499510765
0.013821049593389034,0.001823460217565298,-0.010772372595965862,0.009467311203479767,-0.00032106772414408624,0.013023159466683865
0.014204728417098522,0.001687270007096231,-0.010146656073629856,0.009497792460024357,-0.0003517445584293455,0.011684461496770382
0.014220168814063072,0.0016938087064772844,-0.010570472106337547,0.009948157705366611,-0.0003368861216586083,0.011645515449345112
0.014296458102762699,0.0016649537719786167,-0.010042592883110046,0.009516837075352669,-0.0003175319288857281,0.011803407222032547
0.013738182373344898,0.0015127977821975946,-0.01012890413403511,0.009201539680361748,-0.00032427688711322844,0.012188789434731007
0.01424355898052454,0.0015528886578977108,-0.010287743993103504,0.009411442093551159,-0.0003298163937870413,0.012768509797751904
0.014176757074892521,0.0014789244160056114,-0.009778412990272045,0.009550739079713821,-0.00031480472534894943,0.012830366380512714
0.014248601160943508,0.001529621658846736,-0.010382134467363358,0.008923220448195934,-0.00029991031624376774,0.01284224446862936
0.013906148262321949,0.0014576822286471725,-0.010477264411747456,0.009426213800907135,-0.0002862845722120255,0.012831258587539196
0.0144001804292202,0.0015454740496352315,-0.009901532903313637,0.010512899607419968,-0.00027383799897506833,0.012907835654914379
0.013991090469062328,0.001676751533523202,-0.010607587173581123,0.00982399471104145,-0.0002624287735670805,0.012680362910032272
0.014480034820735455,0.0015522424364462495,-0.010432654991745949,0.009897155687212944,-0.00025193244800902903,0.012830006889998913
0.014101848006248474,0.0016227868618443608,-0.009395161643624306,0.010065462440252304,-0.00027449935441836715,0.012872695922851562
0.014560422860085964,0.0016642599366605282,-0.010631290264427662,0.009209781885147095,-0.00026644321042113006,0.012649590149521828
0.01411766093224287,0.0016821726458147168,-0.010181078687310219,0.009447874501347542,-0.00025706671294756234,0.012377243489027023
0.014698302373290062,0.0015591472620144486,-0.009832598268985748,0.009827559813857079,-0.0002482123381923884,0.01255729142576456
0.014124591834843159,0.0014925802825018764,-0.010679089464247227,0.009367979131639004,-0.00023994012735784054,0.012827101163566113
0.014328030869364738,0.0015920501900836825,-0.009463433176279068,0.00961715541779995,-0.00022295897360891104,0.013351092115044594
0.014589323662221432,0.0019100175704807043,-0.010700641199946404,0.009450088255107403,-0.00021256512263789773,0.013276997022330761
0.014507884159684181,0.0017784611554816365,-0.01011204719543457,0.009263898245990276,-0.0002029834286076948,0.0131911002099514
0.014866831712424755,0.0018108038930222392,-0.00995134562253952,0.00971122458577156,-0.00022787947091273963,0.012952523306012154
0.014485455118119717,0.0017881375970318913,-0.010513896122574806,0.009775334969162941,-0.00022308160259854048,0.013093280605971813
0.014713743701577187,0.0016897160094231367,-0.009869392029941082,0.010484626516699791,-0.00021451988141052425,0.013121246360242367
0.014502760954201221,0.0015548557275906205,-0.009940258227288723,0.010076139122247696,-0.0002361579390708357,0.012894030660390854
0.014502760954201221,0.0015548557275906205,-0.009940258227288723,0.010076139122247696,-0.0002361579390708357,0.012894030660390854
0.014840850606560707,0.0016138413920998573,-0.010590829886496067,0.009552002884447575,-0.0002315724123036489,0.013398890383541584
0.014399920590221882,0.0017189685022458434,-0.010260123759508133,0.010031881742179394,-0.0002236197324236855,0.013292827643454075
0.014632570557296276,0.0015988018130883574,-0.010371767915785313,0.010509965009987354,-0.0002159703872166574,0.013360986486077309
0.014913280494511127,0.0018189544789493084,-0.011005223728716373,0.009815499186515808,-0.0002366279368288815,0.013044983148574829
0.015332021750509739,0.0017054666532203555,-0.010261980816721916,0.009773372672498226,-0.00023085436259862036,0.012908541597425938
0.015170550905168056,0.0017633961979299784,-0.010983435437083244,0.00987942609935999,-0.00031700258841738105,0.012488443404436111
0.014955376274883747,0.0017531393095850945,-0.010297009721398354,0.009545031934976578,-0.00032459781505167484,0.012572680599987507
0.015163424424827099,0.0017787188990041614,-0.010206603445112705,0.009666522964835167,-0.0003612942236941308,0.01260764617472887
0.014840872026979923,0.0017885264242067933,-0.011442647315561771,0.009785361588001251,-0.0003422167501412332,0.013213994912803173
0.014672125689685345,0.0018302323296666145,-0.01093648187816143,0.009508339688181877,-0.0003220480866730213,0.013341410085558891
0.014827890321612358,0.0018235915340483189,-0.010849827900528908,0.010034067556262016,-0.0003510809037834406,0.013697647489607334
0.01485408190637827,0.0018759211525321007,-0.011109605431556702,0.010189219377934933,-0.00033545767655596137,0.013913560658693314
0.01516016386449337,0.0019299046834930778,-0.010566752403974533,0.009884564206004143,-0.00031868371297605336,0.013727646321058273
0.015046936459839344,0.0023362499196082354,-0.011295324191451073,0.010793160647153854,-0.0003033475368283689,0.0139704504981637
0.014825185760855675,0.002145475475117564,-0.011314691044390202,0.010290584526956081,-0.00031993939774110913,0.012858149595558643
0.014932242222130299,0.0022502196952700615,-0.01086385641247034,0.009181477129459381,-0.0003155173035338521,0.012819754891097546
0.014335768297314644,0.0020390627905726433,-0.011324013583362103,0.00929063931107521,-0.0003028704668395221,0.012859453447163105
0.014897237531840801,0.0019226332660764456,-0.011719688773155212,0.009472251869738102,-0.00029068085132166743,0.013360816985368729
0.014826514758169651,0.0018217150354757905,-0.011512679979205132,0.009792311117053032,-0.00027946228510700166,0.013481470756232738
0.015157722868025303,0.001948021468706429,-0.01131727360188961,0.00936548225581646,-0.0003092626575380564,0.01411778386682272
0.01499634888023138,0.002318405546247959,-0.011324992403388023,0.009396014735102654,-0.0002923729771282524,0.013999208807945251
0.01478772982954979,0.002155928872525692,-0.011359979398548603,0.009355073794722557,-0.0002589235664345324,0.013954058289527893
0.015765374526381493,0.0019968219567090273,-0.011982453055679798,0.009400874376296997,-0.00029041615198366344,0.014195267111063004
0.015765374526381493,0.0019968219567090273,-0.011982453055679798,0.009400874376296997,-0.00029041615198366344,0.014195267111063004
0.014586920849978924,0.001835481496527791,-0.011406692676246166,0.009295559488236904,-0.0002784119569696486,0.014200256206095219
0.015074620023369789,0.001937750494107604,-0.011823021806776524,0.009851138107478619,-0.0002931769995484501,0.013701172545552254
0.015074620023369789,0.001937750494107604,-0.011823021806776524,0.009851138107478619,-0.0002931769995484501,0.013701172545552254
0.015336551703512669,0.0020069589372724295,-0.011667728424072266,0.00966136995702982,-0.0002813889877870679,0.014070232398808002
0.015334080904722214,0.0026257787831127644,-0.01236390694975853,0.009864872321486473,-0.0003027920611202717,0.013899325393140316
0.01410643570125103,0.002691104309633374,-0.011718589812517166,0.01069644931703806,-0.00029496740899048746,0.013553230091929436
0.015302112326025963,0.0024443883448839188,-0.011282381601631641,0.009548015892505646,-0.0003551574482116848,0.013390354812145233
0.015616430900990963,0.0023555499501526356,-0.0122588025406003,0.009441408328711987,-0.000351295544533059,0.01358353067189455
0.01522694993764162,0.002041364787146449,-0.011781415902078152,0.010549108497798443,-0.00038382780621759593,0.01407896913588047
0.015111097134649754,0.0020519099198281765,-0.01217830739915371,0.010020756162703037,-0.00036564041511155665,0.014170096255838871
0.015152348205447197,0.0018667100230231881,-0.012043171562254429,0.010094170458614826,-0.00037071388214826584,0.0142210116609931
0.015068280510604382,0.0020602531731128693,-0.011146200820803642,0.010716266930103302,-0.0003742927510756999,0.014143194071948528
0.015405028127133846,0.0021092849783599377,-0.011979239992797375,0.010716716758906841,-0.00035487778950482607,0.014149232767522335
0.015349623747169971,0.0020948341116309166,-0.011828348971903324,0.011067652143537998,-0.0003360506088938564,0.014090403914451599
0.016038037836551666,0.001839465694501996,-0.01247184257954359,0.010367919690907001,-0.0003190346760675311,0.014182553626596928
0.015520123764872551,0.0016351003432646394,-0.011292708106338978,0.010478576645255089,-0.0003356729284860194,0.014236405491828918
0.016060085967183113,0.0016154584009200335,-0.011885413900017738,0.01121183205395937,-0.0003303286503069103,0.014500042423605919
0.015939395874738693,0.0014758030883967876,-0.011926181614398956,0.0106506934389472,-0.00031646451679989696,0.01477279793471098
0.01607460528612137,0.0015738089568912983,-0.011362889781594276,0.010623767040669918,-0.0003031786473002285,0.014981371350586414
0.016193320974707603,0.002079926896840334,-0.012050225399434566,0.010826566256582737,-0.0002909282047767192,0.015024560503661633
0.01618085242807865,0.0021185067016631365,-0.01174352690577507,0.010243207216262817,-0.00027962742024101317,0.014695564284920692
0.016380680724978447,0.0021961878519505262,-0.011916015297174454,0.010743146762251854,-0.00027928745839744806,0.014286655001342297
0.015993580222129822,0.002089871559292078,-0.012557180598378181,0.010673115029931068,-0.0002729898551478982,0.014149108901619911
0.016307145357131958,0.0018090634839609265,-0.012075000442564487,0.010205735452473164,-0.00024407217279076576,0.014955011196434498
0.016577979549765587,0.0016047166427597404,-0.012142304331064224,0.010575215332210064,-0.00026567181339487433,0.014073565602302551
0.016129761934280396,0.00166875880677253,-0.012040664441883564,0.010128269903361797,-0.000263425667071715,0.014543896540999413
0.01648460328578949,0.001759455306455493,-0.01191100012511015,0.010695447213947773,-0.00027234561275690794,0.014817521907389164
0.016626305878162384,0.0018468130147084594,-0.01103814784437418,0.010658207349479198,-0.0002793672611005604,0.014709684997797012
0.016403477638959885,0.0018394915387034416,-0.011772332713007927,0.010426136665046215,-0.0002686985826585442,0.014856536872684956
0.017046302556991577,0.0018750190502032638,-0.012297553941607475,0.010616897605359554,-0.0002577839186415076,0.015099508687853813
0.017046302556991577,0.0018750190502032638,-0.012297553941607475,0.010616897605359554,-0.0002577839186415076,0.015099508687853813
0.01664101518690586,0.0016690153861418366,-0.01169286947697401,0.010039961896836758,-0.00027832307387143373,0.014851284213364124
0.01674903929233551,0.0015776909422129393,-0.011501437053084373,0.010738871060311794,-0.0002720179909374565,0.015200204215943813
0.016796238720417023,0.0015738420188426971,-0.01129603385925293,0.011092698201537132,-0.0002623800828587264,0.01531975343823433
0.016969667747616768,0.0017684188205748796,-0.012531577609479427,0.010346222668886185,-0.00025317040854133666,0.014575831592082977
0.016764454543590546,0.0016534484457224607,-0.011804275214672089,0.010854875668883324,-0.0002445709833409637,0.014733423478901386
0.01654401421546936,0.0019715179223567247,-0.012040558271110058,0.01149894017726183,-0.0002367508423049003,0.014841043390333652
0.017303645610809326,0.002022192580625415,-0.012015392072498798,0.010600822046399117,-0.00027598030283115804,0.014751531183719635
0.017031211405992508,0.0025110517162829638,-0.012077194638550282,0.01085579488426447,-0.00026334376889280975,0.014733255840837955
0.01683090254664421,0.0023667779751122,-0.011752737686038017,0.010649357922375202,-0.00029208706109784544,0.014996936544775963
0.016962887719273567,0.0021822797134518623,-0.011583435349166393,0.010293859988451004,-0.0002827042480930686,0.015173819847404957
0.016953062266111374,0.0019386301282793283,-0.01246526651084423,0.01056764181703329,-0.00026900306693278253,0.015959711745381355
0.017460577189922333,0.001719647436402738,-0.011889328248798847,0.010353506542742252,-0.000256259401794523,0.0157385915517807
0.016944676637649536,0.0017282385379076004,-0.011731650680303574,0.010409434325993061,-0.00028263358399271965,0.01564706303179264
0.01711934246122837,0.0020237406715750694,-0.011828664690256119,0.01073226798325777,-0.00027286718250252306,0.015387115068733692
0.01707581989467144,0.0021147183142602444,-0.011627787724137306,0.010602371767163277,-0.00027997870347462595,0.015438515692949295
0.017229845747351646,0.002126182895153761,-0.012513142079114914,0.010807903483510017,-0.00028591134469024837,0.014999810606241226
0.017614515498280525,0.0019181834068149328,-0.012458592653274536,0.011005984619259834,-0.00027606243384070694,0.01542684342712164
0.017801357433199883,0.0018785966094583273,-0.012141592800617218,0.010403080843389034,-0.0003206354449503124,0.015605820342898369
0.01770024001598358,0.0017230421071872115,-0.011475848965346813,0.011576864868402481,-0.0003478830913081765,0.015660665929317474
0.018022067844867706,0.0016995922196656466,-0.011179950088262558,0.011450973339378834,-0.0003260741359554231,0.015422981232404709
0.01728561706840992,0.001829185988754034,-0.011611131019890308,0.010735336691141129,-0.0003379963163752109,0.015742039307951927
0.017427723854780197,0.0018358429661020637,-0.012011761777102947,0.010621474124491215,-0.0003213363524992019,0.01564759761095047
0.01772323064506054,0.002275774721056223,-0.012216033414006233,0.011048340238630772,-0.00034077931195497513,0.015513237565755844
0.01799798756837845,0.0025911510456353426,-0.011840312741696835,0.010588540695607662,-0.00033437690581195056,0.015287614427506924
0.017835183069109917,0.0024434691295027733,-0.012448884546756744,0.01050070021301508,-0.00031824701000005007,0.015383354388177395
0.017835183069109917,0.0024434691295027733,-0.012448884546756744,0.01050070021301508,-0.00031824701000005007,0.015383354388177395
0.017696315422654152,0.002205421682447195,-0.012012436054646969,0.011125843971967697,-0.000334936281433329,0.015564444474875927
0.017969440668821335,0.0020888037979602814,-0.012705291621387005,0.011074126698076725,-0.0003296401700936258,0.015993310138583183
0.018031897023320198,0.0021482673473656178,-0.012497518211603165,0.010936909355223179,-0.00031583354575559497,0.014937377534806728
0.018548009917140007,0.001980020897462964,-0.011927691288292408,0.011518334038555622,-0.00035127540468238294,0.01543324813246727
0.018253345042467117,0.0021608180832117796,-0.012193998321890831,0.01096358709037304,-0.00034119203337468207,0.015524104237556458
0.01825813204050064,0.0020690886303782463,-0.011875784955918789,0.011271092109382153,-0.00034902768675237894,0.015369618311524391
0.018511109054088593,0.00225639995187521,-0.012560592032968998,0.0110928351059556,-0.0003544905921444297,0.015468807891011238
0.0181060042232275,0.002210349775850773,-0.012235154397785664,0.010769282467663288,-0.0003343879652675241,0.016031822189688683
0.017947526648640633,0.0021703033708035946,-0.01294206827878952,0.01166741456836462,-0.00031499439501203597,0.016140803694725037
0.018201950937509537,0.002101871417835355,-0.012208783067762852,0.01116481889039278,-0.0003405534662306309,0.01567057892680168
0.018429383635520935,0.0020216323900967836,-0.011930426582694054,0.011256969533860683,-0.00032865809043869376,0.01586555689573288
0.019033800810575485,0.002173270098865032,-0.01274361927062273,0.01065074559301138,-0.00035140610998496413,0.01573500968515873
0.018420467153191566,0.002222627168521285,-0.012693443335592747,0.010376011952757835,-0.00034012648393400013,0.016025450080633163
0.018244216218590736,0.0024915370158851147,-0.012484997510910034,0.011163600720465183,-0.000413619534811005,0.015782171860337257
0.018914060667157173,0.0026570847257971764,-0.011895370669662952,0.011145665310323238,-0.0003912989632226527,0.01582484506070614
0.018337031826376915,0.0023603681474924088,-0.012656236998736858,0.010783297009766102,-0.00039573354297317564,0.015887249261140823
0.018575109541416168,0.0022020505275577307,-0.012615732848644257,0.011089395731687546,-0.0003984296345151961,0.01633480004966259
0.018877482041716576,0.0019673153292387724,-0.012938709929585457,0.01086372323334217,-0.00041871416033245623,0.01643386483192444
0.018875110894441605,0.0019372326787561178,-0.01307726837694645,0.010989210568368435,-0.00040609706775285304,0.016099179163575172
0.019097236916422844,0.00227173650637269,-0.012448346242308617,0.011294832453131676,-0.0004332176467869431,0.016487019136548042
0.018952812999486923,0.002241057576611638,-0.01248097699135542,0.010920093394815922,-0.0004129070439375937,0.016456477344036102
0.018883587792515755,0.0021899144630879164,-0.013223985210061073,0.011159935966134071,-0.0005133061786182225,0.01632186770439148
0.018883587792515755,0.0021899144630879164,-0.013223985210061073,0.011159935966134071,-0.0005133061786182225,0.01632186770439148
0.019413037225604057,0.0019257378298789263,-0.013410511426627636,0.011447946541011333,-0.00046538381138816476,0.016467111185193062
0.019241970032453537,0.0019367915811017156,-0.012867248617112637,0.011006119661033154,-0.0004631725314538926,0.016623003408312798
0.019307199865579605,0.0018329991726204753,-0.013011854141950607,0.011213104240596294,-0.0004608319723047316,0.016863428056240082
0.019307199865579605,0.0018329991726204753,-0.013011854141950607,0.011213104240596294,-0.0004608319723047316,0.016863428056240082
0.019415611401200294,0.002243955619633198,-0.01284401398152113,0.01157811377197504,-0.00043133244616910815,0.01657533459365368
0.01947202906012535,0.002477209083735943,-0.012898980639874935,0.011275251396000385,-0.0004536628257483244,0.016845647245645523
0.01997554861009121,0.0023155712988227606,-0.013434038497507572,0.011264273896813393,-0.0004331780946813524,0.01681463047862053
0.019822953268885612,0.002013365738093853,-0.01247477438300848,0.011640428565442562,-0.0004113749600946903,0.01697211153805256
0.019506042823195457,0.0019516065949574113,-0.013481545262038708,0.011846199631690979,-0.0004126116691622883,0.017103277146816254
0.019920116290450096,0.0020211185328662395,-0.013055325485765934,0.01175906416028738,-0.0004170635074842721,0.016965264454483986
0.019716503098607063,0.002201313152909279,-0.013346514664590359,0.011331310495734215,-0.00041836523450911045,0.017296355217695236
0.01955360732972622,0.0024377144873142242,-0.013289585709571838,0.012237964197993279,-0.0004381367762107402,0.017962731420993805
0.020082581788301468,0.0023023923859000206,-0.013706907629966736,0.011555353179574013,-0.0004236833192408085,0.016616197302937508
0.020216412842273712,0.002161982236430049,-0.013090401887893677,0.011620649136602879,-0.00043974388972856104,0.016454163938760757
0.0197177454829216,0.0019962487276643515,-0.013560013845562935,0.011927061714231968,-0.00042680141632445157,0.016749480739235878
0.0202004574239254,0.002010843949392438,-0.013349360786378384,0.011236313730478287,-0.0005186583148315549,0.016875838860869408
0.020275339484214783,0.0023223732132464647,-0.012783769518136978,0.012001504190266132,-0.0005487008602358401,0.016902094706892967
0.0197225883603096,0.0025968309491872787,-0.013552911579608917,0.011468403041362762,-0.0005397296627052128,0.0175262950360775
0.019856123253703117,0.0025253689382225275,-0.01319541223347187,0.011610561981797218,-0.0005536205717362463,0.017753947526216507
0.020384980365633965,0.0026560183614492416,-0.013696215115487576,0.011809359304606915,-0.0005261533078737557,0.017322462052106857
0.02086099237203598,0.0023582191206514835,-0.013143534772098064,0.01157822459936142,-0.0004867053357884288,0.017626671120524406
0.02025947906076908,0.0022194497287273407,-0.013695296831429005,0.011818338185548782,-0.00045185236376710236,0.017238711938261986
0.020706407725811005,0.00232885405421257,-0.013178645633161068,0.011568218469619751,-0.0004776120185852051,0.016857273876667023
0.02012181095778942,0.002262386027723551,-0.013516453094780445,0.0116147855296731,-0.00045131449587643147,0.01714823767542839
0.017532603815197945,0.002416508737951517,-0.013240102678537369,0.012106498703360558,-0.00042490617488510907,0.017348363995552063
0.021522928029298782,0.002264684531837702,-0.013769888319075108,0.011997819878160954,-0.00040123422513715923,0.017876679077744484
0.021331321448087692,0.002176998881623149,-0.013367189094424248,0.012635132297873497,-0.0003880668373312801,0.01794428937137127
0.02068266086280346,0.0022885343059897423,-0.013375546783208847,0.012315314263105392,-0.0003660678630694747,0.017518024891614914
0.020277759060263634,0.002160857431590557,-0.013176556676626205,0.01197355892509222,-0.0003390893107280135,0.017835695296525955
0.020896799862384796,0.002203199779614806,-0.013634336180984974,0.011402742937207222,-0.00034561959910206497,0.01822250336408615
0.02078533172607422,0.002506896387785673,-0.013408096507191658,0.0123353973031044,-0.0003313586057629436,0.0183129720389843
0.02069348469376564,0.002497058594599366,-0.013740019872784615,0.011258488520979881,-0.00033799876109696925,0.017981236800551414
0.02106311544775963,0.002435434376820922,-0.013094985857605934,0.011866316199302673,-0.00034304684959352016,0.017732268199324608
0.02106311544775963,0.002435434376820922,-0.013094985857605934,0.011866316199302673,-0.00034304684959352016,0.017732268199324608
0.02044721134006977,0.0026427023112773895,-0.01358511671423912,0.011705695651471615,-0.0003495618875604123,0.017205404117703438
0.02025291882455349,0.002504809759557247,-0.013032419607043266,0.011851942166686058,-0.0003535928262863308,0.017782062292099
0.02094496600329876,0.002361748833209276,-0.013881017453968525,0.012033684179186821,-0.0003387753968127072,0.017849894240498543
0.021436812356114388,0.0023828947450965643,-0.013563690707087517,0.011676226742565632,-0.0003991174162365496,0.01741126924753189
0.021240409463644028,0.002467528684064746,-0.013803096488118172,0.012744654901325703,-0.00037203397369012237,0.01789185218513012
0.021044829860329628,0.002318618819117546,-0.013462911359965801,0.012142905034124851,-0.00034396379487589,0.017961900681257248
0.021386846899986267,0.002528115641325712,-0.014057754538953304,0.012188568711280823,-0.00031954521546140313,0.017781423404812813
0.02127964235842228,0.0027707507833838463,-0.013492623344063759,0.012078673578798771,-0.0002983478188980371,0.017757786437869072
0.021174460649490356,0.0026166050229221582,-0.013944096863269806,0.011924375779926777,-0.000331847375491634,0.017749326303601265
0.021474387496709824,0.002319998573511839,-0.014004379510879517,0.01253996416926384,-0.0003158290346618742,0.018272722139954567
0.02182086557149887,0.002200648421421647,-0.013849391601979733,0.011912867426872253,-0.0003352669009473175,0.01830669865012169
0.021606845781207085,0.0024888822808861732,-0.013568815775215626,0.012232995592057705,-0.00032924808328971267,0.01824931427836418
0.02141525223851204,0.00292377476580441,-0.013793453574180603,0.01244373619556427,-0.00031360695720650256,0.017507391050457954
0.021629227325320244,0.0030281359795480967,-0.013926276937127113,0.012018132023513317,-0.0002987791667692363,0.017751488834619522
0.021815234795212746,0.0027558987494558096,-0.013806620612740517,0.01207733154296875,-0.00032321366597898304,0.018096182495355606
0.02219066582620144,0.0026015827897936106,-0.013989599421620369,0.011531755328178406,-0.0003116944571956992,0.01843792386353016
0.022301966324448586,0.0023120299447327852,-0.013391874730587006,0.012253554537892342,-0.0002989135682582855,0.018150707706809044
0.021616607904434204,0.0023911381140351295,-0.013668633997440338,0.012176607735455036,-0.00029882826493121684,0.018446216359734535
0.0218949057161808,0.002348583424463868,-0.013871220871806145,0.012300411239266396,-0.00028467096854001284,0.018470408394932747
0.022017717361450195,0.002548339543864131,-0.014095080085098743,0.011853371746838093,-0.0003075087442994118,0.018282663077116013
0.022073321044445038,0.0027365651912987232,-0.01359338779002428,0.011692320927977562,-0.0003026386839337647,0.01835467293858528
0.02174322120845318,0.002738464390859008,-0.014253823086619377,0.012186367064714432,-0.00028733996441587806,0.018435761332511902
0.02200952358543873,0.002415724564343691,-0.013889850117266178,0.012119374237954617,-0.0003122393100056797,0.01869991235435009
0.02221030555665493,0.002481269184499979,-0.01418540719896555,0.012245725840330124,-0.00030263353255577385,0.018895085901021957
0.02249901555478573,0.002707020379602909,-0.013463570736348629,0.01179016474634409,-0.0003092750848736614,0.0188392773270607
0.022093208506703377,0.0028829665388911963,-0.013600271195173264,0.011906130239367485,-0.00030255087767727673,0.018758082762360573
0.02253393456339836,0.0028824852779507637,-0.014479351229965687,0.011617681942880154,-0.0004133207257837057,0.018446024507284164
0.02285964973270893,0.0027127335779368877,-0.013808776624500751,0.011836527846753597,-0.0004636696248780936,0.018362708389759064
0.02285964973270893,0.0027127335779368877,-0.013808776624500751,0.011836527846753597,-0.0004636696248780936,0.018362708389759064
0.022179460152983665,0.002714278642088175,-0.014286186546087265,0.012024220079183578,-0.00043666790588758886,0.018602250143885612
0.022027181461453438,0.00262841721996665,-0.013583156280219555,0.012139549478888512,-0.0004372939874883741,0.019158484414219856
0.02273094467818737,0.002968346467241645,-0.014480039477348328,0.012446117587387562,-0.00043690172606147826,0.019149867817759514
0.02264607697725296,0.003039959818124771,-0.013982299715280533,0.012312032282352448,-0.0004535329935606569,0.018861809745430946
0.022882385179400444,0.0029111672192811966,-0.014690831303596497,0.012536467052996159,-0.0004394460120238364,0.0184446070343256
0.022817276418209076,0.0027414695359766483,-0.014299090951681137,0.012307313270866871,-0.0005378377973102033,0.018418101593852043
0.02209220826625824,0.0027934499084949493,-0.014872587285935879,0.012826615013182163,-0.0005179585423320532,0.018636221066117287
0.02321958728134632,0.00286590913310647,-0.014539954252541065,0.012613818049430847,-0.0005472485208883882,0.018605461344122887
0.02328176237642765,0.002687187399715185,-0.01515074074268341,0.012775104492902756,-0.0005797683843411505,0.019144268706440926
0.023136980831623077,0.002612238982692361,-0.014429292641580105,0.013052207417786121,-0.0005406084237620234,0.01950429007411003
0.022854778915643692,0.0027382078114897013,-0.01503602135926485,0.01289436500519514,-0.0005599260912276804,0.018644660711288452
0.023206224665045738,0.002549034310504794,-0.014391928911209106,0.012965679168701172,-0.0005273105343803763,0.018677152693271637
0.02251361310482025,0.0026293687988072634,-0.015365175902843475,0.012721073813736439,-0.0005479824612848461,0.018605614081025124
0.022235210984945297,0.0026836255565285683,-0.01498371921479702,0.012845435179769993,-0.0005385791882872581,0.019368436187505722
0.022734861820936203,0.0027561343740671873,-0.015253102406859398,0.01228916086256504,-0.0005307745304889977,0.019466882571578026
0.023397592827677727,0.00276765413582325,-0.014868000522255898,0.012517505325376987,-0.0005215382552705705,0.01925632730126381
0.022403106093406677,0.002556844148784876,-0.015111480839550495,0.012619424611330032,-0.0004780819290317595,0.018607601523399353
0.023252656683325768,0.002611565636470914,-0.01499324943870306,0.012689108960330486,-0.0004930474678985775,0.018397774547338486
0.023703785613179207,0.0028066348750144243,-0.01503074076026678,0.012697984464466572,-0.0005055039655417204,0.01910995878279209
0.023703785613179207,0.0028066348750144243,-0.01503074076026678,0.012697984464466572,-0.0005055039655417204,0.01910995878279209
0.022881805896759033,0.0028503849171102047,-0.01567932963371277,0.012525801546871662,-0.0005100080743432045,0.019454030320048332
0.022807057946920395,0.002651437884196639,-0.01533427368849516,0.012850048951804638,-0.000532892532646656,0.019633160904049873
0.02264522574841976,0.002507825382053852,-0.015617807395756245,0.012609454803168774,-0.0005577438278123736,0.019725576043128967
0.023190002888441086,0.002852504840120673,-0.015014263801276684,0.013392939232289791,-0.0005759742925874889,0.0198343675583601
0.023424837738275528,0.002972634509205818,-0.015517708845436573,0.01321889366954565,-0.0005533667863346636,0.019257886335253716
0.02330663800239563,0.002593699377030134,-0.015020702965557575,0.013211006298661232,-0.000712178647518158,0.019332244992256165
0.02330663800239563,0.002593699377030134,-0.015020702965557575,0.013211006298661232,-0.000712178647518158,0.019332244992256165
0.02352037839591503,0.002611256204545498,-0.015994828194379807,0.013260789215564728,-0.0007452883874066174,0.01945391111075878
0.023435398936271667,0.002453492023050785,-0.015706485137343407,0.012316271662712097,-0.0007152266916818917,0.019475851207971573
0.02340100146830082,0.002546722302213311,-0.01563054509460926,0.012192146852612495,-0.000685051956679672,0.019651437178254128
0.023284176364541054,0.0027102262247353792,-0.014077865518629551,0.012053145095705986,-0.0006969308597035706,0.01988089457154274
0.02341369166970253,0.003141039051115513,-0.016183050349354744,0.013070769608020782,-0.0006450044456869364,0.019667569547891617
0.02349526807665825,0.0027993556577712297,-0.01663651503622532,0.013176844455301762,-0.0006304242997430265,0.01986086182296276
0.024160102009773254,0.0025331357028335333,-0.015647174790501595,0.013347316533327103,-0.0005674154963344336,0.02026226557791233
0.023791708052158356,0.0026481670793145895,-0.01573149673640728,0.013066225685179234,-0.0005047416198067367,0.019994551315903664
0.023270219564437866,0.0029031818266958,-0.015484892763197422,0.012780983000993729,-0.0005201598978601396,0.019750826060771942
0.02301209047436714,0.003037631744518876,-0.016530027613043785,0.012719620950520039,-0.0004930482245981693,0.01991335302591324
0.023239903151988983,0.0027864770963788033,-0.015521585009992123,0.01258558128029108,-0.0005083588766865432,0.020338959991931915
0.023872135207057,0.0026909224689006805,-0.015665166079998016,0.013233658857643604,-0.0004863286158069968,0.0202882569283247
0.023933416232466698,0.0023519108071923256,-0.015427282080054283,0.012474613264203072,-0.000508328783325851,0.02025722712278366
0.022899238392710686,0.002402327489107847,-0.0159749798476696,0.013873955234885216,-0.00048197529395110905,0.020442819222807884
0.024374544620513916,0.0026796383317559958,-0.016111096367239952,0.013799050822854042,-0.00047219471889548004,0.020582042634487152
0.024307575076818466,0.00289720855653286,-0.015479670837521553,0.013601051643490791,-0.0005098601686768234,0.020693087950348854
0.0241580568253994,0.0027689228300005198,-0.015899356454610825,0.012896488420665264,-0.0005338324117474258,0.020768146961927414
0.02408577874302864,0.0026759582106024027,-0.016021400690078735,0.013011611066758633,-0.0005093413637951016,0.020778462290763855
0.024237649515271187,0.002539553912356496,-0.016545139253139496,0.01322475541383028,-0.0005350802675820887,0.020846372470259666
0.02419252134859562,0.0023940280079841614,-0.015591727569699287,0.013553782366216183,-0.0005019273376092315,0.020935414358973503
0.02399994619190693,0.002517132554203272,-0.016012467443943024,0.013508699834346771,-0.0006597977480851114,0.02074875310063362
0.02505030669271946,0.0027469054330140352,-0.015940196812152863,0.013090169057250023,-0.0006015429389663041,0.02033749222755432
0.024484019726514816,0.0027285704854875803,-0.016011063009500504,0.013258651830255985,-0.0005322304787114263,0.020747406408190727
0.024454325437545776,0.0027110441587865353,-0.016033699735999107,0.013526255264878273,-0.0004933524178341031,0.02126578986644745
0.0241454616189003,0.0027235965244472027,-0.01657429337501526,0.012747333385050297,-0.00046981486957520247,0.021108070388436317
0.024724649265408516,0.002613625256344676,-0.01638505980372429,0.013545863330364227,-0.00043335510417819023,0.02128656767308712
0.025127483531832695,0.0028754922095686197,-0.01692795194685459,0.013035150244832039,-0.00043363243457861245,0.021173812448978424
0.024736177176237106,0.003009938867762685,-0.016022616997361183,0.013293624855577946,-0.0004334444529376924,0.021363768726587296
0.024827297776937485,0.003229039954021573,-0.016562141478061676,0.01347037311643362,-0.0004073485324624926,0.021321717649698257
0.025788092985749245,0.0031737559475004673,-0.016370944678783417,0.013346374966204166,-0.0004299915162846446,0.021379929035902023
0.02540936879813671,0.003036189591512084,-0.016355745494365692,0.013117233291268349,-0.00041185584268532693,0.02150738053023815
0.02540936879813671,0.003036189591512084,-0.016355745494365692,0.013117233291268349,-0.00041185584268532693,0.02150738053023815
0.026043754070997238,0.0030265850946307182,-0.01633387990295887,0.012865044176578522,-0.000389965163776651,0.022345466539263725
0.02492254041135311,0.003080968279391527,-0.016070878133177757,0.01356224250048399,-0.000337016157573089,0.020864194259047508
0.0252810250967741,0.0030215654987841845,-0.016803089529275894,0.013576135039329529,-0.0003098765155300498,0.020923374220728874
0.025923948734998703,0.0031103952787816525,-0.016191720962524414,0.013645067811012268,-0.0003435454564169049,0.021734114736318588
0.02611795999109745,0.003264274448156357,-0.01652110181748867,0.013259954750537872,-0.0003663589886855334,0.02234949730336666
0.02574770525097847,0.0029602190479636192,-0.01619661971926689,0.013844151049852371,-0.0003582774370443076,0.022367015480995178
0.02594718337059021,0.0030476388055831194,-0.016745390370488167,0.013292516581714153,-0.0003849811328109354,0.021258847787976265
0.02600599080324173,0.0029942865949124098,-0.016729995608329773,0.01390860229730606,-0.0005813589668832719,0.02085796743631363
0.02586917206645012,0.003370196558535099,-0.016356253996491432,0.01321686152368784,-0.000661637750454247,0.02147194743156433
0.026149826124310493,0.0032050716690719128,-0.016847053542733192,0.013264426961541176,-0.000616470817476511,0.02225230447947979
0.02626187726855278,0.003106890944764018,-0.01632952131330967,0.012779491022229195,-0.0006408122135326266,0.02206088975071907
0.026270072907209396,0.0030753216706216335,-0.016780396923422813,0.013669486157596111,-0.0006590363336727023,0.02162957936525345
0.02713603340089321,0.0031490169931203127,-0.01659277454018593,0.013641214929521084,-0.0007176499348133802,0.02182270772755146
0.026632005348801613,0.0035008166451007128,-0.016607630997896194,0.013010282069444656,-0.0007067514816299081,0.023364193737506866
0.02672344073653221,0.0033069918863475323,-0.016987331211566925,0.013345381245017052,-0.0007220786064863205,0.02322462759912014
0.02632845565676689,0.003505552187561989,-0.016523689031600952,0.01333044096827507,-0.0006497356225736439,0.02241170033812523
0.026440434157848358,0.0032405073288828135,-0.01730339415371418,0.014074893668293953,-0.0006513536791317165,0.021496504545211792
0.026676585897803307,0.0034601923543959856,-0.016969598829746246,0.01421488355845213,-0.0006099747261032462,0.021296650171279907
0.027168655768036842,0.003234472591429949,-0.017519595101475716,0.014055375009775162,-0.0006032962119206786,0.023122984915971756
0.02701639011502266,0.003310040570795536,-0.017286820337176323,0.01464327983558178,-0.0005524219013750553,0.023107288405299187
0.02667985111474991,0.0035716844722628593,-0.017867712303996086,0.013765327632427216,-0.0005847360007464886,0.022780494764447212
0.0271267369389534,0.003378947963938117,-0.016866952180862427,0.013958770781755447,-0.0005980362766422331,0.022391365841031075
0.027442894876003265,0.003554639872163534,-0.017048154026269913,0.01379997655749321,-0.0005647994694299996,0.02240440621972084
0.027385178953409195,0.003274703398346901,-0.017532169818878174,0.013948466628789902,-0.0005195239209569991,0.02253265678882599
0.027598625048995018,0.0029717099387198687,-0.017344510182738304,0.013035309500992298,-0.0005437170621007681,0.02234640158712864
0.027430366724729538,0.00306975026614964,-0.017874956130981445,0.013355559669435024,-0.0005093893851153553,0.02266608364880085
0.028064541518688202,0.0033220723271369934,-0.017217103391885757,0.013150828890502453,-0.00047756038838997483,0.022872798144817352
0.028093388304114342,0.003613486187532544,-0.017795395106077194,0.01365557312965393,-0.0004927304107695818,0.022675255313515663
0.02817133627831936,0.003704868257045746,-0.018102260306477547,0.013450995087623596,-0.0004480612406041473,0.02258261665701866
0.02817133627831936,0.003704868257045746,-0.018102260306477547,0.013450995087623596,-0.0004480612406041473,0.02258261665701866
0.02845102734863758,0.0033174091950058937,-0.016985196620225906,0.013828590512275696,-0.0004833965504076332,0.023122437298297882
0.028546040877699852,0.003487830748781562,-0.017872290685772896,0.0140167735517025,-0.0005030303727835417,0.023413758724927902
0.028097115457057953,0.0032821090426295996,-0.01829582080245018,0.014310827478766441,-0.0005325283855199814,0.023331649601459503
0.028176547959446907,0.003466961905360222,-0.017899040132761,0.013713707216084003,-0.0006274207844398916,0.023540930822491646
0.029171429574489594,0.0036925864405930042,-0.01835107058286667,0.013711721636354923,-0.0007123125251382589,0.02364376001060009
0.029832372441887856,0.0033345797564834356,-0.01757643185555935,0.014177381061017513,-0.0006845432799309492,0.023516617715358734
0.028544943779706955,0.00339509267359972,-0.017641471698880196,0.014886526390910149,-0.0007054770248942077,0.023436017334461212
0.027467412874102592,0.0035021649673581123,-0.01776561699807644,0.01501606497913599,-0.0007070162682794034,0.023122532293200493
0.028996353968977928,0.003541601123288274,-0.017422309145331383,0.014917469583451748,-0.000662859296426177,0.02309325709939003
0.029218560084700584,0.003448127768933773,-0.018068775534629822,0.014472904615104198,-0.0006116268341429532,0.023374339565634727
0.02827564999461174,0.003475812030956149,-0.01793845370411873,0.014525458216667175,-0.0006335904472507536,0.022988276556134224
0.029122672975063324,0.003413490252569318,-0.017903560772538185,0.014628445729613304,-0.0006152804126031697,0.022966986522078514
0.029962677508592606,0.0034722827840596437,-0.01802178844809532,0.015043027698993683,-0.0006435770192183554,0.02333245426416397
0.02945970743894577,0.003321535885334015,-0.017393426969647408,0.014630180783569813,-0.0006257750210352242,0.023895157501101494
0.028541477397084236,0.0033814446069300175,-0.017980895936489105,0.01461849082261324,-0.0006423462764360011,0.023860305547714233
0.029711520299315453,0.0033511968795210123,-0.01746942475438118,0.01594606228172779,-0.0005970632191747427,0.02272370271384716
0.02918040193617344,0.0032564548309892416,-0.017703289166092873,0.015177193097770214,-0.000568374409340322,0.022314662113785744
0.029575690627098083,0.003299450734630227,-0.017907962203025818,0.015439426526427269,-0.0005072770291008055,0.023482879623770714
0.029400957748293877,0.003401866415515542,-0.01827874779701233,0.014593579806387424,-0.00045599250006489456,0.023933833464980125
0.029333729296922684,0.0035986131988465786,-0.018219206482172012,0.014818397350609303,-0.00041399631300009787,0.02378765493631363
0.02938912808895111,0.0034057949669659138,-0.017277294769883156,0.014954023994505405,-0.0004346703353803605,0.024253273382782936
0.029647070914506912,0.003516062628477812,-0.017862005159258842,0.015260323882102966,-0.0004182037082500756,0.02433987893164158
0.029647070914506912,0.003516062628477812,-0.017862005159258842,0.015260323882102966,-0.0004182037082500756,0.02433987893164158
0.0298190675675869,0.004113936331123114,-0.01809147372841835,0.014461686834692955,-0.0003891737724188715,0.024235546588897705
0.029402978718280792,0.003574352478608489,-0.018066124990582466,0.015030290931463242,-0.0003948508820030838,0.022675449028611183
0.029402978718280792,0.003574352478608489,-0.018066124990582466,0.015030290931463242,-0.0003948508820030838,0.022675449028611183
0.02966386079788208,0.0033690258860588074,-0.017600812017917633,0.014881258830428123,-0.00041250354843214154,0.023231128230690956
0.029684869572520256,0.0034031765535473824,-0.017713377252221107,0.014349143952131271,-0.0004018779727630317,0.024171369150280952
0.029421575367450714,0.0036372484173625708,-0.018170353025197983,0.014534936286509037,-0.00037473507109098136,0.02462322823703289
0.029500165954232216,0.0037119861226528883,-0.0171989593654871,0.014498913660645485,-0.0004102693928871304,0.024380221962928772
0.02972233109176159,0.0036706198006868362,-0.0179820004850626,0.014656363986432552,-0.0008032917976379395,0.024410506710410118
0.02972233109176159,0.0036706198006868362,-0.0179820004850626,0.014656363986432552,-0.0008032917976379395,0.024410506710410118
0.03052135929465294,0.0037472189869731665,-0.018368322402238846,0.014367866329848766,-0.0009143049246631563,0.024635102599859238
0.0309981070458889,0.003278904827311635,-0.017787739634513855,0.014567079022526741,-0.0008037155494093895,0.02465740032494068
0.030011169612407684,0.0032878529746085405,-0.017978457733988762,0.014366700313985348,-0.0008088683825917542,0.02458208240568638
0.028714949265122414,0.0033286078833043575,-0.017899533733725548,0.014632468111813068,-0.0007725990726612508,0.024453703314065933
0.02939584292471409,0.0035245383623987436,-0.017671963199973106,0.014865322969853878,-0.0007381067262031138,0.02471892163157463
0.030443837866187096,0.0037051497492939234,-0.017772899940609932,0.014855981804430485,-0.0007022961508482695,0.024852631613612175
0.03010525554418564,0.003788747126236558,-0.018029427155852318,0.015221263282001019,-0.0006737468647770584,0.02495637722313404
0.03016575053334236,0.003920605406165123,-0.018572695553302765,0.01638779230415821,-0.0006455653929151595,0.024678951129317284
0.030461151152849197,0.0034766560420393944,-0.01872488111257553,0.014531001448631287,-0.0006260530790314078,0.025217927992343903
0.03077443689107895,0.003579688025638461,-0.01784563437104225,0.013837352395057678,-0.0006075542187318206,0.023946544155478477
0.029680104926228523,0.0039659724570810795,-0.018919216468930244,0.014307841658592224,-0.0006315512000583112,0.024741269648075104
0.030658787116408348,0.0035187744069844484,-0.017841840162873268,0.014699431136250496,-0.0005976554821245372,0.024903686717152596
0.031214751303195953,0.0041313194669783115,-0.0184472743421793,0.014912234619259834,-0.0006076892022974789,0.025014786049723625
0.030931100249290466,0.0041685570031404495,-0.018593337386846542,0.015279554761946201,-0.0005675954162143171,0.025118721649050713
0.030879944562911987,0.004052320960909128,-0.018694942817091942,0.015130259096622467,-0.0005149700446054339,0.02504158951342106
0.03073473647236824,0.0040161688812077045,-0.018773725256323814,0.01564294658601284,-0.0005377104389481246,0.025263337418437004
0.03073473647236824,0.0040161688812077045,-0.018773725256323814,0.01564294658601284,-0.0005377104389481246,0.025263337418437004
0.030525051057338715,0.003981431946158409,-0.019518712535500526,0.015339069999754429,-0.0005387543933466077,0.025011956691741943
0.03101157583296299,0.0037003071047365665,-0.01901271939277649,0.015525124967098236,-0.0005313861765898764,0.025162044912576675
0.030833272263407707,0.004182927310466766,-0.018618114292621613,0.015699224546551704,-0.0005674139247275889,0.02495730295777321
0.030833272263407707,0.004182927310466766,-0.018618114292621613,0.015699224546551704,-0.0005674139247275889,0.02495730295777321
0.031295206397771835,0.004179922863841057,-0.018503645434975624,0.014795820228755474,-0.0005340568022802472,0.0250997357070446
0.031054124236106873,0.004068930633366108,-0.01895228773355484,0.014643372967839241,-0.0005627133650705218,0.025178056210279465
0.03169478103518486,0.004094626754522324,-0.01927635446190834,0.01429243478924036,-0.000585385481826961,0.02516048774123192
0.030422767624258995,0.004020635038614273,-0.018824465572834015,0.014929385855793953,-0.0007266511674970388,0.025121750310063362
0.032061927020549774,0.0038868251722306013,-0.0186704583466053,0.014886924996972084,-0.0007946172845549881,0.024994123727083206
0.031887393444776535,0.003897764254361391,-0.018993891775608063,0.015347162261605263,-0.0008113004150800407,0.025340281426906586
0.031707827001810074,0.003974519670009613,-0.019200516864657402,0.01500594150274992,-0.0007820938481017947,0.026156114414334297
0.03177553415298462,0.004031754564493895,-0.01997270993888378,0.01519368402659893,-0.0007467353716492653,0.02653788961470127
0.03190256655216217,0.00401106895878911,-0.019630050286650658,0.01513602677732706,-0.0006867149495519698,0.025238018482923508
0.0321211963891983,0.003887699916958809,-0.01934822089970112,0.015181743539869785,-0.0006864821771159768,0.024803347885608673
0.03199701011180878,0.003891543485224247,-0.019600508734583855,0.015200973488390446,-0.0007127833086997271,0.025625085458159447
0.032191626727581024,0.003968486096709967,-0.01878373697400093,0.015096520073711872,-0.0007137021166272461,0.026360563933849335
0.03267643228173256,0.003932341001927853,-0.018900293856859207,0.015235350467264652,-0.0006626943359151483,0.02618936449289322
0.03283701837062836,0.00390802463516593,-0.019394930452108383,0.015329033136367798,-0.0006638094200752676,0.025913681834936142
0.03298197314143181,0.0035962078254669905,-0.019116654992103577,0.015481230802834034,-0.0005766907124780118,0.02662687748670578
0.03252021223306656,0.0037331527564674616,-0.019618183374404907,0.015973832458257675,-0.0005451402976177633,0.024784980341792107
0.03252021223306656,0.0037331527564674616,-0.019618183374404907,0.015973832458257675,-0.0005451402976177633,0.024784980341792107
0.03275394067168236,0.0037337802350521088,-0.01968962512910366,0.01527143083512783,-0.0005003968253731728,0.02524372562766075
0.032641272991895676,0.004143815487623215,-0.018786197528243065,0.016023069620132446,-0.0004946400877088308,0.026333104819059372
0.03359966352581978,0.004278123378753662,-0.019329722970724106,0.015553899109363556,-0.0004890586715191603,0.026801666244864464
0.03428742662072182,0.00408168276771903,-0.019982988014817238,0.01582452282309532,-0.00045077313552610576,0.026911944150924683
0.032482560724020004,0.003455218393355608,-0.019373197108507156,0.015446238219738007,-0.0004806305223610252,0.026192856952548027
0.03232378140091896,0.0035188128240406513,-0.019458098337054253,0.015784524381160736,-0.00048170125228352845,0.025976920500397682
0.03343167155981064,0.004261056426912546,-0.019325148314237595,0.015863224864006042,-0.00047856857418082654,0.02584584429860115
0.03311356529593468,0.00420362688601017,-0.01922636665403843,0.015647854655981064,-0.0005286610685288906,0.025849463418126106
0.033681418746709824,0.0039838990196585655,-0.01977570541203022,0.015580701641738415,-0.0004981191013939679,0.026004696264863014
0.034447986632585526,0.003901472082361579,-0.0199758131057024,0.015263463370501995,-0.00045007216976955533,0.025954555720090866
0.03401963412761688,0.004366029519587755,-0.019186869263648987,0.015848549082875252,-0.00048517974209971726,0.02615904062986374
0.03307667002081871,0.004239048343151808,-0.019392168149352074,0.015791086480021477,-0.00048598513239994645,0.026299722492694855
0.03294781967997551,0.003992634359747171,-0.01984127052128315,0.016451086848974228,-0.000482117262436077,0.02616579458117485
0.0339539609849453,0.003579028183594346,-0.019356761127710342,0.01580410823225975,-0.00048104807501658797,0.026406750082969666
0.03264477849006653,0.0034761198330670595,-0.019333042204380035,0.015912754461169243,-0.00047782956971786916,0.026519136503338814
0.033964142203330994,0.004084340296685696,-0.019506560638546944,0.015301655046641827,-0.00044984539272263646,0.02632390707731247
0.034602805972099304,0.0041745565831661224,-0.01932981051504612,0.015140864998102188,-0.00047234215890057385,0.026378421112895012
0.034035906195640564,0.004037345293909311,-0.01968551240861416,0.015466338023543358,-0.0005104320007376373,0.026255683973431587
0.03337598964571953,0.003943964838981628,-0.019859928637742996,0.015800394117832184,-0.0005343946977518499,0.026054954156279564
0.034064508974552155,0.0038761768955737352,-0.019170179963111877,0.01612839661538601,-0.0005098402034491301,0.026505110785365105
0.033566419035196304,0.003866217564791441,-0.01968800276517868,0.015824776142835617,-0.0005055216606706381,0.026928335428237915
0.033667631447315216,0.0038882705848664045,-0.02024632692337036,0.015826312825083733,-0.0005003898986615241,0.026911452412605286
0.03395194560289383,0.0038305590860545635,-0.020464038476347923,0.015236730687320232,-0.0005707004456780851,0.026916654780507088
0.03373342007398605,0.003538097720593214,-0.0196545273065567,0.016024094074964523,-0.0005917082889936864,0.0267175305634737
0.03359002247452736,0.004178606905043125,-0.019884539768099785,0.016686847433447838,-0.0005659759626723826,0.02815151773393154
0.03359002247452736,0.004178606905043125,-0.019884539768099785,0.016686847433447838,-0.0005659759626723826,0.02815151773393154
0.035265274345874786,0.003821012331172824,-0.019976243376731873,0.015489768236875534,-0.0005457622464746237,0.027208833023905754
0.03360132500529289,0.0037182969972491264,-0.02078968659043312,0.01493761781603098,-0.0005702127236872911,0.026549769565463066
0.03360132500529289,0.0037182969972491264,-0.02078968659043312,0.01493761781603098,-0.0005702127236872911,0.026549769565463066
0.03371519222855568,0.0038191110361367464,-0.020548952743411064,0.014964563772082329,-0.0005754585727117956,0.026943419128656387
0.034849558025598526,0.003591239219531417,-0.020195569843053818,0.015308449976146221,-0.0006024043541401625,0.027640458196401596
0.03447489067912102,0.0035960134118795395,-0.020854316651821136,0.01553327776491642,-0.0005869469605386257,0.026813389733433723
0.03572815656661987,0.003977203741669655,-0.02093646489083767,0.016066407784819603,-0.00059720897115767,0.02717284858226776
0.035475656390190125,0.004116687923669815,-0.020929161459207535,0.01596728153526783,-0.000563911919016391,0.028491955250501633
0.03441892936825752,0.0038737093564122915,-0.021379750221967697,0.016183052211999893,-0.0005876086070202291,0.027341827750205994
0.033447571098804474,0.0036229616962373257,-0.02145426906645298,0.01564178615808487,-0.0006342253764159977,0.02714884653687477
0.035324472934007645,0.003621001960709691,-0.020416991785168648,0.015906915068626404,-0.0006887353374622762,0.026706751435995102
0.03548401594161987,0.0037459246814250946,-0.020702417939901352,0.01564295031130314,-0.0006629219278693199,0.027010364457964897
0.03461824730038643,0.0042025246657431126,-0.021209904924035072,0.01574346050620079,-0.0006788598839193583,0.028295375406742096
0.03500153124332428,0.0036847193259745836,-0.021712275221943855,0.015772918239235878,-0.0007001258782111108,0.028382504358887672
0.034640468657016754,0.0034707707818597555,-0.021017437800765038,0.015770763158798218,-0.0007952402229420841,0.027869686484336853
0.0352853424847126,0.004198641981929541,-0.020864401012659073,0.01613941788673401,-0.0009228011476807296,0.027817215770483017
0.03466523811221123,0.0041960752569139,-0.021175984293222427,0.01581430621445179,-0.0009582727216184139,0.02758394554257393
0.034743450582027435,0.003946842160075903,-0.021574992686510086,0.016340885311365128,-0.0008805955294519663,0.027171125635504723
0.03454669937491417,0.0038101011887192726,-0.021139807999134064,0.01594967022538185,-0.0009824149310588837,0.027592554688453674
0.03482593968510628,0.0037737444508820772,-0.021232301369309425,0.016244232654571533,-0.0009736036881804466,0.028146961703896523
0.03534283861517906,0.0033994989935308695,-0.02134506031870842,0.016454340890049934,-0.0009527873480692506,0.02798791229724884
0.03545517101883888,0.0033444364089518785,-0.021187299862504005,0.016814928501844406,-0.0008993185474537313,0.02810780331492424
0.03526303917169571,0.003526772605255246,-0.021162601187825203,0.016884494572877884,-0.0008455141796730459,0.028371283784508705
0.03493141010403633,0.0037650554440915585,-0.021709691733121872,0.016015350818634033,-0.0007623894489370286,0.02829466387629509
0.034802019596099854,0.004209208767861128,-0.022305509075522423,0.016206607222557068,-0.0007685698801651597,0.028066324070096016
0.035896264016628265,0.0034828928764909506,-0.021120034158229828,0.017021330073475838,-0.0007832458941265941,0.02853807993233204
0.035752199590206146,0.003589815925806761,-0.02163033001124859,0.016797251999378204,-0.0008361913496628404,0.028253663331270218
0.03545447066426277,0.0035993673373013735,-0.02183772623538971,0.016477316617965698,-0.0007967579877004027,0.028607115149497986
0.03570830821990967,0.0035476454067975283,-0.022061461582779884,0.016600430011749268,-0.0008088609902188182,0.028694653883576393
0.03570830821990967,0.0035476454067975283,-0.022061461582779884,0.016600430011749268,-0.0008088609902188182,0.028694653883576393
0.03571316599845886,0.0035649545025080442,-0.0211381483823061,0.01611873134970665,-0.0007108685094863176,0.028372811153531075
0.035578902810811996,0.0036763353273272514,-0.02184973657131195,0.01646891050040722,-0.0006787097081542015,0.02886241488158703
0.03578535094857216,0.003537704236805439,-0.021731818094849586,0.01637846603989601,-0.0006531726103276014,0.02888670563697815
0.03609975799918175,0.0035989005118608475,-0.02160235494375229,0.016648149117827415,-0.0005944224540144205,0.02904783934354782
0.03558929264545441,0.003944422118365765,-0.022013388574123383,0.016271837055683136,-0.000568963005207479,0.029462002217769623
0.03558929264545441,0.003944422118365765,-0.022013388574123383,0.016271837055683136,-0.000568963005207479,0.029462002217769623
0.035267867147922516,0.0037629713770002127,-0.02193688414990902,0.016464170068502426,-0.0005108509212732315,0.029032431542873383
0.03729790076613426,0.0036474554799497128,-0.021640805527567863,0.016295505687594414,-0.00044729383080266416,0.029068617150187492
0.03701500594615936,0.003689524019137025,-0.02079801820218563,0.01677703484892845,-0.0004814082058146596,0.030112383887171745
0.03477942943572998,0.00433149142190814,-0.021148979663848877,0.016148781403899193,-0.0005156088736839592,0.029531696811318398
0.035123106092214584,0.004199380520731211,-0.021945254877209663,0.01645931415259838,-0.0005485440487973392,0.02825343795120716
0.036515042185783386,0.003931643441319466,-0.0217240322381258,0.016510436311364174,-0.0009894678369164467,0.028113823384046555
0.036691077053546906,0.0038027323316782713,-0.02097972482442856,0.01639447547495365,-0.0010195624781772494,0.02875174582004547
0.03724736347794533,0.0043512131087481976,-0.02142222598195076,0.016803091391921043,-0.0008957948302850127,0.029461584985256195
0.036873552948236465,0.004204598721116781,-0.021758990362286568,0.016827566549181938,-0.0007852611597627401,0.028992528095841408
0.035563874989748,0.00359175237827003,-0.02167063020169735,0.017232058569788933,-0.0007905638194642961,0.030342500656843185
0.0357324481010437,0.0034749519545584917,-0.02131683938205242,0.017029769718647003,-0.0007357444847002625,0.030300097540020943
0.03697162866592407,0.0040299296379089355,-0.02150201052427292,0.017309846356511116,-0.0006504824268631637,0.029677314683794975
0.037025414407253265,0.004219831433147192,-0.021571245044469833,0.017258748412132263,-0.0006237871129997075,0.028513846918940544
0.0367603674530983,0.004028018098324537,-0.02155141346156597,0.016824871301651,-0.0006025693146511912,0.02828374318778515
0.03646751865744591,0.003907435107976198,-0.021414676681160927,0.01709304191172123,-0.0006112800911068916,0.02947195991873741
0.03685958683490753,0.004273376893252134,-0.022258473560214043,0.01772395148873329,-0.0005991245852783322,0.02975131943821907
0.036958515644073486,0.004047439433634281,-0.022767145186662674,0.017771678045392036,-0.0006034337566234171,0.029705991968512535
0.03671959042549133,0.0039369999431073666,-0.021790165454149246,0.01703374646604061,-0.0006288540898822248,0.029770350083708763
0.0367218442261219,0.003955929074436426,-0.02161538042128086,0.01720234379172325,-0.0006577679887413979,0.028977546840906143
0.0367218442261219,0.003955929074436426,-0.02161538042128086,0.01720234379172325,-0.0006577679887413979,0.028977546840906143
0.036784928292036057,0.0041900561191141605,-0.022159552201628685,0.016356343403458595,-0.0006595152080990374,0.029518265277147293
0.03671054169535637,0.004118769895285368,-0.022098220884799957,0.016820790246129036,-0.0008132449584081769,0.03002440556883812
0.037373848259449005,0.004280805122107267,-0.02194426953792572,0.01655520871281624,-0.0009097959264181554,0.0299916323274374
0.036802977323532104,0.0040642195381224155,-0.022496694698929787,0.016728023067116737,-0.0008465228020213544,0.02956986241042614
0.03538767993450165,0.00390927167609334,-0.022188877686858177,0.017026757821440697,-0.0008411714807152748,0.02954544499516487
0.036514703184366226,0.003933625761419535,-0.02230013720691204,0.016646690666675568,-0.0007547370041720569,0.02964780293405056
0.036421507596969604,0.004384476225823164,-0.022410713136196136,0.01719518005847931,-0.0007575671188533306,0.029899612069129944
0.03765420243144035,0.00424962816759944,-0.022694796323776245,0.016765493899583817,-0.0006955801509320736,0.029362915083765984
0.037712693214416504,0.0039581782184541225,-0.02243299037218094,0.017602236941456795,-0.0006414353847503662,0.030442558228969574
0.03583899885416031,0.0042614564299583435,-0.022535517811775208,0.017408940941095352,-0.0006150700501166284,0.030496951192617416
0.035587288439273834,0.004166984464973211,-0.022138092666864395,0.017266487702727318,-0.0005949971964582801,0.03021184541285038
0.0376204252243042,0.003957776352763176,-0.021900497376918793,0.017503004521131516,-0.0006220130599103868,0.030522648245096207
0.0372626818716526,0.003843214362859726,-0.022453337907791138,0.01661878451704979,-0.0006106201326474547,0.030475154519081116
0.03697815164923668,0.0038405160885304213,-0.023007633164525032,0.01664574258029461,-0.0005961214192211628,0.030801886692643166
0.036951325833797455,0.004179125186055899,-0.022885214537382126,0.017213240265846252,-0.0006914077675901353,0.029792722314596176
0.03701707720756531,0.004054798278957605,-0.022416342049837112,0.017273826524615288,-0.0007035121670924127,0.03056188113987446
0.037236932665109634,0.00430366862565279,-0.02202439494431019,0.018097834661602974,-0.0007271350477822125,0.03189513087272644
0.03785935044288635,0.00453186547383666,-0.022702395915985107,0.017479443922638893,-0.0007464366499334574,0.031713493168354034
