davideferrari95/blind_handover_controller/data/Test 46 - [2024-02-07 -- 15-03-32]/joint_states_data.csv
shoulder_pan_joint,shoulder_lift_joint,elbow_joint,wrist_1_joint,wrist_2_joint,wrist_3_joint
0.011175023391842842,-0.007441218476742506,-0.01576889120042324,0.020083677023649216,0.0001609847677173093,0.01158131007105112
0.011175023391842842,-0.007441218476742506,-0.01576889120042324,0.020083677023649216,0.0001609847677173093,0.01158131007105112
0.010779027827084064,-0.0076369415037333965,-0.016160352155566216,0.02007356472313404,0.00015747551515232772,0.011302054859697819
0.011549592018127441,-0.007001258432865143,-0.01679770089685917,0.019521085545420647,0.0001541054662084207,0.010100328363478184
0.011281521990895271,-0.0065964809618890285,-0.01665556989610195,0.01934196427464485,0.00015102632460184395,0.010421634651720524
0.010830719023942947,-0.007048377767205238,-0.016546577215194702,0.01999063789844513,0.00014642013411503285,0.011138305068016052
0.01186288334429264,-0.008186034858226776,-0.01583820767700672,0.019674193114042282,0.00014182466838974506,0.010855572298169136
0.011265450157225132,-0.007010842207819223,-0.016927313059568405,0.018976779654622078,0.0001374923303956166,0.010275914333760738
0.01133668888360262,-0.004604531917721033,-0.01694888062775135,0.0193551704287529,0.00013341582962311804,0.010839617811143398
0.01131623424589634,-0.0035146232694387436,-0.01755606383085251,0.019603515043854713,0.00012957383296452463,0.010777478106319904
0.011328383348882198,-0.0033381215762346983,-0.01724284701049328,0.019079215824604034,0.00012594720465131104,0.010668528266251087
0.010812313295900822,-0.00481438497081399,-0.016468307003378868,0.019209176301956177,0.00014537664537783712,0.010866448283195496
0.010795610025525093,-0.005522253457456827,-0.017495572566986084,0.019498201087117195,0.0001430170377716422,0.011100747622549534
0.010783732868731022,-0.005387965589761734,-0.016639946028590202,0.018721360713243484,0.00013942178338766098,0.011223386973142624
0.011790166608989239,-0.004490473307669163,-0.01697460561990738,0.019238827750086784,0.00013591839524451643,0.010919373482465744
0.01119653694331646,-0.004039888270199299,-0.016933970153331757,0.01967858336865902,0.00013258171384222806,0.010866540484130383
0.01119653694331646,-0.004039888270199299,-0.016933970153331757,0.01967858336865902,0.00013258171384222806,0.010866540484130383
0.011283405125141144,-0.004018982406705618,-0.01657061092555523,0.019752291962504387,0.00012940446322318166,0.010956106707453728
0.011163931339979172,-0.0044344044290483,-0.015932142734527588,0.02006659097969532,0.0001446666574338451,0.010342088527977467
0.010761050507426262,-0.004522346425801516,-0.016746556386351585,0.02029689960181713,0.0001438858889741823,0.010458584874868393
0.010885047726333141,-0.004582411143928766,-0.016994964331388474,0.02022683247923851,0.00014083404676057398,0.01060465071350336
0.010738669894635677,-0.004203964490443468,-0.016533268615603447,0.020379751920700073,0.00013776512059848756,0.01068023405969143
0.01092372927814722,-0.003965956158936024,-0.016359742730855942,0.02065006084740162,0.00013481761561706662,0.011119912378489971
0.011424308642745018,-0.0039018962997943163,-0.016337720677256584,0.020282119512557983,0.00014837209891993552,0.011120505630970001
0.010562456212937832,-0.003933136351406574,-0.0164131298661232,0.020638272166252136,0.00014477175136562437,0.010914039798080921
0.010815681889653206,-0.0038589881733059883,-0.016260165721178055,0.020611220970749855,0.00014192760863807052,0.010736594907939434
0.010240991599857807,-0.004177600611001253,-0.01651439256966114,0.02062828652560711,0.0001391845289617777,0.01097542978823185
0.010571403428912163,-0.004219419788569212,-0.01617673598229885,0.02013300731778145,0.00013654486974701285,0.01067747175693512
0.010719327256083488,-0.00403990363702178,-0.016154348850250244,0.020340710878372192,0.00013400356692727655,0.010696936398744583
0.01014613825827837,-0.0034895639400929213,-0.016427895054221153,0.020085196942090988,0.00013155516353435814,0.01090727187693119
0.010716397315263748,-0.0035243085585534573,-0.016151580959558487,0.01950666680932045,0.00012919443543069065,0.011643551290035248
0.01061543170362711,-0.003742598695680499,-0.016744261607527733,0.01993492804467678,0.00012691706069745123,0.01074137818068266
0.010775931179523468,-0.0038139871321618557,-0.015934936702251434,0.01989995315670967,0.0001548252475913614,0.010718068107962608
0.011374466121196747,-0.0038033239543437958,-0.016735650599002838,0.01948513649404049,0.00015389225154649466,0.010759523138403893
0.010275923646986485,-0.003830140456557274,-0.016416035592556,0.019711511209607124,0.0001490786235081032,0.011188865639269352
0.01001126691699028,-0.0039522601291537285,-0.016643499955534935,0.01980021968483925,0.0001443156652385369,0.01124336663633585
0.010333208367228508,-0.004009278491139412,-0.01644756831228733,0.019143247976899147,0.00013983194367028773,0.011599862016737461
0.01026968751102686,-0.0036839707754552364,-0.016291804611682892,0.019573992118239403,0.00013561772357206792,0.011621628887951374
0.010670369490981102,-0.003424558322876692,-0.016558965668082237,0.019738154485821724,0.00015115150017663836,0.010601930320262909
0.010951356962323189,-0.003458506427705288,-0.01562853343784809,0.01908862218260765,0.00015304313274100423,0.010393214412033558
0.011155388318002224,-0.0037021981552243233,-0.016625316813588142,0.01918785832822323,0.00014921725960448384,0.010369963943958282
0.010677257552742958,-0.0037899112794548273,-0.016340794041752815,0.01919960416853428,0.00014523029676638544,0.010195567272603512
0.010784760117530823,-0.004219615366309881,-0.016519231721758842,0.019315127283334732,0.00014142811414785683,0.010357641614973545
0.01063511148095131,-0.004174888599663973,-0.016327425837516785,0.020520037040114403,0.00013781861343886703,0.010721459984779358
0.010778281837701797,-0.003987014759331942,-0.016024677082896233,0.021140193566679955,0.000134388537844643,0.010933883488178253
0.010778281837701797,-0.003987014759331942,-0.016024677082896233,0.021140193566679955,0.000134388537844643,0.010933883488178253
0.010815267451107502,-0.0034726618323475122,-0.016254551708698273,0.020286904647946358,0.0001465467648813501,0.010553664527833462
0.010815267451107502,-0.0034726618323475122,-0.016254551708698273,0.020286904647946358,0.0001465467648813501,0.010553664527833462
0.010966970585286617,-0.003577213268727064,-0.016790661960840225,0.020389406010508537,0.0001457103353459388,0.01052013598382473
0.010438213124871254,-0.004210056737065315,-0.01595095731317997,0.020728958770632744,0.00014257953444030136,0.01040862686932087
0.01060841791331768,-0.004063257947564125,-0.016076238825917244,0.020978262647986412,0.00013943463272880763,0.010632484219968319
0.010686822235584259,-0.003492816351354122,-0.016619957983493805,0.020550407469272614,0.0001364159834338352,0.010700526647269726
0.010463148355484009,-0.0034207922872155905,-0.016427254304289818,0.020188648253679276,0.00013352475070860237,0.01090365368872881
0.010783913545310497,-0.0037263697013258934,-0.015849627554416656,0.02107560820877552,0.0001460790226701647,0.010966822504997253
0.011026526801288128,-0.003626595251262188,-0.01634661667048931,0.02109069935977459,0.00014345608360599726,0.010987801477313042
0.010584752075374126,-0.0035323866177350283,-0.01630285568535328,0.0203245859593153,0.00014067224401514977,0.009814593940973282
0.010605212301015854,-0.0036402202676981688,-0.016499215736985207,0.019211923703551292,0.0001597566151758656,0.009929604828357697
0.010775228962302208,-0.0037306363228708506,-0.016417067497968674,0.019436366856098175,0.00017448618018534034,0.010914171114563942
0.010890461504459381,-0.003705834737047553,-0.016210531815886497,0.02001473493874073,0.00016928906552493572,0.010678719729185104
0.009934294037520885,-0.00419222004711628,-0.01642390713095665,0.01995503529906273,0.00016323640011250973,0.010339531116187572
0.010235408321022987,-0.004129046108573675,-0.015976879745721817,0.0204300619661808,0.00015752723265904933,0.010626202449202538
0.010379260405898094,-0.0039682285860180855,-0.016725918278098106,0.020598458126187325,0.00015219931083265692,0.010706168599426746
0.010929391719400883,-0.0034056163858622313,-0.016236163675785065,0.020186079666018486,0.00014721920888405293,0.011075730435550213
0.010542131029069424,-0.003383726580068469,-0.01663902960717678,0.020674308761954308,0.00014255497080739588,0.011100738309323788
0.010629200376570225,-0.004163403995335102,-0.0162431038916111,0.020473381504416466,0.00013817715807817876,0.010917934589087963
0.010196390561759472,-0.0041098082438111305,-0.016505924984812737,0.02015700191259384,0.00014721721527166665,0.011126303113996983
0.010853375308215618,-0.003902887459844351,-0.0167500339448452,0.019730107858777046,0.00015532657562289387,0.011150352656841278
0.011402196250855923,-0.003836646443232894,-0.016404325142502785,0.020135629922151566,0.00015176778833847493,0.01089495699852705
0.010961567983031273,-0.0037880907766520977,-0.01665990799665451,0.020535068586468697,0.00014766959066037089,0.010798648931086063
0.01103594247251749,-0.004309146199375391,-0.016253186389803886,0.020199529826641083,0.00014374213060364127,0.010890970006585121
0.010722273960709572,-0.004163901787251234,-0.016878902912139893,0.020156925544142723,0.00014001525414641947,0.011376963928341866
0.011001292616128922,-0.0035583225544542074,-0.0171841811388731,0.020378336310386658,0.00013647628657054156,0.011552751995623112
0.010931369848549366,-0.004157267510890961,-0.016755791381001472,0.019867241382598877,0.00013311178190633655,0.011317950673401356
0.010931369848549366,-0.004157267510890961,-0.016755791381001472,0.019867241382598877,0.00013311178190633655,0.011317950673401356
0.010772047564387321,-0.0039737471379339695,-0.016243644058704376,0.020267626270651817,0.00012685747060459107,0.010218117386102676
0.010593639686703682,-0.003900145646184683,-0.01687275618314743,0.020547425374388695,0.00012394555960781872,0.010416940785944462
0.010593639686703682,-0.003900145646184683,-0.01687275618314743,0.020547425374388695,0.00012394555960781872,0.010416940785944462
0.010545680299401283,-0.003870084648951888,-0.017223775386810303,0.019961027428507805,0.00012116449215682223,0.010453554801642895
0.010761233046650887,-0.0039368970319628716,-0.017283886671066284,0.02019447460770607,0.00013693769869860262,0.010539956390857697
0.010593361221253872,-0.003929520957171917,-0.017362046986818314,0.02040407992899418,0.0001352010585833341,0.010663033463060856
0.011158060282468796,-0.00353487697429955,-0.016681885346770287,0.020351022481918335,0.00013243744615465403,0.01066137570887804
0.01019896287471056,-0.004218767397105694,-0.016315501183271408,0.020113836973905563,0.00012709891598206013,0.01088075153529644
0.010735352523624897,-0.00414859876036644,-0.016875622794032097,0.01958894543349743,0.0001245855528395623,0.010875871405005455
0.010563756339251995,-0.00396122457459569,-0.017025453969836235,0.01978893019258976,0.0001221694692503661,0.010869061574339867
0.010647976770997047,-0.0038149752654135227,-0.017129654064774513,0.020561685785651207,0.00011984536104137078,0.011008044704794884
0.01107090525329113,-0.003909620456397533,-0.01720953732728958,0.021091680973768234,0.00011760814231820405,0.010854053311049938
0.010708041489124298,-0.003454185090959072,-0.01597600057721138,0.020499838516116142,0.00011545287270564586,0.011022994294762611
0.012067191302776337,-0.003607179969549179,-0.01693151704967022,0.020073749125003815,0.0001133750774897635,0.01109186839312315
0.010561727918684483,-0.004245974123477936,-0.017658254131674767,0.01936284266412258,0.00011137079854961485,0.01107004377990961
0.010928857140243053,-0.0041776979342103004,-0.01750291883945465,0.01909712329506874,0.0001094362887670286,0.01133248582482338
0.011405394412577152,-0.00349063822068274,-0.016902299597859383,0.019984005019068718,0.00012092381803086028,0.011739690788090229
0.011269666254520416,-0.003513133153319359,-0.016375750303268433,0.020542079582810402,0.00012073943071300164,0.011649313382804394
0.011146814562380314,-0.0036684675142169,-0.017588427290320396,0.020111404359340668,0.00011886649008374661,0.011346767656505108
0.011215802282094955,-0.004299985710531473,-0.016390485689044,0.019454767927527428,0.00011694362183334306,0.011156129650771618
0.010882318951189518,-0.0035918718203902245,-0.01664038561284542,0.02007049135863781,0.00011507526505738497,0.011310072615742683
0.011006403714418411,-0.003544337349012494,-0.01726635918021202,0.019494304433465004,0.0001132648903876543,0.011299381032586098
0.011097094975411892,-0.0036605969071388245,-0.01695350371301174,0.01965700276196003,0.00011151072249049321,0.01117178238928318
0.01086682453751564,-0.0041694436222314835,-0.017228005453944206,0.020003195852041245,0.00010981002560583875,0.011253170669078827
0.01086682453751564,-0.0041694436222314835,-0.017228005453944206,0.020003195852041245,0.00010981002560583875,0.011253170669078827
0.011003164574503899,-0.004247182514518499,-0.016455087810754776,0.019584136083722115,0.00010816039139172062,0.011167584918439388
0.010880976915359497,-0.004044872708618641,-0.017102204263210297,0.0187772698700428,0.00010655967344064265,0.011003106832504272
0.010730801150202751,-0.003951497375965118,-0.01726098731160164,0.019766708835959435,0.00010500562348170206,0.010842260904610157
0.011103056371212006,-0.004004006739705801,-0.016790645197033882,0.018873341381549835,0.00010349616059102118,0.010664932429790497
0.010860803537070751,-0.003493944648653269,-0.01667804829776287,0.018766358494758606,0.00010202957491856068,0.01157739944756031
0.011195717379450798,-0.0039667836390435696,-0.015976807102560997,0.019810346886515617,0.00010060398926725611,0.010892926715314388
0.011372177861630917,-0.004247448407113552,-0.01665353588759899,0.019695522263646126,9.921768651111051e-05,0.010227689519524574
0.010896792635321617,-0.004085699561983347,-0.01602538675069809,0.019430365413427353,9.786894224816933e-05,0.010940934531390667
0.011394168250262737,-0.00387220224365592,-0.01645994558930397,0.019551726058125496,9.655651956563815e-05,0.010452204383909702
0.011081725358963013,-0.0038490123115479946,-0.016452662646770477,0.019394690170884132,9.527877409709617e-05,0.010653297416865826
0.011917361989617348,-0.004149790853261948,-0.016958702355623245,0.019521482288837433,9.282211976824328e-05,0.010821673087775707
0.010677010752260685,-0.003912836778908968,-0.016315799206495285,0.019912824034690857,9.164073708234355e-05,0.010815245099365711
0.011840041726827621,-0.0038646908942610025,-0.01657794788479805,0.01962745375931263,9.048903302755207e-05,0.010754606686532497
0.011381984688341618,-0.0038567923475056887,-0.015904517844319344,0.020129907876253128,8.936584345065057e-05,0.011179143562912941
0.011055703274905682,-0.0038040014915168285,-0.016189441084861755,0.020353784784674644,8.827029523672536e-05,0.011218804866075516
0.011253583244979382,-0.004002369474619627,-0.016249194741249084,0.020198989659547806,8.720122423255816e-05,0.011075383052229881
0.010834664106369019,-0.0038888088893145323,-0.01654059626162052,0.02011679671704769,8.61577209434472e-05,0.01072057243436575
0.011018681339919567,-0.003645668039098382,-0.016382917761802673,0.019852392375469208,8.513899229001254e-05,0.01094797533005476
0.011072180233895779,-0.0034358445554971695,-0.01585579663515091,0.01939767599105835,8.414399781031534e-05,0.01050207857042551
0.01088996697217226,-0.0035413869190961123,-0.016287019476294518,0.019324779510498047,8.317199535667896e-05,0.010454468429088593
0.011292942799627781,-0.0037412885576486588,-0.01565755158662796,0.019702855497598648,8.222220640163869e-05,0.010639035142958164
0.010835770517587662,-0.003913596272468567,-0.016210945323109627,0.01958068460226059,8.129389607347548e-05,0.01057580579072237
0.010950914584100246,-0.003600809257477522,-0.01595929265022278,0.01961231790482998,8.03862712928094e-05,0.010983127169311047
0.011350983753800392,-0.003570555942133069,-0.016316266730427742,0.01989256963133812,7.949869177537039e-05,0.011073081754148006
0.0112357372418046,-0.003387948963791132,-0.016825726255774498,0.01978868618607521,4.399704630486667e-05,0.010515904985368252
0.012173996306955814,-0.003519634250551462,-0.015958532691001892,0.019398218020796776,6.461831071646884e-05,0.010873542167246342
0.012173996306955814,-0.003519634250551462,-0.015958532691001892,0.019398218020796776,6.461831071646884e-05,0.010873542167246342
0.011369924992322922,-0.0036605510395020247,-0.015818672254681587,0.01968555524945259,6.423325248761103e-05,0.010898818261921406
0.011369924992322922,-0.0036605510395020247,-0.015818672254681587,0.01968555524945259,6.423325248761103e-05,0.010898818261921406
0.01124447863548994,-0.0037611534353345633,-0.016176650300621986,0.01940252259373665,6.333515193546191e-05,0.011029914952814579
0.010887118056416512,-0.003382211783900857,-0.015882709994912148,0.019645072519779205,6.245651456993073e-05,0.010834746062755585
0.01098625361919403,-0.003531860886141658,-0.016430338844656944,0.019640106707811356,6.160157499834895e-05,0.010869760066270828
0.011189243756234646,-0.003745109774172306,-0.016352787613868713,0.01898195408284664,6.076969293644652e-05,0.010959372855722904
0.011013573966920376,-0.003862205892801285,-0.016480082646012306,0.019590236246585846,5.995996616547927e-05,0.010720711201429367
0.01116867084056139,-0.003853725967928767,-0.016493339091539383,0.019951801747083664,5.9171594330109656e-05,0.010995923541486263
0.010954063385725021,-0.003446249756962061,-0.01568080484867096,0.019934503361582756,5.8403606089996174e-05,0.010961577296257019
0.010615206323564053,-0.0032858855556696653,-0.016286518424749374,0.020413091406226158,5.765535024693236e-05,0.011289275251328945
0.011142928153276443,-0.0032583477441221476,-0.01598603092133999,0.020416373386979103,5.692602280760184e-05,0.011593833565711975
0.01092369481921196,-0.0035037777852267027,-0.01741422340273857,0.019610272720456123,5.6214852520497516e-05,0.011195672675967216
0.011253269389271736,-0.003659002250060439,-0.016922978684306145,0.02009759470820427,5.552127549890429e-05,0.01160214003175497
0.010586677119135857,-0.003474756609648466,-0.017216697335243225,0.019244709983468056,5.418428190751001e-05,0.011623283848166466
0.010896665044128895,-0.0033015599474310875,-0.01604263298213482,0.019144561141729355,5.2910072554368526e-05,0.01101924479007721
0.010896665044128895,-0.0033015599474310875,-0.01604263298213482,0.019144561141729355,5.2910072554368526e-05,0.01101924479007721
0.010813678614795208,-0.00343268527649343,-0.015591045841574669,0.018766069784760475,5.229526141192764e-05,0.011054817587137222
0.011150159873068333,-0.003165918169543147,-0.01686953194439411,0.018920117989182472,5.1694496505660936e-05,0.011204816401004791
0.010877123102545738,-0.003181900130584836,-0.016887547448277473,0.019424280151724815,5.1107374019920826e-05,0.010805925354361534
0.011065107770264149,-0.0032485516276210546,-0.016632871702313423,0.01919548772275448,5.05334792251233e-05,0.010913836769759655
0.011521034874022007,-0.0034774632658809423,-0.01698732189834118,0.019522055983543396,4.997235373593867e-05,0.010865811258554459
0.010881051421165466,-0.0033474473748356104,-0.01649765484035015,0.02002723701298237,1.269865515496349e-05,0.01116066426038742
0.01086113229393959,-0.00350984837859869,-0.01663029193878174,0.020195281133055687,8.291314088637591e-07,0.01211673952639103
0.010766447521746159,-0.003267623484134674,-0.01628265716135502,0.01982061192393303,5.41363576189724e-08,0.010641565546393394
0.012029130011796951,-0.0035060644149780273,-0.016657337546348572,0.020050011575222015,3.5347167415267222e-09,0.010717296041548252
0.011521912179887295,-0.003717817598953843,-0.016860870644450188,0.01921508088707924,2.3079176070250895e-10,0.011019512079656124
0.011154687032103539,-0.0033929103519767523,-0.016622036695480347,0.018505023792386055,1.5069051909066822e-11,0.011242245323956013
0.011278149671852589,-0.0032629533670842648,-0.017074119299650192,0.019181087613105774,9.83901545306698e-13,0.01177794486284256
0.011594057083129883,-0.0033835468348115683,-0.016142193228006363,0.01994915120303631,6.42417366590424e-14,0.011463219299912453
0.011594057083129883,-0.0033835468348115683,-0.016142193228006363,0.01994915120303631,6.42417366590424e-14,0.011463219299912453
0.011026402935385704,-0.003498508594930172,-0.01658061519265175,0.019774019718170166,4.194526636561082e-15,0.011962765827775002
0.011221974156796932,-0.0035226093605160713,-0.01631261594593525,0.019379625096917152,2.738725922038314e-16,0.011426719836890697
0.010909252800047398,-0.0032386681996285915,-0.01647866703569889,0.019086388871073723,1.7881922653361123e-17,0.011103302240371704
0.011028445325791836,-0.003424899186939001,-0.0165377426892519,0.019053341820836067,1.167561712305842e-18,0.011547291651368141
0.011705112643539906,-0.0032592075876891613,-0.01618991233408451,0.019799944013357162,7.623343054198159e-20,0.011471972800791264
0.010824248194694519,-0.003498669946566224,-0.016825776547193527,0.019596578553318977,4.977498751520323e-21,0.011155012995004654
0.011155666783452034,-0.0032526212744414806,-0.016320085152983665,0.018846284598112106,3.249951176813442e-22,0.01140549872070551
0.010938083752989769,-0.003264466067776084,-0.016642959788441658,0.019429577514529228,2.1219856634909497e-23,0.011025072075426579
0.011935112066566944,-0.0034112753346562386,-0.016274750232696533,0.019264107570052147,9.046357956747194e-26,0.010754146613180637
0.01141863688826561,-0.0032032353337854147,-0.01694469340145588,0.01931009814143181,5.906624916791492e-27,0.011398933827877045
0.011460271663963795,-0.0033359385561197996,-0.016496803611516953,0.01990845799446106,3.8566041764512266e-28,0.01146649569272995
0.011318393051624298,-0.00369520066305995,-0.016697822138667107,0.019485585391521454,2.5180868975179188e-29,0.011571964249014854
0.011108645237982273,-0.003384054871276021,-0.01595451310276985,0.019675029441714287,1.6441308465742144e-30,0.011585231870412827
0.011319482699036598,-0.003478679805994034,-0.016234103590250015,0.020048202946782112,1.0734998798361848e-31,0.011246733367443085
0.010855920612812042,-0.00313270534388721,-0.015812428668141365,0.020082976669073105,7.009187756573226e-33,0.01086386851966381
0.01171160489320755,-0.003204933600500226,-0.016546867787837982,0.01973561756312847,4.5764984322911595e-34,0.011196499690413475
0.01223772019147873,-0.00344456871971488,-0.01631573960185051,0.019670790061354637,2.9881261548331884e-35,0.011186132207512856
0.011747458949685097,-0.003488715272396803,-0.016356024891138077,0.01959645189344883,1.9510329189746898e-36,0.011008418165147305
0.011421102099120617,-0.003627084195613861,-0.016477733850479126,0.019775107502937317,1.273885009092513e-37,0.010683288797736168
0.011279474012553692,-0.0037224965635687113,-0.015781523659825325,0.019828999415040016,8.317558375234099e-39,0.010572110302746296
0.011470254510641098,-0.0037733805365860462,-0.016267141327261925,0.019398055970668793,5.430774237444758e-40,0.011639781296253204
0.011717770248651505,-0.0034730888437479734,-0.015474668703973293,0.02016380988061428,3.545845634127517e-41,0.011430845595896244
0.01141330599784851,-0.003424222581088543,-0.015981486067175865,0.018936237320303917,2.3149450630645978e-42,0.011451647616922855
0.011842641048133373,-0.0031894955318421125,-0.016054894775152206,0.018369605764746666,1.5134023414708024e-43,0.011652981862425804
0.011245409026741982,-0.003595587331801653,-0.01623598486185074,0.01862933300435543,9.80908925027372e-45,0.011415783315896988
0.011786410585045815,-0.0034089642576873302,-0.016014790162444115,0.019253693521022797,0.0,0.011522991582751274
0.011858371086418629,-0.003327416256070137,-0.01562556065618992,0.019251583144068718,0.0,0.011336512863636017
0.011320456862449646,-0.003157616825774312,-0.016101129353046417,0.01895327679812908,0.0,0.01160440780222416
0.01176068838685751,-0.0029670235235244036,-0.015805112197995186,0.019242743030190468,0.0,0.011699986644089222
0.01176068838685751,-0.0029670235235244036,-0.015805112197995186,0.019242743030190468,0.0,0.011699986644089222
0.011541874147951603,-0.003328980877995491,-0.015981923788785934,0.018718762323260307,0.0,0.011233488097786903
0.01182516012340784,-0.003213974181562662,-0.015510869212448597,0.018776489421725273,0.0,0.01133692730218172
0.011958299204707146,-0.0031333989463746548,-0.01614820957183838,0.018678266555070877,0.0,0.011785273440182209
0.011720284819602966,-0.0030766669660806656,-0.015903523191809654,0.01864679530262947,0.0,0.01140695158392191
0.012008502148091793,-0.0031269940081983805,-0.016476497054100037,0.018922381103038788,0.0,0.011244195513427258
0.011746803298592567,-0.0031189003493636847,-0.015778234228491783,0.019398920238018036,0.0,0.011200498789548874
0.012411708012223244,-0.003399035194888711,-0.016020840033888817,0.01894616149365902,0.0,0.011236421763896942
0.011796151287853718,-0.002912085270509124,-0.015794461593031883,0.01877480186522007,0.0,0.010543158277869225
0.012862613424658775,-0.002965496387332678,-0.016365163028240204,0.018136313185095787,0.0,0.010844292119145393
0.011790625751018524,-0.0029553009662777185,-0.015614119358360767,0.018480705097317696,0.0,0.011353639885783195
0.012047541327774525,-0.003442860208451748,-0.016120117157697678,0.018971413373947144,0.0,0.012013064697384834
0.011701627634465694,-0.0033035720698535442,-0.014677670784294605,0.019467268139123917,0.0,0.011844389140605927
0.012058019638061523,-0.003060900839045644,-0.01666145585477352,0.019393417984247208,0.0,0.011751396581530571
0.012199406512081623,-0.0029362381901592016,-0.01648295484483242,0.01896223984658718,0.0,0.012178702279925346
0.011792278848588467,-0.002908014226704836,-0.016236942261457443,0.019174348562955856,0.0,0.011469961144030094
0.012086967006325722,-0.00334181054495275,-0.0171146672219038,0.02010883018374443,0.0,0.011387202888727188
0.011907961219549179,-0.0032497167121618986,-0.01632321998476982,0.019816936925053596,0.0,0.01164762768894434
0.011861597187817097,-0.0035056371707469225,-0.016605237498879433,0.018977215513586998,0.0,0.011395173147320747
0.012282384559512138,-0.0031026487704366446,-0.015864379703998566,0.018865596503019333,0.0,0.011689191684126854
0.011805159039795399,-0.0030999614391475916,-0.016050849109888077,0.018765073269605637,0.0,0.011869562789797783
0.01222582533955574,-0.0031153790187090635,-0.01572936400771141,0.01832166127860546,0.0,0.011579508893191814
0.012452725321054459,-0.0033120205625891685,-0.016280343756079674,0.018836595118045807,0.0,0.011838404461741447
0.012452725321054459,-0.0033120205625891685,-0.016280343756079674,0.018836595118045807,0.0,0.011838404461741447
0.011765343137085438,-0.002756047062575817,-0.01671726256608963,0.019511904567480087,0.0,0.011451756581664085
0.011843952350318432,-0.0026783046778291464,-0.016313757747411728,0.01910576783120632,0.0,0.01188027486205101
0.012202801182866096,-0.0023666585329920053,-0.016425183042883873,0.01923864707350731,0.0,0.011638129130005836
0.01224236935377121,-0.002492500701919198,-0.0159091018140316,0.018992094323039055,0.0,0.011634314432740211
0.011825747787952423,-0.002695276867598295,-0.016706988215446472,0.018692724406719208,0.0,0.011865664273500443
0.012268193997442722,-0.003136850893497467,-0.016018105670809746,0.018956344574689865,0.0,0.011641070246696472
0.012067806906998158,-0.0030758348293602467,-0.0167600829154253,0.018899360671639442,0.0,0.011783706024289131
0.01235272642225027,-0.0026026845443993807,-0.016539867967367172,0.018519949167966843,0.0,0.0118049131706357
0.011704612523317337,-0.002396440366283059,-0.016734473407268524,0.019230956211686134,0.0,0.011727222241461277
0.012203322723507881,-0.002568912459537387,-0.015512744896113873,0.018653836101293564,0.0,0.011305022984743118
0.011724278330802917,-0.0027487613260746002,-0.01654137670993805,0.018682261928915977,0.0,0.011739089153707027
0.01250701118260622,-0.0031442276667803526,-0.015887336805462837,0.01867644116282463,0.0,0.011510013602674007
0.01264236494898796,-0.0031296894885599613,-0.01598420739173889,0.020177120342850685,0.0,0.011356675997376442
0.012444525957107544,-0.0030095067340880632,-0.0163290873169899,0.01909029297530651,0.0,0.011654840782284737
0.012637155130505562,-0.0026959360111504793,-0.01601753570139408,0.018356259912252426,0.0,0.011606085114181042
0.012457300908863544,-0.0025912343990057707,-0.016397172585129738,0.018929708749055862,0.0,0.011886067688465118
0.012810846790671349,-0.0026922740507870913,-0.016036394983530045,0.01915837451815605,0.0,0.011782834306359291
0.012261180207133293,-0.002716024639084935,-0.016335053369402885,0.018554164096713066,0.0,0.011911442503333092
0.012680036947131157,-0.0029869861900806427,-0.015403308905661106,0.018647998571395874,0.0,0.011764374561607838
0.0126457829028368,-0.0029057199135422707,-0.01612151972949505,0.018800243735313416,0.0,0.01182216964662075
0.013418975286185741,-0.002737276954576373,-0.015964612364768982,0.01818779855966568,0.0,0.012304243631660938
0.01274988241493702,-0.00251586246304214,-0.016278637573122978,0.018475426360964775,0.0,0.012191971763968468
0.013255137018859386,-0.002463551703840494,-0.016196170821785927,0.01829156093299389,0.0,0.012113659642636776
0.012937690131366253,-0.002663997234776616,-0.01596429944038391,0.017833534628152847,0.0,0.012024742551147938
0.012748369947075844,-0.002822134643793106,-0.01595698669552803,0.018407875671982765,0.0,0.013353338465094566
0.012748369947075844,-0.002822134643793106,-0.01595698669552803,0.018407875671982765,0.0,0.013353338465094566
0.012807067483663559,-0.002903735963627696,-0.01576566882431507,0.01833188720047474,0.0,0.011672204360365868
0.012311029247939587,-0.00285774702206254,-0.016167890280485153,0.018103420734405518,0.0,0.011178736574947834
0.0129857724532485,-0.0027813948690891266,-0.015584096312522888,0.0182985570281744,0.0,0.011819928884506226
0.012640929780900478,-0.0027102611493319273,-0.016265541315078735,0.01824423111975193,0.0,0.011892380192875862
0.013268357142806053,-0.002707524225115776,-0.01603228971362114,0.018281929194927216,0.0,0.012318815104663372
0.012977158650755882,-0.0027563590556383133,-0.015904797241091728,0.01869690790772438,0.0,0.012494847178459167
0.01309336069971323,-0.0027723603416234255,-0.015705663710832596,0.018379148095846176,0.0,0.011788848787546158
0.012981802225112915,-0.0025604336988180876,-0.015831593424081802,0.018930932506918907,0.0,0.011933894827961922
0.012875350192189217,-0.0026074559427797794,-0.015968292951583862,0.019256439059972763,0.0,0.01191575825214386
0.01280407514423132,-0.0030609045643359423,-0.016151076182723045,0.019082754850387573,0.0,0.01232440397143364
0.013380532152950764,-0.002765374258160591,-0.015394069254398346,0.0191070307046175,0.0,0.012202390469610691
0.01323933620005846,-0.0026479263324290514,-0.015805281698703766,0.018867265433073044,0.0,0.012260030955076218
0.013152563944458961,-0.002680236240848899,-0.015120813623070717,0.01935318484902382,0.0,0.011682132259011269
0.012919550761580467,-0.0025895650032907724,-0.01608966663479805,0.019450239837169647,0.0,0.011964268051087856
0.013616057112812996,-0.002864142647013068,-0.015491299331188202,0.019098319113254547,0.0,0.01208057627081871
0.012319176457822323,-0.0028493383433669806,-0.015761058777570724,0.0191812701523304,0.0,0.01191524975001812
0.012760767713189125,-0.0025224434211850166,-0.01587805151939392,0.019059311598539352,0.0,0.011994455941021442
0.013524603098630905,-0.0025574341416358948,-0.0160000529140234,0.018850240856409073,0.0,0.012010972946882248
0.01336679607629776,-0.0023850244469940662,-0.01673569343984127,0.019091105088591576,0.0,0.01184790302067995
0.013480129651725292,-0.002540256129577756,-0.01564432680606842,0.019239889457821846,0.0,0.01190484594553709
0.0133617939427495,-0.002715092385187745,-0.01620165817439556,0.0187784843146801,0.0,0.012090463191270828
0.013775388710200787,-0.002732055727392435,-0.015377518720924854,0.018701033666729927,0.0,0.012054681777954102
0.013191532343626022,-0.0027060997672379017,-0.015993911772966385,0.019072944298386574,0.0,0.011985157616436481
0.013876001350581646,-0.0025042316410690546,-0.015834707766771317,0.018847592175006866,0.0,0.012497111223638058
0.013212772086262703,-0.0026387616526335478,-0.0162474624812603,0.019472071900963783,0.0,0.012044897302985191
0.013212772086262703,-0.0026387616526335478,-0.0162474624812603,0.019472071900963783,0.0,0.012044897302985191
0.013556180521845818,-0.0027697021141648293,-0.016265183687210083,0.019496535882353783,0.0,0.01219251099973917
0.013460122980177402,-0.002782894764095545,-0.01619410514831543,0.01877487450838089,0.0,0.012601119466125965
0.013652687892317772,-0.002348551759496331,-0.01637420989573002,0.018677443265914917,0.0,0.012392930686473846
0.013400972820818424,-0.0022015369031578302,-0.01615005172789097,0.01862659677863121,0.0,0.012515969574451447
0.013661013916134834,-0.0023644231259822845,-0.01678641512989998,0.01853671856224537,0.0,0.01230095885694027
0.014046217314898968,-0.0025418666191399097,-0.016390519216656685,0.019390933215618134,0.0,0.012373889796435833
0.013971925713121891,-0.0024782191030681133,-0.01712787337601185,0.018936187028884888,0.0,0.012179414741694927
0.013954713940620422,-0.0027661265339702368,-0.016751805320382118,0.018289415165781975,0.0,0.012316509149968624
0.014237925410270691,-0.002422458492219448,-0.0167547594755888,0.01846182346343994,0.0,0.012376234866678715
0.01370186172425747,-0.002483953954651952,-0.016348669305443764,0.018644630908966064,0.0,0.012593160383403301
0.014082099311053753,-0.0026226011104881763,-0.01688191294670105,0.018365798518061638,0.0,0.012029251083731651
0.013673053123056889,-0.0027008287142962217,-0.016235822811722755,0.017781952396035194,0.0,0.01245799195021391
0.013730216771364212,-0.002814642386510968,-0.01669418439269066,0.01802542246878147,0.0,0.01279692817479372
0.013768178410828114,-0.002745548728853464,-0.016828132793307304,0.018287815153598785,0.0,0.011894403025507927
0.013974597677588463,-0.002381862374022603,-0.01650412753224373,0.017716387286782265,0.0,0.012005586177110672
0.013786242343485355,-0.002217785455286503,-0.01705924980342388,0.01788431406021118,0.0,0.01246351096779108
0.014304726384580135,-0.0022932719439268112,-0.01604631170630455,0.018018968403339386,0.0,0.012460092082619667
0.013573214411735535,-0.0022267724853008986,-0.016736648976802826,0.01821695826947689,0.0,0.012866457924246788
0.013936554081737995,-0.0021699657663702965,-0.016259070485830307,0.018012285232543945,0.0,0.012633117847144604
0.01363829430192709,-0.0020693906117230654,-0.01649721898138523,0.01750231720507145,0.0,0.012911318801343441
0.014252076856791973,-0.001958586508408189,-0.01694461889564991,0.018391408026218414,0.0,0.01344657875597477
0.013736014254391193,-0.0019191321916878223,-0.01671290583908558,0.018716150894761086,0.0,0.013401900418102741
0.014025330543518066,-0.0022055963054299355,-0.0173777025192976,0.01791752688586712,0.0,0.013442746363580227
0.013891927897930145,-0.0022103607188910246,-0.01661495491862297,0.018190868198871613,0.0,0.013176290318369865
0.014061803929507732,-0.0023565522860735655,-0.017029782757163048,0.018006768077611923,0.0,0.01269575022161007
0.014061803929507732,-0.0023565522860735655,-0.017029782757163048,0.018006768077611923,0.0,0.01269575022161007
0.014288051053881645,-0.002123285084962845,-0.016362687572836876,0.01829383708536625,0.0,0.012848872691392899
0.014288051053881645,-0.002123285084962845,-0.016362687572836876,0.01829383708536625,0.0,0.012848872691392899
0.013996255584061146,-0.001808913890272379,-0.016668273136019707,0.018638718873262405,0.0,0.0132692139595747
0.014190273359417915,-0.0017944668652489781,-0.016278596594929695,0.01858709380030632,0.0,0.013466322794556618
0.013972943648695946,-0.0016401889733970165,-0.016213737428188324,0.018177539110183716,0.0,0.013801531866192818
0.01424319762736559,-0.0015891502844169736,-0.01566687598824501,0.01786920614540577,7.352932698267978e-07,0.013809768483042717
0.014135235920548439,-0.0016182136023417115,-0.01612130180001259,0.018664967268705368,4.8009397346504556e-08,0.01353469304740429
0.014279317110776901,-0.001758905011229217,-0.015776334330439568,0.01897793635725975,3.1346705231527494e-09,0.013116160407662392
0.014017356559634209,-0.0017770413542166352,-0.016495829448103905,0.01867120899260044,2.0467161299109193e-10,0.013210865668952465
0.014163704589009285,-0.0018439540872350335,-0.015973128378391266,0.018769701942801476,8.7254715171875e-13,0.013135851360857487
0.014285293407738209,-0.0018701690714806318,-0.016399363055825233,0.01850000023841858,5.697109721914534e-14,0.013742758892476559
0.014295545406639576,-0.001709561562165618,-0.016091806814074516,0.019190454855561256,3.719805327206515e-15,0.013204366900026798
0.014108078554272652,-0.0016823834739625454,-0.0168185792863369,0.019352106377482414,2.428767185182608e-16,0.013004528358578682
0.013938424177467823,-0.0016939915949478745,-0.01609421707689762,0.01852652058005333,1.585811444254806e-17,0.012854453176259995
0.014525771141052246,-0.0015731524908915162,-0.016060827299952507,0.018488647416234016,1.0354214706068741e-18,0.01299294177442789
0.014629332348704338,-0.001583220437169075,-0.016281835734844208,0.01792658120393753,6.76056265603238e-20,0.01274458970874548
0.014825648628175259,-0.0016329477075487375,-0.016316592693328857,0.017568573355674744,4.414164520564703e-21,0.012759942561388016
0.014454178512096405,-0.001617116155102849,-0.016620829701423645,0.01772332191467285,2.8821342405724513e-22,0.013088040053844452
0.014599362388253212,-0.001669980469159782,-0.015792716294527054,0.017804743722081184,1.8818276894047237e-23,0.013605962507426739
0.014559981413185596,-0.0017144795274361968,-0.016206705942749977,0.018407132476568222,1.2286988817893312e-24,0.013607700355350971
0.014359095133841038,-0.0015709113795310259,-0.015882791951298714,0.017990782856941223,8.022525586442371e-26,0.013950499705970287
0.01447309460490942,-0.0015557880979031324,-0.01641717553138733,0.017273984849452972,5.2381365590246265e-27,0.013720149174332619
0.014588214457035065,-0.0013776535633951426,-0.016370641067624092,0.017974812537431717,3.420128747224803e-28,0.013701537624001503
0.01461546029895544,-0.0012734472984448075,-0.016389967873692513,0.017680909484624863,2.233099821409648e-29,0.013908512890338898
0.014350414276123047,-0.001200978527776897,-0.016410451382398605,0.018317971378564835,1.4580544166582573e-30,0.012988796457648277
0.014725234359502792,-0.0011649330845102668,-0.015978248789906502,0.018428795039653778,9.52005426937879e-32,0.013115545734763145
0.014540150761604309,-0.0012758893426507711,-0.016272133216261864,0.01755177043378353,6.215915679496375e-33,0.01309570949524641
0.014157325960695744,-0.0013372268294915557,-0.015601618215441704,0.018148105591535568,-9.956527355825529e-05,0.013669300824403763
0.014640608802437782,-0.0015020277351140976,-0.016174720600247383,0.017581375315785408,-0.00017769639089237899,0.013734177686274052
0.014640608802437782,-0.0015020277351140976,-0.016174720600247383,0.017581375315785408,-0.00017769639089237899,0.013734177686274052
0.014398367144167423,-0.0015405226731672883,-0.015834419056773186,0.01699591800570488,-0.0001761026942403987,0.014032970182597637
0.014844648540019989,-0.0014542308636009693,-0.01607140712440014,0.0170870553702116,-0.00016980740474537015,0.01372574083507061
0.014598915353417397,-0.0012905540643259883,-0.01620200090110302,0.016649730503559113,-0.000163653603522107,0.013775859959423542
0.014606386423110962,-0.0012131144758313894,-0.01622646488249302,0.017581980675458908,-0.00015791121404618025,0.013741840608417988
0.014537251554429531,-0.0012995913857594132,-0.01641584001481533,0.017803043127059937,-0.00018100625311490148,0.014299617148935795
0.014970188960433006,-0.001254010945558548,-0.015704195946455002,0.017579449340701103,-0.00017693052359391004,0.013926067389547825
0.014573555439710617,-0.0013239294057711959,-0.016105622053146362,0.01781705766916275,-0.00017143409058917314,0.014017824083566666
0.01461795624345541,-0.0014694983838126063,-0.016530180349946022,0.017680544406175613,-0.00018626511155162007,0.014459187164902687
0.014654884114861488,-0.00141626363620162,-0.016543051227927208,0.017526540905237198,-0.0001825032668421045,0.014138136990368366
0.014223144389688969,-0.0013520700158551335,-0.016425227746367455,0.017349258065223694,-0.0002011187607422471,0.013906259089708328
0.014797736890614033,-0.0014346729731187224,-0.016744788736104965,0.017745448276400566,-0.000267546100076288,0.013559584505856037
0.01469543855637312,-0.0013389118248596787,-0.01625501736998558,0.01792871206998825,-0.0003462636668700725,0.013917703181505203
0.015568781644105911,-0.0012661711079999804,-0.017363213002681732,0.017765337601304054,-0.0003562447673175484,0.013927112333476543
0.014624914154410362,-0.0013092292938381433,-0.016911765560507774,0.01754176802933216,-0.00037748293834738433,0.014188509434461594
0.014718987978994846,-0.001246164902113378,-0.016779830679297447,0.017319977283477783,-0.00039412968908436596,0.0141602149233222
0.014577822759747505,-0.0012189495610073209,-0.016516633331775665,0.017697090283036232,-0.0003969562822021544,0.014371156692504883
0.015252179466187954,-0.001377984881401062,-0.016631582751870155,0.017240945249795914,-0.0006326368893496692,0.014115641824901104
0.015394218266010284,-0.0012975727440789342,-0.017267122864723206,0.017500923946499825,-0.0006277987849898636,0.014011288993060589
0.015514246188104153,-0.0012293207691982388,-0.016574306413531303,0.017725413665175438,-0.0006088457303121686,0.013992136344313622
0.015243041329085827,-0.0010977265192195773,-0.01701676845550537,0.017078693956136703,-0.0005899696843698621,0.014194120652973652
0.015435646288096905,-0.0010642592096701264,-0.016542257741093636,0.01725626364350319,-0.0005346284597180784,0.014169588685035706
0.015590136870741844,-0.0011327216634526849,-0.016659993678331375,0.017241807654500008,-0.0004865982919000089,0.014521652832627296
0.015797987580299377,-0.0012133282143622637,-0.017237594351172447,0.017718778923153877,-0.0005104904994368553,0.014585861004889011
0.01591426692903042,-0.001298569026403129,-0.017358653247356415,0.017895301803946495,-0.0004802803450729698,0.01455896906554699
0.01553749106824398,-0.0012664617970585823,-0.017126936465501785,0.017475338652729988,-0.0004467707476578653,0.014246826060116291
0.01553749106824398,-0.0012664617970585823,-0.017126936465501785,0.017475338652729988,-0.0004467707476578653,0.014246826060116291
0.015608076006174088,-0.0012296757195144892,-0.016341300681233406,0.017658814787864685,-0.0004172024200670421,0.013720981776714325
0.01523568294942379,-0.0012000451097264886,-0.016934243962168694,0.01773020066320896,-0.00039127873606048524,0.013707190752029419
0.01594465784728527,-0.00115872488822788,-0.016840282827615738,0.017569655552506447,-0.0004173650813754648,0.013875984586775303
0.015329631976783276,-0.0011224218178540468,-0.01655072346329689,0.018103905022144318,-0.00039750817813910544,0.014838256873190403
0.015990203246474266,-0.0011910406174138188,-0.01715962029993534,0.017821073532104492,-0.00037690228782594204,0.013831062242388725
0.01576700247824192,-0.0011799082858487964,-0.016388392075896263,0.018055664375424385,-0.0003372002101968974,0.014205452054738998
0.015891917049884796,-0.0011473607737571,-0.016754845157265663,0.018058227375149727,-0.000296240410534665,0.014573181048035622
0.015831774100661278,-0.001366602024063468,-0.016181308776140213,0.01778058148920536,-0.0002767785335890949,0.014619676396250725
0.015488287433981895,-0.0012951516546308994,-0.01628444716334343,0.018194811418652534,-0.0003091751132160425,0.014247727580368519
0.015466274693608284,-0.0014162476873025298,-0.01622629538178444,0.01821058802306652,-0.00028028336237184703,0.014593442901968956
0.016096435487270355,-0.001309251761995256,-0.01666734367609024,0.01821226440370083,-0.0003078226000070572,0.01525773387402296
0.0158019308000803,-0.0012382239801809192,-0.015782469883561134,0.018926750868558884,-0.00029605222516693175,0.015236924402415752
0.016384325921535492,-0.0010821754112839699,-0.01636328734457493,0.018107518553733826,-0.0002829304139595479,0.014703234657645226
0.01601719856262207,-0.0010464551160112023,-0.016436351463198662,0.017859308049082756,-0.00030429649632424116,0.014736862853169441
0.016603007912635803,-0.001121458481065929,-0.017008649185299873,0.017393430694937706,-0.00029636971885338426,0.014845915138721466
0.016161546111106873,-0.0012694920878857374,-0.016986213624477386,0.017805030569434166,-0.00028493849094957113,0.014357694424688816
0.016140935942530632,-0.001352369086816907,-0.01624651625752449,0.017844436690211296,-0.00027410819893702865,0.014366144314408302
0.016267826780676842,-0.0011641961755231023,-0.01657584123313427,0.01763615570962429,-0.00033079719287343323,0.014778695069253445
0.01626722887158394,-0.0011212844401597977,-0.01619502529501915,0.017611056566238403,-0.0003174952289555222,0.015316198579967022
0.016746539622545242,-0.0009716861532069743,-0.0170375294983387,0.01741342432796955,-0.00029717638972215354,0.01592198945581913
0.016378387808799744,-0.0008333764271810651,-0.016730574890971184,0.017772620543837547,-0.0002787966514006257,0.01573893055319786
0.016657933592796326,-0.0008251616964116693,-0.016641221940517426,0.017836136743426323,-0.00026252868701703846,0.01551361009478569
0.01657366193830967,-0.0008350555435754359,-0.016646509990096092,0.017241990193724632,-0.00024804985150694847,0.015112444758415222
0.016547687351703644,-0.0008513593929819763,-0.01626051962375641,0.017730411142110825,-0.00027578315348364413,0.01536208763718605
0.016354398801922798,-0.0009541100007481873,-0.01692940667271614,0.017431017011404037,-0.0002676815784070641,0.015110086649656296
0.0163616593927145,-0.0010725404135882854,-0.016277819871902466,0.017302105203270912,-0.00025538288173265755,0.01528581790626049
0.016667725518345833,-0.0010481395293027163,-0.01637779176235199,0.017251616343855858,-0.0002438705851091072,0.015077110379934311
0.016676343977451324,-0.0009515588171780109,-0.0160886961966753,0.017344757914543152,-0.00023333201534114778,0.015724152326583862
0.017140479758381844,-0.0009757361258380115,-0.01676863804459572,0.017837559804320335,-0.0002584036556072533,0.015594011172652245
0.017140479758381844,-0.0009757361258380115,-0.01676863804459572,0.017837559804320335,-0.0002584036556072533,0.015594011172652245
0.017259856685996056,-0.0009118275484070182,-0.016773296520113945,0.017277071252465248,-0.0002503970463294536,0.015367800369858742
0.01710464246571064,-0.0008210166706703603,-0.01628589630126953,0.017481978982686996,-0.00024096616834867746,0.01547516230493784
0.0175639595836401,-0.0008301499765366316,-0.016579339280724525,0.017656177282333374,-0.00023209753271657974,0.01577799953520298
0.016708403825759888,-0.0008269108948297799,-0.01617293991148472,0.017477108165621758,-0.0002515848318580538,0.015767058357596397
0.016820551827549934,-0.0007639570976607502,-0.016980817541480064,0.017905736342072487,-0.00024677245528437197,0.015654724091291428
0.016941240057349205,-0.0007762010209262371,-0.016443608328700066,0.017587047070264816,-0.0002388345601502806,0.015432900749146938
0.017404213547706604,-0.0007919960771687329,-0.0164735559374094,0.01755935326218605,-0.00023118089302442968,0.01546412892639637
0.017448443919420242,-0.0008124248706735671,-0.01686769351363182,0.01737068220973015,-0.00022733068908564746,0.016400352120399475
0.01743386499583721,-0.0010284848976880312,-0.017294643446803093,0.0170586034655571,-0.00020729702373500913,0.015096276998519897
0.017582770437002182,-0.001003690529614687,-0.016508065164089203,0.01699765957891941,-0.00022744738089386374,0.015453553758561611
0.017739003524184227,-0.0008703688508830965,-0.016882898285984993,0.017509717494249344,-0.00022709487529937178,0.01602173037827015
0.01786663755774498,-0.0008604612085036933,-0.01688540168106556,0.017559710890054703,-0.0002500788832549006,0.015697620809078217
0.017637457698583603,-0.0007885200320743024,-0.0163804329931736,0.016618015244603157,-0.0002447366714477539,0.01591327041387558
0.01797042228281498,-0.0007644593715667725,-0.01717039756476879,0.016848260536789894,-0.00023585863527841866,0.01587405987083912
0.01800602674484253,-0.0007817501900717616,-0.01691385731101036,0.01692354492843151,-0.00025764433667063713,0.015877222642302513
0.017663445323705673,-0.0007955398177728057,-0.01770174130797386,0.018039057031273842,-0.00025065027875825763,0.016014963388442993
0.0175640769302845,-0.0007474031299352646,-0.017475808039307594,0.01822550967335701,-0.000329802482156083,0.015603017061948776
0.017733385786414146,-0.0008897840161807835,-0.01644366793334484,0.017984947189688683,-0.00038385382504202425,0.0159273911267519
0.018105043098330498,-0.0008934092475101352,-0.017111951485276222,0.01815979741513729,-0.0003586386446841061,0.015790876001119614
0.018669867888092995,-0.0007681648130528629,-0.016842786222696304,0.0169900581240654,-0.00038132714689709246,0.01535051316022873
0.017885148525238037,-0.0007828466477803886,-0.017997873947024345,0.016462592408061028,-0.0003703769179992378,0.015263013541698456
0.018228543922305107,-0.0006976011791266501,-0.01699027046561241,0.016644010320305824,-0.0003475245030131191,0.01598438248038292
0.018745869398117065,-0.0007164207636378706,-0.0169198177754879,0.016813769936561584,-0.0003265618870500475,0.016346657648682594
0.01805659383535385,-0.0006519945454783738,-0.01778639853000641,0.017491908743977547,-0.00035233309608884156,0.016190679743885994
0.018529068678617477,-0.0006437778938561678,-0.01692616194486618,0.017160039395093918,-0.00033941768924705684,0.01634395681321621
0.018529068678617477,-0.0006437778938561678,-0.01692616194486618,0.017160039395093918,-0.00033941768924705684,0.01634395681321621
0.018253972753882408,-0.0006721204263158143,-0.016686564311385155,0.017344659194350243,-0.00034491519909352064,0.016277823597192764
0.018766388297080994,-0.0006604620139114559,-0.017191225662827492,0.01621498167514801,-0.00036736909532919526,0.016149351373314857
0.018766388297080994,-0.0006604620139114559,-0.017191225662827492,0.01621498167514801,-0.00036736909532919526,0.016149351373314857
0.018106931820511818,-0.0008413866744376719,-0.016621680930256844,0.01698107272386551,-0.00040768928010948,0.016049303114414215
0.018106931820511818,-0.0008413866744376719,-0.016621680930256844,0.01698107272386551,-0.00040768928010948,0.016049303114414215
0.018436681479215622,-0.0007411903934553266,-0.016903674229979515,0.017437320202589035,-0.0003830659843515605,0.01619541086256504
0.018410446122288704,-0.0006518487934954464,-0.016728796064853668,0.017505481839179993,-0.00041342683834955096,0.01644178107380867
0.018788162618875504,-0.0006666606641374528,-0.01691242679953575,0.01729363016784191,-0.00041858843178488314,0.0164035577327013
0.0188666470348835,-0.0006123651983216405,-0.017222270369529724,0.01756865531206131,-0.00042023672722280025,0.016821613535284996
0.01828138530254364,-0.0006283016409724951,-0.0167543888092041,0.017154714092612267,-0.0006143132341094315,0.016671691089868546
0.01879858411848545,-0.0005116952816024423,-0.016433775424957275,0.017295854166150093,-0.0005902142147533596,0.016279103234410286
0.01840244233608246,-0.0005472319317050278,-0.01681138016283512,0.017429905012249947,-0.0005348694394342601,0.01649394817650318
0.019285017624497414,-0.0005543607985600829,-0.016696741804480553,0.017777159810066223,-0.0005621134187094867,0.016406748443841934
0.018971268087625504,-0.0005335976602509618,-0.016882186755537987,0.017188698053359985,-0.0005565579049289227,0.016422882676124573
0.0183878131210804,-0.0005540893762372434,-0.01676368899643421,0.017286080867052078,-0.0005473179626278579,0.01673305220901966
0.01904088631272316,-0.0005216792924329638,-0.01638585515320301,0.01766812428832054,-0.0005106470198370516,0.015546645037829876
0.018836509436368942,-0.0005913619534112513,-0.01687195897102356,0.017445983365178108,-0.0004778026486746967,0.015959607437253
0.018571780994534492,-0.0005693497369065881,-0.01657896488904953,0.01797552779316902,-0.000457291112979874,0.01596393622457981
0.01899738982319832,-0.0005060043185949326,-0.016793040558695793,0.017892712727189064,-0.000477772846352309,0.01633169688284397
0.018901292234659195,-0.0005444470443762839,-0.016822541132569313,0.017661070451140404,-0.0004563340335153043,0.016564536839723587
0.018628397956490517,-0.0004956669290550053,-0.0164930522441864,0.017270071431994438,-0.0004825783835258335,0.016829470172524452
0.01905369944870472,-0.0005264744977466762,-0.016938701272010803,0.01642250455915928,-0.00045597535790875554,0.017273427918553352
0.01915999874472618,-0.0004885280504822731,-0.015984656289219856,0.016531098634004593,-0.0004782362375408411,0.01718943938612938
0.019107786938548088,-0.0005154740647412837,-0.016777383163571358,0.01629859395325184,-0.0004551979654934257,0.017134839668869972
0.018975883722305298,-0.0004833423881791532,-0.01668509840965271,0.017093932256102562,-0.0004287458141334355,0.01652664504945278
0.01923278532922268,-0.0004529620346147567,-0.01666393131017685,0.01727854274213314,-0.0005024719866923988,0.01623697765171528
0.019155051559209824,-0.00042614861740730703,-0.01679287478327751,0.016820013523101807,-0.0004591613542288542,0.016518373042345047
0.019939739257097244,-0.000354110001353547,-0.016396956518292427,0.017575494945049286,-0.0004170757601968944,0.0168760996311903
0.019308190792798996,-0.00033343627001158893,-0.017141811549663544,0.017726005986332893,-0.0004186018486507237,0.017135964706540108
0.019434388726949692,-0.00035650964127853513,-0.01659359782934189,0.018133021891117096,-0.00041961765964515507,0.017003044486045837
0.01929374970495701,-0.0003444927278906107,-0.017068466171622276,0.017756357789039612,-0.0003913849068339914,0.01703089289367199
0.018285414204001427,-0.00032882607774809003,-0.01657743565738201,0.017226461321115494,-0.00036505344905890524,0.01696907728910446
0.020534062758088112,-0.00031446482171304524,-0.016376961022615433,0.017726905643939972,-0.000341935025062412,0.017558427527546883
0.02031133882701397,-0.00026416871696710587,-0.01679767668247223,0.016830163076519966,-0.0003679098153952509,0.017680935561656952
0.019848939031362534,-0.00011722461931640282,-0.016530057415366173,0.016608472913503647,-0.00035359093453735113,0.017408816143870354
0.019848939031362534,-0.00011722461931640282,-0.016530057415366173,0.016608472913503647,-0.00035359093453735113,0.017408816143870354
0.01898261159658432,-9.405754826730117e-05,-0.016533514484763145,0.017157243564724922,-0.0003351849445607513,0.01751667819917202
0.02026643604040146,-8.916831575334072e-05,-0.01593739539384842,0.017411956563591957,-0.00036061491118744016,0.017378516495227814
0.01997525617480278,-0.00012683661771006882,-0.016484439373016357,0.01805219240486622,-0.00034604209940880537,0.017009887844324112
0.019480347633361816,-0.00012168266403023154,-0.01633645035326481,0.017962103709578514,-0.00033034206717275083,0.01674516871571541
0.0201423242688179,-0.0001164417844847776,-0.016575979068875313,0.018104281276464462,-0.0003070214588660747,0.01656416803598404
0.019300028681755066,9.21986938919872e-05,-0.016150500625371933,0.017921175807714462,-0.00026864741812460124,0.017231471836566925
0.019300028681755066,9.21986938919872e-05,-0.016150500625371933,0.017921175807714462,-0.00026864741812460124,0.017231471836566925
0.01995731145143509,4.920825631415937e-07,-0.01675659790635109,0.018221834674477577,-0.0002399742224952206,0.01751570589840412
0.02048996463418007,6.601915014670112e-09,-0.016872435808181763,0.017587317153811455,-0.0002672667906153947,0.01731639727950096
0.02037172019481659,8.857312799870343e-11,-0.01709955744445324,0.018006667494773865,-0.0002598088176455349,0.017418012022972107
0.020676041021943092,1.1883214681360221e-12,-0.01669483073055744,0.017785513773560524,-0.000248216325417161,0.017114583402872086
0.020469214767217636,1.5942849051022757e-14,-0.016895275563001633,0.017543846741318703,-0.0002566637995187193,0.017163008451461792
0.019933123141527176,2.1389365981316238e-16,-0.016501301899552345,0.017811838537454605,-0.00026390523998998106,0.018435172736644745
0.02019425667822361,2.8696564286350356e-18,-0.01716412603855133,0.01749911531805992,-0.00028593718889169395,0.01742209494113922
0.020566869527101517,3.850010702256059e-20,-0.017889101058244705,0.017692500725388527,-0.00027924819733016193,0.017163682729005814
0.020703701302409172,5.165280463576581e-22,-0.017165325582027435,0.017497742548584938,-0.00033869032631628215,0.017651226371526718
0.020401792600750923,6.929882728267866e-24,-0.017417022958397865,0.0173446387052536,-0.0003366494784131646,0.01778075471520424
0.020500296726822853,9.297321727791615e-26,-0.016707025468349457,0.017326727509498596,-0.00034518438042141497,0.01773807965219021
0.020690182223916054,1.247354335943648e-27,-0.017214898020029068,0.01657913252711296,-0.00035086466232314706,0.017367200925946236
0.020702823996543884,1.6734849153447563e-29,-0.017510749399662018,0.01650792360305786,-0.00033117737621068954,0.017871305346488953
0.020850466564297676,2.2451935047739586e-31,-0.01713740825653076,0.016345640644431114,-0.0003605667152442038,0.017739996314048767
0.021128425374627113,3.012213824873712e-33,-0.0175472479313612,0.016694067046046257,-0.00034403661265969276,0.017793070524930954
0.021128425374627113,3.012213824873712e-33,-0.0175472479313612,0.016694067046046257,-0.00034403661265969276,0.017793070524930954
0.0210705753415823,5.421878458481593e-37,-0.017258115112781525,0.01689491793513298,-0.00035387749085202813,0.017961980774998665
0.021264413371682167,7.27414172960859e-39,-0.017655901610851288,0.017342153936624527,-0.00045957372640259564,0.018069710582494736
0.021264413371682167,7.27414172960859e-39,-0.017655901610851288,0.017342153936624527,-0.00045957372640259564,0.018069710582494736
0.020998578518629074,9.759203024943756e-41,-0.017803547903895378,0.017268555238842964,-0.0005087131285108626,0.018113641068339348
0.02110905759036541,1.3088127656793791e-42,-0.017753032967448235,0.017272625118494034,-0.0004752997192554176,0.017997272312641144
0.02119196020066738,1.8216880036222622e-44,-0.017419474199414253,0.01707114651799202,-0.0004727981286123395,0.01838337816298008
0.02162155695259571,0.0,-0.017431514337658882,0.017146006226539612,-0.0004697304975707084,0.01848633773624897
0.021507825702428818,0.0,-0.017575949430465698,0.01742912083864212,-0.00048521748976781964,0.018149614334106445
0.021310947835445404,0.0,-0.018582085147500038,0.016818564385175705,-0.0006645382381975651,0.018300805240869522
0.021310947835445404,0.0,-0.018582085147500038,0.016818564385175705,-0.0006645382381975651,0.018300805240869522
0.021291431039571762,0.0,-0.016747813671827316,0.016726475208997726,-0.0007355096749961376,0.018913567066192627
0.021604740992188454,0.0,-0.017836598679423332,0.017498984932899475,-0.0011579985730350018,0.01849360205233097
0.021969323977828026,0.0,-0.01736145280301571,0.017461473122239113,-0.0011612374801188707,0.018578222021460533
0.02178899571299553,0.0,-0.017584746703505516,0.017460808157920837,-0.0011587062617763877,0.017797697335481644
0.021747320890426636,0.0,-0.01743214949965477,0.016975173726677895,-0.0011090728221461177,0.017502551898360252
0.021747391670942307,0.0,-0.017740730196237564,0.01704530045390129,-0.0012200624914839864,0.01785864308476448
0.021795881912112236,0.0,-0.01755313202738762,0.01760675013065338,-0.0012137041194364429,0.018202194944024086
0.02202567458152771,0.0,-0.016901031136512756,0.017392300069332123,-0.0014554262161254883,0.018751243129372597
0.022315388545393944,0.0,-0.017012685537338257,0.017371952533721924,-0.0013695164816454053,0.018677355721592903
0.021457890048623085,0.0,-0.016892917454242706,0.016931656748056412,-0.0012821918353438377,0.01831207238137722
0.022055575624108315,0.0,-0.01780521124601364,0.016797810792922974,-0.0011522351996973157,0.018360713496804237
0.022393591701984406,0.0,-0.01797458529472351,0.016791505739092827,-0.001007994869723916,0.018422497436404228
0.022487783804535866,0.0,-0.017168456688523293,0.016495749354362488,-0.0008121358114294708,0.01892068423330784
0.0222589373588562,0.0,-0.01760006695985794,0.016890155151486397,-0.000686728919390589,0.018328318372368813
0.021982282400131226,0.0,-0.01716776378452778,0.016631348058581352,-0.0007056189933791757,0.017980780452489853
0.02152562141418457,0.0,-0.017300842329859734,0.016606086865067482,-0.0006302997935563326,0.017890509217977524
0.02158287540078163,0.0,-0.01741894707083702,0.016832131892442703,-0.0006520061288028955,0.01859404146671295
0.021874848753213882,5.222981417318806e-05,-0.01749344915151596,0.016532117500901222,-0.0005959856789559126,0.018027059733867645
0.02220192737877369,0.00010865891090361401,-0.01799466647207737,0.017083877697587013,-0.0005447690491564572,0.0178033746778965
0.021864429116249084,0.00010685314919101074,-0.017489466816186905,0.0169284176081419,-0.0005013931076973677,0.0189211368560791
0.021864429116249084,0.00010685314919101074,-0.017489466816186905,0.0169284176081419,-0.0005013931076973677,0.0189211368560791
0.022771483287215233,0.00010201861732639372,-0.01726180501282215,0.017520055174827576,-0.0004939823411405087,0.01901116780936718
0.022771483287215233,0.00010201861732639372,-0.01726180501282215,0.017520055174827576,-0.0004939823411405087,0.01901116780936718
0.022737916558980942,9.975706052500755e-05,-0.01689651422202587,0.01709962636232376,-0.00046249511069618165,0.01910167932510376
0.022869521751999855,0.0001138610823545605,-0.017262369394302368,0.016950732097029686,-0.00038014500751160085,0.018908236175775528
0.02226123958826065,0.00011223354522371665,-0.017545921728014946,0.01707466132938862,-0.00032575990189798176,0.018956512212753296
0.022048700600862503,0.00010995834600180387,-0.017857156693935394,0.016846202313899994,-0.00030211106059141457,0.019060641527175903
0.02221963182091713,0.00010776399722089991,-0.01684911921620369,0.01705891452729702,-0.0002829861477948725,0.019216841086745262
0.02296423353254795,0.00010565558477537706,-0.01728435605764389,0.017588092014193535,-0.0002921528066508472,0.019272828474640846
0.02282380498945713,0.00012066311319358647,-0.016791880130767822,0.017222698777914047,-0.00029983685817569494,0.01931815780699253
0.02258896641433239,0.00011861982784466818,-0.016934391111135483,0.017449820414185524,-0.000285542628262192,0.019539086148142815
0.022493310272693634,0.00011643077596090734,-0.017307410016655922,0.017372768372297287,-0.00027129490626975894,0.019453853368759155
0.02256210334599018,0.00012506563507486135,-0.01693033054471016,0.016978535801172256,-0.00029010185971856117,0.01942334696650505
0.02278877981007099,0.00012824586883652955,-0.017461609095335007,0.016767136752605438,-0.00028687494341284037,0.019373586401343346
0.022798845544457436,0.00012607304961420596,-0.017407966777682304,0.01665264554321766,-0.00027500372380018234,0.019473135471343994
0.023035679012537003,0.00012390442134346813,-0.017413118854165077,0.0172851774841547,-0.0002635398705024272,0.019242804497480392
0.023001685738563538,0.0002327038673684001,-0.0177003126591444,0.01732899248600006,-0.00025295885279774666,0.019451003521680832
0.02279699593782425,0.00022560877550859004,-0.01676672138273716,0.017745763063430786,-0.0002431926259305328,0.019873736426234245
0.022629108279943466,0.00025277421809732914,-0.017780261114239693,0.017676521092653275,-0.0002653340343385935,0.01943913847208023
0.0228690467774868,0.0002460532705299556,-0.017294924706220627,0.016611643135547638,-0.0002578631683718413,0.019743451848626137
0.022883806377649307,0.0002353909658268094,-0.017370421439409256,0.01705470122396946,-0.0002490752376616001,0.020336590707302094
0.022595876827836037,0.0002502214047126472,-0.017599254846572876,0.016953174024820328,-0.00024075382680166513,0.019962331280112267
0.023039832711219788,0.0002524273004382849,-0.017115909606218338,0.017657561227679253,-0.0002336269390070811,0.019952289760112762
0.023008113726973534,0.00024286037660203874,-0.017818961292505264,0.0174370426684618,-0.00023403362138196826,0.02020384930074215
0.021519619971513748,0.00023384776432067156,-0.017706196755170822,0.01680770516395569,-0.00022324231395032257,0.020215623080730438
0.023787837475538254,0.0002563844609539956,-0.01717095635831356,0.017167603597044945,-0.00021273930906318128,0.019711382687091827
0.02348266914486885,0.00024876822135411203,-0.017775768414139748,0.016078853979706764,-0.00024098571157082915,0.019937992095947266
0.02348266914486885,0.00024876822135411203,-0.017775768414139748,0.016078853979706764,-0.00024098571157082915,0.019937992095947266
0.023403991013765335,0.00024047550687100738,-0.017282623797655106,0.016286199912428856,-0.00023305181821342558,0.020046330988407135
0.023280983790755272,0.0003401372523512691,-0.01850414089858532,0.01636541076004505,-0.0002558584092184901,0.019779961556196213
0.02345474250614643,0.0003293112386018038,-0.01817680522799492,0.01604015938937664,-0.0002501402923371643,0.02002810873091221
0.023259198293089867,0.0003658859059214592,-0.017529737204313278,0.01651584915816784,-0.00027070226497016847,0.020351437851786613
0.023716267198324203,0.0003759913379326463,-0.017221996560692787,0.017267348244786263,-0.00039847110747359693,0.0202194657176733
0.02416849136352539,0.0003567704698070884,-0.017436303198337555,0.01695171929895878,-0.00040877744322642684,0.020431846380233765
0.02447723224759102,0.00038393103750422597,-0.018373478204011917,0.01592334359884262,-0.0004476766043808311,0.020533528178930283
0.0235487949103117,0.000367689790436998,-0.018315114080905914,0.016233481466770172,-0.00045155896805226803,0.020515689626336098
0.02325483411550522,0.0005285560619086027,-0.018480002880096436,0.01695835217833519,-0.0004503985110204667,0.020512495189905167
0.023976270109415054,0.0005691240658052266,-0.0182112418115139,0.01770591549575329,-0.0004515515174716711,0.020415347069501877
0.02421589195728302,0.0005915576475672424,-0.01768147386610508,0.01744931936264038,-0.00045034955837763846,0.020485656335949898
0.024078084155917168,0.0005493673961609602,-0.018076544627547264,0.01704731583595276,-0.0004254957311786711,0.020912708714604378
0.02429150603711605,0.000552526384126395,-0.017681533470749855,0.01653149537742138,-0.0004668729961849749,0.020438112318515778
0.02438044361770153,0.0005343688535504043,-0.018189560621976852,0.01604001224040985,-0.00047866650857031345,0.020326023921370506
0.024893222376704216,0.0006245376425795257,-0.018620844930410385,0.01636883057653904,-0.00043625844409689307,0.020906275138258934
0.02410277910530567,0.0006622921209782362,-0.0177339855581522,0.01607423461973667,-0.0004664765438064933,0.02141469158232212
0.02386697754263878,0.0006888414500281215,-0.017856590449810028,0.016508815810084343,-0.00043795633246190846,0.021918660029768944
0.024184251204133034,0.0007100204238668084,-0.018143052235245705,0.01640918292105198,-0.00045530335046350956,0.021357353776693344
0.024328988045454025,0.0008554754895158112,-0.017660344019532204,0.016726218163967133,-0.00043903524056077003,0.020199406892061234
0.025108912959694862,0.0009421123540960252,-0.018062995746731758,0.017384007573127747,-0.0004621592233888805,0.020683223381638527
0.02551012486219406,0.0009368801256641746,-0.0178938340395689,0.0169207863509655,-0.0004408532113302499,0.02149803377687931
0.025233332067728043,0.0009320711833424866,-0.01819935441017151,0.017149947583675385,-0.00046597301843576133,0.021899957209825516
0.025118442252278328,0.0009816851234063506,-0.01831086166203022,0.016383633017539978,-0.0004386055807117373,0.02107323333621025
0.025030244141817093,0.0010195666691288352,-0.01777283288538456,0.016554415225982666,-0.000475106731755659,0.02128884755074978
0.024877753108739853,0.0010009936522692442,-0.018046502023935318,0.01659727655351162,-0.0004951816517859697,0.02212466299533844
0.025493869557976723,0.000986970611847937,-0.01792079582810402,0.016994867473840714,-0.00047489418648183346,0.022689033299684525
0.025599665939807892,0.0010521416552364826,-0.01743302494287491,0.01733906753361225,-0.0005014284397475421,0.02180394157767296
0.025599665939807892,0.0010521416552364826,-0.01743302494287491,0.01733906753361225,-0.0005014284397475421,0.02180394157767296
0.025649862363934517,0.001159035717137158,-0.01793794147670269,0.017093461006879807,-0.00047549628652632236,0.021190015599131584
0.026463093236088753,0.0011524201836436987,-0.01795569248497486,0.01694074086844921,-0.0005926450830884278,0.020918605849146843
0.025795213878154755,0.0014160402351990342,-0.018363529816269875,0.01684836484491825,-0.000566671253181994,0.02170439250767231
0.02557092346251011,0.001334657077677548,-0.017318272963166237,0.01743205636739731,-0.0005180836305953562,0.0222788043320179
0.025921441614627838,0.0012476749252527952,-0.01770423911511898,0.017433583736419678,-0.0005462319822981954,0.022196581587195396
0.025504816323518753,0.0011763005750253797,-0.01776999980211258,0.01740439608693123,-0.0005602262681350112,0.022067654877901077
0.026027804240584373,0.001126476563513279,-0.017243657261133194,0.016619080677628517,-0.000535353843588382,0.021625934168696404
0.026541728526353836,0.001110454904846847,-0.018006451427936554,0.016934234648942947,-0.0005545183666981757,0.02182629145681858
0.026318078860640526,0.0011163837043568492,-0.017557282000780106,0.01645180769264698,-0.000551233475562185,0.02197670005261898
0.026468977332115173,0.0011978959664702415,-0.017931167036294937,0.016290957108139992,-0.0005400507943704724,0.021958978846669197
0.026539906859397888,0.0016039602924138308,-0.017758360132575035,0.01676488108932972,-0.0005699169123545289,0.022012436762452126
0.026816891506314278,0.0016925581730902195,-0.01709704101085663,0.016765551641583443,-0.00058262690436095,0.022092305123806
0.026845775544643402,0.0017174056265503168,-0.017650604248046875,0.017403259873390198,-0.0005551414215005934,0.022058170288801193
0.026967808604240417,0.0017499069217592478,-0.017647944390773773,0.017058541998267174,-0.000659757002722472,0.02188606932759285
0.02644018642604351,0.0015851753996685147,-0.01768091693520546,0.016814175993204117,-0.0006979443714953959,0.022045569494366646
0.027172205969691277,0.0015331754693761468,-0.018254747614264488,0.016843415796756744,-0.0006315474165603518,0.022210102528333664
0.02735043689608574,0.0015915257390588522,-0.017639847472310066,0.016761893406510353,-0.0006351523916237056,0.02218022383749485
0.02693941630423069,0.0018175265286117792,-0.017731113359332085,0.017261365428566933,-0.0005962288123555481,0.022307783365249634
0.027387669309973717,0.0018417204264551401,-0.017767196521162987,0.01699397899210453,-0.0005459053791128099,0.02241864614188671
0.02714892104268074,0.0021628846880048513,-0.01803733967244625,0.017072828486561775,-0.0005550891510210931,0.022180672734975815
0.027353566139936447,0.0019887902308255434,-0.018808694556355476,0.017030220478773117,-0.0005305117228999734,0.022142047062516212
0.027737196534872055,0.002099401783198118,-0.01898236945271492,0.01689467392861843,-0.0004950816510245204,0.02258153446018696
0.027675576508045197,0.0020119878463447094,-0.01833673194050789,0.017438765615224838,-0.00046155956806614995,0.02261168323457241
0.027675576508045197,0.0020119878463447094,-0.01833673194050789,0.017438765615224838,-0.00046155956806614995,0.02261168323457241
0.02816772274672985,0.002202031435444951,-0.018793143332004547,0.017058102414011955,-0.0004501811636146158,0.02237643674015999
0.025654498487710953,0.0022174164187163115,-0.01830303855240345,0.017061499878764153,-0.0004238360852468759,0.022359341382980347
0.028172951191663742,0.002520289272069931,-0.01832694187760353,0.016991250216960907,-0.0004417120653670281,0.022567451000213623
0.028172951191663742,0.002520289272069931,-0.01832694187760353,0.016991250216960907,-0.0004417120653670281,0.022567451000213623
0.02807055599987507,0.002410783665254712,-0.018622858449816704,0.01686054654419422,-0.0004006360250059515,0.022941386327147484
0.02817991003394127,0.002254991326481104,-0.01860939897596836,0.01706646755337715,-0.0004232724313624203,0.02284931018948555
0.029278693720698357,0.0022220322862267494,-0.017617342993617058,0.016678405925631523,-0.0004057754122186452,0.02248619869351387
0.029271814972162247,0.0024929470382630825,-0.018721599131822586,0.016618721187114716,-0.00042182428296655416,0.022092366591095924
0.028538675978779793,0.002584005706012249,-0.018482517451047897,0.016803152859210968,-0.00041891162982210517,0.021921275183558464
0.02763703092932701,0.002503820229321718,-0.01886027120053768,0.016462557017803192,-0.00045186065835878253,0.022920139133930206
0.028277292847633362,0.002810962963849306,-0.018734773620963097,0.017003774642944336,-0.0004254379600752145,0.022798998281359673
0.029325513169169426,0.0029116012156009674,-0.018266402184963226,0.016412511467933655,-0.00042683156789280474,0.022715415805578232
0.029089028015732765,0.0029531235340982676,-0.018316879868507385,0.01654871366918087,-0.0004271363141015172,0.023061363026499748
0.02917565405368805,0.0028200142551213503,-0.018550746142864227,0.016799937933683395,-0.00040180006180889904,0.022916335612535477
0.02909667417407036,0.002878831699490547,-0.018060807138681412,0.016445819288492203,-0.0004244905721861869,0.022807801142334938
0.028893092647194862,0.0028125413227826357,-0.018079660832881927,0.01649557799100876,-0.00040688246372155845,0.02277536503970623
0.02897520735859871,0.0028824559412896633,-0.018986666575074196,0.01617993786931038,-0.0004599040257744491,0.022176416590809822
0.028874581679701805,0.0027299567591398954,-0.01831822283565998,0.016826648265123367,-0.0004409419489093125,0.022305574268102646
0.029090847820043564,0.0030143435578793287,-0.018748583272099495,0.01665583625435829,-0.00046219080104492605,0.022871144115924835
0.02918160706758499,0.003123687347397208,-0.018348760902881622,0.01676943339407444,-0.0004426492378115654,0.02366795390844345
0.029165126383304596,0.0033061138819903135,-0.017989758402109146,0.016888795420527458,-0.00041020248318091035,0.023715713992714882
0.028753289952874184,0.003321047406643629,-0.018736643716692924,0.016668187454342842,-0.00042801181552931666,0.02338472753763199
0.028753289952874184,0.003321047406643629,-0.018736643716692924,0.016668187454342842,-0.00042801181552931666,0.02338472753763199
0.028486019000411034,0.003395971143618226,-0.018379805609583855,0.017173783853650093,-0.00041439649066887796,0.023163383826613426
0.028514623641967773,0.0036607205402106047,-0.01804186776280403,0.0163856390863657,-0.0004307003109715879,0.023057522252202034
0.028933588415384293,0.0038542563561350107,-0.018524397164583206,0.01655527576804161,-0.0004185280704405159,0.02308570221066475
0.028608305379748344,0.003396610263735056,-0.018507754430174828,0.01622760109603405,-0.00039632324478589,0.02358429692685604
0.02886928617954254,0.00325830583460629,-0.01857096329331398,0.016454536467790604,-0.00037793387309648097,0.02374821901321411
0.02872869372367859,0.0032782547641545534,-0.018640784546732903,0.016575299203395844,-0.0003954220737796277,0.023252317681908607
0.029189633205533028,0.0033806839492172003,-0.017785366624593735,0.016338728368282318,-0.00042978173587471247,0.023143548518419266
0.029646078124642372,0.0036747674457728863,-0.01854138821363449,0.01660272479057312,-0.0004708613269031048,0.02361604943871498
0.0282913725823164,0.0038844901137053967,-0.017948323860764503,0.01701645366847515,-0.0004692773218266666,0.023922523483633995
0.028551289811730385,0.003798288758844137,-0.018238015472888947,0.017013773322105408,-0.0007041036151349545,0.02370278723537922
0.029727034270763397,0.0035330906976014376,-0.01843685656785965,0.01669367216527462,-0.0007628044113516808,0.024906538426876068
0.02971074916422367,0.003562566125765443,-0.01830718293786049,0.01687854528427124,-0.00078201963333413,0.023203188553452492
0.029144588857889175,0.0037565974052995443,-0.018463600426912308,0.01640431210398674,-0.0007754666730761528,0.02309591881930828
0.029884809628129005,0.0038577669765800238,-0.018103379756212234,0.01696818508207798,-0.0007206961163319647,0.02380344644188881
0.029411930590867996,0.0040925657376646996,-0.018328731879591942,0.016705594956874847,-0.0007698720437474549,0.024334624409675598
0.029433364048600197,0.004081828985363245,-0.018428059294819832,0.016868077218532562,-0.0007903016521595418,0.024256985634565353
0.029027773067355156,0.00440591387450695,-0.01767558418214321,0.017046865075826645,-0.0007600995013490319,0.02424192987382412
0.028988545760512352,0.004244949668645859,-0.018575504422187805,0.016765478998422623,-0.0007235675002448261,0.024036955088377
0.02936895377933979,0.00509343296289444,-0.018903475254774094,0.016901632770895958,-0.0006519306916743517,0.024195676669478416
0.02931220456957817,0.004218318499624729,-0.018474562093615532,0.01761956326663494,-0.0006316301878541708,0.02387426234781742
0.029546178877353668,0.003975216299295425,-0.018689969554543495,0.017077354714274406,-0.0006145217339508235,0.02421575039625168
0.029792632907629013,0.00408488092944026,-0.018449949100613594,0.01670904830098152,-0.0005706226802431047,0.024244919419288635
0.029792632907629013,0.00408488092944026,-0.018449949100613594,0.01670904830098152,-0.0005706226802431047,0.024244919419288635
0.029702099040150642,0.00453417282551527,-0.01800408400595188,0.01660722866654396,-0.0005167562630958855,0.023899881169199944
0.029189033433794975,0.004685096442699432,-0.018790630623698235,0.01692057214677334,-0.0005439796368591487,0.024011408910155296
0.029539329931139946,0.0045550367794930935,-0.01851814240217209,0.016645627096295357,-0.0005357126938179135,0.023581665009260178
0.029539329931139946,0.0045550367794930935,-0.01851814240217209,0.016645627096295357,-0.0005357126938179135,0.023581665009260178
0.029560061171650887,0.004496774636209011,-0.018714049831032753,0.016017436981201172,-0.0005618184804916382,0.02405858226120472
0.029903093352913857,0.004450981970876455,-0.018438251689076424,0.016224104911088943,-0.0006348885945044458,0.02420741692185402
0.030181841924786568,0.004787965212017298,-0.01886237971484661,0.01590120419859886,-0.0006501369061879814,0.024428868666291237
0.03055422380566597,0.004838125314563513,-0.01954750530421734,0.016105419024825096,-0.0006576679297722876,0.02455615997314453
0.02891114167869091,0.00517077324911952,-0.018957680091261864,0.016544442623853683,-0.0006092935218475759,0.024745430797338486
0.030523626133799553,0.004954014904797077,-0.01898287981748581,0.016194723546504974,-0.0006158389733172953,0.02458176761865616
0.030187534168362617,0.004575364291667938,-0.017925430089235306,0.01619945466518402,-0.0005878768279217184,0.023689739406108856
0.030272215604782104,0.004622479900717735,-0.019246818497776985,0.01615309715270996,-0.0005595170659944415,0.024246040731668472
0.03060559555888176,0.005099717527627945,-0.019795916974544525,0.016022371128201485,-0.0005550142377614975,0.02498861402273178
0.0306596327573061,0.005486877169460058,-0.01947852224111557,0.015937168151140213,-0.0005865824641659856,0.02461826242506504
0.03084525465965271,0.005602498538792133,-0.018571287393569946,0.01650349423289299,-0.0005399967776611447,0.024736635386943817
0.030862903222441673,0.004649579059332609,-0.019190464168787003,0.016446474939584732,-0.0005621556774713099,0.025905786082148552
0.030955811962485313,0.0045808302238583565,-0.019315093755722046,0.017054935917258263,-0.0005249232635833323,0.025430915877223015
0.030700018629431725,0.005271755624562502,-0.02025141753256321,0.01654260791838169,-0.0005449087475426495,0.024982532486319542
0.031337663531303406,0.005570338573306799,-0.019735626876354218,0.016448620706796646,-0.0005141597939655185,0.024130528792738914
0.03132713586091995,0.0053832330740988255,-0.01827787235379219,0.01610175520181656,-0.0005695850122720003,0.025198180228471756
0.03132695332169533,0.005895078647881746,-0.0189718846231699,0.016222095116972923,-0.000518952845595777,0.0255551990121603
0.031285520642995834,0.005202684085816145,-0.01963510923087597,0.016438663005828857,-0.0005525529850274324,0.025497134774923325
0.03083052486181259,0.004971554968506098,-0.018447179347276688,0.0163178201764822,-0.0005791274597868323,0.024748872965574265
0.03135861083865166,0.005385914817452431,-0.01871207170188427,0.016939667984843254,-0.0006062831962481141,0.024518685415387154
0.03258321434259415,0.00522184232249856,-0.019807009026408195,0.015904216095805168,-0.0005731938290409744,0.025322172790765762
0.0325942188501358,0.005179917439818382,-0.01977306231856346,0.016606707125902176,-0.0006690142909064889,0.025546474382281303
0.0325942188501358,0.005179917439818382,-0.01977306231856346,0.016606707125902176,-0.0006690142909064889,0.025546474382281303
0.03077700547873974,0.0035129375755786896,-0.019626781344413757,0.01594405062496662,-0.0006789790350012481,0.025605343282222748
0.031156789511442184,0.0025337650440633297,-0.019869951531291008,0.016514070332050323,-0.0006270631565712392,0.02525237947702408
0.032052263617515564,0.002147432416677475,-0.019059041514992714,0.016892798244953156,-0.0006440743454732001,0.025141045451164246
0.03145480528473854,0.0030721714720129967,-0.019509149715304375,0.016890307888388634,-0.0005943137803114951,0.02512713149189949
0.03189687430858612,0.0038807361852377653,-0.020111342892050743,0.017613744363188744,-0.0006158186588436365,0.025346264243125916
0.0327884741127491,0.003937557805329561,-0.019539322704076767,0.017101125791668892,-0.0006205948302522302,0.025359928607940674
0.03228774666786194,0.0037122799549251795,-0.019261104986071587,0.016807829961180687,-0.0006605943199247122,0.025611022487282753
0.03166099637746811,0.0034440841991454363,-0.01959138549864292,0.016478028148412704,-0.0007090278086252511,0.025631332769989967
0.032481737434864044,0.0033949590288102627,-0.019560260698199272,0.01709848642349243,-0.000991037581115961,0.025709541514515877
0.03249223530292511,0.003401275957003236,-0.02004101686179638,0.016483545303344727,-0.0010038369800895452,0.025534115731716156
0.0320439487695694,0.0034502313937991858,-0.020066887140274048,0.016543108969926834,-0.000865714973770082,0.025367973372340202
0.0329655222594738,0.003421335481107235,-0.019865132868289948,0.016215486451983452,-0.0008621722809039056,0.025837458670139313
0.0327882282435894,0.0031764053273946047,-0.020274128764867783,0.016409555450081825,-0.000817241205368191,0.026195531710982323
0.032286643981933594,0.0030560027807950974,-0.020215416327118874,0.016784051433205605,-0.0007761672604829073,0.02611200138926506
0.03287763521075249,0.002844250062480569,-0.01977255754172802,0.016156470403075218,-0.0006897504208609462,0.02597839944064617
0.032937563955783844,0.0031722572166472673,-0.020198198035359383,0.0161069817841053,-0.000687184336129576,0.025600356981158257
0.0326373353600502,0.0035035021137446165,-0.020359592512249947,0.016155369579792023,-0.0007102848030626774,0.02602618746459484
0.033003006130456924,0.0034900051541626453,-0.019874218851327896,0.016582172363996506,-0.0006610267446376383,0.027289384976029396
0.03323055058717728,0.0031630839221179485,-0.020103758201003075,0.016845939680933952,-0.0006791962659917772,0.027198713272809982
0.03308789059519768,0.003016876522451639,-0.020405303686857224,0.016909752041101456,-0.0007095399778336287,0.026421336457133293
0.0331951305270195,0.002881428925320506,-0.02024582028388977,0.01682702824473381,-0.0007841360056772828,0.025226276367902756
0.03324415534734726,0.003093491308391094,-0.019968438893556595,0.016230616718530655,-0.0008027112344279885,0.025614256039261818
0.03444884717464447,0.003278712509199977,-0.02047867141664028,0.016186919063329697,-0.0008144148741848767,0.02636491134762764
0.03404279798269272,0.003465003101155162,-0.020476797595620155,0.016061052680015564,-0.0008985419408418238,0.025982236489653587
0.0321507453918457,0.003238722449168563,-0.02012302167713642,0.01692427322268486,-0.0009926343336701393,0.02629140391945839
0.0321507453918457,0.003238722449168563,-0.02012302167713642,0.01692427322268486,-0.0009926343336701393,0.02629140391945839
0.0330839604139328,0.003113600192591548,-0.02003243938088417,0.017013773322105408,-0.0009839468402788043,0.027139153331518173
0.03407370671629906,0.003066289471462369,-0.02002730779349804,0.01717294380068779,-0.0009726449497975409,0.027231382206082344
0.033844150602817535,0.0031087493989616632,-0.019844476133584976,0.017218153923749924,-0.0009695364278741181,0.02670232392847538
0.034660112112760544,0.003355342661961913,-0.020329829305410385,0.015559373423457146,-0.0008766984101384878,0.026505369693040848
0.03416648134589195,0.0034311446361243725,-0.0202323067933321,0.01721784844994545,-0.0008085038280114532,0.0262302178889513
0.03306886553764343,0.003540415782481432,-0.01993950456380844,0.017643997445702553,-0.0007563369581475854,0.02730407565832138
0.03241650387644768,0.003702891292050481,-0.019841263070702553,0.017860962077975273,-0.0006667880224995315,0.02788635343313217
0.0345638282597065,0.003546173684298992,-0.020294727757573128,0.01702945865690708,-0.0006852824008092284,0.027462352067232132
0.03434077277779579,0.0034891569521278143,-0.021072296425700188,0.016057344153523445,-0.0006663167732767761,0.02714413031935692
0.033951286226511,0.0043127951212227345,-0.020464465022087097,0.016907745972275734,-0.000594810233451426,0.027076274156570435
0.03388290852308273,0.004227697383612394,-0.02024194784462452,0.016523664817214012,-0.0005054422072134912,0.026748046278953552
0.034465719014406204,0.003955563064664602,-0.019543759524822235,0.015803709626197815,-0.0005277901072986424,0.02716311439871788
0.034142475575208664,0.003739448729902506,-0.019813794642686844,0.01598798856139183,-0.0005499692051671445,0.02749425731599331
0.034187715500593185,0.0038784192875027657,-0.021885104477405548,0.016914570704102516,-0.0005880724638700485,0.027272218838334084
0.033820755779743195,0.0038058580830693245,-0.020906958729028702,0.016292639076709747,-0.0008385449764318764,0.027350982651114464
0.03399670496582985,0.0035176840610802174,-0.01917184889316559,0.01614951156079769,-0.0009027424384839833,0.0275292806327343
0.034366536885499954,0.003847884712740779,-0.02048385515809059,0.015909653156995773,-0.000906035304069519,0.027309412136673927
0.03497790917754173,0.004192419350147247,-0.02149529568850994,0.01627938821911812,-0.0009055534028448164,0.027311738580465317
0.034660905599594116,0.0043684798292815685,-0.021285628899931908,0.015925709158182144,-0.0009663045057095587,0.027900975197553635
0.03442858159542084,0.0045341686345636845,-0.020068179816007614,0.016048487275838852,-0.0009961691685020924,0.028043925762176514
0.03413949906826019,0.004126289859414101,-0.02108447439968586,0.016588322818279266,-0.0009835496312007308,0.027934806421399117
0.03341987729072571,0.0038717531133443117,-0.020915087312459946,0.016175370663404465,-0.000972146459389478,0.028097666800022125
0.03549767658114433,0.004150225780904293,-0.01942209154367447,0.016834154725074768,-0.0009743107948452234,0.027842983603477478
0.035415176302194595,0.004293530713766813,-0.02032669261097908,0.01661493442952633,-0.0009171338169835508,0.027628254145383835
0.0342119038105011,0.004446670413017273,-0.021388927474617958,0.017018459737300873,-0.0008445039857178926,0.028090301901102066
0.03433552756905556,0.004537315107882023,-0.020471230149269104,0.016860416159033775,-0.0007340937736444175,0.028042051941156387
0.034626685082912445,0.004234520718455315,-0.02034609206020832,0.016661709174513817,-0.0007460476481355727,0.02788010612130165
0.035124242305755615,0.004471816122531891,-0.020489806309342384,0.016983715817332268,-0.0006727949366904795,0.02657122164964676
0.03498892858624458,0.004705712199211121,-0.020365439355373383,0.01664435677230358,-0.0006829646299593151,0.028371537104249
0.03506717085838318,0.0044866600073874,-0.020082855597138405,0.017076298594474792,-0.0006330465548671782,0.02855754643678665
0.03481079265475273,0.004412302281707525,-0.02035275101661682,0.016470003873109818,-0.0005470661562867463,0.028455767780542374
0.03481079265475273,0.004412302281707525,-0.02035275101661682,0.016470003873109818,-0.0005470661562867463,0.028455767780542374
0.03495175763964653,0.004873875994235277,-0.02044139802455902,0.01671432889997959,-0.0004801238828804344,0.02909582480788231
0.034833744168281555,0.004433722700923681,-0.019898682832717896,0.017023831605911255,-0.0005136515246704221,0.028994807973504066
0.03534499183297157,0.0045137605629861355,-0.0202510766685009,0.016972946003079414,-0.0005418560467660427,0.028099069371819496
0.03592829778790474,0.004387004766613245,-0.020747452974319458,0.01718723215162754,-0.0005610495572909713,0.027492515742778778
0.034420840442180634,0.0044953650794923306,-0.020361319184303284,0.017345469444990158,-0.0008125926251523197,0.028653575107455254
0.03476272150874138,0.004574916325509548,-0.020353132858872414,0.017031606286764145,-0.000839869084302336,0.028213851153850555
0.03459854796528816,0.004321306012570858,-0.020467916503548622,0.01649920456111431,-0.0008407255518250167,0.028554869815707207
0.03552672266960144,0.004488035105168819,-0.02025902457535267,0.017477229237556458,-0.0007643685094080865,0.029312431812286377
0.036630962044000626,0.004573965445160866,-0.02053143084049225,0.017186662182211876,-0.0006951970281079412,0.02891572006046772
0.035909947007894516,0.004697361961007118,-0.020377706736326218,0.017214657738804817,-0.0007155226194299757,0.02780412696301937
0.03420985862612724,0.004734215326607227,-0.019674083217978477,0.016953641548752785,-0.0006842204602435231,0.027160540223121643
0.03512391448020935,0.0047740451991558075,-0.01994326524436474,0.016850827261805534,-0.0006543536437675357,0.027945077046751976
0.03616873174905777,0.004687953740358353,-0.02040153369307518,0.01725037582218647,-0.0006580421468243003,0.029499448835849762
0.036181703209877014,0.004586993716657162,-0.020259462296962738,0.01704980432987213,-0.0006157843745313585,0.029646441340446472
0.03597813472151756,0.004534664563834667,-0.019917866215109825,0.01725177839398384,-0.0006367977475747466,0.029284821823239326
0.03612155839800835,0.00471161724999547,-0.020067919045686722,0.016836203634738922,-0.0006346161244437099,0.029174380004405975
0.03595294430851936,0.0045747882686555386,-0.02009083330631256,0.01696166582405567,-0.0006560926558449864,0.02885952591896057
0.03657048940658569,0.004985433537513018,-0.019807523116469383,0.01721499115228653,-0.0006087300716899335,0.0286134984344244
0.03624125197529793,0.0053962585516273975,-0.020426355302333832,0.016670895740389824,-0.000633359479252249,0.029174866154789925
0.03599546104669571,0.004699693527072668,-0.020856989547610283,0.01723388582468033,-0.0006206348189152777,0.02939540520310402
0.03600037470459938,0.004486458376049995,-0.01955554634332657,0.01694987155497074,-0.0006050704978406429,0.02945074997842312
0.0360286645591259,0.004607041832059622,-0.019802825525403023,0.017137503251433372,-0.0006238195346668363,0.02925799787044525
0.0361216701567173,0.0050760372541844845,-0.020495470613241196,0.016871660947799683,-0.0006049922085367143,0.02948378026485443
0.036830972880125046,0.0046765245497226715,-0.020884661003947258,0.017329784110188484,-0.0006291759200394154,0.029840705916285515
0.036213722079992294,0.00511527806520462,-0.02063446305692196,0.017507383599877357,-0.0006209882558323443,0.029907140880823135
0.034992944449186325,0.0052766394801437855,-0.020729120820760727,0.016792692244052887,-0.0006454967660829425,0.02952026203274727
0.036404088139534,0.004668714944273233,-0.020072663202881813,0.0169063787907362,-0.0006295580533333123,0.030767248943448067
0.036404088139534,0.004668714944273233,-0.020072663202881813,0.0169063787907362,-0.0006295580533333123,0.030767248943448067
0.035990167409181595,0.004989475477486849,-0.020055314525961876,0.016894152387976646,-0.0007204087451100349,0.030312227085232735
0.03695286065340042,0.005003559868782759,-0.020846208557486534,0.016831113025546074,-0.0007510795840062201,0.029919112101197243
0.03760102763772011,0.004926387220621109,-0.02104201167821884,0.01726343296468258,-0.0006735975621268153,0.030071910470724106
0.03500968590378761,0.005509281996637583,-0.0198990385979414,0.017306704074144363,-0.0006721027311868966,0.030372440814971924
0.037234265357255936,0.005050515290349722,-0.020733840763568878,0.017329657450318336,-0.0006510932580567896,0.02966189570724964
0.036924488842487335,0.00479666655883193,-0.02129388600587845,0.017398718744516373,-0.0006563155329786241,0.029987502843141556
0.036677468568086624,0.005241730250418186,-0.020522067323327065,0.017874032258987427,-0.0006905638729222119,0.031186724081635475
0.0365695022046566,0.005202153697609901,-0.02061690390110016,0.017230777069926262,-0.0007077657501213253,0.0309369545429945
0.03715623542666435,0.005936578381806612,-0.02101757749915123,0.016971783712506294,-0.0007271164795383811,0.029337262734770775
0.03676082193851471,0.005423133261501789,-0.020264536142349243,0.017118675634264946,-0.0008702148334123194,0.029217785224318504
0.03701417148113251,0.005653700791299343,-0.020204704254865646,0.01680905930697918,-0.0009243563399650156,0.030197393149137497
0.03737343102693558,0.005303191486746073,-0.020467890426516533,0.017196815460920334,-0.0009062743629328907,0.030361944809556007
0.0370880551636219,0.005423764232546091,-0.021427324041724205,0.016739286482334137,-0.0009045531623996794,0.03097117505967617
0.036953698843717575,0.00515510281547904,-0.020858146250247955,0.01685193181037903,-0.0009165782248601317,0.03175461292266846
0.03744611516594887,0.005419710651040077,-0.020470935851335526,0.016757821664214134,-0.0009183696238324046,0.03093641623854637
0.03781425952911377,0.005506393499672413,-0.02059507556259632,0.01718529686331749,-0.0009159429464489222,0.02987627498805523
0.03733117878437042,0.005197943653911352,-0.020984560251235962,0.018246883526444435,-0.0008553244406357408,0.02969004400074482
0.03774842619895935,0.005334662739187479,-0.020301172509789467,0.018627600744366646,-0.0008567165932618082,0.031147101894021034
0.038159675896167755,0.005489980801939964,-0.020735466852784157,0.01834820955991745,-0.0008630109368823469,0.031125923618674278
0.03787821903824806,0.006116125266999006,-0.021259818226099014,0.018106790259480476,-0.0008671735995449126,0.029780864715576172
0.03800196573138237,0.005591257940977812,-0.020795788615942,0.01732143945991993,-0.0008550456841476262,0.03137928247451782
0.03825658932328224,0.0053236037492752075,-0.020599450916051865,0.017353707924485207,-0.0008317615720443428,0.03157440200448036
0.03845474496483803,0.005069908685982227,-0.02120766043663025,0.01692446693778038,-0.0008000566158443689,0.030981751158833504
0.03845474496483803,0.005069908685982227,-0.02120766043663025,0.01692446693778038,-0.0008000566158443689,0.030981751158833504
0.038726598024368286,0.005751966964453459,-0.021037815138697624,0.01804479770362377,-0.0008922614506445825,0.031258706003427505
0.03861081600189209,0.0055527337826788425,-0.02087078057229519,0.017984354868531227,-0.0008343792869709432,0.0311497263610363
0.03861081600189209,0.0055527337826788425,-0.02087078057229519,0.017984354868531227,-0.0008343792869709432,0.0311497263610363
0.03795461356639862,0.005480276420712471,-0.020985813811421394,0.017924051731824875,-0.0008390283910557628,0.031253185123205185
0.03883816674351692,0.00522657623514533,-0.020929750055074692,0.01770811714231968,-0.0008880571112968028,0.03142068535089493
0.03815720975399017,0.005817865952849388,-0.020718205720186234,0.018066925927996635,-0.0008933968492783606,0.031995344907045364
0.03815720975399017,0.005817865952849388,-0.020718205720186234,0.018066925927996635,-0.0008933968492783606,0.031995344907045364
0.04000750556588173,0.005244133528321981,-0.02066679485142231,0.0178357046097517,-0.0008012813050299883,0.03211519494652748
0.039112430065870285,0.00522298039868474,-0.021600376814603806,0.017745304852724075,-0.0007688093464821577,0.032025184482336044
0.0373745895922184,0.005467095412313938,-0.021666305139660835,0.01667875051498413,-0.0007629896281287074,0.031379975378513336
0.039129406213760376,0.005980952177196741,-0.021635208278894424,0.016809538006782532,-0.0007501429063268006,0.03160642832517624
0.03936019539833069,0.005895685870200396,-0.02142944373190403,0.016845162957906723,-0.0007910021231509745,0.03212296590209007
0.039399899542331696,0.005636374466121197,-0.021687930449843407,0.017442798241972923,-0.0007408099481835961,0.0322643406689167
0.04072732850909233,0.005421031732112169,-0.021864403039216995,0.018402747809886932,-0.0007936306647025049,0.03246933966875076
0.03913232311606407,0.005662970244884491,-0.021846115589141846,0.018176719546318054,-0.0008019068045541644,0.031012732535600662
0.03842858970165253,0.006078202743083239,-0.0215605515986681,0.01747623272240162,-0.0007988542201928794,0.03272939845919609
0.039893437176942825,0.005905172787606716,-0.02171514928340912,0.01847686618566513,-0.0007834718562662601,0.03362279012799263
0.03996064513921738,0.00629444420337677,-0.02180357649922371,0.018151214346289635,-0.0008235457353293896,0.03382522240281105
0.03962712362408638,0.005681260954588652,-0.022415846586227417,0.018170002847909927,-0.0008944066939875484,0.031543999910354614
0.039216358214616776,0.005914431996643543,-0.022272037342190742,0.017732299864292145,-0.0008990842616185546,0.031423069536685944
0.039630625396966934,0.005651358515024185,-0.02154489792883396,0.01766287535429001,-0.0009072294342331588,0.03270029276609421
0.039832454174757004,0.00589563837274909,-0.021958163008093834,0.01768062822520733,-0.0010432767448946834,0.033000845462083817
0.039832454174757004,0.00589563837274909,-0.021958163008093834,0.01768062822520733,-0.0010432767448946834,0.033000845462083817
0.040056511759757996,0.006164176855236292,-0.022250821813941002,0.01708279177546501,-0.001031213323585689,0.034079864621162415
0.03953085467219353,0.0054359957575798035,-0.022337859496474266,0.017750998958945274,-0.0008846314740367234,0.03381163999438286
0.04160705581307411,0.005632825195789337,-0.02239619567990303,0.017733918502926826,-0.0008727231179364026,0.03171032667160034
0.04160705581307411,0.005632825195789337,-0.02239619567990303,0.017733918502926826,-0.0008727231179364026,0.03171032667160034
0.038924846798181534,0.006032230332493782,-0.022627290338277817,0.01778438501060009,-0.0008040309767238796,0.0325283482670784
0.03931942582130432,0.005948538426309824,-0.021856963634490967,0.01708766259253025,-0.000811272650025785,0.03385038301348686
0.03972203657031059,0.005554663483053446,-0.021313047036528587,0.017362862825393677,-0.0008226186619140208,0.03369009867310524
0.04027605429291725,0.005006428807973862,-0.021901234984397888,0.017148876562714577,-0.0008316992898471653,0.03322121500968933
0.04147995263338089,0.005791204981505871,-0.02277235873043537,0.017444470897316933,-0.0008791835862211883,0.032779838889837265
0.040527187287807465,0.005848460365086794,-0.02258792333304882,0.018483076244592667,-0.0009170064004138112,0.03181026130914688
0.040448300540447235,0.005841438192874193,-0.022305285558104515,0.017443643882870674,-0.000856104597914964,0.034260328859090805
0.040448300540447235,0.005841438192874193,-0.022305285558104515,0.017443643882870674,-0.000856104597914964,0.034260328859090805
0.04079049080610275,0.005588889122009277,-0.02330945059657097,0.01730683073401451,-0.0008574125822633505,0.034120138734579086
0.040614306926727295,0.006053147371858358,-0.022917842492461205,0.017467455938458443,-0.0008490140317007899,0.03347645699977875
0.04049336537718773,0.006619163788855076,-0.021950697526335716,0.01721649244427681,-0.0008558109984733164,0.033669453114271164
0.04058694466948509,0.005971806589514017,-0.022246407344937325,0.01785808801651001,-0.0008758814074099064,0.03366188332438469
0.040606237947940826,0.005768133793026209,-0.022495703771710396,0.017904698848724365,-0.0009624612866900861,0.03346345201134682
0.040867023169994354,0.0057034119963645935,-0.023584730923175812,0.017428899183869362,-0.0010013120481744409,0.03357859328389168
0.04040980711579323,0.005860327277332544,-0.02331649884581566,0.01794917695224285,-0.0010560319060459733,0.03354337811470032
0.04138562083244324,0.006676442455500364,-0.02281862124800682,0.018327491357922554,-0.000995020498521626,0.0339115746319294
0.04158543422818184,0.0059818909503519535,-0.022554656490683556,0.019219834357500076,-0.0011524155270308256,0.03386186435818672
0.04126935079693794,0.005816185846924782,-0.022806281223893166,0.018768083304166794,-0.0009977493900805712,0.033065758645534515
