davideferrari95/blind_handover_controller/data/Test 108 - [2024-02-07 -- 16-24-29]/joint_states_data.csv
shoulder_pan_joint,shoulder_lift_joint,elbow_joint,wrist_1_joint,wrist_2_joint,wrist_3_joint
0.005175954662263393,0.005285799037665129,-0.013493269681930542,0.008752873167395592,-0.0,0.005479499697685242
0.00534067815169692,0.005443179979920387,-0.013032600283622742,0.008579330518841743,-0.0,0.0057374523021280766
0.00534067815169692,0.005443179979920387,-0.013032600283622742,0.008579330518841743,-0.0,0.0057374523021280766
0.005195096600800753,0.005628481507301331,-0.013255787082016468,0.009022921323776245,-0.0,0.005632242187857628
0.0057034860365092754,0.0051802401430904865,-0.01347589772194624,0.008914760313928127,-0.0,0.006093822885304689
0.0055235279724001884,0.005367234814912081,-0.01322938408702612,0.008523640222847462,-0.0,0.0056334794498980045
0.005277225282043219,0.005408367142081261,-0.013016811572015285,0.00812529493123293,-0.0,0.005441226530820131
0.005114792380481958,0.005316730588674545,-0.013011247850954533,0.007988855242729187,-0.0,0.005439828149974346
0.005654434207826853,0.004916209261864424,-0.012626801617443562,0.007668635807931423,-0.0,0.005415961146354675
0.005343717522919178,0.005051394458860159,-0.013172461651265621,0.007838694378733635,-0.0,0.005863764323294163
0.00504195224493742,0.005432079546153545,-0.012596270069479942,0.00782809779047966,-0.0,0.0054159509018063545
0.005241604056209326,0.005064671393483877,-0.01338900439441204,0.008007265627384186,-0.0,0.005433870013803244
0.005081189796328545,0.0055844830349087715,-0.012975983321666718,0.007889911532402039,-0.0,0.005214485805481672
0.005089325364679098,0.005337242968380451,-0.01367148756980896,0.007835038006305695,-0.0,0.004939948674291372
0.005237038712948561,0.004940594080835581,-0.013333778828382492,0.008188234642148018,-0.0,0.0052702235989272594
0.004690150730311871,0.00463597197085619,-0.013107946142554283,0.0078049651347100735,-0.0,0.005293205380439758
0.005053411237895489,0.004618454724550247,-0.013167038559913635,0.00751422718167305,-0.0,0.005739174317568541
0.00555754778906703,0.004618213512003422,-0.013306506909430027,0.008014465682208538,-0.0,0.005408611614257097
0.005081907380372286,0.004820982925593853,-0.013370620086789131,0.008194098249077797,-0.0,0.00533654447644949
0.005166616756469011,0.005094961263239384,-0.012836751528084278,0.008176309987902641,-0.0,0.005288698244839907
0.005029311403632164,0.004888868425041437,-0.013208630494773388,0.007815511897206306,-0.0,0.005113671533763409
0.005189679563045502,0.004733933601528406,-0.013066381216049194,0.007658530492335558,-0.0,0.005392874125391245
0.005515460856258869,0.005183907225728035,-0.013572552241384983,0.007376809138804674,-0.0,0.0051787737756967545
0.00537135498598218,0.005181279499083757,-0.013272820971906185,0.007314908783882856,-0.0,0.004941467195749283
0.005041168536990881,0.005936671979725361,-0.014089487493038177,0.00750737963244319,-0.0,0.004819005262106657
0.005163954105228186,0.005370601546019316,-0.013266383670270443,0.00783440750092268,-0.0,0.00505251158028841
0.005515359342098236,0.00521386181935668,-0.013609116896986961,0.007668857928365469,-0.0,0.0051349010318517685
0.005515359342098236,0.00521386181935668,-0.013609116896986961,0.007668857928365469,-0.0,0.0051349010318517685
0.005080847069621086,0.005578216165304184,-0.013245894573628902,0.007473192643374205,-0.0,0.0054373182356357574
0.005089070647954941,0.005250524263828993,-0.013508958742022514,0.006705820094794035,-0.0,0.0054099066182971
0.005827611777931452,0.005687806289643049,-0.013239395804703236,0.006768231280148029,-0.0,0.005496036261320114
0.004920963663607836,0.0056948731653392315,-0.013248425908386707,0.007835970260202885,-0.0,0.0052793449722230434
0.005215304438024759,0.005227219313383102,-0.013175942935049534,0.0076478151604533195,-0.0,0.005476245190948248
0.005131979007273912,0.005452036391943693,-0.012084659188985825,0.008382538333535194,-0.0,0.005252813454717398
0.005390937905758619,0.005111255217343569,-0.013156978413462639,0.008511972613632679,-0.0,0.0052800425328314304
0.005109577439725399,0.005342246498912573,-0.01346887368708849,0.008022996596992016,-0.0,0.005195682402700186
0.004962062928825617,0.00552223389968276,-0.01260243821889162,0.00816332921385765,-0.0,0.004991977009922266
0.005217115394771099,0.005088650155812502,-0.013162065297365189,0.008540378883481026,-0.0,0.005631122272461653
0.005057630129158497,0.00519883818924427,-0.012613083235919476,0.008415165357291698,-0.0,0.005902095697820187
0.00490395724773407,0.005203629843890667,-0.013625683262944221,0.007711675018072128,-0.0,0.005609860643744469
0.005253445357084274,0.0057519953697919846,-0.01331152580678463,0.008189231157302856,-0.0,0.005075988359749317
0.0053185513243079185,0.00579803716391325,-0.012829327024519444,0.008197007700800896,-0.0,0.004648735746741295
0.005587317049503326,0.00551234558224678,-0.013072164729237556,0.00812491588294506,-0.0,0.004814098589122295
0.0053229304030537605,0.005214105360209942,-0.013026130385696888,0.007840016856789589,-0.0,0.005059802904725075
0.004822619259357452,0.005750736221671104,-0.013151587918400764,0.007934551686048508,-0.0,0.0057112774811685085
0.005456338636577129,0.005537618882954121,-0.01226335670799017,0.00820519495755434,-0.0,0.005284436978399754
0.005469112191349268,0.00583233218640089,-0.012838336639106274,0.007815627381205559,-0.0,0.004919505212455988
0.005817041732370853,0.005829624831676483,-0.012494252063333988,0.007549809757620096,-0.0,0.00510405795648694
0.005314678885042667,0.005869106389582157,-0.013048573397099972,0.008005502633750439,-0.0,0.005059152375906706
0.004954598844051361,0.005474613979458809,-0.01279879454523325,0.008044291287660599,-0.0,0.0058366162702441216
0.004954598844051361,0.005474613979458809,-0.01279879454523325,0.008044291287660599,-0.0,0.0058366162702441216
0.005437304265797138,0.005732202436774969,-0.012969085946679115,0.008052852936089039,-0.0,0.005309680942445993
0.005437304265797138,0.005732202436774969,-0.012969085946679115,0.008052852936089039,-0.0,0.005309680942445993
0.005438676569610834,0.005803764332085848,-0.012630387209355831,0.008443284779787064,-0.0,0.005115893669426441
0.0053444416262209415,0.005415547639131546,-0.012926600873470306,0.008244851604104042,-0.0,0.005192986689507961
0.005034728907048702,0.005728809162974358,-0.012579676695168018,0.008204295299947262,-0.0,0.005508252885192633
0.005218676291406155,0.005387613549828529,-0.013207652606070042,0.008349901996552944,-0.0,0.005240402650088072
0.0053461045026779175,0.005777314770966768,-0.01275597233325243,0.007628688123077154,-0.0,0.004770149011164904
0.0053461045026779175,0.005777314770966768,-0.01275597233325243,0.007628688123077154,-0.0,0.004770149011164904
0.00526668643578887,0.005539278499782085,-0.013033697381615639,0.007826173678040504,-0.0,0.00476062623783946
0.0049971966072916985,0.005894978065043688,-0.012858687900006771,0.007823236286640167,-0.0,0.005161828361451626
0.0047704665921628475,0.005627515260130167,-0.012346719391644001,0.007391322869807482,-0.0,0.0055835009552538395
0.005598234478384256,0.005969109479337931,-0.0121113620698452,0.007800056133419275,-0.0,0.004401552956551313
0.005598234478384256,0.005969109479337931,-0.0121113620698452,0.007800056133419275,-0.0,0.004401552956551313
0.005394347943365574,0.005625730846077204,-0.012769557535648346,0.008156339637935162,-0.0,0.004421119578182697
0.005663817282766104,0.005569773260504007,-0.012475773692131042,0.007715688087046146,-0.0,0.004769389051944017
0.005080074537545443,0.005497490055859089,-0.012141087092459202,0.0081221554428339,-0.0,0.005070218816399574
0.0048974440433084965,0.005632182117551565,-0.012047547847032547,0.008348288014531136,-0.0,0.005474215839058161
0.0054566944018006325,0.005592511035501957,-0.011714973486959934,0.0076428367756307125,-0.0,0.0052537694573402405
0.0055660223588347435,0.0055683390237390995,-0.01230595726519823,0.007154799997806549,-0.0,0.0048073651269078255
0.005576556082814932,0.005123058333992958,-0.011760580353438854,0.0076936520636081696,-0.0,0.004730237182229757
0.005312650464475155,0.005295556504279375,-0.012174079194664955,0.008154923096299171,-0.0,0.004744609352201223
0.005171214696019888,0.0056970384903252125,-0.012114501558244228,0.00765754422172904,-0.0,0.004934342578053474
0.004990209825336933,0.005664194002747536,-0.012381474487483501,0.007303662598133087,-0.0,0.005077035166323185
0.005943058058619499,0.005743905436247587,-0.012469733133912086,0.008069287985563278,-0.0,0.005167926661670208
0.005428931675851345,0.0056022400967776775,-0.011598742567002773,0.008273876272141933,-0.0,0.004841185640543699
0.005404944531619549,0.005746612325310707,-0.01226394809782505,0.007930237799882889,-0.0,0.0047082481905817986
0.005450993310660124,0.005687250290066004,-0.011749421246349812,0.007762025576084852,-0.0,0.004564749076962471
0.005137380212545395,0.00589226046577096,-0.012366351671516895,0.008025753311812878,-0.0,0.004897709470242262
0.005275136325508356,0.006021913141012192,-0.012147241272032261,0.00769403763115406,-0.0,0.004927168600261211
0.005275136325508356,0.006021913141012192,-0.012147241272032261,0.00769403763115406,-0.0,0.004927168600261211
0.005436751525849104,0.005455503240227699,-0.011953688226640224,0.007396271917968988,-0.0,0.005010242573916912
0.005679442081600428,0.005796211771667004,-0.012337243184447289,0.007899181917309761,-0.0,0.004826643038541079
0.005306013859808445,0.0053015416488051414,-0.01180421281605959,0.008345636539161205,-0.0,0.0047430978156626225
0.005294371861964464,0.005638490431010723,-0.012087056413292885,0.007882865145802498,-0.0,0.004673257935792208
0.005297686904668808,0.005506051704287529,-0.01230949442833662,0.008039385080337524,-0.0,0.004204220604151487
0.0057441373355686665,0.005727063398808241,-0.012252625077962875,0.007868164218962193,-0.0,0.004409339278936386
0.005441523622721434,0.005339058116078377,-0.011867218650877476,0.008166223764419556,-0.0,0.004624123219400644
0.005315902177244425,0.00565444165840745,-0.012693926692008972,0.007817534729838371,-0.0,0.004421839024871588
0.005151904653757811,0.005774710327386856,-0.011994820088148117,0.008139554411172867,-0.0,0.0049144490621984005
0.005645645782351494,0.005779789295047522,-0.012706536799669266,0.008146665059030056,-0.0,0.004860177636146545
0.005694621708244085,0.00531310960650444,-0.0128923449665308,0.007976189255714417,-0.0,0.004458283539861441
0.0057044364511966705,0.0056808702647686005,-0.012580166570842266,0.0070401402190327644,-0.0,0.004520264454185963
0.005268886685371399,0.005269346758723259,-0.012020500376820564,0.007193188648670912,-0.0,0.004367006476968527
0.005751502234488726,0.005491575226187706,-0.01205929834395647,0.007395662367343903,-0.0,0.004868173971772194
0.005686784628778696,0.005190571770071983,-0.012877058237791061,0.007295545190572739,-0.0,0.0048373108729720116
0.005727210082113743,0.005696124397218227,-0.01278007123619318,0.007211602758616209,-0.0,0.00492381677031517
0.005214680451899767,0.005441249813884497,-0.013393075205385685,0.007259320002049208,-0.0,0.004442073404788971
0.00574685400351882,0.005361353047192097,-0.012968368828296661,0.006904657930135727,-0.0,0.004454480018466711
0.005336272995918989,0.005458624567836523,-0.013012843206524849,0.007106588687747717,-0.0,0.005017733201384544
0.005296031944453716,0.005427270196378231,-0.012815481051802635,0.007256078999489546,-0.0,0.004919570870697498
0.005525586660951376,0.005507038440555334,-0.012862831354141235,0.007634909823536873,-0.0,0.004511293023824692
0.005490371957421303,0.00514301797375083,-0.013021416030824184,0.007564341649413109,-0.0,0.004482589196413755
0.005545437335968018,0.005211763083934784,-0.012135351076722145,0.00738147459924221,-0.0,0.004544338211417198
0.005545437335968018,0.005211763083934784,-0.012135351076722145,0.00738147459924221,-0.0,0.004544338211417198
0.005248195491731167,0.005519020836800337,-0.012691302224993706,0.007876588962972164,-0.0,0.0044113639742136
0.005412039812654257,0.0051612588576972485,-0.012749319896101952,0.007578982971608639,-0.0,0.004646927583962679
0.005626630503684282,0.00555753568187356,-0.012818013317883015,0.007877690717577934,-0.0,0.004568409640341997
0.005626630503684282,0.00555753568187356,-0.012818013317883015,0.007877690717577934,-0.0,0.004568409640341997
0.005324954632669687,0.006095866672694683,-0.012597940862178802,0.0076615214347839355,-0.0,0.004201365169137716
0.005388932768255472,0.005627013277262449,-0.012690534815192223,0.007385558448731899,-0.0,0.003957886714488268
0.005569279193878174,0.005319596733897924,-0.013051471672952175,0.007835453376173973,-0.0,0.0038596095982939005
0.00563050014898181,0.005266567692160606,-0.012047014199197292,0.007963402196764946,-0.0,0.004181343596428633
0.0055257463827729225,0.004981434438377619,-0.012852996587753296,0.008122734725475311,-0.0,0.004776920657604933
0.005498588550835848,0.005544890183955431,-0.012248813174664974,0.007896879687905312,-0.0,0.004748222418129444
0.005569834727793932,0.005262576509267092,-0.012706141918897629,0.007677010260522366,-0.0,0.00473059294745326
0.005289318505674601,0.0058595603331923485,-0.012494721449911594,0.007787417620420456,-0.0,0.004339578561484814
0.006263482850044966,0.005288885906338692,-0.012348928488790989,0.007592006586492062,-0.0,0.003965870942920446
0.006591822952032089,0.004912135656923056,-0.012303870171308517,0.007501237094402313,-0.0,0.004229910206049681
0.005418346729129553,0.005025854334235191,-0.011986855417490005,0.007959028705954552,-0.0,0.004114846233278513
0.0050997124053537846,0.005381663795560598,-0.012961238622665405,0.008253837935626507,-0.0,0.004451662302017212
0.005493055563420057,0.005559095181524754,-0.011878901161253452,0.008149801753461361,-0.0,0.004480828531086445
0.005926405545324087,0.005494916811585426,-0.012319031171500683,0.007304211612790823,-0.0,0.004576435778290033
0.006656818091869354,0.005570203997194767,-0.01237949077039957,0.007070978172123432,-0.0,0.004671235103160143
0.006656818091869354,0.005570203997194767,-0.01237949077039957,0.007070978172123432,-0.0,0.004671235103160143
0.005862744525074959,0.005273755174130201,-0.01220184750854969,0.007996328175067902,-0.0,0.004369861911982298
0.005934502929449081,0.005063432268798351,-0.012322946451604366,0.00827812310308218,-0.0,0.004034760873764753
0.0057240561582148075,0.0053416951559484005,-0.01190126035362482,0.007906041108071804,-0.0,0.0038762465119361877
0.005830484442412853,0.0056199911050498486,-0.012656014412641525,0.008032966405153275,-0.0,0.004373182542622089
0.006320406682789326,0.0054007237777113914,-0.012023458257317543,0.008218320086598396,-0.0,0.005011421628296375
0.005951548460870981,0.004917811136692762,-0.012472917325794697,0.007705567870289087,-0.0,0.004872860386967659
0.006192267406731844,0.004752696957439184,-0.013000145554542542,0.007005659863352776,-0.0,0.00444002216681838
0.005668169818818569,0.005622687749564648,-0.012024513445794582,0.007192002609372139,-0.0,0.003978636581450701
0.00590838398784399,0.005516987759619951,-0.012357437051832676,0.007822485640645027,-0.0,0.0037314912769943476
0.005959375761449337,0.005978877190500498,-0.0120726702734828,0.007673680782318115,-0.0,0.0037770539056509733
0.005896294955164194,0.0049448334611952305,-0.012796662747859955,0.007053998298943043,-0.0,0.004236884880810976
0.005652160849422216,0.005371772218495607,-0.012342337518930435,0.007702264469116926,-0.0,0.004114481620490551
0.006115950644016266,0.005351943429559469,-0.0122773302718997,0.007641366217285395,-0.0,0.004030715674161911
0.0060599371790885925,0.005941685289144516,-0.012183728627860546,0.00706436624750495,-0.0,0.003914474975317717
0.005875501316040754,0.005607458762824535,-0.012791777960956097,0.007644494064152241,-0.0,0.0037845696788281202
0.006057736463844776,0.005240735597908497,-0.01232463400810957,0.007543448358774185,-0.0,0.0035859011113643646
0.005540329497307539,0.0048849876038730145,-0.012520062737166882,0.007252882234752178,-0.0,0.0035427419934421778
0.005755712278187275,0.005199271719902754,-0.01241258904337883,0.006924716755747795,-0.0,0.0038151799235492945
0.005991515703499317,0.005494497250765562,-0.012267772108316422,0.007184459362179041,-0.0,0.0041040838696062565
0.006039209198206663,0.005487960763275623,-0.012314921244978905,0.007361202966421843,-0.0,0.004434078466147184
0.006183619145303965,0.005292164161801338,-0.011898146942257881,0.006973206531256437,-0.0,0.004207864869385958
0.005471688695251942,0.0052033825777471066,-0.012429808266460896,0.007145686540752649,-0.0,0.003983423113822937
0.00605015130713582,0.004947490990161896,-0.012119852937757969,0.007509357295930386,-0.0,0.0038627772592008114
0.006127414759248495,0.005328045692294836,-0.012518065981566906,0.007593120448291302,-0.0,0.0038677984848618507
0.006220331881195307,0.005187210626900196,-0.012357130646705627,0.007641589734703302,-0.0,0.003951066639274359
0.0063770366832613945,0.005935670342296362,-0.012021577917039394,0.007124315015971661,-0.0,0.00400590943172574
0.005725163035094738,0.005316354334354401,-0.01222609169781208,0.0072306194342672825,-0.0,0.003968020435422659
0.005776957608759403,0.005058207083493471,-0.011938112787902355,0.00748215988278389,-0.0,0.00398642523214221
0.006136240437626839,0.004997543059289455,-0.012574659660458565,0.007356993854045868,-0.0,0.003999331966042519
0.006003859452903271,0.005261234939098358,-0.012184279970824718,0.0073251728899776936,-0.0,0.003945477306842804
0.006003859452903271,0.005261234939098358,-0.012184279970824718,0.0073251728899776936,-0.0,0.003945477306842804
0.006110476329922676,0.005612693261355162,-0.012778653763234615,0.007643736433237791,-0.0,0.003867329331114888
0.005815667565912008,0.005514428019523621,-0.012236392125487328,0.007842740043997765,-0.0,0.003486873582005501
0.005589579697698355,0.005106451455503702,-0.01205905806273222,0.0075114876963198185,-0.0,0.003369989339262247
0.005722275003790855,0.004849166143685579,-0.012524956837296486,0.007322154473513365,-0.0,0.003529446665197611
0.006209429353475571,0.004782309755682945,-0.012059472501277924,0.007481166627258062,-0.0,0.004107848275452852
0.005666211247444153,0.005522401072084904,-0.011847256682813168,0.007483800873160362,-0.0,0.004016183782368898
0.005666211247444153,0.005522401072084904,-0.011847256682813168,0.007483800873160362,-0.0,0.004016183782368898
0.006099234335124493,0.005153723061084747,-0.012454355135560036,0.00704356050118804,-0.0,0.0037311676423996687
0.00619842391461134,0.004886205308139324,-0.012194422073662281,0.007431723177433014,-0.0,0.0036614439450204372
0.006241579074412584,0.005341262556612492,-0.01219638530164957,0.008043274283409119,-0.0,0.0037368156481534243
0.0058622960932552814,0.0051298588514328,-0.011869489215314388,0.007190479896962643,-0.0,0.0038258021231740713
0.0061779203824698925,0.005522587336599827,-0.012946950271725655,0.0073008607141673565,-0.0,0.003492795629426837
0.006797753274440765,0.0051679350435733795,-0.01197570189833641,0.007663606200367212,-0.0,0.0033410380128771067
0.006391835864633322,0.005133644212037325,-0.012534861452877522,0.0075072553008794785,-0.0,0.0034481873735785484
0.006399558391422033,0.005005031358450651,-0.012296008877456188,0.007363969925791025,-0.0,0.0036520182620733976
0.0061620608903467655,0.0048371776938438416,-0.012309860438108444,0.007492413744330406,-0.0,0.003636796260252595
0.006075781770050526,0.004831901751458645,-0.012691771611571312,0.007638051174581051,-0.0,0.0036224068608134985
0.00625105295330286,0.005622717551887035,-0.012369925156235695,0.007375988643616438,-0.0,0.003487464739009738
0.0067398217506706715,0.00536676961928606,-0.01374845951795578,0.0073807924054563046,-0.0,0.0032545803114771843
0.006311214994639158,0.005275438539683819,-0.011994369328022003,0.0075846510007977486,-0.0,0.003157448023557663
0.005966672673821449,0.004961283877491951,-0.012142014689743519,0.008016949519515038,-0.0,0.003236806020140648
0.00662033399567008,0.004545098636299372,-0.01221410371363163,0.007826314307749271,-0.0,0.003574293339625001
0.00662033399567008,0.004545098636299372,-0.01221410371363163,0.007826314307749271,-0.0,0.003574293339625001
0.006283604074269533,0.0049885534681379795,-0.012331286445260048,0.007020625751465559,-0.0,0.0037523095961660147
0.006438674405217171,0.005045436788350344,-0.012901672162115574,0.007071385160088539,-0.0,0.0034240619279444218
0.006590740289539099,0.004980527330189943,-0.012737764976918697,0.007620131131261587,-0.0,0.003216453595086932
0.0064557939767837524,0.005042631644755602,-0.013168896548449993,0.007654628716409206,-0.0,0.003170677926391363
0.007442516274750233,0.0048279911279678345,-0.012524870224297047,0.007511620409786701,-0.0,0.003467348637059331
0.006654008757323027,0.004755465313792229,-0.01210856530815363,0.006849370431154966,-0.0,0.003457664744928479
0.006497459951788187,0.004726684186607599,-0.012235458940267563,0.007335365284234285,-0.0,0.0034933341667056084
0.006763598881661892,0.00493920361623168,-0.013149860315024853,0.007942943833768368,-0.0,0.00320246908813715
0.0068563418462872505,0.004974288400262594,-0.012908419594168663,0.007002676837146282,-0.0,0.0029293042607605457
0.00650799972936511,0.0048978328704833984,-0.01315237395465374,0.007240957580506802,-0.0,0.0033383311238139868
0.0065841213800013065,0.004879233427345753,-0.012562977150082588,0.007837642915546894,-0.0,0.0034773750230669975
0.006597686093300581,0.005250734742730856,-0.0133785679936409,0.007101873401552439,-0.0,0.003403320210054517
0.0066331070847809315,0.00550287589430809,-0.01261330395936966,0.006669898051768541,-0.0,0.0033297769259661436
0.006660887505859137,0.004681695252656937,-0.01258481852710247,0.007221945561468601,-0.0,0.003326758276671171
0.006719088181853294,0.004598160274326801,-0.012507995590567589,0.00794149748980999,-0.0,0.0032379881013184786
0.006815161556005478,0.004962614271789789,-0.013259530998766422,0.007313459180295467,-0.0,0.00318056414835155
0.00682124774903059,0.004969607573002577,-0.013318195939064026,0.007079083006829023,-0.0,0.003168452298268676
0.007139722350984812,0.0047525628469884396,-0.012486965395510197,0.007980875670909882,-0.0,0.003083002520725131
0.0065504624508321285,0.004709228873252869,-0.013194490224123001,0.008378743194043636,-0.0,0.0030984776094555855
0.006403026636689901,0.005059131886810064,-0.01256861537694931,0.008356704376637936,-0.0,0.0029136640951037407
0.006664801388978958,0.005032687913626432,-0.012574651278555393,0.00801368523389101,-0.0,0.002914530225098133
0.00693620415404439,0.004819040186703205,-0.011689023114740849,0.0072419713251292706,-0.0,0.002869530115276575
0.007420853711664677,0.005322271026670933,-0.010869793593883514,0.006983123254030943,-0.0,0.0027585625648498535
0.006668927613645792,0.0050954148173332214,-0.013275427743792534,0.007875367067754269,-0.0,0.002828206866979599
0.006353514734655619,0.0052528465166687965,-0.01339349802583456,0.007555556949228048,-0.0,0.0028202610556036234
0.006353514734655619,0.0052528465166687965,-0.01339349802583456,0.007555556949228048,-0.0,0.0028202610556036234
0.006759303156286478,0.004998409654945135,-0.012980804778635502,0.007753878366202116,-0.0,0.0028008257504552603
0.006706884130835533,0.00476546585559845,-0.01254316046833992,0.007719876244664192,-0.0,0.002764833392575383
0.007145953830331564,0.005272953771054745,-0.012588930316269398,0.007597644813358784,-0.0,0.0026360342744737864
0.00677160918712616,0.005200800485908985,-0.012218456715345383,0.008096973411738873,-0.0,0.0029325420036911964
0.0068282498978078365,0.0048468271270394325,-0.01254555955529213,0.007848973385989666,-0.0,0.0030200770124793053
0.006883618887513876,0.004842296242713928,-0.012590659782290459,0.008066074922680855,-0.0,0.0029460072983056307
0.006987622939050198,0.004747730679810047,-0.012278283946216106,0.0078096636570990086,-0.0,0.002712547779083252
0.006904098205268383,0.004664876498281956,-0.012490693479776382,0.007815701887011528,-0.0,0.002648476278409362
0.007089299149811268,0.004953866358846426,-0.01259183045476675,0.007434025872498751,-0.0,0.0027035609818995
0.007316657342016697,0.004893845412880182,-0.012214657850563526,0.0075746504589915276,-0.0,0.0027351155877113342
0.007439226843416691,0.005280680023133755,-0.012729802168905735,0.008575385436415672,-0.0,0.0027923204470425844
0.0066686999052762985,0.005348533857613802,-0.012417485006153584,0.008550586178898811,-0.0,0.0028078879695385695
0.007109102793037891,0.00508103845641017,-0.01245045941323042,0.007686318829655647,-0.0,0.0026406864635646343
0.007189042400568724,0.0053630429320037365,-0.012785054743289948,0.007453671656548977,-0.0,0.002613620599731803
0.00692588509991765,0.005187228787690401,-0.012843522243201733,0.007834755815565586,-0.0,0.002585147274658084
0.006763566751033068,0.00580622348934412,-0.013121538795530796,0.007581481710076332,-0.0,0.002494893269613385
0.007034702692180872,0.005457787308841944,-0.011998182162642479,0.00702704768627882,-0.0,0.0026115435175597668
0.007261736784130335,0.004989137873053551,-0.012814560905098915,0.007127176504582167,-0.0,0.0027240717317909002
0.007362539414316416,0.005111401434987783,-0.012357747182250023,0.007694449741393328,-0.0,0.0027068951167166233
0.007334340829402208,0.005099092610180378,-0.013027249835431576,0.007631835527718067,-0.0,0.0027237238828092813
0.007678730878978968,0.005055880639702082,-0.012821245938539505,0.007327329833060503,-8.12250618764665e-06,0.0027148404624313116
0.007151287514716387,0.005688849836587906,-0.012892714701592922,0.007112523075193167,-5.303415946400492e-07,0.0024457077961415052
0.007208804599940777,0.0052328468300402164,-0.012879092246294022,0.007964433170855045,-3.4627518630259146e-08,0.0024395715445280075
0.007471479009836912,0.004868286661803722,-0.012126087211072445,0.007928191684186459,-2.2609294436648497e-09,0.002446545520797372
0.007010381203144789,0.0047685387544333935,-0.012833014130592346,0.007611453998833895,-1.4762253919275992e-10,0.0023987889289855957
0.007183691021054983,0.0047670770436525345,-0.012823173776268959,0.007458234205842018,-9.638696091274213e-12,0.0026736371219158173
0.007339669391512871,0.00523687107488513,-0.013073964044451714,0.007726311217993498,-6.293379446048464e-13,0.002912821713835001
0.007339669391512871,0.00523687107488513,-0.013073964044451714,0.007726311217993498,-6.293379446048464e-13,0.002912821713835001
0.006963049527257681,0.005457267165184021,-0.012491149827837944,0.008519203402101994,-4.1091272501595985e-14,0.0028552585281431675
0.007083902135491371,0.005425645038485527,-0.012706355191767216,0.008087440393865108,-2.6829664842743925e-15,0.002563102636486292
0.007355825509876013,0.005205831490457058,-0.012700988911092281,0.007776825688779354,-1.7517853665124689e-16,0.002302352339029312
0.007043073885142803,0.004989763256162405,-0.012388420291244984,0.007899568416178226,-1.1437906094525994e-17,0.00215599755756557
0.007046721410006285,0.005071638152003288,-0.012685303576290607,0.007526450790464878,-7.468135536949655e-19,0.00201729335822165
0.00719286547973752,0.005375365260988474,-0.012084192596375942,0.007335194386541843,-4.8761589482836336e-20,0.002009232761338353
0.007241110783070326,0.005191710777580738,-0.012877083383500576,0.00767615158110857,-0.00017521929112263024,0.0021096416749060154
0.006974678952246904,0.005122434813529253,-0.012201113626360893,0.007870604284107685,-0.00031483889324590564,0.002359976526349783
0.007259000558406115,0.0048801288940012455,-0.012550446204841137,0.007366830017417669,-0.0003601333301048726,0.002423890633508563
0.00772590609267354,0.005054423585534096,-0.012480410747230053,0.00821574218571186,-0.00040032286779023707,0.002388356951996684
0.007842893712222576,0.0050933933816850185,-0.012635267339646816,0.008450869470834732,-0.00040452516986988485,0.0022407062351703644
0.007381482981145382,0.005548724438995123,-0.012119249440729618,0.007793030701577663,-0.000824690330773592,0.002007152885198593
0.007059410214424133,0.005314888898283243,-0.012580806389451027,0.008119882084429264,-0.0009448519558645785,0.00211757211945951
0.007595055736601353,0.004965587519109249,-0.012210538610816002,0.008537709712982178,-0.001173776458017528,0.002291574841365218
0.007669499143958092,0.005070225801318884,-0.012858880683779716,0.008256450295448303,-0.0016268509207293391,0.002250238321721554
0.007418634835630655,0.005052946507930756,-0.012669652700424194,0.007620889227837324,-0.002046984853222966,0.0024097352288663387
0.007349050138145685,0.005355220753699541,-0.013235427439212799,0.0082090487703681,-0.00208696979098022,0.0022181039676070213
0.007882165722548962,0.005673815496265888,-0.012846995145082474,0.008252600207924843,-0.0018523827893659472,0.002126287901774049
0.00751990731805563,0.005090244114398956,-0.012398062273859978,0.008083525113761425,-0.0018132415134459734,0.0019476000452414155
0.007731201592832804,0.004734306130558252,-0.013092241249978542,0.0076228780671954155,-0.0016434785211458802,0.001904244883917272
0.007470135577023029,0.005111731123179197,-0.01193523034453392,0.008246222510933876,-0.0013499894412234426,0.0017484608106315136
0.007599096279591322,0.005077130626887083,-0.012627103365957737,0.008426293730735779,-0.001048155827447772,0.0017914685886353254
0.008385660126805305,0.005361626856029034,-0.012495266273617744,0.007985125295817852,-0.0008496857481077313,0.001927030272781849
0.007770136464387178,0.005185076501220465,-0.012826820835471153,0.007782455068081617,-0.0008459063828922808,0.0021994016133248806
0.008006448857486248,0.005210523027926683,-0.012673042714595795,0.007883601821959019,-0.0007385300705209374,0.002513421233743429
0.007872107438743114,0.005357022397220135,-0.012391990050673485,0.008082164451479912,-0.0006499783485196531,0.002274415921419859
0.008009405806660652,0.005079530645161867,-0.01251132320612669,0.007623292505741119,-0.0005800583167001605,0.0020334767177700996
0.007725683972239494,0.005416887812316418,-0.011929401196539402,0.007640861440449953,-0.0005237148725427687,0.0019260583212599158
0.007725683972239494,0.005416887812316418,-0.011929401196539402,0.007640861440449953,-0.0005237148725427687,0.0019260583212599158
0.007821819745004177,0.005218539386987686,-0.012657342478632927,0.008055654354393482,-0.00047736053238622844,0.0015763641567900777
0.00843987986445427,0.005288475658744574,-0.012153515592217445,0.00743751460686326,-0.00043855051626451313,0.0015769030433148146
0.007853992283344269,0.00534808449447155,-0.013175931759178638,0.0072744241915643215,-0.0004055836470797658,0.0019253524951636791
0.008195106871426105,0.004912753589451313,-0.012880690395832062,0.007618146948516369,-0.00037722947308793664,0.0020390625577419996
0.00898054614663124,0.005027666687965393,-0.013032454065978527,0.008206930942833424,-0.0003525839711073786,0.0023658249992877245
0.0093386797234416,0.005288494285196066,-0.013423597440123558,0.008317544125020504,-0.00033096186234615743,0.0021757245995104313
0.00818094052374363,0.00522209145128727,-0.012596774846315384,0.007844516076147556,-0.0003118414315395057,0.0019506184617057443
0.00845558475703001,0.005351817701011896,-0.013163955882191658,0.008363892324268818,-0.00029480905504897237,0.0018389493925496936
0.008717837743461132,0.005312878172844648,-0.013681615702807903,0.007305904291570187,-0.00026577935204841197,0.0013645397266373038
0.008862312883138657,0.005481114611029625,-0.012579051777720451,0.007313264533877373,-0.0002533081569708884,0.0013763325987383723
0.008907911367714405,0.005149731412529945,-0.013140510767698288,0.008170753717422485,-0.00024195623700506985,0.001348813297227025
0.009258356876671314,0.00538856303319335,-0.012770095840096474,0.008471790701150894,-0.00023157685063779354,0.001498017692938447
0.008792425505816936,0.0051401155069470406,-0.013099911622703075,0.008055186830461025,-0.00022205190907698125,0.0016717776888981462
0.00927392765879631,0.005159909371286631,-0.013015445321798325,0.00786948949098587,-0.00021328106231521815,0.001855891547165811
0.009455719031393528,0.005413656122982502,-0.013124990276992321,0.008251096121966839,-0.00020517484517768025,0.0018172262934967875
0.009089883416891098,0.005283821374177933,-0.013156954199075699,0.00813433900475502,-0.00019766394689213485,0.0016470551490783691
0.009087974205613136,0.005292219575494528,-0.012777550145983696,0.008110458962619305,-0.0001906830002553761,0.0015891001094132662
0.009078487753868103,0.005332759115844965,-0.013587617315351963,0.008149697445333004,-0.00018417829414829612,0.0014030263992026448
0.00890872348099947,0.005621953867375851,-0.012581157498061657,0.00833145435899496,-0.0001781031023710966,0.0012897002743557096
0.011205081827938557,0.0053457035683095455,-0.013057595118880272,0.007818162441253662,-0.00017241589375771582,0.0013084179954603314
0.009139019064605236,0.005010837223380804,-0.01278394740074873,0.0074733248911798,-0.00016708085604477674,0.0012837216490879655
0.00881838146597147,0.005282997619360685,-0.013332745060324669,0.008059493266046047,-0.00016206565487664193,0.0013880085898563266
0.009146317839622498,0.005145586561411619,-0.013159957714378834,0.008279911242425442,-0.00015734299086034298,0.0013495751190930605
0.009987163357436657,0.005282450467348099,-0.013320556841790676,0.007920699194073677,-0.0001528883003629744,0.0012702103704214096
0.00950099341571331,0.005281270015984774,-0.013288630172610283,0.007751427125185728,-0.00014867819845676422,0.0012506992788985372
0.009109538048505783,0.004989242181181908,-0.013122769072651863,0.008396044373512268,-0.00014469418965745717,0.0011993816588073969
0.009383034892380238,0.0054443287663161755,-0.012971245683729649,0.008456858806312084,-0.00014091805496718735,0.0011704083299264312
0.009383034892380238,0.0054443287663161755,-0.012971245683729649,0.008456858806312084,-0.00014091805496718735,0.0011704083299264312
0.009425963275134563,0.005190910771489143,-0.012976082973182201,0.00827123038470745,-0.0001373337727272883,0.0012127546360716224
0.010009321384131908,0.005899802315980196,-0.013243693858385086,0.008098888210952282,-0.00013392775144893676,0.001182568958029151
0.009665869176387787,0.005288180895149708,-0.012730731628835201,0.00823097862303257,-0.00013068642874713987,0.001138729159720242
0.009531966410577297,0.004872615449130535,-0.013510487042367458,0.007884238846600056,-0.00012759825040120631,0.0012150638503953815
0.00925495382398367,0.005159089341759682,-0.013022073544561863,0.007659436669200659,-0.0001246526080649346,0.0012162221828475595
0.00970559474080801,0.005212265066802502,-0.013373025692999363,0.008123776875436306,-0.00012183989747427404,0.0011672194814309478
0.009846612811088562,0.005629023537039757,-0.01296837069094181,0.008246460929512978,-0.00011915156937902793,0.0011164401657879353
0.009090959094464779,0.005386935546994209,-0.012816773727536201,0.008087631314992905,-0.00011657906725304201,0.0011048958403989673
0.009502053260803223,0.005371619015932083,-0.013250930234789848,0.00806228257715702,-0.00011411550076445565,0.0010708539048209786
0.009606781415641308,0.004923718981444836,-0.013011258095502853,0.007944101467728615,-0.00010948786803055555,0.0010334227699786425
0.009798657149076462,0.005162024404853582,-0.012497706338763237,0.0074456362053751945,-0.00010731208021752536,0.0010023806244134903
0.00980244018137455,0.005590316839516163,-0.013198718428611755,0.008117401972413063,-0.00010522088268771768,0.0009487580391578376
0.009447293356060982,0.005491412710398436,-0.01311392243951559,0.008036276325583458,-0.00010320979345124215,0.0008793777669779956
0.009710192680358887,0.004941226448863745,-0.013319792225956917,0.00809520110487938,-0.00010127409768756479,0.0008776582544669509
0.009518630802631378,0.005032060667872429,-0.012541048228740692,0.0079368120059371,-9.940965537680313e-05,0.0008282288326881826
0.00926911924034357,0.005578025244176388,-0.01308214757591486,0.00840718299150467,-9.761280671227723e-05,0.0008380892686545849
0.00962253287434578,0.005316088907420635,-0.013220914639532566,0.008481420576572418,-9.587962267687544e-05,0.0008549413760192692
0.009988358244299889,0.005120754241943359,-0.013129562139511108,0.007999887689948082,-9.420690912520513e-05,0.0008608605712652206
0.00976653303951025,0.005341611802577972,-0.012981832958757877,0.007867833599448204,-9.259157377528027e-05,0.0009671410080045462
0.009985123760998249,0.005326195154339075,-0.012473768554627895,0.008705761283636093,-9.103061893256381e-05,0.0009658198105171323
0.00984765961766243,0.005508952774107456,-0.013013633899390697,0.008703047409653664,-8.95215998752974e-05,0.0008369213319383562
0.010589850135147572,0.005133918486535549,-0.012570385821163654,0.007747493218630552,-8.806170080788434e-05,0.000837340485304594
0.010173320770263672,0.004718229174613953,-0.013279017992317677,0.008030418306589127,-8.664869528729469e-05,0.0007454700535163283
0.009753136895596981,0.004528654273599386,-0.012542791664600372,0.008666249923408031,-8.528021135134622e-05,0.0007127043209038675
0.009836719371378422,0.004248960874974728,-0.012971512041985989,0.008855799213051796,-8.395448821829632e-05,0.0006859209388494492
0.01070567686110735,0.004394541960209608,-0.012400701642036438,0.009014134295284748,-8.266911754617468e-05,0.000628672307357192
0.009827220812439919,0.004278251901268959,-0.012370521202683449,0.008971292525529861,-8.142265869537368e-05,0.000578303646761924
0.009458570741117,0.004049196839332581,-0.01278847549110651,0.008683600462973118,-8.02131908130832e-05,0.00048735339078120887
0.010721801780164242,0.003922539763152599,-0.012103925459086895,0.008853952400386333,-7.903909863671288e-05,0.0004286724142730236
0.010721801780164242,0.003922539763152599,-0.012103925459086895,0.008853952400386333,-7.903909863671288e-05,0.0004286724142730236
0.009923562407493591,0.004321394022554159,-0.0127381831407547,0.008807050064206123,-7.78989342506975e-05,0.0004478535265661776
0.00960574671626091,0.004178032279014587,-0.012719843536615372,0.008665892295539379,-7.679115515202284e-05,0.0004298410494811833
0.010462895035743713,0.0042389798909425735,-0.012685669586062431,0.008374102413654327,-7.571442984044552e-05,0.000456646375823766
0.00991390086710453,0.004008205607533455,-0.012378199025988579,0.008754175156354904,-7.466758688678965e-05,0.0004331428208388388
0.01045534759759903,0.003787326393648982,-0.012563398107886314,0.00918214488774538,-7.364920020336285e-05,0.00040574977174401283
0.010201307013630867,0.004187523853033781,-0.012478970922529697,0.00869357492774725,-7.265822205226868e-05,0.00038121870602481067
0.009837889112532139,0.004178715869784355,-0.012361658737063408,0.00874309241771698,-7.169361924752593e-05,0.0004038802580907941
0.009951850399374962,0.003991882782429457,-0.012919037602841854,0.0085994191467762,-7.075415487634018e-05,0.00038817577296867967
0.009950824081897736,0.004293995909392834,-0.013133887201547623,0.008402344770729542,-6.894752732478082e-05,0.00035075025516562164
0.01011662557721138,0.004801247268915176,-0.01255808211863041,0.00896391924470663,-6.807821046095341e-05,0.0003344541182741523
0.010451302863657475,0.004374895244836807,-0.01298246718943119,0.008569324389100075,-6.723069964209571e-05,0.00031960438354872167
0.010669774375855923,0.00396325858309865,-0.012609842233359814,0.007863268256187439,-6.640398351009935e-05,0.0003060170274693519
0.010338673368096352,0.0038672483060508966,-0.012772392481565475,0.008478179574012756,-6.55972835374996e-05,0.0002936938835773617
0.01059602852910757,0.004217095207422972,-0.013067069463431835,0.008484594523906708,-6.481003219960257e-05,0.0002768254780676216
0.009990190155804157,0.004568187519907951,-0.012291975319385529,0.008340513333678246,-6.404146552085876e-05,0.00026085125864483416
0.010509371757507324,0.004711571149528027,-0.013305607251822948,0.007991825230419636,-6.32908268016763e-05,0.0002465573779772967
0.010135084390640259,0.004717656876891851,-0.012636683881282806,0.008407779969274998,-6.255767220864072e-05,0.00023374753072857857
0.01055455207824707,0.004263466689735651,-0.0133353965356946,0.008759023621678352,-6.184124504216015e-05,0.00022220143000595272
0.010284570045769215,0.003938756883144379,-0.01302861887961626,0.008467505685985088,-6.114105781307444e-05,0.0002117422700393945
0.010111273266375065,0.0040909890085458755,-0.013382735662162304,0.008256958797574043,-6.0456583014456555e-05,0.00020222491002641618
0.009955938905477524,0.0045904554426670074,-0.012959848158061504,0.009077221155166626,-5.978728222544305e-05,0.00019352673552930355
0.010379994288086891,0.004751412197947502,-0.013069047592580318,0.008786127902567387,-7.701311915297993e-06,0.00018554502457845956
0.009980585426092148,0.004855042323470116,-0.013283485546708107,0.008240028284490108,-5.028405780649337e-07,0.00017819617642089725
0.009964178316295147,0.004689521621912718,-0.012560966424643993,0.008514350280165672,-3.283189897729244e-08,0.00017140776617452502
0.01035150233656168,0.004684899002313614,-0.013780034147202969,0.008701018989086151,-2.1436883379521987e-09,0.00016511722060386091
0.010032009333372116,0.004779953509569168,-0.013186320662498474,0.00850550178438425,-1.3996753756018165e-10,0.0001592720509506762
0.011132561601698399,0.004203911405056715,-0.013189749792218208,0.008617484010756016,-9.138879757120133e-12,0.00015382704441435635
0.010446092113852501,0.00423005735501647,-0.013006606139242649,0.00888593029230833,-5.967035676332499e-13,0.00014874186308588833
0.009970116429030895,0.006481986027210951,-0.013852513395249844,0.008676938712596893,-3.8960479807614856e-14,0.00014398244093172252
0.010326788760721684,0.004603154957294464,-0.013439074158668518,0.007899036630988121,-2.543841110929637e-15,0.00013951800065115094
0.010021209716796875,0.00454446766525507,-0.013606083579361439,0.008234669454395771,-1.6609465092242635e-16,0.0001353219267912209
0.00971176940947771,0.005382498260587454,-0.01300903968513012,0.008533683605492115,-1.0844794434268322e-17,0.00013137119822204113
0.00971176940947771,0.005382498260587454,-0.01300903968513012,0.008533683605492115,-1.0844794434268322e-17,0.00013137119822204113
0.010590659454464912,0.005014755763113499,-0.013317050412297249,0.008530333638191223,-7.080874906558587e-19,0.00012764421990141273
0.010205347090959549,0.00513850711286068,-0.013345055282115936,0.008519086055457592,-4.6233053446626585e-20,0.00012412334035616368
0.00979140866547823,0.004620919469743967,-0.01333126425743103,0.008600415661931038,-3.018687805071087e-21,0.00012079160660505295
0.011094924062490463,0.005143812391906977,-0.013490821234881878,0.008896930143237114,-1.2869139175308152e-23,0.0001146410868386738
0.010555250570178032,0.004959073383361101,-0.013570290058851242,0.0091197295114398,-8.402627859823735e-25,0.00011178917338838801
0.010971871204674244,0.004845959600061178,-0.013129091821610928,0.009279188700020313,-5.486314973146277e-26,0.00010907917749136686
0.01036590151488781,0.0043451315723359585,-0.013399184681475163,0.008832990191876888,-3.582171533475938e-27,0.00010650114563759416
0.010387372225522995,0.00454544136300683,-0.012989248149096966,0.009030885063111782,-2.338902046796087e-28,0.00010403898340882733
0.011002269573509693,0.004967134911566973,-0.013433344662189484,0.009195801801979542,-1.5271357558199238e-29,8.660359162604436e-05
0.00988793931901455,0.004923820495605469,-0.012889509089291096,0.008894328027963638,-9.971106380567557e-31,7.989635923877358e-05
0.01028723269701004,0.004778598435223103,-0.013746408745646477,0.008950002491474152,-6.510420213794751e-32,7.785506022628397e-05
0.010702857747673988,0.005002368241548538,-0.013650298118591309,0.009212767705321312,-4.250839569174849e-33,7.618759264005348e-05
0.010342809371650219,0.004910965450108051,-0.013698507100343704,0.00907299667596817,-2.7754943796263027e-34,7.460670894943178e-05
0.010728993453085423,0.004874543286859989,-0.013351506553590298,0.008876963518559933,-1.8121994597141446e-35,5.721605703001842e-05
0.010891027748584747,0.005172095727175474,-0.01377798430621624,0.009430112317204475,-1.1832366929934978e-36,5.3884876251686364e-05
0.011094807647168636,0.004991157446056604,-0.01321730948984623,0.008570234291255474,-7.725690821818454e-38,5.269032044452615e-05
0.011179911904036999,0.004940096754580736,-0.013165990822017193,0.00864338967949152,-5.04432414695326e-39,-2.2610493033425882e-05
0.01095497701317072,0.005668980069458485,-0.013415013439953327,0.009046867489814758,-3.2935838845797635e-40,-4.554937913781032e-05
0.011274363845586777,0.00518503924831748,-0.013136288151144981,0.009113674983382225,-2.1504326233528643e-41,-6.739547097822651e-05
0.01126587949693203,0.005516281817108393,-0.013239866122603416,0.008424459956586361,-1.4041010612534667e-42,-8.385099499719217e-05
0.010549409314990044,0.005211275536566973,-0.012835266999900341,0.008757803589105606,-9.10844001811131e-44,-8.719868492335081e-05
0.011690458282828331,0.0047549111768603325,-0.013350198045372963,0.009366407990455627,-5.605193857299268e-45,-0.00010542517702560872
0.011202883906662464,0.00488188024610281,-0.01299880538135767,0.008798476308584213,-0.0,-0.00010457557800691575
0.010843868367373943,0.005346922669559717,-0.013646543957293034,0.00901656411588192,-0.0,-0.000578933279030025
0.010883942246437073,0.0050731236115098,-0.012771710753440857,0.009285899810492992,-0.0,-0.000642055063508451
0.010722963139414787,0.005257125943899155,-0.013211924582719803,0.008917344734072685,-0.0,-0.0005815355689264834
0.011162478476762772,0.005289291497319937,-0.01295407209545374,0.00887276977300644,-0.0,-0.000589490809943527
0.011162478476762772,0.005289291497319937,-0.01295407209545374,0.00887276977300644,-0.0,-0.000589490809943527
0.011434456333518028,0.005079997703433037,-0.013338703662157059,0.00937473215162754,-0.0,-0.0005570968496613204
0.010970592498779297,0.005308410152792931,-0.01336690690368414,0.009054763242602348,-0.0,-0.000576202932279557
0.011555060744285583,0.0050299097783863544,-0.013274721801280975,0.008387732319533825,-0.0,-0.00061341020045802
0.011343005113303661,0.005489099305123091,-0.013488062657415867,0.008978886529803276,-0.0,-0.0006607844843529165
0.011611973866820335,0.0053365775384008884,-0.013147196732461452,0.008899861946702003,-0.0,-0.0007433125865645707
0.01224847324192524,0.005321229808032513,-0.012905791401863098,0.009298526681959629,-0.0,-0.0011936521623283625
0.012811404652893543,0.005062771495431662,-0.013422377407550812,0.00957523100078106,-0.0,-0.0011581644648686051
0.012817858718335629,0.004854472354054451,-0.012857497669756413,0.008952072821557522,-0.0,-0.0011299237376078963
0.013171376660466194,0.005480761639773846,-0.01313752681016922,0.009333085268735886,-0.0,-0.001202619867399335
0.012735213153064251,0.005201129708439112,-0.013184554874897003,0.009166747331619263,-0.0,-0.0012688807910308242
0.013013629242777824,0.004936796613037586,-0.013345960527658463,0.00877915509045124,-0.0,-0.0015564295463263988
0.013311038725078106,0.005017549265176058,-0.013250420801341534,0.00870478618890047,-0.0,-0.0015493329847231507
0.013597535900771618,0.005018799565732479,-0.013271711766719818,0.00942893885076046,-0.0,-0.0016603959957137704
0.013734963722527027,0.005241468548774719,-0.01329625491052866,0.009362074546515942,-0.0,-0.001972828060388565
0.012958432547748089,0.0054526855237782,-0.013058031909167767,0.009300559759140015,-0.0,-0.002067581284791231
0.01335863582789898,0.004975465126335621,-0.013585030101239681,0.009211000986397266,-0.0,-0.0020426162518560886
0.013185854069888592,0.004689550492912531,-0.01285176444798708,0.009256171993911266,-0.0,-0.001976659754291177
0.013691260479390621,0.004735794384032488,-0.013086161576211452,0.008913567289710045,-0.0,-0.0019461120245978236
0.013207201845943928,0.004951678682118654,-0.012641552835702896,0.009916416369378567,-0.0,-0.0019614677876234055
0.013813460245728493,0.004363597836345434,-0.013418314047157764,0.009760729037225246,-0.0,-0.001954983454197645
0.013215212151408195,0.004338559694588184,-0.013056856580078602,0.009118033573031425,-0.0,-0.002128318650647998
0.013235299848020077,0.004628722555935383,-0.013505378738045692,0.009303513914346695,-0.0,-0.0021081625018268824
0.013428843580186367,0.004573780577629805,-0.013273810036480427,0.009635879658162594,-0.0,-0.0023075961507856846
0.013721473515033722,0.004820102360099554,-0.01348552480340004,0.009347178973257542,-0.0,-0.0022066731471568346
0.013437405228614807,0.004378413315862417,-0.013385635800659657,0.00948013924062252,-0.0,-0.0021770058665424585
0.013384479098021984,0.00443513598293066,-0.012827797792851925,0.009599191136658192,-0.0,-0.001927237375639379
0.013384479098021984,0.00443513598293066,-0.012827797792851925,0.009599191136658192,-0.0,-0.001927237375639379
0.013667292892932892,0.004514946602284908,-0.013293338008224964,0.009491448290646076,-0.0,-0.0017510359175503254
0.013878414407372475,0.004586393944919109,-0.013097819872200489,0.009604631923139095,-0.0,-0.0017263166373595595
0.013807274401187897,0.0046789683401584625,-0.013698280788958073,0.009486123919487,-0.0,-0.0021656551398336887
0.013579660095274448,0.004108099266886711,-0.013363294303417206,0.008774136193096638,-0.0,-0.0034021050669252872
0.013821386732161045,0.0039213914424180984,-0.01388577651232481,0.009065786376595497,-0.0,-0.004235015716403723
0.013652324676513672,0.00391427893191576,-0.01340863760560751,0.009509464725852013,-0.0,-0.0038952927570790052
0.013990496285259724,0.003898490685969591,-0.014095734804868698,0.009391776286065578,-0.0,-0.0033523086458444595
0.013469679281115532,0.003921717870980501,-0.01363209169358015,0.009015282616019249,-0.0,-0.0030588265508413315
0.013878931291401386,0.0043551130220294,-0.013875378295779228,0.009393101558089256,-0.0,-0.002709014806896448
0.014415861107409,0.004570658318698406,-0.014020545408129692,0.008925928734242916,-0.0,-0.003125609830021858
0.014124415814876556,0.004209356848150492,-0.013945678249001503,0.009786306880414486,-0.0,-0.0034264004789292812
0.014365588314831257,0.003529197536408901,-0.014176556840538979,0.00963684357702732,-0.0,-0.003630183171480894
0.01392257772386074,0.004107166081666946,-0.013994438573718071,0.009419744834303856,-0.0,-0.003975279163569212
0.014438046142458916,0.0041001299396157265,-0.014363208785653114,0.010451710782945156,-0.0,-0.00384145462885499
0.013844719156622887,0.004280537832528353,-0.014071318320930004,0.01003438513725996,-0.0,-0.003478810889646411
0.014317653141915798,0.004552954342216253,-0.014412697404623032,0.009862472303211689,-0.0,-0.0035407566465437412
0.014352343045175076,0.004070458002388477,-0.01422102004289627,0.010624500922858715,-0.0,-0.0037318747490644455
0.014703932218253613,0.0041608125902712345,-0.014624658972024918,0.010092973709106445,-0.0,-0.004147224593907595
0.014498812146484852,0.004192796535789967,-0.014741742052137852,0.009641160257160664,-0.0,-0.004174836911261082
0.015184560790657997,0.004453672096133232,-0.014573159627616405,0.010180638171732426,-0.0,-0.004292289260774851
0.014481785707175732,0.0044368235394358635,-0.014543936587870121,0.009755820967257023,-0.0,-0.004154174122959375
0.015031656250357628,0.004427559673786163,-0.0147471958771348,0.009644748643040657,-0.0,-0.0040088254027068615
0.014521907083690166,0.004653765819966793,-0.01455764938145876,0.010299257934093475,-0.0,-0.003904499113559723
0.015098826959729195,0.004659926984459162,-0.014770722948014736,0.010283954441547394,-0.0,-0.0038428662810474634
0.014384654350578785,0.004343279637396336,-0.014697347767651081,0.0096574192866683,-0.0,-0.004122997634112835
0.015234904363751411,0.004073557909578085,-0.015047334134578705,0.009716366417706013,-0.0,-0.004256523679941893
0.015174896456301212,0.003996258135885,-0.014387828297913074,0.00960797443985939,-0.0,-0.0044823987409472466
0.015354359522461891,0.0039438423700630665,-0.014817454852163792,0.009696291759610176,-0.0,-0.004304372239857912
0.015017354860901833,0.004370472859591246,-0.01410108245909214,0.010477207601070404,-0.0,-0.0040062242187559605
0.014817863702774048,0.0046042995527386665,-0.014722111634910107,0.009789733216166496,-2.461668827891117e-06,-0.004043297376483679
0.014827419072389603,0.00451989471912384,-0.014141776598989964,0.009694736450910568,-1.607293853567171e-07,-0.004202086944133043
0.014827419072389603,0.00451989471912384,-0.014141776598989964,0.009694736450910568,-1.607293853567171e-07,-0.004202086944133043
0.015355367213487625,0.0040079085156321526,-0.014644615352153778,0.009986544959247112,-1.049447906353862e-08,-0.004405890125781298
0.01546326931566,0.004133082460612059,-0.014078776352107525,0.009491696953773499,-6.852145517655117e-10,-0.00460687605664134
0.015982648357748985,0.00424906425178051,-0.014654943719506264,0.009861278347671032,-4.473961479067867e-11,-0.0047520422376692295
0.015444221906363964,0.004250567872077227,-0.014516561292111874,0.0099392244592309,-1.9073200592696626e-13,-0.004383882507681847
0.016184203326702118,0.004348147660493851,-0.014265417121350765,0.010182181373238564,-1.2453436685469412e-14,-0.004661580082029104
0.01475537195801735,0.0045018671080470085,-0.014890876598656178,0.010434344410896301,-8.131203420846391e-16,-0.004854059778153896
0.01575443707406521,0.004075514618307352,-0.014115549623966217,0.009673661552369595,-5.3090946490380776e-17,-0.004868998657912016
0.015732567757368088,0.0038309735246002674,-0.015030148439109325,0.009859037585556507,-3.466459589171379e-18,-0.005144777242094278
0.015979936346411705,0.0043248869478702545,-0.014246734790503979,0.010080598294734955,-2.263350203631377e-19,-0.005312868859618902
0.016110237687826157,0.004597328137606382,-0.014560811221599579,0.010439815931022167,-1.4778059857051472e-20,-0.005038300529122353
0.01621066778898239,0.004292187746614218,-0.01408272236585617,0.011022655293345451,-9.649017416784886e-22,-0.005009009037166834
0.016285520046949387,0.004372980445623398,-0.015247276052832603,0.010348682291805744,-0.00023298287123907357,-0.005436946637928486
0.01589498482644558,0.004596154671162367,-0.014897678978741169,0.009700668975710869,-0.0003282214456703514,-0.0052761416882276535
0.01590784639120102,0.004641102626919746,-0.015047316439449787,0.010209429077804089,-0.0003261467791162431,-0.005575723480433226
0.01579809933900833,0.0046843294985592365,-0.01450397726148367,0.010586556978523731,-0.00035655315150506794,-0.005143331829458475
0.016317417845129967,0.0042441654950380325,-0.014952421188354492,0.010194879956543446,-0.00034047686494886875,-0.004988363012671471
0.016089515760540962,0.004303559195250273,-0.014104810543358326,0.01050462108105421,-0.00036621055915020406,-0.005245950538665056
0.01677684485912323,0.0046034823171794415,-0.014850235544145107,0.010630100034177303,-0.0003511619579512626,-0.005325006321072578
0.016436895355582237,0.0047409008257091045,-0.01496370229870081,0.00987948663532734,-0.0004626399895641953,-0.005891196895390749
0.016521010547876358,0.004789628088474274,-0.014867046847939491,0.010286863893270493,-0.0005269589019007981,-0.005682509858161211
0.016365190967917442,0.004680681508034468,-0.014135811477899551,0.010158738121390343,-0.0005486353184096515,-0.005625133402645588
0.016103463247418404,0.004387351684272289,-0.01527685672044754,0.010455962270498276,-0.0005179711733944714,-0.005520949140191078
0.016897279769182205,0.004512782674282789,-0.014726373367011547,0.01084134355187416,-0.0005317954928614199,-0.005728463176637888
0.016563935205340385,0.004552991595119238,-0.015076345764100552,0.010221349075436592,-0.0005069698090665042,-0.005982641130685806
0.01668008789420128,0.004480798728764057,-0.014645524322986603,0.010186813771724701,-0.00047027762047946453,-0.00586985656991601
0.01668008789420128,0.004480798728764057,-0.014645524322986603,0.010186813771724701,-0.00047027762047946453,-0.00586985656991601
0.016781538724899292,0.004846680443733931,-0.014900658279657364,0.010644856840372086,-0.0005230975802987814,-0.005571202374994755
0.016781538724899292,0.004846680443733931,-0.014900658279657364,0.010644856840372086,-0.0005230975802987814,-0.005571202374994755
0.017032001167535782,0.004724528174847364,-0.015104996971786022,0.011101624928414822,-0.0004876420716755092,-0.005697291810065508
0.017049133777618408,0.004415546543896198,-0.014723435044288635,0.009780923835933208,-0.0005402443930506706,-0.006180671043694019
0.016581941395998,0.004693760070949793,-0.0146450474858284,0.010108189657330513,-0.0005690484540537,-0.0060720560140907764
0.016927888616919518,0.004819536115974188,-0.015049372799694538,0.010319254361093044,-0.0005473704659380019,-0.006067113019526005
0.0171637125313282,0.00473072100430727,-0.01462345290929079,0.009730913676321507,-0.0007670560153201222,-0.006098795682191849
0.016994616016745567,0.004474983084946871,-0.014720527455210686,0.009893222711980343,-0.0008273881394416094,-0.006137270014733076
0.01729169487953186,0.004689509514719248,-0.014670295640826225,0.010203016921877861,-0.0008118844707496464,-0.0061360737308859825
0.01690078340470791,0.004812512546777725,-0.015105899423360825,0.010731232352554798,-0.0009356149821542203,-0.006356161553412676
0.01715647056698799,0.004474749322980642,-0.015039373189210892,0.011546325869858265,-0.001039549708366394,-0.006222196854650974
0.017189865931868553,0.004596533253788948,-0.014601633884012699,0.01099416147917509,-0.001023449469357729,-0.00614186841994524
0.01735803298652172,0.004575786646455526,-0.01481371745467186,0.010842576622962952,-0.0010060705244541168,-0.006288403179496527
0.017559939995408058,0.00468844547867775,-0.015096832998096943,0.011142703704535961,-0.0009097727597691119,-0.0068494295701384544
0.01723560318350792,0.0046930755488574505,-0.015576904639601707,0.010842396877706051,-0.0008705345680937171,-0.006973913870751858
0.017525285482406616,0.0048912991769611835,-0.014651813544332981,0.011050375178456306,-0.0008490328909829259,-0.006905784830451012
0.017629561945796013,0.0047766719944775105,-0.015103355050086975,0.010905035771429539,-0.0008228166261687875,-0.006429542321711779
0.01704799011349678,0.005309650674462318,-0.014538958668708801,0.010433938354253769,-0.0007768896175548434,-0.006654020398855209
0.017501626163721085,0.005306961480528116,-0.015213671140372753,0.010540556162595749,-0.0007867423701100051,-0.006847498472779989
0.017586588859558105,0.004936302546411753,-0.014812209643423557,0.010617745108902454,-0.0007870426052249968,-0.007171289529651403
0.017278499901294708,0.0050869169645011425,-0.01529844943434,0.011020329780876637,-0.0007999594090506434,-0.0067726681008934975
0.017410092055797577,0.00510020088404417,-0.014747800305485725,0.010615412145853043,-0.0007111618760973215,-0.006755677983164787
0.017634931951761246,0.004850089084357023,-0.015367550775408745,0.010429325513541698,-0.0006794730434194207,-0.006733160000294447
0.018425749614834785,0.004744165576994419,-0.014955990016460419,0.010330408811569214,-0.0006538609159179032,-0.006732623092830181
0.018425749614834785,0.004744165576994419,-0.014955990016460419,0.010330408811569214,-0.0006538609159179032,-0.006732623092830181
0.01793423295021057,0.005138618405908346,-0.015207252465188503,0.010592920705676079,-0.0005949945189058781,-0.007045361213386059
0.017543228343129158,0.004959671292454004,-0.014664019457995892,0.010494939051568508,-0.0006007060874253511,-0.006959798280149698
0.017535492777824402,0.004872561898082495,-0.015421858057379723,0.010709330439567566,-0.0005706888041459024,-0.006803539115935564
0.017280077561736107,0.005154639948159456,-0.015775881707668304,0.01081120502203703,-0.0005250251269899309,-0.007242174353450537
0.018339619040489197,0.005047115962952375,-0.015527783893048763,0.010885213501751423,-0.00046931105316616595,-0.007449831813573837
0.018072091042995453,0.0052379765547811985,-0.01561482809484005,0.010783242993056774,-0.0004450776323210448,-0.007919575087726116
0.017973579466342926,0.004445795435458422,-0.01579391025006771,0.010654318146407604,-0.00042743398807942867,-0.007924732752144337
0.017817799001932144,0.004242410883307457,-0.015492262318730354,0.010808168910443783,-0.00044576957589015365,-0.007754265796393156
0.018473677337169647,0.0046315547078847885,-0.015757260844111443,0.010743573307991028,-0.00043049704981967807,-0.007511511445045471
0.01878037303686142,0.00492388941347599,-0.015211289748549461,0.011307911947369576,-0.00040388022898696363,-0.007432982325553894
0.018483707681298256,0.004819675348699093,-0.016142159700393677,0.011484818533062935,-0.0004264882009010762,-0.007690798956900835
0.018001722171902657,0.004733516834676266,-0.015545675531029701,0.012471096590161324,-0.0004086861154064536,-0.007754746824502945
0.01830110512673855,0.004636028781533241,-0.015830684453248978,0.012182528153061867,-0.00041327846702188253,-0.007525353226810694
0.017844611778855324,0.004582621157169342,-0.015525037422776222,0.011587669141590595,-0.000403457204811275,-0.00733985984697938
0.01824234053492546,0.00469088414683938,-0.015883659943938255,0.011681970208883286,-0.0004078666679561138,-0.007279439829289913
0.01854579523205757,0.004348887130618095,-0.015470649115741253,0.010604634881019592,-0.00040978548349812627,-0.007827701047062874
0.018177881836891174,0.004414497409015894,-0.016048574820160866,0.010571615770459175,-0.0004297946288716048,-0.007702136877924204
0.018673783168196678,0.004548735450953245,-0.01624903827905655,0.01089678704738617,-0.00041614132351242006,-0.00805734097957611
0.018389204517006874,0.004562409594655037,-0.015772253274917603,0.010514325462281704,-0.0003912521933671087,-0.007796773687005043
0.018753308802843094,0.004326438065618277,-0.016228051856160164,0.010866858065128326,-0.000413944770116359,-0.008204150944948196
0.01876201294362545,0.004376140423119068,-0.015308030880987644,0.011498827487230301,-0.00039732400909997523,-0.008045828901231289
0.018755365163087845,0.004289811942726374,-0.015597471036016941,0.010850208811461926,-0.00037770901690237224,-0.008389787748456001
0.018935812637209892,0.004080028273165226,-0.015136229805648327,0.011552360840141773,-0.00044089462608098984,-0.008510330691933632
0.019253205507993698,0.00392065430060029,-0.016154494136571884,0.010927263647317886,-0.0004075246397405863,-0.008464456535875797
0.019063979387283325,0.004182016011327505,-0.016121260821819305,0.010368330404162407,-0.00043855488183908165,-0.008065682835876942
0.019359728321433067,0.004544427152723074,-0.01611764170229435,0.010977067984640598,-0.0004137404903303832,-0.007951425388455391
0.01958155818283558,0.004654739052057266,-0.015951747074723244,0.010843118652701378,-0.0003848136402666569,-0.007995697669684887
0.01958155818283558,0.004654739052057266,-0.015951747074723244,0.010843118652701378,-0.0003848136402666569,-0.007995697669684887
0.01986527442932129,0.004215339198708534,-0.015859978273510933,0.012003418989479542,-0.0004149196611251682,-0.008351566269993782
0.019769560545682907,0.0039427694864571095,-0.01604839414358139,0.01173412799835205,-0.0003926803474314511,-0.008532836101949215
0.019740525633096695,0.004313567653298378,-0.015965908765792847,0.01108694076538086,-0.0004190283943898976,-0.008104143664240837
0.019293850287795067,0.004387449473142624,-0.01608864963054657,0.011960717849433422,-0.0003990205004811287,-0.00810797605663538
0.019430460408329964,0.004292740020900965,-0.015174341388046741,0.011625135317444801,-0.0004346897767391056,-0.008248884230852127
0.020259400829672813,0.004106523469090462,-0.01631009392440319,0.011702868156135082,-0.00045420523383654654,-0.0083426833152771
0.019592884927988052,0.004432104527950287,-0.01622217893600464,0.011284589767456055,-0.0004212221538182348,-0.00843062624335289
0.020157700404524803,0.00455893250182271,-0.016340767964720726,0.012161658145487309,-0.0004471172287594527,-0.008468173444271088
0.020123180001974106,0.004373049829155207,-0.016037246212363243,0.011551372706890106,-0.00042464685975573957,-0.008722325786948204
0.020291239023208618,0.0043879346922039986,-0.016312045976519585,0.012025031261146069,-0.0004512280283961445,-0.008867272175848484
0.020383797585964203,0.004657978657633066,-0.015840856358408928,0.011768796481192112,-0.00042788617429323494,-0.009341984987258911
0.020460784435272217,0.00470002694055438,-0.016505640000104904,0.011490746401250362,-0.000518333341460675,-0.008808217011392117
0.020270271226763725,0.004292611964046955,-0.015938472002744675,0.011913406662642956,-0.00048099123523570597,-0.008770791813731194
0.020681550726294518,0.004414151422679424,-0.016003135591745377,0.011976662091910839,-0.0004992962931282818,-0.008782057091593742
0.020800519734621048,0.004175989422947168,-0.015524613671004772,0.012602501548826694,-0.00047505638212896883,-0.008932814933359623
0.0205831415951252,0.003982380032539368,-0.01606065407395363,0.012045488692820072,-0.0004731204535346478,-0.009170128963887691
0.020695043727755547,0.004009435884654522,-0.016440490260720253,0.01163914892822504,-0.0004700698482338339,-0.009343746118247509
0.02090105228126049,0.00413515092805028,-0.01618695817887783,0.011647745035588741,-0.00043938111048191786,-0.009123039431869984
0.020852522924542427,0.00453008571639657,-0.016137095168232918,0.011511486023664474,-0.0004654427757486701,-0.008790909312665462
0.02091645635664463,0.004575403872877359,-0.01535225659608841,0.011759787797927856,-0.0004416965239215642,-0.007976445369422436
0.020892303436994553,0.004350612405687571,-0.01625319942831993,0.01150993350893259,-0.00046546003432013094,-0.008211423642933369
0.02100471407175064,0.004092582501471043,-0.015757247805595398,0.011741491965949535,-0.0004259318520780653,-0.00788473803550005
0.021077286452054977,0.00398050993680954,-0.01636197604238987,0.01205962710082531,-0.0004564500122796744,-0.008304214105010033
0.02141907438635826,0.004377839621156454,-0.016101544722914696,0.011576661840081215,-0.0004292866797186434,-0.008268196135759354
0.02141907438635826,0.004377839621156454,-0.016101544722914696,0.011576661840081215,-0.0004292866797186434,-0.008268196135759354
0.021517181769013405,0.004389677196741104,-0.016215967014431953,0.012113009579479694,-0.00044697104021906853,-0.008136166259646416
0.022134393453598022,0.004209481179714203,-0.016451995819807053,0.011993545107543468,-0.00043154231389053166,-0.008798823691904545
0.02221909910440445,0.004387387540191412,-0.016170019283890724,0.011980599723756313,-0.0004047944094054401,-0.008964495733380318
0.021461600437760353,0.004556650295853615,-0.01615303009748459,0.011737986467778683,-0.0004309740324970335,-0.00898580253124237
0.020863711833953857,0.004373771138489246,-0.01576538383960724,0.01153571531176567,-0.000409739586757496,-0.008545697666704655
0.021724065765738487,0.0045256232842803,-0.01633639633655548,0.011894622817635536,-0.00041936725028790534,-0.008948388509452343
0.02233867347240448,0.004446829203516245,-0.0164365004748106,0.011477295309305191,-0.0004133588809054345,-0.009142468683421612
0.02124003879725933,0.004859548527747393,-0.01685752533376217,0.01162071991711855,-0.0003849462664220482,-0.009265443310141563
0.02228439971804619,0.004365087021142244,-0.01644795574247837,0.011254782788455486,-0.0003882974851876497,-0.009119811467826366
0.022863512858748436,0.004445328377187252,-0.01669669710099697,0.0116735165938735,-0.00036413344787433743,-0.009383340366184711
0.02282283827662468,0.004226028453558683,-0.015913542360067368,0.011372650973498821,-0.0003412441292311996,-0.009102406911551952
0.021923700347542763,0.004396522417664528,-0.01673264056444168,0.012059506960213184,-0.0003707395517267287,-0.00889960490167141
0.02206416241824627,0.004585574846714735,-0.016649385914206505,0.012082638218998909,-0.0003531954425852746,-0.00873912125825882
0.022227827459573746,0.004575058352202177,-0.017197033390402794,0.012170298025012016,-0.00033463965519331396,-0.008691759780049324
0.022272247821092606,0.004813638050109148,-0.0171905979514122,0.012792476452887058,-0.0003600425843615085,-0.009006654843688011
0.022950248792767525,0.004733763635158539,-0.016069285571575165,0.012518295086920261,-0.00034609666909091175,-0.009333869442343712
0.022774063050746918,0.004641883075237274,-0.01693284697830677,0.012719746679067612,-0.00037092508864589036,-0.009165322408080101
0.02275376208126545,0.004273702390491962,-0.01673322543501854,0.012365773320198059,-0.0003458980063442141,-0.009192441590130329
0.02282828651368618,0.004491997417062521,-0.017771249637007713,0.012223496101796627,-0.00036865234142169356,-0.00916434545069933
0.022940129041671753,0.0046268547885119915,-0.0166543610394001,0.012273562140762806,-0.0003588647523429245,-0.009048961102962494
0.022962527349591255,0.004602260887622833,-0.016439011320471764,0.012467723339796066,-0.0003647523117251694,-0.00915674027055502
0.022712646052241325,0.004651014693081379,-0.0173397958278656,0.012755193747580051,-0.00036865330184809864,-0.009117926470935345
0.023030783981084824,0.004636086523532867,-0.016737407073378563,0.011928203515708447,-0.00034982821671292186,-0.009545817039906979
0.023134255781769753,0.004312169272452593,-0.016570312902331352,0.012365288101136684,-0.00033152266405522823,-0.00906389020383358
0.02319938875734806,0.0045091016218066216,-0.016443882137537003,0.012076139450073242,-0.0003149501280859113,-0.009726413525640965
0.02305399253964424,0.004497871734201908,-0.016806716099381447,0.012161065824329853,-0.0002999512362293899,-0.009378164075314999
0.02305399253964424,0.004497871734201908,-0.016806716099381447,0.012161065824329853,-0.0002999512362293899,-0.009378164075314999
0.023099908605217934,0.004739697091281414,-0.01724238693714142,0.012313502840697765,-0.0003165214729961008,-0.009403322823345661
0.02380811981856823,0.004754336550831795,-0.017168980091810226,0.012596908956766129,-0.00029990222537890077,-0.009782585315406322
0.02380811981856823,0.004754336550831795,-0.017168980091810226,0.012596908956766129,-0.00029990222537890077,-0.009782585315406322
0.02362646535038948,0.0043119508773088455,-0.01631980575621128,0.012302013114094734,-0.0002879475068766624,-0.010396917350590229
0.023519298061728477,0.003995130304247141,-0.016601895913481712,0.012749144807457924,-0.00029942631954327226,-0.00940496101975441
0.023228222504258156,0.004180526826530695,-0.016624389216303825,0.012567355297505856,-0.00028441293397918344,-0.009282498620450497
0.023862672969698906,0.004638399928808212,-0.01721550151705742,0.012506392784416676,-0.000299759121844545,-0.009868658147752285
0.023986561223864555,0.004834109451621771,-0.016573816537857056,0.012746766209602356,-0.0002868986630346626,-0.009875892661511898
0.023740194737911224,0.004299485590308905,-0.01700327917933464,0.01289656013250351,-0.00030613556737080216,-0.009807073511183262
0.02376321703195572,0.0039594704285264015,-0.01657811924815178,0.012405520305037498,-0.00030199435423128307,-0.010179631412029266
0.02353154495358467,0.004189603496342897,-0.01701011322438717,0.01238547544926405,-0.00031930982368066907,-0.010131637565791607
0.024004535749554634,0.004530990496277809,-0.017155786976218224,0.012349402531981468,-0.0003149675321765244,-0.010019347071647644
0.02452133595943451,0.004153892397880554,-0.016545148566365242,0.012847097590565681,-0.0003035656118299812,-0.010577982291579247
0.023722833022475243,0.004452730529010296,-0.016910411417484283,0.012815929017961025,-0.0004174536734353751,-0.010293679311871529
0.024195615202188492,0.004697995726019144,-0.01651940681040287,0.01306130550801754,-0.00042833949555642903,-0.010220619849860668
0.02478797920048237,0.004275692161172628,-0.01698024943470955,0.013003427535295486,-0.0004640760598704219,-0.010428756475448608
0.024084879085421562,0.004160650074481964,-0.016700712963938713,0.012706749141216278,-0.00046395539538934827,-0.010200024582445621
0.02456618845462799,0.00405812868848443,-0.016714628785848618,0.013493816368281841,-0.0004918939666822553,-0.010429389774799347
0.02383987419307232,0.0039911530911922455,-0.016894446685910225,0.013454543426632881,-0.000465961144072935,-0.01067507266998291
0.023687947541475296,0.004273856058716774,-0.016206910833716393,0.013515588827431202,-0.000631509639788419,-0.010815148241817951
0.025332294404506683,0.004660505335777998,-0.016994232311844826,0.012899442575871944,-0.0006722621037624776,-0.01031492743641138
0.025138327851891518,0.004741680342704058,-0.016712000593543053,0.013003531843423843,-0.0006783248973079026,-0.010681768879294395
0.02417907677590847,0.00450447341427207,-0.01708478108048439,0.013224830850958824,-0.0006331474869512022,-0.01066993735730648
0.024681560695171356,0.004253336228430271,-0.017400264739990234,0.014015378430485725,-0.0006476058042608202,-0.010330702178180218
0.025065828114748,0.004428813233971596,-0.016483202576637268,0.013306884095072746,-0.0006754306959919631,-0.010403231717646122
0.024841826409101486,0.004634815268218517,-0.016798846423625946,0.013448466546833515,-0.0007131025777198374,-0.01030001975595951
0.024656563997268677,0.004558007698506117,-0.016245387494564056,0.013660973869264126,-0.0006826315075159073,-0.010120918974280357
0.024072812870144844,0.004340808838605881,-0.017001528292894363,0.01319843903183937,-0.0006581494235433638,-0.010487142950296402
0.024072812870144844,0.004340808838605881,-0.017001528292894363,0.01319843903183937,-0.0006581494235433638,-0.010487142950296402
0.02406148798763752,0.004513735882937908,-0.016691189259290695,0.013013811782002449,-0.0006355902878567576,-0.010378576815128326
0.024952184408903122,0.004551461432129145,-0.016764560714364052,0.012959989719092846,-0.0006568197277374566,-0.010345141403377056
0.025346260517835617,0.004508296959102154,-0.01694176346063614,0.013168580830097198,-0.0006636001053266227,-0.010211431421339512
0.025027913972735405,0.004659239202737808,-0.016672294586896896,0.013045337051153183,-0.0006908318609930575,-0.010713565163314342
0.02490261010825634,0.005008981563150883,-0.01708005741238594,0.013218827545642853,-0.0007760768057778478,-0.010910418815910816
0.02523343823850155,0.004874457139521837,-0.017171235755085945,0.01327876839786768,-0.0011471210746094584,-0.011047443374991417
0.025420954450964928,0.004330021794885397,-0.017146656289696693,0.013056622818112373,-0.0011923235142603517,-0.010938727296888828
0.02503291144967079,0.0044563873670995235,-0.016816895455121994,0.0133680310100317,-0.0011500903638079762,-0.010414120741188526
0.025255203247070312,0.0041366759687662125,-0.016981609165668488,0.013295133598148823,-0.0011156575055792928,-0.010469038039445877
0.02557312697172165,0.004215865395963192,-0.01654650829732418,0.01371688861399889,-0.0011168507626280189,-0.010734138078987598
0.025507230311632156,0.004626217298209667,-0.017057746648788452,0.013387677259743214,-0.0010811698157340288,-0.011133484542369843
0.02564336732029915,0.004777870606631041,-0.017422478646039963,0.013254708610475063,-0.0010538329370319843,-0.010618038475513458
0.026233075186610222,0.004482600837945938,-0.017333388328552246,0.013379647396504879,-0.0010048234835267067,-0.010525857098400593
0.026077959686517715,0.00438640546053648,-0.01745060831308365,0.013100102543830872,-0.0009628130355849862,-0.010349875316023827
0.02597484551370144,0.0042702313512563705,-0.01651887781918049,0.013697650283575058,-0.0009511645184829831,-0.010793997906148434
0.026254044845700264,0.004037983249872923,-0.01683061383664608,0.013254267163574696,-0.0009439567220397294,-0.010751319117844105
0.025911269709467888,0.004176253918558359,-0.017450250685214996,0.013329396955668926,-0.000894149939995259,-0.010819965042173862
0.025815581902861595,0.004209587350487709,-0.017252963036298752,0.012788373976945877,-0.0008858205983415246,-0.010765915736556053
0.02651912346482277,0.004835084546357393,-0.018352728337049484,0.013180036097764969,-0.0008872854523360729,-0.010267868638038635
0.026338329538702965,0.005032134708017111,-0.017615629360079765,0.012981168925762177,-0.0007701803697273135,-0.010618985630571842
0.026072969660162926,0.004395201802253723,-0.017507582902908325,0.013501179404556751,-0.0007707548793405294,-0.01090963277965784
0.026567496359348297,0.0039711869321763515,-0.017623016610741615,0.013745546340942383,-0.0006982598570175469,-0.011059647426009178
0.02696944959461689,0.004148627631366253,-0.017420023679733276,0.013147392310202122,-0.0007126424461603165,-0.011514800600707531
0.026502933353185654,0.0045603117905557156,-0.01783773861825466,0.012898487970232964,-0.0006534070707857609,-0.011243714950978756
0.026871250942349434,0.004706906620413065,-0.017617855221033096,0.0129637336358428,-0.0005844688857905567,-0.01146997045725584
0.026871250942349434,0.004706906620413065,-0.017617855221033096,0.0129637336358428,-0.0005844688857905567,-0.01146997045725584
0.027295807376503944,0.004541401751339436,-0.018085939809679985,0.013073139823973179,-0.0005390897276811302,-0.011255108751356602
0.02610204927623272,0.004093607421964407,-0.01709383726119995,0.013774881139397621,-0.0005348982522264123,-0.01186869665980339
0.026716530323028564,0.004126636777073145,-0.018188200891017914,0.013606362044811249,-0.0005631810054183006,-0.01143704541027546
0.026716530323028564,0.004126636777073145,-0.018188200891017914,0.013606362044811249,-0.0005631810054183006,-0.01143704541027546
0.027535950765013695,0.004039691295474768,-0.018113117665052414,0.014034084975719452,-0.0005553827504627407,-0.011274580843746662
0.027712248265743256,0.004390326328575611,-0.017858920618891716,0.013701356016099453,-0.0006917708669789135,-0.011541013605892658
0.02722184546291828,0.004934538621455431,-0.017774898558855057,0.013717236928641796,-0.0006573391146957874,-0.01133566815406084
0.02630702406167984,0.004465809091925621,-0.018025970086455345,0.013827655464410782,-0.0006718190270476043,-0.011551988311111927
0.026797190308570862,0.004190573003143072,-0.018195150420069695,0.013504852540791035,-0.0006599599728360772,-0.011580299586057663
0.028038570657372475,0.0039098444394767284,-0.017875002697110176,0.013876942917704582,-0.0006403746083378792,-0.011672279797494411
0.027194814756512642,0.003825203515589237,-0.017498359084129333,0.013734597712755203,-0.0005916512454859912,-0.011989239603281021
0.027437439188361168,0.004299430642277002,-0.01824626326560974,0.014318270608782768,-0.0005932080093771219,-0.012437689118087292
0.028632108122110367,0.0041330354288220406,-0.018261177465319633,0.014375714585185051,-0.0006194975576363504,-0.011799541302025318
0.028071634471416473,0.004390333779156208,-0.018186796456575394,0.014364813454449177,-0.0006483885226771235,-0.011852795258164406
0.027942171320319176,0.004258707631379366,-0.018156729638576508,0.013864781707525253,-0.0006780499243177474,-0.012002595700323582
0.02748677134513855,0.004406747408211231,-0.01851983740925789,0.014278827235102654,-0.0008428272558376193,-0.01196801196783781
0.02725258469581604,0.00410874281078577,-0.018841957673430443,0.013929059728980064,-0.0009059099247679114,-0.012053043581545353
0.028147496283054352,0.003913613967597485,-0.017940718680620193,0.014611005783081055,-0.0008912772755138576,-0.011996842920780182
0.0284408088773489,0.003953880164772272,-0.018153896555304527,0.013527062721550465,-0.0008626670460216701,-0.012225977145135403
0.02841763198375702,0.003957895562052727,-0.018391162157058716,0.013699271716177464,-0.0008204394835047424,-0.012151050381362438
0.028320347890257835,0.003914771601557732,-0.01800696738064289,0.014046861790120602,-0.0008940252591855824,-0.012148489244282246
0.028462965041399002,0.003982337657362223,-0.01848817616701126,0.01396632194519043,-0.0008328186813741922,-0.012058399617671967
0.028444044291973114,0.003979658242315054,-0.01850479654967785,0.013814801350235939,-0.0008375417673960328,-0.011972087435424328
0.028085321187973022,0.0038145645521581173,-0.01843327283859253,0.013515163213014603,-0.0008446155115962029,-0.012504811398684978
0.028723247349262238,0.0037395423278212547,-0.018803542479872704,0.014161660335958004,-0.0008748666732572019,-0.013320153579115868
0.028723247349262238,0.0037395423278212547,-0.018803542479872704,0.014161660335958004,-0.0008748666732572019,-0.013320153579115868
0.02819247543811798,0.003694786224514246,-0.018534064292907715,0.01404272485524416,-0.0007692438084632158,-0.012968015857040882
0.028377573937177658,0.003718544961884618,-0.018496178090572357,0.014413760043680668,-0.0007808928494341671,-0.012498969212174416
0.02849986031651497,0.003804050385951996,-0.018663780763745308,0.014232810586690903,-0.0007877032621763647,-0.012677895836532116
0.028432492166757584,0.00396070396527648,-0.018154390156269073,0.014274477027356625,-0.0007998748333193362,-0.01253394316881895
0.028741680085659027,0.00431864196434617,-0.01870398037135601,0.013849147595465183,-0.0008006522548384964,-0.012739290483295918
0.029206043109297752,0.004142677877098322,-0.018005572259426117,0.014237389899790287,-0.0008353434386663139,-0.012806453742086887
0.02944030798971653,0.003948010504245758,-0.018815668299794197,0.014391538687050343,-0.0008430983871221542,-0.012792883440852165
0.02900213561952114,0.0038832766003906727,-0.01873384416103363,0.014141944237053394,-0.0008729828987270594,-0.012686474248766899
0.02884504571557045,0.004359544720500708,-0.018075937405228615,0.014671576209366322,-0.0008960244012996554,-0.012982753105461597
0.028898466378450394,0.004122053738683462,-0.018613241612911224,0.014390893280506134,-0.0008318739128299057,-0.013161104172468185
0.02903887629508972,0.004138287156820297,-0.01895337738096714,0.014559872448444366,-0.0007248311303555965,-0.013337608426809311
0.03006468154489994,0.004012856632471085,-0.018265938386321068,0.014227245934307575,-0.000737787748221308,-0.013459751382470131
0.030014146119356155,0.0038097654469311237,-0.01872289925813675,0.014512287452816963,-0.0006661296356469393,-0.013239165768027306
0.028675414621829987,0.0037972796708345413,-0.018849391490221024,0.014574870467185974,-0.0006027304916642606,-0.01301566231995821
0.02863835170865059,0.004375129472464323,-0.018560759723186493,0.015081273391842842,-0.0006230304134078324,-0.013124562799930573
0.02945733815431595,0.004147748462855816,-0.018498141318559647,0.015077515505254269,-0.0005777563201263547,-0.013728750869631767
0.02953646518290043,0.0039092316292226315,-0.018190715461969376,0.015064867213368416,-0.0005366413970477879,-0.013771272264420986
0.029547004029154778,0.0038506193086504936,-0.01847286894917488,0.015216556377708912,-0.0004451822896953672,-0.013885347172617912
0.029837319627404213,0.004438796546310186,-0.019072046503424644,0.015000361017882824,-0.0004027544055134058,-0.013479082845151424
0.030499737709760666,0.004628055263310671,-0.018331080675125122,0.01478127483278513,-0.00043320743134245276,-0.013761265203356743
0.0304949302226305,0.004248038865625858,-0.01886477880179882,0.014128469862043858,-0.0004090340808033943,-0.013133320026099682
0.029045837000012398,0.00408987607806921,-0.0188787542283535,0.014344017021358013,-0.00043974845902994275,-0.013144703581929207
0.029259609058499336,0.004121032543480396,-0.017963459715247154,0.014646588824689388,-0.0004582913243211806,-0.013305703178048134
0.029259609058499336,0.004121032543480396,-0.017963459715247154,0.014646588824689388,-0.0004582913243211806,-0.013305703178048134
0.030280856415629387,0.004104220774024725,-0.018363915383815765,0.014622741378843784,-0.00044388617970980704,-0.012811480090022087
0.02992798574268818,0.0040007480420172215,-0.01845911145210266,0.014762201346457005,-0.0005508094909600914,-0.01294652558863163
0.03002236597239971,0.004069726448506117,-0.01913587562739849,0.014207769185304642,-0.0005494339275173843,-0.013758101500570774
0.03002236597239971,0.004069726448506117,-0.01913587562739849,0.014207769185304642,-0.0005494339275173843,-0.013758101500570774
0.030031681060791016,0.0038107503205537796,-0.01867486909031868,0.014358985237777233,-0.0005766830290667713,-0.013883152045309544
0.03019598126411438,0.0036674581933766603,-0.01873909682035446,0.014909055083990097,-0.0005329531850293279,-0.0138781126588583
0.028436066582798958,0.0036442233249545097,-0.020068518817424774,0.01463997270911932,-0.0005522588617168367,-0.013614843599498272
0.031016401946544647,0.004181013908237219,-0.018305493518710136,0.014489022083580494,-0.000574466772377491,-0.013551891781389713
0.030782649293541908,0.0040266141295433044,-0.019543351605534554,0.014218386262655258,-0.0005226991488598287,-0.01377001591026783
0.030510392040014267,0.003499852027744055,-0.019060594961047173,0.014016474597156048,-0.00046911186655052006,-0.013646184466779232
0.03106597810983658,0.0034248391166329384,-0.018812811002135277,0.014018122106790543,-0.0004979752120561898,-0.01394105888903141
0.031026184558868408,0.003485191846266389,-0.019201986491680145,0.013925937004387379,-0.00046500025200657547,-0.013697262853384018
0.03130418807268143,0.0035717168357223272,-0.01958572119474411,0.014637917280197144,-0.0004632999771274626,-0.013765238225460052
0.030809741467237473,0.0036718437913805246,-0.019194703549146652,0.014891513623297215,-0.0004609784227795899,-0.01359831728041172
0.031001636758446693,0.0037271669134497643,-0.0191936194896698,0.01505572535097599,-0.00047680502757430077,-0.013952278532087803
0.031243545934557915,0.003699368564411998,-0.019034380093216896,0.01511157862842083,-0.0004605563881341368,-0.013932810164988041
0.030995968729257584,0.0036685739178210497,-0.018848126754164696,0.014931081794202328,-0.0004348356160335243,-0.013926785439252853
0.03146609291434288,0.0037727905437350273,-0.0193852037191391,0.015304038301110268,-0.0004218729445710778,-0.013885810039937496
0.031423985958099365,0.003901232033967972,-0.01931851916015148,0.015088130719959736,-0.00045414705527946353,-0.014004704542458057
0.031535785645246506,0.004275668412446976,-0.018984045833349228,0.015450847335159779,-0.0004619318642653525,-0.014168630354106426
0.03196859732270241,0.0037080268375575542,-0.019600199535489082,0.0150607880204916,-0.00046028028009459376,-0.014227958396077156
0.0322938933968544,0.003462513443082571,-0.01929205097258091,0.015283804386854172,-0.0004840808978769928,-0.014272271655499935
0.03246687725186348,0.0035110616590827703,-0.018460530787706375,0.015002760104835033,-0.0004634687502402812,-0.01410959754139185
0.032132264226675034,0.003718069987371564,-0.019287418574094772,0.015587096102535725,-0.0007033523870632052,-0.013891654089093208
0.032132264226675034,0.003718069987371564,-0.019287418574094772,0.015587096102535725,-0.0007033523870632052,-0.013891654089093208
0.03210970759391785,0.00434062210842967,-0.019381055608391762,0.01488486211746931,-0.0006854075472801924,-0.014843937940895557
0.03260568901896477,0.004171236418187618,-0.018930990248918533,0.014996113255620003,-0.0007068681297823787,-0.01429026946425438
0.03387168422341347,0.003910253755748272,-0.019400905817747116,0.015163310803472996,-0.0006854195380583405,-0.013744354248046875
0.032876770943403244,0.0038593988865613937,-0.01969320885837078,0.01552014984190464,-0.0006624674424529076,-0.014265604317188263
0.03161665052175522,0.003873215988278389,-0.019231094047427177,0.015026092529296875,-0.0006110405083745718,-0.014236195012927055
0.033315759152173996,0.004293995909392834,-0.019227217882871628,0.015141279436647892,-0.0006397506804205477,-0.014269130304455757
0.033372826874256134,0.00426555285230279,-0.018995633348822594,0.015373487025499344,-0.0006639569182880223,-0.014110543765127659
0.033468808978796005,0.004011576529592276,-0.018964892253279686,0.015431632287800312,-0.0006033226381987333,-0.01440158486366272
0.033797211945056915,0.0038008252158761024,-0.019288409501314163,0.015444343909621239,-0.0006148872780613601,-0.014361641369760036
0.03267925977706909,0.004186633042991161,-0.01891484297811985,0.015605206601321697,-0.0006002613226883113,-0.013820194639265537
0.03284450247883797,0.004189466591924429,-0.01915130950510502,0.015631429851055145,-0.0006270094309002161,-0.014362304471433163
0.03419269248843193,0.003991191741079092,-0.019101984798908234,0.015749884769320488,-0.000574181554839015,-0.014447864145040512
0.034139685332775116,0.0038638454861938953,-0.018861940130591393,0.015377044677734375,-0.0006053267861716449,-0.014539952389895916
0.03356797993183136,0.0037898279260843992,-0.019394950941205025,0.016076868399977684,-0.0006169382249936461,-0.014393778517842293
0.03394326567649841,0.00380172417499125,-0.01922137476503849,0.015567061491310596,-0.0005810271832160652,-0.014517859555780888
0.03366606682538986,0.0041237096302211285,-0.018662352114915848,0.015702255070209503,-0.0005988591583445668,-0.01423861924558878
0.033965982496738434,0.0039932080544531345,-0.019027970731258392,0.015577912330627441,-0.0006291891913861036,-0.014354594983160496
0.03412223607301712,0.003725264687091112,-0.018771369010210037,0.01594446785748005,-0.0006120893522165716,-0.013941419310867786
0.03420175239443779,0.003714808728545904,-0.018663400784134865,0.015942441299557686,-0.0006217307527549565,-0.013844671659171581
0.03407071903347969,0.004204724915325642,-0.018815211951732635,0.01567249745130539,-0.0005793960299342871,-0.01410218421369791
0.03437139838933945,0.003988840151578188,-0.018989749252796173,0.015514373779296875,-0.0006057728314772248,-0.014713556505739689
0.03427966311573982,0.0043375021778047085,-0.019482756033539772,0.015248787589371204,-0.0005575161776505411,-0.014596028253436089
0.03475969657301903,0.004177136346697807,-0.019349072128534317,0.015573161654174328,-0.0005478988750837743,-0.015191322192549706
0.03475969657301903,0.004177136346697807,-0.019349072128534317,0.015573161654174328,-0.0005478988750837743,-0.015191322192549706
0.03455303609371185,0.0040133954025805,-0.019028762355446815,0.015400487929582596,-0.0005391514278016984,-0.015070204623043537
0.03321858495473862,0.0038983002305030823,-0.01917693018913269,0.015952518209815025,-0.0005035380600020289,-0.014640402048826218
0.034819845110177994,0.004341057501733303,-0.01966652274131775,0.015628380700945854,-0.00048621100722812116,-0.014632669277489185
0.03639112412929535,0.004155769478529692,-0.01995430886745453,0.01596827618777752,-0.0004460425698198378,-0.014895571395754814
0.03582360967993736,0.004272528924047947,-0.019308894872665405,0.015896502882242203,-0.00044548261212185025,-0.014948705211281776
0.03364066779613495,0.004520060028880835,-0.019789401441812515,0.016315558925271034,-0.0004443963407538831,-0.015055151656270027
0.03402106091380119,0.004160074982792139,-0.019863205030560493,0.016418704763054848,-0.0004460866330191493,-0.015223058871924877
0.03517249599099159,0.004456439521163702,-0.018971305340528488,0.01628256030380726,-0.00047619157703593373,-0.014583932235836983
0.0350346565246582,0.004672520328313112,-0.019496355205774307,0.016609201207756996,-0.0004751855740323663,-0.014230070635676384
0.03570882976055145,0.00428895466029644,-0.02010156214237213,0.016323551535606384,-0.0005699759931303561,-0.014599860645830631
0.03469128534197807,0.004096438176929951,-0.019397949799895287,0.01656019501388073,-0.0005810156580992043,-0.014577900990843773
0.03466697782278061,0.00439773965626955,-0.019784478470683098,0.016673920676112175,-0.0005917699891142547,-0.014381583780050278
0.035362064838409424,0.004698110278695822,-0.019210750237107277,0.017255235463380814,-0.000597905192989856,-0.01472132746130228
0.03557518869638443,0.0044297766871750355,-0.020056087523698807,0.017102017998695374,-0.0005856527131982148,-0.01514146663248539
0.03550029918551445,0.004468269646167755,-0.020059429109096527,0.017123442143201828,-0.0006598461186513305,-0.01520715095102787
0.035640060901641846,0.00421404093503952,-0.019443802535533905,0.016204331070184708,-0.0007013516151346266,-0.015449211932718754
0.035384345799684525,0.0040130107663571835,-0.019284581765532494,0.016101283952593803,-0.0007399922469630837,-0.01635364629328251
0.03547242656350136,0.004213328473269939,-0.019500093534588814,0.016361543908715248,-0.0007581635727547109,-0.014999534003436565
0.03563329577445984,0.004195656627416611,-0.01947225257754326,0.01590617187321186,-0.0009409282938577235,-0.014275409281253815
0.035593826323747635,0.004388770088553429,-0.019308846443891525,0.016129085794091225,-0.0009954354027286172,-0.014978469349443913
0.035870589315891266,0.0045404573902487755,-0.019943967461586,0.016563935205340385,-0.0009654250461608171,-0.015528015792369843
0.03630342707037926,0.004258520435541868,-0.019559327512979507,0.017093665897846222,-0.0009554679854772985,-0.015612359158694744
0.03622964769601822,0.004417406860738993,-0.019677674397826195,0.016641272231936455,-0.0009417059482075274,-0.015475311316549778
0.03622964769601822,0.004417406860738993,-0.019677674397826195,0.016641272231936455,-0.0009417059482075274,-0.015475311316549778
0.03663363680243492,0.004216743167489767,-0.019632965326309204,0.01665077731013298,-0.0008506262674927711,-0.015113642439246178
0.03602251783013344,0.004284732975065708,-0.019458116963505745,0.017305107787251472,-0.0008526872261427343,-0.01509914267808199
0.03597266227006912,0.004441624972969294,-0.019797200337052345,0.017125489190220833,-0.0008579966379329562,-0.01518640574067831
0.03617338091135025,0.004527674522250891,-0.019703660160303116,0.01632709428668022,-0.0008416069904342294,-0.015509279444813728
0.03671017661690712,0.004294955637305975,-0.019532335922122,0.01647466979920864,-0.0008584327879361808,-0.015318022109568119
0.03671017661690712,0.004294955637305975,-0.019532335922122,0.01647466979920864,-0.0008584327879361808,-0.015318022109568119
0.03655105084180832,0.004060185980051756,-0.019877618178725243,0.01566571742296219,-0.0008647527429275215,-0.015407217666506767
0.03672712296247482,0.004049161449074745,-0.019857974722981453,0.015921859070658684,-0.000869108596816659,-0.01545159425586462
0.03666974976658821,0.004119096789509058,-0.019416088238358498,0.016367444768548012,-0.0009360602125525475,-0.015654874965548515
0.0369165875017643,0.004149213898926973,-0.01995372213423252,0.016947949305176735,-0.0009622289217077196,-0.016131417825818062
0.03693839907646179,0.004387987777590752,-0.020146414637565613,0.017772585153579712,-0.0009643321973271668,-0.01582844741642475
0.036717817187309265,0.004429015796631575,-0.019783932715654373,0.017543425783514977,-0.000992118613794446,-0.01586908847093582
0.037274591624736786,0.004015286918729544,-0.02058074250817299,0.017367681488394737,-0.0009901262819766998,-0.015754645690321922
0.03830528259277344,0.004279400687664747,-0.020638730376958847,0.01728530414402485,-0.0009767309529706836,-0.015407199040055275
0.037358835339546204,0.004196170251816511,-0.020320283249020576,0.01785787008702755,-0.0009578734752722085,-0.01579468883574009
0.035958267748355865,0.004517005290836096,-0.020378772169351578,0.0169768575578928,-0.0009318477823399007,-0.015723492950201035
0.03757821395993233,0.004198012407869101,-0.020236438140273094,0.0173539686948061,-0.0008757810574024916,-0.015737969428300858
0.03755122423171997,0.004432830959558487,-0.020085887983441353,0.017073508352041245,-0.0008115859818644822,-0.016210876405239105
0.03844473138451576,0.004428239539265633,-0.020630238577723503,0.016871832311153412,-0.0008185718324966729,-0.01629318669438362
0.03742148354649544,0.004172926302999258,-0.020776398479938507,0.017052868381142616,-0.0007809619419276714,-0.016436981037259102
0.03685440868139267,0.003921107389032841,-0.02066093683242798,0.01694096252322197,-0.0007452818681485951,-0.01635400578379631
0.03677124157547951,0.004254152067005634,-0.020836571231484413,0.017601730301976204,-0.0006979710306040943,-0.016435988247394562
0.037757664918899536,0.004113555420190096,-0.020644456148147583,0.017420990392565727,-0.0007198430830612779,-0.01612776145339012
0.0364350900053978,0.0043777660466730595,-0.020963123068213463,0.01747574284672737,-0.0007411622209474444,-0.016039829701185226
0.03816485032439232,0.004656794015318155,-0.020494302734732628,0.017610229551792145,-0.0007456872262991965,-0.016191786155104637
0.03833409398794174,0.004432426765561104,-0.020998995751142502,0.016774456948041916,-0.000926863169297576,-0.01629340462386608
0.037384018301963806,0.0043128193356096745,-0.020908605307340622,0.017313828691840172,-0.0009807056048884988,-0.01723576709628105
0.03781994804739952,0.0039073266088962555,-0.021102355793118477,0.0175163671374321,-0.0009816648671403527,-0.016551347449421883
0.03827090933918953,0.003686757292598486,-0.0209845881909132,0.01746712252497673,-0.0009628877160139382,-0.01579342968761921
0.03760185465216637,0.0037289303727447987,-0.021460186690092087,0.0174397099763155,-0.0011014071060344577,-0.015656085684895515
0.03760185465216637,0.0037289303727447987,-0.021460186690092087,0.0174397099763155,-0.0011014071060344577,-0.015656085684895515
0.038595009595155716,0.003860348602756858,-0.020915944129228592,0.017715200781822205,-0.000991739216260612,-0.016430413350462914
0.038398582488298416,0.004300334490835667,-0.020515497773885727,0.017285997048020363,-0.0009745935094542801,-0.016671286895871162
0.038398582488298416,0.004300334490835667,-0.020515497773885727,0.017285997048020363,-0.0009745935094542801,-0.016671286895871162
0.03811781480908394,0.003989113960415125,-0.021300069987773895,0.016812339425086975,-0.0009704116964712739,-0.016750413924455643
0.03955341875553131,0.0037670396268367767,-0.021689370274543762,0.017118331044912338,-0.0009678717469796538,-0.01683020405471325
0.03913883492350578,0.003767560236155987,-0.021333709359169006,0.016966424882411957,-0.001023524790070951,-0.01695357635617256
0.03925197198987007,0.0039247688837349415,-0.02147139608860016,0.017404133453965187,-0.0011156951077282429,-0.01695343106985092
0.03885830566287041,0.00389512674883008,-0.02179546467959881,0.017146065831184387,-0.001082150381989777,-0.017488541081547737
0.0401042178273201,0.003983351401984692,-0.021728534251451492,0.017324799671769142,-0.0010547532001510262,-0.017689522355794907
0.04006519541144371,0.004034437704831362,-0.02080884575843811,0.01692226342856884,-0.0010057108011096716,-0.017648901790380478
0.038844555616378784,0.003909165970981121,-0.021730739623308182,0.016941191628575325,-0.0010081216460093856,-0.01714409701526165
0.03839090093970299,0.0036963566672056913,-0.022001927718520164,0.01649261638522148,-0.0009919569129124284,-0.016930941492319107
0.03997626155614853,0.003613294567912817,-0.021029694005846977,0.016656911000609398,-0.0009474338730797172,-0.01696876809000969
0.0397273525595665,0.004002880305051804,-0.021184226498007774,0.01760701648890972,-0.0008862909744493663,-0.017299944534897804
0.03941074386239052,0.004216018132865429,-0.022125111892819405,0.01831374131143093,-0.0008627607021480799,-0.01770985871553421
0.03950369358062744,0.004136295057833195,-0.02202237769961357,0.019168073311448097,-0.0008767286781221628,-0.018042102456092834
0.04012351483106613,0.004137203097343445,-0.021727146580815315,0.019137805327773094,-0.0008805536781437695,-0.017558112740516663
0.03959248587489128,0.0041437591426074505,-0.021691439673304558,0.018120601773262024,-0.0008830029983073473,-0.017107635736465454
0.03933774307370186,0.004020702093839645,-0.02197328209877014,0.01819715090095997,-0.0009436754626221955,-0.017305046319961548
0.04006081819534302,0.003927465528249741,-0.022077077999711037,0.017813654616475105,-0.0009665943798609078,-0.016844313591718674
0.039658885449171066,0.0043403697200119495,-0.02155916951596737,0.018071483820676804,-0.0009399127447977662,-0.016667548567056656
0.040304042398929596,0.004222333896905184,-0.021589912474155426,0.018631599843502045,-0.0009334997739642859,-0.016951879486441612
0.040232520550489426,0.003930787555873394,-0.022194165736436844,0.01872090809047222,-0.0009166321833617985,-0.017413392663002014
0.04019086807966232,0.0037670237943530083,-0.021942606195807457,0.018023118376731873,-0.0009015340474434197,-0.017764750868082047
0.04007099196314812,0.004142737947404385,-0.02147741988301277,0.018228325992822647,-0.0009006393374875188,-0.017613552510738373
0.04007099196314812,0.004142737947404385,-0.02147741988301277,0.018228325992822647,-0.0009006393374875188,-0.017613552510738373
0.03988875821232796,0.0045918747782707214,-0.02201111987233162,0.018105700612068176,-0.0008428639848716557,-0.017107633873820305
0.041318658739328384,0.004527181852608919,-0.022185953333973885,0.019025014713406563,-0.000845729373395443,-0.01756572164595127
0.04102780669927597,0.004255964886397123,-0.022441508248448372,0.018858270719647408,-0.0008192722452804446,-0.01718938536942005
0.040720608085393906,0.003963341470807791,-0.022003762423992157,0.01833726093173027,-0.0008513148641213775,-0.017419571056962013
0.040948960930109024,0.0043553998693823814,-0.02200045995414257,0.018980370834469795,-0.0008276450098492205,-0.01740141585469246
0.040592871606349945,0.004105566069483757,-0.022393688559532166,0.018123319372534752,-0.0008627204224467278,-0.01695108227431774
0.04130130261182785,0.0039435033686459064,-0.02248123288154602,0.01798597350716591,-0.000805928255431354,-0.01701311767101288
