davideferrari95/blind_handover_controller/data/Test 136 - [2024-02-07 -- 17-21-33]/joint_states_data.csv
shoulder_pan_joint,shoulder_lift_joint,elbow_joint,wrist_1_joint,wrist_2_joint,wrist_3_joint
0.0025334693491458893,0.011221175082027912,-0.013192813843488693,0.0026382962241768837,-0.0,0.00285754119977355
0.0025334693491458893,0.011221175082027912,-0.013192813843488693,0.0026382962241768837,-0.0,0.00285754119977355
0.002492800122126937,0.011003470979630947,-0.013457478024065495,0.002750862156972289,-0.0,0.0026008887216448784
0.0026555967051535845,0.011252183467149734,-0.013052763417363167,0.0024850876070559025,-0.0,0.002840578556060791
0.002475914778187871,0.011877305805683136,-0.01258713286370039,0.0023540949914604425,-0.0,0.0034591308794915676
0.00239840941503644,0.01157896313816309,-0.013302133418619633,0.002217714674770832,-0.0,0.00340079958550632
0.002637924626469612,0.011348552070558071,-0.013007278554141521,0.0022917769383639097,-0.0,0.0031449180096387863
0.0027909863274544477,0.012434249743819237,-0.012690178118646145,0.0021142871119081974,-0.0,0.002769684186205268
0.002982937963679433,0.011332018300890923,-0.012613233178853989,0.0023150488268584013,-0.0,0.002579324645921588
0.0027637702878564596,0.011448720470070839,-0.01251881942152977,0.0024317950010299683,-0.0,0.0026107749436050653
0.002714062575250864,0.011336451396346092,-0.013013527728617191,0.0023912766482681036,-0.0,0.0025354691315442324
0.002643789164721966,0.01120656356215477,-0.012211495079100132,0.002374964766204357,-0.0,0.0026232777163386345
0.0026013795286417007,0.012105423957109451,-0.013058922253549099,0.0023951262701302767,-0.0,0.002683041151612997
0.0028704043943434954,0.011939804069697857,-0.01243277546018362,0.0023676175624132156,-0.0,0.0027353414334356785
0.002963834209367633,0.011391101405024529,-0.012846531346440315,0.0025055757723748684,-0.0,0.0029971287585794926
0.002723217010498047,0.011320956982672215,-0.01220044493675232,0.0026232334785163403,-0.0,0.0028593717142939568
0.0025370295625180006,0.011183776892721653,-0.011898902244865894,0.0025590723380446434,-0.0,0.002758117625489831
0.0028000727761536837,0.011897807940840721,-0.012484850361943245,0.0026822476647794247,-0.0,0.002565549686551094
0.0028000727761536837,0.011897807940840721,-0.012484850361943245,0.0026822476647794247,-0.0,0.002565549686551094
0.002986087929457426,0.011334395967423916,-0.01238988433033228,0.0026484429836273193,-0.0,0.00246970122680068
0.0029985415749251842,0.011195178143680096,-0.013202985748648643,0.0024956786073744297,-0.0,0.0026435726322233677
0.0027303986717015505,0.011893162503838539,-0.012566318735480309,0.002251814818009734,-0.0,0.0027302666567265987
0.002642445731908083,0.011268372647464275,-0.013237401843070984,0.002141025383025408,-0.0,0.0031453827396035194
0.0027658159378916025,0.011708365753293037,-0.012699139304459095,0.002298858016729355,-0.0,0.0032608143519610167
0.0026499496307224035,0.01132915262132883,-0.012834022752940655,0.00249652867205441,-0.0,0.003083872376009822
0.002971285255625844,0.01076541654765606,-0.013243484310805798,0.0024390551261603832,-0.0,0.0026636021211743355
0.0032874138560146093,0.011092621833086014,-0.012711322866380215,0.00260862335562706,-0.0,0.002417768817394972
0.0031345472671091557,0.01092369481921196,-0.012900887988507748,0.002325530396774411,-0.0,0.0023656042758375406
0.00298719247803092,0.011202939786016941,-0.012060198001563549,0.0023653353564441204,-0.0,0.0023118280805647373
0.002700726967304945,0.011452365666627884,-0.01290798932313919,0.0021796158980578184,-0.0,0.0027762409299612045
0.002759114373475313,0.010327556170523167,-0.012414027936756611,0.0021702118683606386,-0.0,0.003078632988035679
0.002796243643388152,0.010250109247863293,-0.013556062243878841,0.002354886382818222,-0.0,0.0033269990235567093
0.002889390103518963,0.010271227918565273,-0.012803683057427406,0.0025243652053177357,-0.0,0.0028250969480723143
0.0031276275403797626,0.011240370571613312,-0.012402446009218693,0.002861438784748316,-0.0,0.0026782744098454714
0.0031528021208941936,0.010319334454834461,-0.01214873418211937,0.0025672004558146,-0.0,0.002682917285710573
0.003325631143525243,0.010405877605080605,-0.013059522025287151,0.0024303251411765814,-0.0,0.0025732386857271194
0.00312734954059124,0.010614126920700073,-0.012832703068852425,0.0021504750475287437,-0.0,0.002605590969324112
0.0028644490521401167,0.01024776604026556,-0.01361498236656189,0.0021397299133241177,-0.0,0.0028297184035182
0.002988366410136223,0.01021982729434967,-0.012792235240340233,0.0024041305296123028,-0.0,0.0028226522263139486
0.0033322684466838837,0.009708289988338947,-0.012719581834971905,0.002553187310695648,-0.0,0.002829197095707059
0.0033322684466838837,0.009708289988338947,-0.012719581834971905,0.002553187310695648,-0.0,0.002829197095707059
0.0033322684466838837,0.009708289988338947,-0.012719581834971905,0.002553187310695648,-0.0,0.002829197095707059
0.003446889342740178,0.01050311978906393,-0.013262365944683552,0.002307103481143713,-0.0,0.002796721877530217
0.0032049205619841814,0.009876386262476444,-0.012696523219347,0.0022513619624078274,-0.0,0.002980281598865986
0.0032049205619841814,0.009876386262476444,-0.012696523219347,0.0022513619624078274,-0.0,0.002980281598865986
0.0032137392554432154,0.010723227635025978,-0.013071567751467228,0.0023575543891638517,-0.0,0.003397047519683838
0.003237147117033601,0.01101731974631548,-0.012303352355957031,0.0025168247520923615,-0.0,0.0034623476676642895
0.0031626312993466854,0.010087013244628906,-0.012827056460082531,0.0024939468130469322,-0.0,0.003128961194306612
0.003336604218930006,0.010304838418960571,-0.012642933987081051,0.002556145191192627,-0.0,0.0026142506394535303
0.0031692704651504755,0.010294444859027863,-0.012073472142219543,0.002345056040212512,-0.0,0.002511970466002822
0.003544320585206151,0.010073781944811344,-0.012904529459774494,0.002383927581831813,-0.0,0.0025951687712222338
0.0031768549233675003,0.010631602257490158,-0.01331142894923687,0.0025834310799837112,-0.0,0.0027884207665920258
0.0032615296076983213,0.010656993836164474,-0.012777204625308514,0.0028072737623006105,-0.0,0.0033131572417914867
0.0033660875633358955,0.011264387518167496,-0.012469411827623844,0.0028418940491974354,-0.0,0.003666727337986231
0.0035862319637089968,0.010574019514024258,-0.012888483703136444,0.002958334982395172,-0.0,0.003234690288081765
0.0038377612363547087,0.010504713281989098,-0.01222340390086174,0.002883777255192399,-0.0,0.0028018243610858917
0.003398299217224121,0.010590354911983013,-0.013072757050395012,0.002862073015421629,-0.0,0.002653036965057254
0.003523958381265402,0.010732371360063553,-0.012185793370008469,0.0026639574207365513,-0.0,0.0024950429797172546
0.002909785835072398,0.010526048019528389,-0.012968230061233044,0.002572053810581565,-0.0,0.002821016823872924
0.0037314938381314278,0.010650819167494774,-0.012584835290908813,0.002600065665319562,-0.0,0.003339638700708747
0.00393709959462285,0.010298356413841248,-0.01266032736748457,0.0025598786305636168,-0.0,0.0031956960447132587
0.003413103986531496,0.010597916319966316,-0.012229534797370434,0.0026697274297475815,-0.0,0.0030416338704526424
0.0030692042782902718,0.01061381958425045,-0.012654517777264118,0.0027336799539625645,-0.0,0.0030004295986145735
0.0027374401688575745,0.01082258764654398,-0.01201192568987608,0.002924185013398528,-0.0,0.003132467856630683
0.0024463855661451817,0.010646321810781956,-0.012658285908401012,0.003196854144334793,-0.0,0.0031037000007927418
0.0026117824018001556,0.010530844330787659,-0.012427900917828083,0.0031833418179303408,-0.0,0.003426887560635805
0.003062221687287092,0.010404475964605808,-0.012610376812517643,0.0031743936706334352,-0.0,0.003273478476330638
0.003096451284363866,0.010482658632099628,-0.012694981880486012,0.003071456914767623,-0.0,0.003185550682246685
0.003096451284363866,0.010482658632099628,-0.012694981880486012,0.003071456914767623,-0.0,0.003185550682246685
0.002938311779871583,0.010113149881362915,-0.012667126022279263,0.0029269466176629066,-0.0,0.002850763965398073
0.0026600954588502645,0.010761425830423832,-0.012861681170761585,0.00299771293066442,-0.0,0.0029054207261651754
0.002598885213956237,0.010492393746972084,-0.01270638033747673,0.0025671999901533127,-0.0,0.003355010412633419
0.002607332542538643,0.01024638582020998,-0.012743957340717316,0.0024547933135181665,-0.0,0.0032215944956988096
0.0025755465030670166,0.010979723185300827,-0.012434849515557289,0.0026455179322510958,-0.0,0.003275464754551649
0.002783882664516568,0.010615183971822262,-0.012652352452278137,0.0028501925989985466,-0.0,0.0032454817555844784
0.002974011702463031,0.010574850253760815,-0.012775357812643051,0.0029139076359570026,-0.0,0.0032778477761894464
0.0027917358092963696,0.010754133574664593,-0.01247501652687788,0.00277739972807467,-0.0,0.0032828361727297306
0.0027157049626111984,0.010875338688492775,-0.012707022950053215,0.0029422217048704624,-0.0,0.00283281272277236
0.0028706886805593967,0.011569680646061897,-0.01189426425844431,0.002761418931186199,-0.0,0.0028198149520903826
0.003190707415342331,0.010581141337752342,-0.01271822303533554,0.002682636259123683,-0.0,0.002815929474309087
0.003161422908306122,0.010392543859779835,-0.011973448097705841,0.0026962412521243095,-0.0,0.002883535111322999
0.0030563073232769966,0.010903499089181423,-0.012636923231184483,0.002897654427215457,-0.0,0.0027263311203569174
0.0027868913020938635,0.010092104785144329,-0.012614506296813488,0.002798029687255621,-0.0,0.002706622937694192
0.003038155846297741,0.010040417313575745,-0.012349085882306099,0.002640258055180311,-0.0,0.002772990381345153
0.003084685653448105,0.010366800241172314,-0.01206297054886818,0.002659113612025976,-0.0,0.0032750337850302458
0.003232540562748909,0.010799075476825237,-0.012778891250491142,0.002947257598862052,-0.0,0.0031418565195053816
0.0029372582212090492,0.011112293228507042,-0.012292628176510334,0.0028124565724283457,-0.0,0.0029694880358874798
0.003036079229786992,0.011210758239030838,-0.012957324273884296,0.0028092411812394857,-0.0,0.002866785740479827
0.0031039968598634005,0.010628243908286095,-0.012397178448736668,0.0028575535397976637,-0.0,0.002929866313934326
0.003322865813970566,0.010665157809853554,-0.012026702053844929,0.0027774949558079243,-0.0,0.003159892512485385
0.0032036693301051855,0.010578898712992668,-0.012446652166545391,0.0028431073296815157,-0.0,0.003137619700282812
0.0034253322519361973,0.010680299252271652,-0.01228097639977932,0.0028652295004576445,-0.0,0.003323538461700082
0.003097442677244544,0.010561317205429077,-0.012792428955435753,0.0026979511603713036,-0.0,0.0032089233864098787
0.003278392134234309,0.010319897904992104,-0.012270817533135414,0.002569263568148017,-0.0,0.0030893937218934298
0.0033457514364272356,0.010625741444528103,-0.012934918515384197,0.002662127371877432,-0.0,0.003232738235965371
0.0035031000152230263,0.010294023901224136,-0.012288685888051987,0.002848159521818161,-0.0,0.0033311976585537195
0.0033055711537599564,0.010708693414926529,-0.011993063613772392,0.002961002755910158,-0.0,0.003577042371034622
0.00352819194085896,0.011353987269103527,-0.012483900412917137,0.0028944939840584993,-0.0,0.003318333299830556
0.0034042643383145332,0.010240533389151096,-0.012035815045237541,0.00294991466216743,-0.0,0.003274554153904319
0.0033819552045315504,0.010402432642877102,-0.012539617717266083,0.0026806232053786516,-0.0,0.0030397239606827497
0.0033819552045315504,0.010402432642877102,-0.012539617717266083,0.0026806232053786516,-0.0,0.0030397239606827497
0.0036286241374909878,0.010698752477765083,-0.012056116946041584,0.0025656104553490877,-0.0,0.0031253271736204624
0.0032504554837942123,0.0104135200381279,-0.013371904380619526,0.0028217588551342487,-0.0,0.0031036215368658304
0.0034782227594405413,0.010591735132038593,-0.01257837750017643,0.003131783800199628,-0.0,0.0033942365553230047
0.0036291233263909817,0.010405094362795353,-0.01240540947765112,0.0032703073229640722,-0.0,0.003176617668941617
0.0035149455070495605,0.010558963753283024,-0.012250706553459167,0.0033074605744332075,-0.0,0.003175098216161132
0.0034969516564160585,0.010340186767280102,-0.011929226107895374,0.0031249653548002243,-0.0,0.003048850456252694
0.0034381262958049774,0.010027063079178333,-0.012691997922956944,0.002920975210145116,-0.0,0.002947130473330617
0.003620499512180686,0.010074823163449764,-0.012212500907480717,0.002922735409811139,-0.0,0.0031285565346479416
0.0033276148606091738,0.01046026311814785,-0.013053389266133308,0.0025325994938611984,-0.0,0.0032130880281329155
0.0036188289523124695,0.010299826972186565,-0.012640770524740219,0.0024621423799544573,-0.0,0.003225556807592511
0.004161307588219643,0.009803393855690956,-0.012627805583178997,0.0028719205874949694,-0.0,0.003209211165085435
0.003545889165252447,0.01015847735106945,-0.012862401083111763,0.0035341400653123856,-0.0,0.003632078180089593
0.0031622338574379683,0.010021334514021873,-0.013078331016004086,0.00323098455555737,-0.0,0.0034462842158973217
0.0038381824269890785,0.010839385911822319,-0.012509994208812714,0.003042401745915413,-0.0,0.0035285400226712227
0.004236937966197729,0.010044209659099579,-0.01324142049998045,0.0029103185515850782,-0.0,0.0032506065908819437
0.004010550677776337,0.009871046990156174,-0.01273159496486187,0.003065071301534772,-0.0,0.003094273153692484
0.003891334403306246,0.010012008249759674,-0.013482937589287758,0.003336349269375205,-0.0,0.0032208538614213467
0.003901613177731633,0.009809708222746849,-0.013130699284374714,0.0034599031787365675,-0.0,0.003548770910128951
0.003973174840211868,0.010302549228072166,-0.01324212271720171,0.0032251777593046427,-0.0,0.003712546778842807
0.0038782935589551926,0.00980277732014656,-0.013139227405190468,0.0030595248099416494,-0.0,0.003732154378667474
0.0039011484477669,0.009977581910789013,-0.012869530357420444,0.003358071204274893,-0.0,0.0036210317630320787
0.003457784652709961,0.010040630586445332,-0.013165662065148354,0.0031459841411560774,-0.0,0.003538758959621191
0.003546374849975109,0.0095716193318367,-0.01295172143727541,0.00316480896435678,-0.0,0.003395545296370983
0.004210304468870163,0.009048597887158394,-0.013373100198805332,0.0033384528942406178,-0.0,0.0034666291903704405
0.004210304468870163,0.009048597887158394,-0.013373100198805332,0.0033384528942406178,-0.0,0.0034666291903704405
0.004118033684790134,0.009562157094478607,-0.012941122055053711,0.00322636216878891,-0.0,0.0037139724008738995
0.003885159967467189,0.009829910472035408,-0.013541270978748798,0.003106597112491727,-0.0,0.0037110454868525267
0.0038815534207969904,0.008932436816394329,-0.012491479516029358,0.0033678016625344753,-0.0,0.0035448067355901003
0.0039017866365611553,0.009160250425338745,-0.013458026573061943,0.0031414285767823458,-0.0,0.0036075522657483816
0.003935420420020819,0.009194563142955303,-0.012821179814636707,0.003272603964433074,-0.0,0.003798654768615961
0.004212832078337669,0.008826175704598427,-0.012905390933156013,0.003320700488984585,-0.0,0.0038417107425630093
0.004293862730264664,0.008982975035905838,-0.01298152469098568,0.0031435228884220123,-0.0,0.003762924112379551
0.004046161193400621,0.009287592954933643,-0.01270959060639143,0.0030809531453996897,-0.0,0.003717549378052354
0.003978197928518057,0.008924733847379684,-0.013274735771119595,0.0032973552588373423,-0.0,0.0038800640031695366
0.004120493773370981,0.00919033121317625,-0.012373552657663822,0.0032982160337269306,-0.0,0.004066763445734978
0.00447799963876605,0.009101157076656818,-0.013429834507405758,0.003313822206109762,-0.0,0.004117051605135202
0.00419011851772666,0.009497659280896187,-0.012766026891767979,0.0034729570616036654,-0.0,0.004100927151739597
0.003988991491496563,0.008600319735705853,-0.01283347886055708,0.0035766074433922768,-0.0,0.00400929618626833
0.004391504917293787,0.009383217431604862,-0.012234392575919628,0.0033841002732515335,-0.0,0.003896360984072089
0.004157586023211479,0.008649725466966629,-0.01094825193285942,0.0031477815937250853,-0.0,0.0037254204507917166
0.004365632310509682,0.00887755025178194,-0.01365420687943697,0.0032032341696321964,-0.0,0.0036259181797504425
0.004288009367883205,0.00885738804936409,-0.013697477988898754,0.003006963524967432,-0.0,0.003747658571228385
0.003931878600269556,0.008759413845837116,-0.012967092916369438,0.0032461481168866158,-0.0,0.003976084291934967
0.004115930292755365,0.008882895112037659,-0.01353431586176157,0.003547089174389839,-0.0,0.0042299735359847546
0.004118405748158693,0.009185557253658772,-0.012725389562547207,0.003504490479826927,-0.0,0.004063842352479696
0.004300710279494524,0.00912279263138771,-0.013212902471423149,0.0029456508345901966,-0.0,0.00418673874810338
0.004081898368895054,0.008695059455931187,-0.012468264438211918,0.0026956130750477314,-0.0,0.0041060070507228374
0.003945757634937763,0.009386345744132996,-0.013032659888267517,0.0027197834569960833,-0.0,0.003827185370028019
0.004457639064639807,0.008501456119120121,-0.012709700502455235,0.0029370258562266827,-0.0,0.003622110467404127
0.004093694966286421,0.008595472201704979,-0.013110759668052197,0.0032444638200104237,-0.0,0.0034789300989359617
0.004350495990365744,0.008950878866016865,-0.012928705662488937,0.0031828677747398615,-0.0,0.003565625986084342
0.0040932330302894115,0.009148444049060345,-0.012807750143110752,0.003458801656961441,-0.0,0.004022818990051746
0.004128795582801104,0.008568447083234787,-0.013290687464177608,0.0037671655882149935,-0.0,0.004584693815559149
0.004128795582801104,0.008568447083234787,-0.013290687464177608,0.0037671655882149935,-0.0,0.004584693815559149
0.004089642781764269,0.008501119911670685,-0.01248224452137947,0.003971247933804989,-0.0,0.0043383026495575905
0.004488344769924879,0.008832111954689026,-0.013555401936173439,0.003509583417326212,-0.0,0.003910251893103123
0.004851765930652618,0.0094869090244174,-0.012566693127155304,0.0033999509178102016,-0.0,0.003362394170835614
0.004808216355741024,0.008957316167652607,-0.013018939644098282,0.003523900406435132,-0.0,0.003337130881845951
0.004291373770684004,0.009718593209981918,-0.012856283225119114,0.003451806493103504,-0.0,0.00419353973120451
0.004305154085159302,0.009262198582291603,-0.012942570261657238,0.0033688214607536793,-0.0,0.004558908753097057
0.004646942485123873,0.009397385641932487,-0.013124676421284676,0.0033463865984231234,-0.0,0.004425246734172106
0.0047967215068638325,0.009217116050422192,-0.012990071438252926,0.003131401026621461,-0.0,0.004565749317407608
0.004751373082399368,0.008868556469678879,-0.013341816142201424,0.0028842829633504152,-0.0,0.004295781254768372
0.004691609181463718,0.008668642491102219,-0.012824183329939842,0.003006134182214737,-0.0,0.004014058504253626
0.004673397168517113,0.009419784881174564,-0.013286982662975788,0.0030282551888376474,-0.0,0.0037501147016882896
0.004694861359894276,0.009519648738205433,-0.012512866407632828,0.0032919675577431917,-0.0,0.003892689710482955
0.004683126695454121,0.00881364569067955,-0.013286086730659008,0.0032966232392936945,-0.0,0.00396693916991353
0.004642046522349119,0.008776913397014141,-0.013000347651541233,0.0034258649684488773,-0.0,0.004015814047306776
0.005049771163612604,0.009364529512822628,-0.01351696066558361,0.0032895514741539955,-6.212701464392012e-06,0.0046958294697105885
0.0050666132010519505,0.008738779462873936,-0.013205889612436295,0.0032490245066583157,-4.056450109146681e-07,0.0045276302844285965
0.005033579189330339,0.009200830943882465,-0.012597964145243168,0.00363867892883718,-1.7293280141217338e-09,0.004162083379924297
0.0049193487502634525,0.009241942316293716,-0.011951381340622902,0.003716567996889353,-1.1291276941216566e-10,0.003950930666178465
0.00483626127243042,0.008858363144099712,-0.013124452903866768,0.0035321812611073256,-7.372396963745143e-12,0.00412782933562994
0.0051242997869849205,0.008689108304679394,-0.012743012979626656,0.0035825991071760654,-4.81364839481635e-13,0.00457441620528698
0.005418797954916954,0.009461102075874805,-0.013397128321230412,0.003927270416170359,-3.14296860564299e-14,0.004916968289762735
0.005576657596975565,0.008754964917898178,-0.01261545903980732,0.0040361094288527966,-2.0521340381255424e-15,0.004893858451396227
0.005243643652647734,0.008345464244484901,-0.012941277585923672,0.004069761373102665,-1.3398968023665481e-16,0.005015504080802202
0.005045225843787193,0.008880482986569405,-0.01241281721740961,0.0035598359536379576,-8.748568215187465e-18,0.00479751406237483
0.005255776923149824,0.008575990796089172,-0.012420518323779106,0.003604181809350848,-5.7121898117796105e-19,0.004436223302036524
0.0054137310944497585,0.007946527563035488,-0.012816221453249454,0.0033741770312190056,-3.729651722603045e-20,0.004537095781415701
0.005438207183033228,0.008776828646659851,-0.012399314902722836,0.003547175321727991,-2.4351958934458886e-21,0.004570697899907827
0.005183120258152485,0.008660722523927689,-0.012849579565227032,0.0037078969180583954,-1.5900089816840013e-22,0.004870550241321325
0.0057474663481116295,0.008723652921617031,-0.01257616188377142,0.003833325579762459,-1.038162329401383e-23,0.004697299096733332
0.0057474663481116295,0.008723652921617031,-0.01257616188377142,0.003833325579762459,-1.038162329401383e-23,0.004697299096733332
0.005437404382973909,0.008770330809056759,-0.013137583620846272,0.0038741331081837416,-6.778457919282298e-25,0.004329236689954996
0.0058134631253778934,0.009017237462103367,-0.012705494649708271,0.003853096626698971,-4.425848333811297e-26,0.004377972334623337
0.005820183549076319,0.00872395746409893,-0.013410385698080063,0.0038297853898257017,-2.8897627406137947e-27,0.004190923646092415
0.005587622057646513,0.007836645469069481,-0.01271037571132183,0.003370928345248103,-1.8868086497975195e-28,0.004359918180853128
0.005501806735992432,0.008700314909219742,-0.012916897423565388,0.003434315789490938,-1.2319511815826765e-29,0.0047090547159314156
0.005430277436971664,0.009087410755455494,-0.013603709638118744,0.0037013881374150515,-8.04376114098193e-31,0.004774183500558138
0.005189384333789349,0.008085762150585651,-0.012879189103841782,0.004262634087353945,-5.252001789488056e-32,0.004767478909343481
0.006000304128974676,0.008243389427661896,-0.012942708097398281,0.004138081334531307,-3.429181507577548e-33,0.004464659374207258
0.005524079781025648,0.008981260471045971,-0.012335328385233879,0.00398179842159152,-2.239010466936771e-34,0.004472557455301285
0.005809154827147722,0.008650483563542366,-0.013279742561280727,0.003971439320594072,-1.4619139095920482e-35,0.0044402084313333035
0.005657352972775698,0.008095250464975834,-0.01293269731104374,0.004033686127513647,-9.545253223826152e-37,0.004528259392827749
0.005646057426929474,0.00929566565901041,-0.013315370306372643,0.004005847033113241,-6.232367966302655e-38,0.004843055736273527
0.005688957870006561,0.008662666194140911,-0.012915316969156265,0.003987811040133238,-4.069290866386802e-39,0.004779737442731857
0.006072848103940487,0.008134475909173489,-0.012895348481833935,0.00441660126671195,-2.656959979252356e-40,0.004667044151574373
0.005887321196496487,0.008411596529185772,-0.012957307510077953,0.004311404190957546,-1.1322491591744522e-42,0.004698779433965683
0.00612796051427722,0.008269538171589375,-0.013476282358169556,0.004043347667902708,-7.42688186092153e-44,0.00456522312015295
0.006050174590200186,0.008123246021568775,-0.012773348949849606,0.004011614713817835,-4.203895392974451e-45,0.004890002775937319
0.006224281620234251,0.008891908451914787,-0.013728423975408077,0.00398106686770916,-0.0,0.0052225966937839985
0.005913175642490387,0.008600066415965557,-0.012961135245859623,0.004176917020231485,-0.0,0.004996554460376501
0.005979837384074926,0.00833524577319622,-0.013531454838812351,0.004157114773988724,-0.0,0.005369783844798803
0.006401562597602606,0.008516853675246239,-0.013122929260134697,0.004385520238429308,-0.0,0.005176164675503969
0.006698315031826496,0.00866752676665783,-0.01384743582457304,0.0041657788679003716,-0.0,0.004885755944997072
0.006240916904062033,0.00840842630714178,-0.01327422820031643,0.0039031347259879112,-0.0,0.005749533884227276
0.006291254423558712,0.008330941200256348,-0.013597365468740463,0.004160632379353046,-0.0,0.0050707594491541386
0.006265969481319189,0.009125426411628723,-0.012968755327165127,0.004317393992096186,-0.0,0.0045171938836574554
0.006167168263345957,0.008233258500695229,-0.013119565322995186,0.004092466551810503,-0.0,0.005055008456110954
0.006416337098926306,0.008413190953433514,-0.01352167408913374,0.004193830769509077,-0.0,0.00546756898984313
0.006416337098926306,0.008413190953433514,-0.01352167408913374,0.004193830769509077,-0.0,0.00546756898984313
0.006734410300850868,0.008618059568107128,-0.013465951196849346,0.004289617761969566,-0.0,0.0053986129350960255
0.006413665134459734,0.008324680849909782,-0.013749117963016033,0.004284767434000969,-0.0,0.0056783948093652725
0.007079564034938812,0.008265765383839607,-0.013240901753306389,0.004251253325492144,-0.0,0.005434001795947552
0.006579802371561527,0.009790328331291676,-0.013899552635848522,0.004436011891812086,-0.0,0.00529420655220747
0.00639193644747138,0.00900005828589201,-0.013041636906564236,0.004196540918201208,-0.0,0.005149636417627335
0.006806577555835247,0.008361189626157284,-0.01326298713684082,0.00440595019608736,-0.0,0.0053005642257630825
0.006775204557925463,0.008267601951956749,-0.013089029118418694,0.004575603641569614,-0.0,0.005500809755176306
0.006360544823110104,0.008647648617625237,-0.013665462844073772,0.004580990877002478,-0.0,0.005488203372806311
0.006522127892822027,0.008587266318500042,-0.013462802395224571,0.004351747687906027,-0.0,0.005335615482181311
0.006910222582519054,0.0089655090123415,-0.013958391733467579,0.004344655200839043,-6.485541234724224e-05,0.005389932543039322
0.006318714469671249,0.008409673348069191,-0.013384846039116383,0.004191604442894459,-8.240017632488161e-05,0.005654613487422466
0.0063949632458388805,0.00851498544216156,-0.013397565111517906,0.00453267153352499,-8.211975364247337e-05,0.005933762993663549
0.00678478367626667,0.008322243578732014,-0.013191420584917068,0.004684381652623415,-8.072635682765394e-05,0.006219398695975542
0.0067430888302624226,0.008425761014223099,-0.013510595075786114,0.004368939436972141,-7.930892024887726e-05,0.00616879528388381
0.00685991020873189,0.008253336884081364,-0.013287371024489403,0.004411670845001936,-7.660895062144846e-05,0.005876230541616678
0.007512932177633047,0.008329319767653942,-0.01354476623237133,0.004184035584330559,-7.53264976083301e-05,0.005820486694574356
0.007904643192887306,0.008443518541753292,-0.012799310497939587,0.004347090143710375,-8.50859287311323e-05,0.006169236730784178
0.006840963382273912,0.00857760850340128,-0.013259558007121086,0.0043644653633236885,-8.721446647541597e-05,0.005793382413685322
0.006489122286438942,0.00825001671910286,-0.012607094831764698,0.004516820423305035,-8.605331822764128e-05,0.0057420628145337105
0.0067428103648126125,0.008218786679208279,-0.013393132947385311,0.004558947868645191,-8.471820910926908e-05,0.005485673435032368
0.007383682765066624,0.008451910689473152,-0.013155554421246052,0.004775824956595898,-8.341062493855134e-05,0.005790270399302244
0.007624591700732708,0.008117207325994968,-0.013634788803756237,0.004946244414895773,-8.214179251808673e-05,0.006016961298882961
0.007038303650915623,0.007963528856635094,-0.013000723905861378,0.0048107486218214035,-8.091102790785953e-05,0.0059848385863006115
0.006433380767703056,0.007813811302185059,-0.012749982066452503,0.0045457021333277225,-7.971665763761848e-05,0.00602513924241066
0.007175307255238295,0.008237325586378574,-0.012989149428904057,0.004457063041627407,-7.855696458136663e-05,0.005985615774989128
0.007491186261177063,0.00822375901043415,-0.012877142056822777,0.004852578975260258,-7.74305808590725e-05,0.006040223874151707
0.00724943308159709,0.007628784514963627,-0.013309139758348465,0.005050654523074627,-7.633593486389145e-05,0.006485772784799337
0.006784684956073761,0.00824734941124916,-0.012802144512534142,0.004946391098201275,-7.527189882239327e-05,0.006270135752856731
0.007299264892935753,0.008794385939836502,-0.013528365641832352,0.005152207799255848,-8.579088898841292e-05,0.006201609503477812
0.007299264892935753,0.008794385939836502,-0.013528365641832352,0.005152207799255848,-8.579088898841292e-05,0.006201609503477812
0.008060986176133156,0.008584743365645409,-0.012892411090433598,0.005096012260764837,-8.538193651475012e-05,0.0062630670145154
0.008184089325368404,0.007749056909233332,-0.013415624387562275,0.004890737123787403,-8.428883302258328e-05,0.006182750687003136
0.006944151129573584,0.008294232189655304,-0.012808633036911488,0.004851920995861292,-8.317921310663223e-05,0.0062539782375097275
0.008226020261645317,0.008038133382797241,-0.01331694982945919,0.005040518008172512,-8.209547377191484e-05,0.00670764222741127
0.007916608825325966,0.008419925346970558,-0.012868387624621391,0.00488041527569294,-8.103950676741078e-05,0.006860561203211546
0.00740556325763464,0.008655703626573086,-0.012931612320244312,0.004961709957569838,-8.001030801096931e-05,0.0063553680665791035
0.007320284843444824,0.00864371657371521,-0.012943260371685028,0.004826249089092016,-7.900701893959194e-05,0.006509776227176189
0.008129027672111988,0.008247992023825645,-0.012300564907491207,0.00470255222171545,-7.802840991644189e-05,0.006479400675743818
0.007874611765146255,0.008433650247752666,-0.012904639355838299,0.004429738502949476,-7.707376789767295e-05,0.00613063620403409
0.007852285169064999,0.008675704710185528,-0.012425007298588753,0.004363526124507189,-7.614231435582042e-05,0.006411604583263397
0.007590137887746096,0.008288185112178326,-0.013407000340521336,0.004206703044474125,-7.523306703660637e-05,0.0067064231261610985
0.008022519759833813,0.008173977956175804,-0.01277587004005909,0.005177859216928482,-7.434526924043894e-05,0.006249614059925079
0.007924458011984825,0.00850068312138319,-0.013239121995866299,0.005493189208209515,-7.347816426772624e-05,0.006109448149800301
0.008141988888382912,0.00865162443369627,-0.012596037238836288,0.004681544378399849,-7.26310390746221e-05,0.006455265451222658
0.007824857719242573,0.007968135178089142,-0.012596122920513153,0.004729122389107943,-7.099413778632879e-05,0.00632339995354414
0.008227993734180927,0.008450569584965706,-0.012458046898245811,0.005107946693897247,-7.020306657068431e-05,0.006834510713815689
0.007824149914085865,0.008839371614158154,-0.013100260868668556,0.0048862844705581665,-3.51936359948013e-05,0.0067693209275603294
0.007625852711498737,0.007915694266557693,-0.012542948126792908,0.00464328657835722,-2.2978929337114096e-06,0.00691576860845089
0.00828743726015091,0.007929785177111626,-0.01299457810819149,0.005017812829464674,-1.5003598718976718e-07,0.006730993278324604
0.008170384913682938,0.008281479589641094,-0.012437759898602962,0.005124479066580534,-9.796278455098673e-09,0.006625817622989416
0.007421018555760384,0.008241192437708378,-0.012807391583919525,0.005134659353643656,-6.396270735287146e-10,0.006632052827626467
0.008520403876900673,0.008513733744621277,-0.01262572593986988,0.0051971254870295525,-4.176307216718911e-11,0.006585108116269112
0.00865691713988781,0.008640177547931671,-0.012647649273276329,0.004950375761836767,-2.7268302633248753e-12,0.006379146594554186
0.00793822668492794,0.009011772461235523,-0.012854264117777348,0.005133703351020813,-1.7804253080525023e-13,0.006893971003592014
0.007483478635549545,0.008542501367628574,-0.012607994489371777,0.005269001238048077,-1.162490463184904e-14,0.006956990342587233
0.00807176437228918,0.00814207922667265,-0.013330251909792423,0.005211050156503916,-7.590231535401447e-16,0.006815100554376841
0.008209211751818657,0.008702688850462437,-0.012552405707538128,0.005341099575161934,-4.955878932182829e-17,0.006930796429514885
0.007712122984230518,0.008812595158815384,-0.013071897439658642,0.005485146772116423,-3.2358352237418475e-18,0.007055600639432669
0.008767829276621342,0.008360687643289566,-0.012474983930587769,0.005420256406068802,-2.112769210946458e-19,0.0073000178672373295
0.00850378442555666,0.008549309335649014,-0.013023396953940392,0.005076163914054632,-1.379487330408837e-20,0.007136035710573196
0.008214854635298252,0.008926426991820335,-0.01343515980988741,0.0047761802561581135,-9.007066898358524e-22,0.007052406203001738
0.007856945507228374,0.008562442846596241,-0.013484928756952286,0.005108699202537537,-3.3660260669421405e-05,0.00720897177234292
0.00875855516642332,0.008427474647760391,-0.013189209625124931,0.005157378502190113,-7.939528586575761e-05,0.007547123823314905
0.00875855516642332,0.008427474647760391,-0.013189209625124931,0.005157378502190113,-7.939528586575761e-05,0.007547123823314905
0.008512405678629875,0.008834556676447392,-0.012793926522135735,0.005329069681465626,-8.099011756712571e-05,0.0074296812526881695
0.008180120959877968,0.008391165174543858,-0.013433694839477539,0.005432912148535252,-7.97522661741823e-05,0.00738130696117878
0.008397902362048626,0.008178992196917534,-0.011654148809611797,0.005148551892489195,-7.837608427507803e-05,0.007492118515074253
0.008513600565493107,0.008645683526992798,-0.014306268654763699,0.005345742683857679,-7.703531446168199e-05,0.007576788309961557
0.008032171986997128,0.008413707837462425,-0.013451303355395794,0.005345095414668322,-7.573869515908882e-05,0.007479350082576275
0.00830504484474659,0.007986134849488735,-0.013115867972373962,0.005850887391716242,-8.839300426188856e-05,0.007445211056619883
0.008642126806080341,0.008162320591509342,-0.01292005181312561,0.005520916078239679,-8.786200487520546e-05,0.007413721177726984
0.00852026604115963,0.00858475174754858,-0.014190270565450191,0.005780087783932686,-8.651370444567874e-05,0.007657539565116167
0.008397573605179787,0.008362219668924809,-0.013438591733574867,0.0054318103939294815,-8.515334775438532e-05,0.007153552491217852
0.00803049560636282,0.008056575432419777,-0.013590852729976177,0.005052180495113134,-9.071297972695902e-05,0.007230751682072878
0.008765618316829205,0.008366999216377735,-0.013605731539428234,0.005316171795129776,-9.58454838837497e-05,0.006979652680456638
0.008826552890241146,0.008464724756777287,-0.01343430858105421,0.005545743741095066,-9.482807945460081e-05,0.007306852377951145
0.008728344924747944,0.008242451585829258,-0.01343286968767643,0.005330270621925592,-9.208517440129071e-05,0.007891938090324402
0.0090164290741086,0.009010124020278454,-0.013272440992295742,0.005062902346253395,-9.075870912056416e-05,0.00791904702782631
0.008504250086843967,0.008548540994524956,-0.013138797134160995,0.005515143275260925,-8.946981688495725e-05,0.007760915439575911
0.008597690612077713,0.007950522936880589,-0.013529069721698761,0.005536812357604504,-9.99849071376957e-05,0.007792790420353413
0.008908390998840332,0.00827205739915371,-0.012986985966563225,0.005866160616278648,-9.93727080640383e-05,0.0075233327224850655
0.008994236588478088,0.008698107674717903,-0.013309506699442863,0.005647304002195597,-9.806930756894872e-05,0.008246026001870632
0.008784249424934387,0.008560926653444767,-0.013015789911150932,0.005933742504566908,-9.675469482317567e-05,0.007206832058727741
0.009545980021357536,0.008126413449645042,-0.013713779859244823,0.005720194429159164,-0.0001485836401116103,0.0072313109412789345
0.009023088961839676,0.008661712519824505,-0.012831046245992184,0.005924955476075411,-0.00019232832710258663,0.007593282498419285
0.008758563548326492,0.00893243495374918,-0.013657909817993641,0.006356435362249613,-0.00018758451915346086,0.0077344863675534725
0.009347469545900822,0.00811083521693945,-0.01385644543915987,0.006106224376708269,-0.00018028198974207044,0.008476927876472473
0.008924882858991623,0.008458763360977173,-0.013655494898557663,0.005902268923819065,-0.00017334980657324195,0.008400069549679756
0.008701123297214508,0.00866441335529089,-0.013552774675190449,0.0060837361961603165,-0.0001980397937586531,0.008361819200217724
0.009441394358873367,0.008441952988505363,-0.013870256021618843,0.0056987632997334,-0.00019299086125101894,0.007913932204246521
0.009316423907876015,0.008457395248115063,-0.013373962603509426,0.0058546229265630245,-0.00018645844829734415,0.008149955421686172
0.009803195483982563,0.0086765605956316,-0.01277755293995142,0.005789609160274267,-0.00018024297605734318,0.008167172782123089
0.009112590923905373,0.008601472713053226,-0.013377215713262558,0.006072400603443384,-0.0001744208566378802,0.00829167477786541
0.009816452860832214,0.008048011921346188,-0.013362676836550236,0.006051348056644201,-0.00019522535149008036,0.00868650060147047
0.009816452860832214,0.008048011921346188,-0.013362676836550236,0.006051348056644201,-0.00019522535149008036,0.00868650060147047
0.009697241708636284,0.008333719335496426,-0.013477516360580921,0.006409005727618933,-0.00019101817451883107,0.009248529560863972
0.009198244661092758,0.00876724161207676,-0.013093885965645313,0.006722170393913984,-0.00018550502136349678,0.008765405975282192
0.009439639747142792,0.008471209555864334,-0.013541964814066887,0.006941013969480991,-0.0001802055339794606,0.009008260443806648
0.009662582539021969,0.008245188742876053,-0.012932135723531246,0.006846477277576923,-0.00019373655959498137,0.00912126712501049
0.009743318893015385,0.008476963266730309,-0.013595156371593475,0.00714728282764554,-0.00019438103481661528,0.008865376003086567
0.010798314586281776,0.008327125571668148,-0.012759467586874962,0.007299610413610935,-0.00018964495393447578,0.008987972512841225
0.009732571430504322,0.008276382461190224,-0.012907828204333782,0.006575200706720352,-0.00022268258908297867,0.008709141984581947
0.009316626936197281,0.008645723573863506,-0.013001716695725918,0.00609163474291563,-0.00024662900250405073,0.008368859067559242
0.009593415074050426,0.008647444657981396,-0.013024448417127132,0.005435277707874775,-0.00023605534806847572,0.008775657042860985
0.009749535471200943,0.00813368707895279,-0.013659564778208733,0.006096720229834318,-0.00025614025071263313,0.00874793529510498
0.009751005098223686,0.008794935420155525,-0.013721433468163013,0.005986361298710108,-0.00024487232440151274,0.008878440596163273
0.00995695311576128,0.008548119105398655,-0.013268893584609032,0.006099603604525328,-0.00023426867846865207,0.008578917942941189
0.010141081176698208,0.008548571728169918,-0.013564776629209518,0.005646456032991409,-0.0002428313164273277,0.008667584508657455
0.010155294090509415,0.008198640309274197,-0.013224761933088303,0.0058777816593647,-0.0002502419229131192,0.008651304990053177
0.009757861495018005,0.0085010826587677,-0.013630923815071583,0.006251945160329342,-0.00024175300495699048,0.00870010070502758
0.009685607627034187,0.00901084579527378,-0.013522729277610779,0.005957811139523983,-0.00023288768716156483,0.009167310781776905
0.009969985112547874,0.008188481442630291,-0.013580553233623505,0.0061006383039057255,-0.00022458886087406427,0.008541623130440712
0.01044255867600441,0.008785522542893887,-0.013063594698905945,0.005975306499749422,-0.0002457421796862036,0.008514851331710815
0.009576993063092232,0.008481193333864212,-0.013447942212224007,0.006577750667929649,-0.00023945274006109685,0.008991497568786144
0.009915710426867008,0.008603707887232304,-0.013257959857583046,0.006879325024783611,-0.00023186336329672486,0.009000284597277641
0.010316443629562855,0.008763829246163368,-0.013446429744362831,0.006374940276145935,-0.0002777078771032393,0.009185238741338253
0.009463516063988209,0.008605792187154293,-0.01322203129529953,0.006391757633537054,-0.00027821838739328086,0.008940489962697029
0.009620707482099533,0.008702417835593224,-0.013509074226021767,0.006691735703498125,-0.00028873412520624697,0.008946722373366356
0.009790494106709957,0.008223168551921844,-0.014012014493346214,0.007005857769399881,-0.000296600628644228,0.0093447370454669
0.009766945615410805,0.008843532763421535,-0.013588917441666126,0.007183390203863382,-0.00028262738487683237,0.009614445269107819
0.009766945615410805,0.008843532763421535,-0.013588917441666126,0.007183390203863382,-0.00028262738487683237,0.009614445269107819
0.010090457275509834,0.008120529353618622,-0.0138388741761446,0.006777667906135321,-0.0002686629304662347,0.009676561690866947
0.010040057823061943,0.008104966022074223,-0.013625452294945717,0.006427063141018152,-0.0002928738540504128,0.009550713934004307
0.009676128625869751,0.00863676704466343,-0.013383413664996624,0.006625766400247812,-0.0003014898393303156,0.009233866818249226
0.009676128625869751,0.00863676704466343,-0.013383413664996624,0.006625766400247812,-0.0003014898393303156,0.009233866818249226
0.009516133926808834,0.008303436450660229,-0.014048646204173565,0.006471219472587109,-0.00029808905674144626,0.009719503112137318
0.009795975871384144,0.008749903179705143,-0.013259397819638252,0.006393054965883493,-0.0002868068404495716,0.009208742529153824
0.00994578842073679,0.009364116936922073,-0.013957969844341278,0.006887367460876703,-0.00033256574533879757,0.009460775181651115
0.010178863070905209,0.008448119275271893,-0.013250177726149559,0.006874601822346449,-0.0003604626399464905,0.009497229009866714
0.010266777127981186,0.008111718110740185,-0.01401445735245943,0.006643898785114288,-0.00033703018561936915,0.009277775883674622
0.010172057896852493,0.008671076968312263,-0.01392486784607172,0.006095175631344318,-0.00034421210875734687,0.009304490871727467
0.010639789514243603,0.00639656325802207,-0.013690167106688023,0.006620014552026987,-0.0003302796685602516,0.009334824979305267
0.010373896919190884,0.006352746859192848,-0.014402557164430618,0.007418204098939896,-0.0003113480343017727,0.00948262121528387
0.010219155810773373,0.007253746967762709,-0.013529050163924694,0.0076276264153420925,-0.00029437660123221576,0.00955867301672697
0.009994282387197018,0.007772430311888456,-0.014519767835736275,0.006476720795035362,-0.0003134729340672493,0.0092185502871871
0.010162937454879284,0.007385383825749159,-0.0139220105484128,0.006130922585725784,-0.000308868387946859,0.009511750191450119
0.009358489885926247,0.006903796456754208,-0.014143132604658604,0.006803879514336586,-0.0002951017231680453,0.009870238602161407
0.01032180804759264,0.007443103473633528,-0.013906440697610378,0.006958310957998037,-0.0002819373912643641,0.010076142847537994
0.01072189211845398,0.007787879090756178,-0.014333362691104412,0.0068892533890903,-0.0002887116279453039,0.010059365071356297
0.009894716553390026,0.007277744356542826,-0.014527538791298866,0.006456108298152685,-0.0002944556763395667,0.010054097510874271
0.009987632744014263,0.0069551970809698105,-0.014935574494302273,0.006698201410472393,-0.00028398746508173645,0.009778796695172787
0.010300897993147373,0.00713503360748291,-0.014355737715959549,0.007181359920650721,-0.0002732823195401579,0.009949181228876114
0.010300897993147373,0.00713503360748291,-0.014355737715959549,0.007181359920650721,-0.0002732823195401579,0.009949181228876114
0.009764498099684715,0.007245509885251522,-0.01454220712184906,0.007192876189947128,-0.0002632914111018181,0.009757645428180695
0.010225317440927029,0.007061702199280262,-0.014233819209039211,0.007149144075810909,-0.0002540021378081292,0.009545160457491875
0.010209380649030209,0.007000825367867947,-0.015318823046982288,0.0070886919274926186,-0.0002473032509442419,0.010095923207700253
0.010537279769778252,0.007511000148952007,-0.014752283692359924,0.007285868749022484,-0.00023647279886063188,0.009951123967766762
0.010891380719840527,0.0077229891903698444,-0.015103441663086414,0.006986706983298063,-0.00022479744802694768,0.010278657078742981
0.010125735774636269,0.007027675397694111,-0.014876537956297398,0.006456652656197548,-0.00021410800400190055,0.01004963368177414
0.010781830176711082,0.007173977792263031,-0.015630466863512993,0.006536055356264114,-0.00020438227511476725,0.010236629284918308
0.012361985631287098,0.007538280915468931,-0.015056459233164787,0.0070407637394964695,-0.00021461659343913198,0.009596951305866241
0.012796438299119473,0.007611999288201332,-0.015523907728493214,0.0070557985454797745,-0.0002235261636087671,0.009896287694573402
0.012850572355091572,0.007483458146452904,-0.014432868920266628,0.006943650543689728,-0.00021575723076239228,0.010030262172222137
0.012288839556276798,0.006944181863218546,-0.015448438003659248,0.006791677791625261,-0.0002075394440907985,0.010006193071603775
0.012688876129686832,0.006763955112546682,-0.015156122855842113,0.007797171361744404,-0.0001998622465180233,0.01031520776450634
0.012426684610545635,0.007167931646108627,-0.015252811834216118,0.007880816236138344,-0.00022267468739300966,0.010637696832418442
0.012625512667000294,0.006778827868402004,-0.015015125274658203,0.007753926794975996,-0.00021695814211852849,0.010047019459307194
0.01291749533265829,0.007018116302788258,-0.015288700349628925,0.007761613931506872,-0.00020985807350371033,0.009958378970623016
0.013106480240821838,0.007528790272772312,-0.015018727630376816,0.008044782094657421,-0.0001967565913219005,0.009598505683243275
0.012628083117306232,0.007583589758723974,-0.015298484824597836,0.007848880253732204,-0.00020416970073711127,0.010197533294558525
0.013233091682195663,0.007482020650058985,-0.01509831938892603,0.007613104302436113,-0.00021073731477372348,0.010330929420888424
0.012976360507309437,0.006893315352499485,-0.01525125652551651,0.007570986170321703,-0.00020554089860524982,0.010163101367652416
0.01320527121424675,0.007450127508491278,-0.015204738825559616,0.007941669784486294,-0.00019988761050626636,0.01053171418607235
0.01300835981965065,0.007535739801824093,-0.015559402294456959,0.007715845014899969,-0.0001944911782629788,0.01072643045336008
0.013038498349487782,0.0067400154657661915,-0.015126693062484264,0.007363641634583473,-0.00018937562708742917,0.01128186285495758
0.013160642236471176,0.007029595784842968,-0.01573585718870163,0.008005977608263493,-0.00018452218500897288,0.010665122419595718
0.013723471201956272,0.007520805578678846,-0.014802222140133381,0.007814103737473488,-0.00017991111963056028,0.010602239519357681
0.013418545015156269,0.007220508996397257,-0.014931603334844112,0.0074081458151340485,-0.0001755247067194432,0.01103989314287901
0.01316248532384634,0.006572049576789141,-0.014497400261461735,0.007949289865791798,-0.00017134750669356436,0.01103852316737175
0.013477450236678123,0.006750702392309904,-0.015364470891654491,0.007859515957534313,-0.0001673642691457644,0.010622643865644932
0.013477450236678123,0.006750702392309904,-0.015364470891654491,0.007859515957534313,-0.0001673642691457644,0.010622643865644932
0.01335234846919775,0.007036951370537281,-0.014670421369373798,0.007838376797735691,-0.00017030286835506558,0.0114655876532197
0.013751968741416931,0.006995264906436205,-0.015361195430159569,0.0073374672792851925,-0.00016523095837328583,0.011326808482408524
0.01303162332624197,0.006553812883794308,-0.014671284705400467,0.00769792590290308,-0.00015945230552460998,0.011058170348405838
0.013667060993611813,0.006511193700134754,-0.015104466117918491,0.007923522964119911,-0.00015400000847876072,0.011188490316271782
0.013182180933654308,0.0065836491994559765,-0.015019230544567108,0.00747348228469491,-0.00014890363672748208,0.011597739532589912
0.013458617962896824,0.006919851526618004,-0.014939647167921066,0.00724161509424448,-0.0001441340136807412,0.011399667710065842
0.01337708905339241,0.006775972433388233,-0.014416803605854511,0.00756465457379818,-0.00013966026017442346,0.011128759942948818
0.013624792918562889,0.006612002849578857,-0.014983129687607288,0.008090849965810776,-0.00013545587717089802,0.010907971300184727
0.013278788886964321,0.00677468441426754,-0.015179317444562912,0.007588609121739864,-0.00015097646974027157,0.011022317223250866
0.013473366387188435,0.006930284667760134,-0.015119178220629692,0.007557129021733999,-0.0001528709108242765,0.011044834740459919
0.01345649641007185,0.0070487442426383495,-0.015006577596068382,0.007721525616943836,-0.00014905387070029974,0.011264250613749027
0.013371295295655727,0.007125147618353367,-0.014985673129558563,0.007935233414173126,-0.00014507569721899927,0.011359313502907753
0.013381398282945156,0.007051469292491674,-0.015329403802752495,0.007361139170825481,-0.00016172607138287276,0.011505545116961002
0.013052042573690414,0.007037312723696232,-0.015319876372814178,0.007213447242975235,-0.00016042316565290093,0.011618465185165405
0.013018551282584667,0.006957785692065954,-0.01507087703794241,0.008111617527902126,-0.00016355964180547744,0.011780221946537495
0.013630681671202183,0.007375743705779314,-0.01546289399266243,0.007321659941226244,-0.00016980330110527575,0.011933897621929646
0.013380302116274834,0.006689159199595451,-0.015002544969320297,0.007151036057621241,-0.00016653546481393278,0.011041159741580486
0.013702817261219025,0.007043472025543451,-0.015432983636856079,0.008026162162423134,-0.0001628126628929749,0.011402362957596779
0.01361329760402441,0.006689673755317926,-0.014811541885137558,0.007747642695903778,-0.00019355940457899123,0.011466309428215027
0.013824495486915112,0.006772162392735481,-0.015249164775013924,0.007676045410335064,-0.00021684316743630916,0.011721508577466011
0.013688047416508198,0.007258421275764704,-0.014334386214613914,0.007804752793163061,-0.00020890826999675483,0.011485897935926914
0.01403066050261259,0.007601091638207436,-0.014984846115112305,0.008785591460764408,-0.0001997712388401851,0.011403295211493969
0.014124855399131775,0.007546618580818176,-0.014510801061987877,0.008630718104541302,-0.00020999473053961992,0.011683056131005287
0.014399873092770576,0.0070099844597280025,-0.014977023005485535,0.008213180117309093,-0.00021890680363867432,0.011861707083880901
0.014399873092770576,0.0070099844597280025,-0.014977023005485535,0.008213180117309093,-0.00021890680363867432,0.011861707083880901
0.013968966901302338,0.007493805140256882,-0.014324459247291088,0.008224265649914742,-0.0002114723902195692,0.011824366636574268
0.014346356503665447,0.006972162518650293,-0.014780915342271328,0.0087076835334301,-0.0002352006995351985,0.011627912521362305
0.014458056539297104,0.0070556155405938625,-0.014722359366714954,0.00865072663873434,-0.0002447427832521498,0.011432611383497715
0.014794609509408474,0.007079815957695246,-0.014931154437363148,0.008807849138975143,-0.00025130496942438185,0.011930062435567379
0.014663590118288994,0.006723254453390837,-0.014566143974661827,0.008575956337153912,-0.00041290814988315105,0.011797347106039524
0.014857862144708633,0.007120340131223202,-0.014738722704350948,0.008739190176129341,-0.0004007440875284374,0.0121537446975708
0.014415767043828964,0.007170131895691156,-0.01444513350725174,0.00871970970183611,-0.0003694340121001005,0.012417441233992577
0.014654102735221386,0.006883985362946987,-0.014736166223883629,0.00874798558652401,-0.00040042257751338184,0.012002884410321712
0.014453302137553692,0.006819461472332478,-0.01475539617240429,0.008657129481434822,-0.00038025088724680245,0.011711090803146362
0.014885756187140942,0.007308970671147108,-0.015336253680288792,0.00848008319735527,-0.0003557162417564541,0.011764741502702236
0.014654979109764099,0.007680592127144337,-0.015276205725967884,0.008550464175641537,-0.0003337528614792973,0.012298966757953167
0.014887526631355286,0.006851129233837128,-0.014958420768380165,0.008621446788311005,-0.0003398285189177841,0.012014535255730152
0.014909513294696808,0.006742760539054871,-0.015412526205182076,0.00848064012825489,-0.00032833911245688796,0.012942643836140633
0.014822636730968952,0.007154358550906181,-0.0154179148375988,0.008520735427737236,-0.0003121656191069633,0.01238524354994297
0.014088945463299751,0.007152584381401539,-0.015013542957603931,0.009126611053943634,-0.000297430029604584,0.0120176887139678
0.014636877924203873,0.007040288299322128,-0.01566632278263569,0.008805284276604652,-0.0002840187808033079,0.012153907679021358
0.015464862808585167,0.0073747276328504086,-0.014913728460669518,0.009042469784617424,-0.00030540424631908536,0.013111853040754795
0.014714619144797325,0.007690096739679575,-0.015878411009907722,0.0090628731995821,-0.00029740179888904095,0.01298642996698618
0.01500984188169241,0.007518111262470484,-0.01508354116231203,0.008661296218633652,-0.0002869342570193112,0.013566432520747185
0.01520679984241724,0.007004548329859972,-0.015711940824985504,0.009615814313292503,-0.0002709930995479226,0.013491940684616566
0.015246134251356125,0.007222623564302921,-0.014712279662489891,0.009203416295349598,-0.0002999135758727789,0.013052388094365597
0.014950691722333431,0.008055733516812325,-0.01534394733607769,0.00899626687169075,-0.00028986859251745045,0.012844433076679707
0.015582825057208538,0.007613748777657747,-0.015170491300523281,0.00890575535595417,-0.00031823007157072425,0.012653686106204987
0.015582825057208538,0.007613748777657747,-0.015170491300523281,0.00890575535595417,-0.00031823007157072425,0.012653686106204987
0.015445422381162643,0.007443263195455074,-0.015559127554297447,0.008892395533621311,-0.0003269325534347445,0.012831454165279865
0.015209304168820381,0.007582691498100758,-0.015335519798099995,0.008889139629900455,-0.00033184103085659444,0.012781532481312752
0.015577795915305614,0.007902027107775211,-0.01581426151096821,0.008846506476402283,-0.0005314209847711027,0.01307665091007948
0.016160082072019577,0.007151450030505657,-0.015748172998428345,0.009263020940124989,-0.0005373283638618886,0.013309722766280174
0.016897376626729965,0.007302991114556789,-0.015306769870221615,0.008839833550155163,-0.00048402970423921943,0.013197561725974083
0.01670531928539276,0.006993728224188089,-0.01585843227803707,0.008655081503093243,-0.0005124960443936288,0.01320949662476778
0.01638517901301384,0.007140721194446087,-0.015484517440199852,0.00877987127751112,-0.00047738681314513087,0.013258696533739567
0.016286738216876984,0.008046877570450306,-0.016088521108031273,0.00873415358364582,-0.00043919277959503233,0.013268258422613144
0.016497114673256874,0.0070021688006818295,-0.015421672724187374,0.008686942979693413,-0.0004690908535849303,0.013166259974241257
0.01677876152098179,0.007018232252448797,-0.01599304936826229,0.009167369455099106,-0.0004866743693128228,0.013408311642706394
0.01665816456079483,0.007469742558896542,-0.015433608554303646,0.009290363639593124,-0.0005016434588469565,0.013460883870720863
0.016467701643705368,0.00743383402004838,-0.015834856778383255,0.00876147486269474,-0.000482215458760038,0.013650682754814625
0.015851831063628197,0.006955559831112623,-0.01539912074804306,0.008834273554384708,-0.0005187421920709312,0.013544037938117981
0.016151120886206627,0.007356609217822552,-0.015944931656122208,0.00963851623237133,-0.0005753457080572844,0.013548237271606922
0.01600283943116665,0.007298390381038189,-0.01586400531232357,0.008992995135486126,-0.0008299676701426506,0.013735388405621052
0.016372980549931526,0.006970267277210951,-0.01600729487836361,0.009622327983379364,-0.0008664531633257866,0.013727929443120956
0.016234232112765312,0.007057450246065855,-0.015600419603288174,0.009619307704269886,-0.0008244290365837514,0.014249546453356743
0.016887463629245758,0.0075857676565647125,-0.015965957194566727,0.009265070781111717,-0.0007773907273076475,0.014264384284615517
0.016714122146368027,0.007151751313358545,-0.015183333307504654,0.009596467018127441,-0.0007675567758269608,0.014545070938766003
0.017175352200865746,0.00712923938408494,-0.015935538336634636,0.009688413701951504,-0.0007138322107493877,0.013813575729727745
0.017015060409903526,0.006860669236630201,-0.0154619961977005,0.009375158697366714,-0.0006507138023152947,0.013765949755907059
0.017268475145101547,0.006894484627991915,-0.015994232147932053,0.009641402401030064,-0.0005980659043416381,0.01379825733602047
0.017005374655127525,0.007466168608516455,-0.015984486788511276,0.009470663033425808,-0.0006075262208469212,0.014635996893048286
0.016890566796064377,0.007210145704448223,-0.0157840084284544,0.009422946721315384,-0.0005674329004250467,0.014265981502830982
0.01751575618982315,0.007038319017738104,-0.015941763296723366,0.00960334949195385,-0.0005776205798611045,0.014411612413823605
0.01751575618982315,0.007038319017738104,-0.015941763296723366,0.00960334949195385,-0.0005776205798611045,0.014411612413823605
0.016934985294938087,0.007116872351616621,-0.015467618592083454,0.010083700530230999,-0.0005469040479511023,0.014451282098889351
0.01739341951906681,0.00744741503149271,-0.016277771443128586,0.009540041908621788,-0.0005665188655257225,0.014641129411756992
0.01750512793660164,0.007078468333929777,-0.01543723326176405,0.009462802670896053,-0.000533095677383244,0.014432086609303951
0.0174375232309103,0.006335064768791199,-0.015787629410624504,0.009666470810770988,-0.000499445479363203,0.014861137606203556
0.017953667789697647,0.006082411389797926,-0.015271671116352081,0.009669017978012562,-0.0005128321936354041,0.014589361846446991
0.017315812408924103,0.005815517622977495,-0.01602408103644848,0.009719409048557281,-0.0005091808852739632,0.014655551873147488
0.0174518134444952,0.00648790318518877,-0.015771016478538513,0.009852918796241283,-0.0005023350822739303,0.014384028501808643
0.017613966017961502,0.0066061909310519695,-0.015926554799079895,0.010389880277216434,-0.000461984978755936,0.014770189300179482
0.017477696761488914,0.005829625762999058,-0.015604698099195957,0.010304887779057026,-0.0004777800932060927,0.01447670441120863
0.017890701070427895,0.00587029755115509,-0.015584233216941357,0.009973675943911076,-0.0004591158649418503,0.015101560391485691
0.017463037744164467,0.006235129665583372,-0.015925640240311623,0.009604514576494694,-0.00042890338227152824,0.014830277301371098
0.017261622473597527,0.006286303047090769,-0.015654191374778748,0.009850668720901012,-0.00040161600918509066,0.015001103281974792
0.01756998524069786,0.006491619162261486,-0.0161104928702116,0.009766452014446259,-0.00042772633605636656,0.01472493726760149
0.017709001898765564,0.006225736811757088,-0.016028551384806633,0.009410767816007137,-0.00038541300455108285,0.014932902529835701
0.01864456944167614,0.006628708448261023,-0.015303187072277069,0.009725857526063919,-0.000376698822947219,0.015142158605158329
0.017720656469464302,0.0063370889984071255,-0.015687957406044006,0.009100292809307575,-0.00034900696482509375,0.01459962036460638
0.018005765974521637,0.005937401205301285,-0.015658481046557426,0.009207859635353088,-0.00032396422466263175,0.01482611708343029
0.01768801175057888,0.006420422345399857,-0.016058020293712616,0.009105412289500237,-0.00030219947802834213,0.015095541253685951
0.017762601375579834,0.006465489976108074,-0.0158248208463192,0.00895027443766594,-0.0003248617867939174,0.015196898952126503
0.01809409074485302,0.007273723371326923,-0.0157609935849905,0.00924353301525116,-0.00031870478414930403,0.014891572296619415
0.018100321292877197,0.006432313937693834,-0.015819143503904343,0.00972017738968134,-0.0003017420240212232,0.015209736302495003
0.018250392749905586,0.006220550742000341,-0.015970204025506973,0.009709390811622143,-0.0002858203661162406,0.015400048345327377
0.018577219918370247,0.005916271358728409,-0.016596563160419464,0.010417263023555279,-0.0003048338694497943,0.015316714532673359
0.018979547545313835,0.006076693069189787,-0.01594424434006214,0.010325540788471699,-0.00030075752874836326,0.015749437734484673
0.018862571567296982,0.006685685366392136,-0.016544334590435028,0.009652622975409031,-0.000307790789520368,0.014579808339476585
0.01885106973350048,0.006435425952076912,-0.015841882675886154,0.00994355883449316,-0.0003131182456854731,0.015102646313607693
0.018493527546525,0.005921589210629463,-0.016596782952547073,0.010510966181755066,-0.0003012405941262841,0.01544201746582985
0.018389210104942322,0.005736869294196367,-0.016533780843019485,0.009412964805960655,-0.00028921765624545515,0.016001584008336067
0.017909102141857147,0.006321875378489494,-0.015871448442339897,0.009634123183786869,-0.00029704582993872464,0.015741359442472458
0.018637333065271378,0.006502266973257065,-0.016439074650406837,0.010408616624772549,-0.0002852027537301183,0.01591477543115616
0.019182318821549416,0.006308860145509243,-0.016331424936652184,0.009972633793950081,-0.00026862684171646833,0.015507145784795284
0.018946267664432526,0.0059941429644823074,-0.01681279018521309,0.009867742657661438,-0.00025351630756631494,0.015238028019666672
0.018946267664432526,0.0059941429644823074,-0.01681279018521309,0.009867742657661438,-0.00025351630756631494,0.015238028019666672
0.018809249624609947,0.0060239252634346485,-0.016305068507790565,0.010166388005018234,-0.0002399923832854256,0.015045484527945518
0.019241370260715485,0.006638053804636002,-0.016148019582033157,0.010288226418197155,-0.00027027155738323927,0.015713926404714584
0.018786508589982986,0.006643741391599178,-0.016415230929851532,0.010104130953550339,-0.0002600208390504122,0.016033656895160675
0.01894422061741352,0.006152135320007801,-0.01658659242093563,0.009797991253435612,-0.0002482453710399568,0.016384731978178024
0.018783090636134148,0.006373383104801178,-0.017120758071541786,0.010070995427668095,-0.0002373435563640669,0.016225578263401985
0.018840430304408073,0.006580016575753689,-0.016278203576803207,0.01119271945208311,-0.00022734883532393724,0.015679901465773582
0.018924327567219734,0.006454455200582743,-0.016425279900431633,0.010637573897838593,-0.00021816318621858954,0.016056790947914124
0.01868819072842598,0.006344976834952831,-0.016572102904319763,0.009416254237294197,-0.00020968976605217904,0.01594988815486431
0.018977567553520203,0.006009269505739212,-0.01650385558605194,0.010066245682537556,-0.00022685626754537225,0.016735997051000595
0.019524602219462395,0.006247404962778091,-0.0159339290112257,0.009683744981884956,-0.0002190992672694847,0.01615547202527523
0.019575947895646095,0.006501577328890562,-0.01690301112830639,0.010692743584513664,-0.00021174328867346048,0.01573406718671322
0.01942538097500801,0.005983194336295128,-0.016463615000247955,0.010671347379684448,-0.00020485772984102368,0.01592031680047512
0.019452521577477455,0.005675225984305143,-0.01677006110548973,0.010518194176256657,-0.00019840523600578308,0.01608993299305439
0.019446229562163353,0.005813415627926588,-0.01638288050889969,0.009990634396672249,-0.00021269511489663273,0.016086596995592117
0.019317155703902245,0.006240120157599449,-0.016877681016921997,0.010950928553938866,-0.000212846789509058,0.01656392589211464
0.019589366391301155,0.006141326390206814,-0.017040979117155075,0.011200557462871075,-0.0002071434719255194,0.01685348153114319
0.019800890237092972,0.005761009640991688,-0.016403114423155785,0.010887621901929379,-0.00020137670799158514,0.016805147752165794
0.01982632651925087,0.006134288851171732,-0.016907338052988052,0.010573833249509335,-0.00019589936709962785,0.01667986810207367
0.019921699538826942,0.0058431909419596195,-0.016302499920129776,0.011083930730819702,-0.00019099112250842154,0.016431087628006935
0.019239170476794243,0.0061356802470982075,-0.0168265663087368,0.010838926769793034,-0.00018454427481628954,0.016549376770853996
0.020695261657238007,0.006552260834723711,-0.016735181212425232,0.010411746799945831,-0.00017736029985826463,0.01643846556544304
0.020549021661281586,0.005866111721843481,-0.016725176945328712,0.010735910385847092,-0.00017063968698494136,0.016702432185411453
0.02042165771126747,0.005962947849184275,-0.01707373559474945,0.010670552961528301,-0.00019505723321344703,0.01683369278907776
0.02042512223124504,0.006240020971745253,-0.016474299132823944,0.010805915109813213,-0.00019018621242139488,0.01706087589263916
0.020384926348924637,0.006095232907682657,-0.01690513826906681,0.010778226889669895,-0.00019885864458046854,0.01720835268497467
0.020384926348924637,0.006095232907682657,-0.01690513826906681,0.010778226889669895,-0.00019885864458046854,0.01720835268497467
0.020566465333104134,0.0062033869326114655,-0.01650768332183361,0.01064891368150711,-0.0002064079890260473,0.017087610438466072
0.020795505493879318,0.005887987557798624,-0.016703471541404724,0.011075899936258793,-0.00021481818112079054,0.017405448481440544
0.020522385835647583,0.005756276659667492,-0.016904857009649277,0.011095855385065079,-0.00022145554248709232,0.01708039827644825
0.020869659259915352,0.006070373579859734,-0.0165201835334301,0.010466266423463821,-0.00021578551968559623,0.01718921586871147
0.02101801335811615,0.005808047950267792,-0.017215285450220108,0.010970724746584892,-0.00039922987343743443,0.017289480194449425
0.020765146240592003,0.005641044583171606,-0.016653545200824738,0.011312390677630901,-0.0004177482915110886,0.01735319197177887
0.020765146240592003,0.005641044583171606,-0.016653545200824738,0.011312390677630901,-0.0004177482915110886,0.01735319197177887
0.021035850048065186,0.006130577996373177,-0.016270436346530914,0.011073609814047813,-0.0004213502397760749,0.017302634194493294
0.021345200017094612,0.005904239136725664,-0.016962295398116112,0.01076977327466011,-0.0004515738692134619,0.01720239222049713
0.021189123392105103,0.006003938149660826,-0.017185993492603302,0.010994053445756435,-0.00045290065463632345,0.017409181222319603
0.021446865051984787,0.005846997257322073,-0.017005955800414085,0.01081959530711174,-0.0007456907187588513,0.01730659045279026
0.02154071256518364,0.005760194268077612,-0.016500214114785194,0.011492115445435047,-0.0007642560522072017,0.01748792454600334
0.021060777828097343,0.005765608046203852,-0.01685609482228756,0.011378751136362553,-0.0007339461008086801,0.017244914546608925
0.02133714035153389,0.005928949918597937,-0.01701916567981243,0.011804306879639626,-0.0008538582478649914,0.01765691302716732
0.021746981889009476,0.006033989600837231,-0.01639021560549736,0.012190500274300575,-0.0007738104905001819,0.017419587820768356
0.02145978808403015,0.0056251948699355125,-0.016806185245513916,0.011455965228378773,-0.0007863918435759842,0.01746240444481373
0.021481532603502274,0.0056830099783837795,-0.016359766945242882,0.011531473137438297,-0.0007926423568278551,0.017579352483153343
0.022303443402051926,0.005657166708260775,-0.017028339207172394,0.011218423023819923,-0.0007910203421488404,0.017542552202939987
0.021977271884679794,0.005671568214893341,-0.016552282497286797,0.011382495984435081,-0.0007378353038802743,0.017421415075659752
0.022065958008170128,0.0057227639481425285,-0.01669239066541195,0.011512530036270618,-0.0007124394178390503,0.01755097135901451
0.022133106365799904,0.006174806505441666,-0.016725219786167145,0.011260236613452435,-0.0007347977953031659,0.017968127503991127
0.02226279117166996,0.005502905696630478,-0.01627141237258911,0.01192674320191145,-0.000806707248557359,0.018087493255734444
0.02282378077507019,0.005384515039622784,-0.016974760219454765,0.01156376488506794,-0.0007793453405611217,0.01789013296365738
0.02343059703707695,0.005148243624716997,-0.016521014273166656,0.011384591460227966,-0.0009081471362151206,0.017971312627196312
0.023579545319080353,0.006017010193318129,-0.016814909875392914,0.012064643204212189,-0.0009135336731560528,0.01759890466928482
0.02256995625793934,0.0054403371177613735,-0.016658436506986618,0.011953632347285748,-0.0009027806809172034,0.01754879020154476
0.02256995625793934,0.0054403371177613735,-0.016658436506986618,0.011953632347285748,-0.0009027806809172034,0.01754879020154476
0.02035522647202015,0.005332055501639843,-0.016798030585050583,0.012131506577134132,-0.0008581957081332803,0.01766413450241089
0.023264020681381226,0.005473580211400986,-0.01700848899781704,0.011903706006705761,-0.0008111937204375863,0.017488326877355576
0.023260999470949173,0.005202900618314743,-0.016717953607439995,0.012337347492575645,-0.0007318985881283879,0.0183018259704113
0.02310832403600216,0.005674291402101517,-0.017228486016392708,0.011654498986899853,-0.0006536137661896646,0.01880802772939205
0.022478995844721794,0.0055914269760251045,-0.01642734184861183,0.011407786048948765,-0.0005717732128687203,0.01840542070567608
0.023488854989409447,0.005672874860465527,-0.01679636538028717,0.011691988445818424,-0.0005072693456895649,0.018545370548963547
0.024040838703513145,0.005121811293065548,-0.01735936850309372,0.011746094562113285,-0.0005224248161539435,0.018464166671037674
0.024111250415444374,0.005510902497917414,-0.017055222764611244,0.011945449747145176,-0.0004949932335875928,0.018700629472732544
0.023759400472044945,0.005230490583926439,-0.018053708598017693,0.011866729706525803,-0.0004912677686661482,0.018751220777630806
0.02307395450770855,0.005126974545419216,-0.017533713951706886,0.012131665833294392,-0.0004867150855716318,0.01841617189347744
0.022856276482343674,0.005178701598197222,-0.017273126170039177,0.0124459033831954,-0.00045382522512227297,0.018194016069173813
0.02437220700085163,0.005553610157221556,-0.016985442489385605,0.01217465940862894,-0.0004529173602350056,0.017924809828400612
0.02377534657716751,0.0052706156857311726,-0.017667723819613457,0.011645263060927391,-0.00042653948185034096,0.018353551626205444
0.023554690182209015,0.0050086649134755135,-0.01756873168051243,0.011428242549300194,-0.00039216596633195877,0.018918100744485855
0.023832442238926888,0.00574561208486557,-0.018098050728440285,0.011670893989503384,-0.00035412973375059664,0.019105397164821625
0.024281898513436317,0.005506154149770737,-0.017703454941511154,0.011467810720205307,-0.0003278385556768626,0.01899406686425209
0.023810336366295815,0.005239054560661316,-0.016978828236460686,0.012051653116941452,-0.00030553407850675285,0.018882695585489273
0.02392902411520481,0.00532030314207077,-0.01791033335030079,0.01162343006581068,-0.00028609493165276945,0.018766244873404503
0.024476274847984314,0.005433456506580114,-0.017577288672327995,0.011591579765081406,-0.0003155054582748562,0.019089054316282272
0.02427535504102707,0.005270316265523434,-0.018015434965491295,0.011981812305748463,-0.00030409457394853234,0.019188392907381058
0.024150820448994637,0.0056982384994626045,-0.01809377409517765,0.011828218586742878,-0.0002882712578866631,0.019366173073649406
0.024082299321889877,0.005266090389341116,-0.01711437478661537,0.012160138227045536,-0.00030733717721886933,0.019527865573763847
0.02403215691447258,0.005036455113440752,-0.017818527296185493,0.011832887306809425,-0.0003031119704246521,0.019385911524295807
0.02403215691447258,0.005036455113440752,-0.017818527296185493,0.011832887306809425,-0.0003031119704246521,0.019385911524295807
0.02451053448021412,0.005354316905140877,-0.017861897125840187,0.012255036272108555,-0.0003140323096886277,0.018989481031894684
0.023854052647948265,0.005429969634860754,-0.017474759370088577,0.012067110277712345,-0.000303213280858472,0.019308775663375854
0.023854052647948265,0.005429969634860754,-0.017474759370088577,0.012067110277712345,-0.000303213280858472,0.019308775663375854
0.024485163390636444,0.005083317868411541,-0.01778583601117134,0.013061488047242165,-0.00029110972536727786,0.019786976277828217
0.02431507594883442,0.0054393853060901165,-0.01750042475759983,0.012546181678771973,-0.00026933650951832533,0.019926220178604126
0.024732807651162148,0.005195502191781998,-0.01736530475318432,0.012129402719438076,-0.00026939762756228447,0.019732508808374405
0.024732807651162148,0.005195502191781998,-0.01736530475318432,0.012129402719438076,-0.00026939762756228447,0.019732508808374405
0.024475088343024254,0.005712818820029497,-0.018071454018354416,0.01272457093000412,-0.0002636420540511608,0.019882339984178543
0.0256922896951437,0.005462427157908678,-0.01788245514035225,0.012926241382956505,-0.00024966575438156724,0.020934130996465683
0.02548130974173546,0.005293502472341061,-0.017539547756314278,0.012437131255865097,-0.0002365779218962416,0.019251691177487373
0.025157462805509567,0.0053636059165000916,-0.017644958570599556,0.012556125409901142,-0.0002666237996891141,0.019353576004505157
0.024693777784705162,0.005529681220650673,-0.01730070263147354,0.012386360205709934,-0.00028828237554989755,0.020204002037644386
0.024066366255283356,0.005485047120600939,-0.018092555925250053,0.012854356318712234,-0.0002853357291314751,0.020049698650836945
0.024997960776090622,0.005639879032969475,-0.01782076060771942,0.012817681767046452,-0.00030747384880669415,0.02002638950943947
0.02568604238331318,0.005731639452278614,-0.01811899244785309,0.013144785538315773,-0.0002877189253922552,0.020095298066735268
0.025840014219284058,0.005397595930844545,-0.01744544692337513,0.013634362258017063,-0.00041972045437432826,0.019841231405735016
0.025781745091080666,0.005459024105221033,-0.01771700009703636,0.013384921476244926,-0.00046241204836405814,0.020032165572047234
0.025501180440187454,0.005832864437252283,-0.018105745315551758,0.013710376806557178,-0.0004440700286068022,0.01987432688474655
0.025761552155017853,0.006037539336830378,-0.0178929902613163,0.01382764894515276,-0.00044473630259744823,0.02007165737450123
0.02550472877919674,0.005287421401590109,-0.01791650429368019,0.013335968367755413,-0.0004438490141183138,0.020683931186795235
0.025531509891152382,0.005234262906014919,-0.017463920637965202,0.013085475191473961,-0.00044540714588947594,0.020232412964105606
0.02544497512280941,0.005502326879650354,-0.017769675701856613,0.013188914395868778,-0.00044459724449552596,0.020013615489006042
0.026189997792243958,0.005526221822947264,-0.01789933815598488,0.013398376293480396,-0.0005565916653722525,0.02025497332215309
0.02590653859078884,0.00580262765288353,-0.017415879294276237,0.013040930032730103,-0.0005897870287299156,0.02038344368338585
0.026241272687911987,0.005899430718272924,-0.018192186951637268,0.013474959880113602,-0.0005537199904210865,0.02042260579764843
0.02612525410950184,0.0053677926771342754,-0.017806977033615112,0.013252862729132175,-0.0005815366166643798,0.020281290635466576
0.02576759271323681,0.005838476587086916,-0.017287079244852066,0.01375562697649002,-0.0005933936918154359,0.020666340366005898
0.02576759271323681,0.005838476587086916,-0.017287079244852066,0.01375562697649002,-0.0005933936918154359,0.020666340366005898
0.02583332359790802,0.005773205775767565,-0.017565671354532242,0.013537741266191006,-0.0006748222513124347,0.02065972052514553
0.026214685291051865,0.005560856778174639,-0.01769290119409561,0.01278384868055582,-0.0007004833896644413,0.020947154611349106
0.026403483003377914,0.005425782408565283,-0.01787809282541275,0.013112745247781277,-0.0006329508032649755,0.021379927173256874
0.0261794812977314,0.005451994948089123,-0.017989102751016617,0.013299318961799145,-0.0006549694808200002,0.021446557715535164
0.0261794812977314,0.005451994948089123,-0.017989102751016617,0.013299318961799145,-0.0006549694808200002,0.021446557715535164
0.026993442326784134,0.005678865127265453,-0.017374664545059204,0.013561423867940903,-0.0006220743525773287,0.020625334233045578
0.026993442326784134,0.005678865127265453,-0.017374664545059204,0.013561423867940903,-0.0006220743525773287,0.020625334233045578
0.026849843561649323,0.005673417821526527,-0.01759505271911621,0.013101148419082165,-0.0006495484267361462,0.020762966945767403
0.026904739439487457,0.0052846199832856655,-0.01833677478134632,0.013539918698370457,-0.0006351267220452428,0.020738089457154274
0.025506634265184402,0.005785040557384491,-0.017726348713040352,0.013375839218497276,-0.0006131057743914425,0.021518731489777565
0.027652272954583168,0.0057724821381270885,-0.01825980469584465,0.014015639200806618,-0.0006209068815223873,0.021668268367648125
0.027269113808870316,0.006175828631967306,-0.018416043370962143,0.013465413823723793,-0.0005842290120199323,0.021646108478307724
0.027011066675186157,0.005862710531800985,-0.017718590795993805,0.013865940272808075,-0.000606964691542089,0.02193768136203289
0.026795556768774986,0.005735077429562807,-0.017652936279773712,0.013898716308176517,-0.0006401730934157968,0.022433839738368988
0.02754877135157585,0.005688712932169437,-0.01795738749206066,0.013841239735484123,-0.0007125519914552569,0.02166108787059784
0.02758219465613365,0.005444368347525597,-0.01824146695435047,0.014148120768368244,-0.0007320567383430898,0.02054504118859768
0.026757970452308655,0.005996753461658955,-0.01783735118806362,0.013704146258533001,-0.00093574303900823,0.021614830940961838
0.02756630815565586,0.005633714608848095,-0.017912542447447777,0.013846498914062977,-0.0009960340103134513,0.022038942202925682
0.027693163603544235,0.005633213557302952,-0.017873965203762054,0.013674560934305191,-0.0009850970236584544,0.02217053435742855
0.027734579518437386,0.005485954228788614,-0.017837971448898315,0.014348139055073261,-0.0009735887870192528,0.022002264857292175
0.027746910229325294,0.005618654191493988,-0.019220788031816483,0.01412990689277649,-0.0008711068076081574,0.02152194455265999
0.027550963684916496,0.006120154168456793,-0.018721839413046837,0.014452937059104443,-0.0007835166761651635,0.02147075906395912
0.027918506413698196,0.0054998029954731464,-0.018099166452884674,0.014074436388909817,-0.000709265295881778,0.022120706737041473
0.028169550001621246,0.005745910108089447,-0.019209062680602074,0.014452979899942875,-0.0006152817513793707,0.022151460871100426
0.027905911207199097,0.0056966678239405155,-0.018080906942486763,0.014046532101929188,-0.0005931181949563324,0.02222014032304287
0.027905911207199097,0.0056966678239405155,-0.018080906942486763,0.014046532101929188,-0.0005931181949563324,0.02222014032304287
0.028500741347670555,0.005764762870967388,-0.018533630296587944,0.014027208089828491,-0.0005231836112216115,0.022274063900113106
0.028993675485253334,0.006047896109521389,-0.01826993003487587,0.014325703494250774,-0.000545620743650943,0.02214343473315239
0.028993675485253334,0.006047896109521389,-0.01826993003487587,0.014325703494250774,-0.000545620743650943,0.02214343473315239
0.02913322113454342,0.0056239282712340355,-0.01913936249911785,0.01416754350066185,-0.0005106863100081682,0.022006697952747345
0.027861442416906357,0.00585737731307745,-0.01889152079820633,0.014531442895531654,-0.000535727827809751,0.02196776494383812
0.02773023210465908,0.005697013810276985,-0.017778359353542328,0.014401634223759174,-0.0005024137208238244,0.022077295929193497
0.02889387123286724,0.005862397141754627,-0.01841115951538086,0.014512437395751476,-0.00045555675751529634,0.022587323561310768
0.029019905254244804,0.00617204187437892,-0.018456751480698586,0.013899658806622028,-0.0004906961694359779,0.022676566615700722
0.029122373089194298,0.00546972407028079,-0.018494175747036934,0.013820086605846882,-0.0004544037510640919,0.022633589804172516
0.029743723571300507,0.005930454935878515,-0.018781203776597977,0.0136744175106287,-0.00047072599409148097,0.02290450781583786
0.02879541739821434,0.005459451582282782,-0.018351076170802116,0.013974069617688656,-0.0004528305144049227,0.022480305284261703
0.028593868017196655,0.005874898750334978,-0.01842602714896202,0.014010520651936531,-0.00042342403321526945,0.022824104875326157
0.028768815100193024,0.005593019537627697,-0.018567614257335663,0.014171916991472244,-0.00044954378972761333,0.022513195872306824
0.028771765530109406,0.005765760317444801,-0.018017254769802094,0.014397026039659977,-0.00042635813588276505,0.022739533334970474
0.02955879643559456,0.005315164569765329,-0.019002823159098625,0.01449397299438715,-0.0003833687514998019,0.023046819493174553
0.028537023812532425,0.005585027392953634,-0.018077725544571877,0.01495371200144291,-0.00040283665293827653,0.023172201588749886
0.03006148524582386,0.006134655326604843,-0.01822633482515812,0.015281875617802143,-0.00037295775837264955,0.022708803415298462
0.02968359738588333,0.005518988240510225,-0.018667874857783318,0.015716297551989555,-0.0003779998223762959,0.022799065336585045
0.02903676964342594,0.00522717135027051,-0.018056409433484077,0.014865228906273842,-0.000381787569494918,0.02302679419517517
0.02940996177494526,0.005426292773336172,-0.018466852605342865,0.015188166871666908,-0.0003584318037610501,0.023993458598852158
0.02983848564326763,0.005171667318791151,-0.01840483956038952,0.014596101827919483,-0.00037749347393400967,0.023867791518568993
0.02949787862598896,0.005657573230564594,-0.018630268052220345,0.014665858820080757,-0.0003683136310428381,0.023476095870137215
0.029185498133301735,0.005767657421529293,-0.018526017665863037,0.01407469529658556,-0.00034876138670369983,0.02259315550327301
0.030115051195025444,0.005680350586771965,-0.018032297492027283,0.014724700711667538,-0.000330512470100075,0.0225977823138237
0.030193252488970757,0.0052141849882900715,-0.0185689814388752,0.014766170643270016,-0.000355814176145941,0.023630572482943535
0.02993304654955864,0.005766584072262049,-0.01885516569018364,0.015570149756968021,-0.00034165120450779796,0.023825325071811676
0.02993140183389187,0.005340577568858862,-0.018334733322262764,0.015337870456278324,-0.00032634023227728903,0.023279977962374687
0.02982863411307335,0.0054622008465230465,-0.01858801208436489,0.015660814940929413,-0.0003421180590521544,0.023663941770792007
0.030382877215743065,0.00547983031719923,-0.01880178414285183,0.015110185369849205,-0.00032258188002742827,0.02459525503218174
0.030382877215743065,0.00547983031719923,-0.01880178414285183,0.015110185369849205,-0.00032258188002742827,0.02459525503218174
0.03119320049881935,0.005464212503284216,-0.01796477846801281,0.0153774693608284,-0.00034562801010906696,0.024449244141578674
0.03005179390311241,0.005423870403319597,-0.01846412941813469,0.015251938253641129,-0.0003378402325324714,0.023568054661154747
0.029276669025421143,0.005552554968744516,-0.018549775704741478,0.015962032601237297,-0.0003579434414859861,0.023463163524866104
0.030444039031863213,0.005260581616312265,-0.018292058259248734,0.01577594503760338,-0.00035033735912293196,0.023256726562976837
0.030988028272986412,0.005320727359503508,-0.018541531637310982,0.015426279045641422,-0.0003768910828512162,0.023805946111679077
0.030194541439414024,0.0055147320963442326,-0.018276892602443695,0.015330796130001545,-0.0005199958104640245,0.024569688364863396
0.03165942430496216,0.00512685114517808,-0.018235061317682266,0.015227798372507095,-0.0006020493456162512,0.024647191166877747
0.0314452089369297,0.0052305241115391254,-0.019064534455537796,0.015490147285163403,-0.0006353451171889901,0.024127215147018433
0.03150387480854988,0.005483380518853664,-0.018686456605792046,0.01505311205983162,-0.0006602750509046018,0.024071263149380684
0.030117422342300415,0.006097115576267242,-0.018773935735225677,0.015497717075049877,-0.0008837763452902436,0.024374764412641525
0.030809815973043442,0.005804216954857111,-0.01881723664700985,0.015363131649792194,-0.0009347028681077063,0.024271205067634583
0.03174952417612076,0.005540364887565374,-0.018497416749596596,0.0162662286311388,-0.0008319997577928007,0.024144431576132774
0.03135574609041214,0.005245463456958532,-0.018899142742156982,0.016163254156708717,-0.0007230355986393988,0.0244547538459301
0.03157764673233032,0.0057128844782710075,-0.01975332573056221,0.015613076277077198,-0.0006615972961299121,0.025038110092282295
0.031003545969724655,0.005776105914264917,-0.019889099523425102,0.015326019376516342,-0.0006013579550199211,0.025008410215377808
0.031508464366197586,0.005420973990112543,-0.019900524988770485,0.0154531579464674,-0.0006065600318834186,0.024839825928211212
0.03139127418398857,0.004579293075948954,-0.019033053889870644,0.015571791678667068,-0.0005758113111369312,0.024956656619906425
0.031635455787181854,0.003875074675306678,-0.01936323195695877,0.015541390515863895,-0.0005342233926057816,0.024422122165560722
0.03175242617726326,0.004059603437781334,-0.020346814766526222,0.015379664488136768,-0.00045132372179068625,0.024823905900120735
0.031900614500045776,0.004216283094137907,-0.01992252841591835,0.015680478885769844,-0.0003989742253907025,0.02522631734609604
0.03172462806105614,0.004551982972770929,-0.01886596344411373,0.015626927837729454,-0.0004193538916297257,0.02494802512228489
0.0319506973028183,0.004471365828067064,-0.01999528892338276,0.01617230288684368,-0.0004372850526124239,0.02473011054098606
0.03181737661361694,0.004142057150602341,-0.01993122696876526,0.015749763697385788,-0.0004841742920689285,0.024990489706397057
0.031643327325582504,0.004338765051215887,-0.01981360837817192,0.015640949830412865,-0.0006499880691990256,0.02553095668554306
0.03200206160545349,0.004597190767526627,-0.01954149454832077,0.01544207613915205,-0.0009030671208165586,0.02554052136838436
0.032051797956228256,0.0046936324797570705,-0.01981685683131218,0.015729736536741257,-0.0009170649573206902,0.02577195316553116
0.03095463290810585,0.004412978887557983,-0.018969515338540077,0.01542930118739605,-0.0008640712476335466,0.025802019983530045
0.03299207612872124,0.004170052707195282,-0.019563887268304825,0.015311647206544876,-0.0009702510433271527,0.02555914595723152
0.03299207612872124,0.004170052707195282,-0.019563887268304825,0.015311647206544876,-0.0009702510433271527,0.02555914595723152
0.03289708495140076,0.004045155365020037,-0.019761843606829643,0.015151442028582096,-0.0008566603646613657,0.025701282545924187
0.0321553498506546,0.0039466856978833675,-0.019440926611423492,0.015255128033459187,-0.0008566225878894329,0.025310805067420006
0.032058972865343094,0.00434383237734437,-0.020139604806900024,0.01559175830334425,-0.0008372500888071954,0.0263963732868433
0.0320681594312191,0.004184570163488388,-0.02021610364317894,0.015219802036881447,-0.000763627584092319,0.026329373940825462
0.03261827677488327,0.0043457201682031155,-0.01937156356871128,0.015559730120003223,-0.000772977655287832,0.02619018964469433
0.03258039057254791,0.004253029823303223,-0.019536519423127174,0.015511862002313137,-0.0006992309354245663,0.026661362498998642
0.03290540724992752,0.004043764900416136,-0.02024262771010399,0.015729552134871483,-0.0006672242889180779,0.026789488270878792
0.032549723982810974,0.004312160424888134,-0.0196318831294775,0.015275032259523869,-0.0006397953839041293,0.025907091796398163
0.03274588659405708,0.0041723293252289295,-0.019380096346139908,0.015858996659517288,-0.0006638378254137933,0.025063954293727875
0.03253701329231262,0.003983738832175732,-0.019986946135759354,0.015419714152812958,-0.0006863144226372242,0.02531477063894272
0.03229055181145668,0.004038501065224409,-0.01999007537961006,0.015854980796575546,-0.0007787098293192685,0.02611863985657692
0.033360742032527924,0.004066203720867634,-0.01955527625977993,0.015638958662748337,-0.0007762352470308542,0.026532748714089394
0.03401977941393852,0.004003334790468216,-0.01974008046090603,0.015847250819206238,-0.000733240507543087,0.025933122262358665
0.0324736125767231,0.004464717581868172,-0.01956816017627716,0.016257647424936295,-0.000672448833938688,0.027421139180660248
0.03302646428346634,0.004485659301280975,-0.020036747679114342,0.016451692208647728,-0.0006102839834056795,0.02660447359085083
0.032418351620435715,0.00422841077670455,-0.019889917224645615,0.015945928171277046,-0.0006250131409615278,0.025707688182592392
0.0333668477833271,0.00434915442019701,-0.01940198615193367,0.016374850645661354,-0.0005836379714310169,0.02528565563261509
0.034425605088472366,0.004433170892298222,-0.019555477425456047,0.01665259152650833,-0.0005404069670476019,0.025800853967666626
0.03376522660255432,0.00468844547867775,-0.019665353000164032,0.017182208597660065,-0.00048035281361080706,0.026975832879543304
0.03232977166771889,0.00480502238497138,-0.019023539498448372,0.017803002148866653,-0.0004328001814428717,0.026674510911107063
0.03239183500409126,0.0044822292402386665,-0.019808689132332802,0.016855522990226746,-0.0004679933190345764,0.026804843917489052
0.03372102975845337,0.004235862288624048,-0.019608495756983757,0.017127133905887604,-0.0004882829380221665,0.026851719245314598
0.03362634778022766,0.004455966409295797,-0.01891208440065384,0.016489772126078606,-0.00046875866246409714,0.026851192116737366
0.033277880400419235,0.004695887677371502,-0.0194694884121418,0.016407130286097527,-0.0004912713193334639,0.02654641680419445
0.034018345177173615,0.0048566400073468685,-0.019670981913805008,0.016495507210493088,-0.00046934132114984095,0.026686634868383408
0.034018345177173615,0.0048566400073468685,-0.019670981913805008,0.016495507210493088,-0.00046934132114984095,0.026686634868383408
0.03411636874079704,0.0048076980747282505,-0.01940315030515194,0.016707176342606544,-0.0006362977437674999,0.02706790156662464
0.033697571605443954,0.004668354522436857,-0.01985820196568966,0.017112839967012405,-0.0006744839483872056,0.02690790593624115
0.033806733787059784,0.004516318440437317,-0.019768426194787025,0.01647653616964817,-0.0006534496787935495,0.02681634947657585
0.03354228287935257,0.0042569683864712715,-0.019580001011490822,0.016626913100481033,-0.0006680914084427059,0.026811743155121803
0.03370184823870659,0.004534968174993992,-0.01985413022339344,0.016946274787187576,-0.0008634525584056973,0.026871072128415108
0.03370184823870659,0.004534968174993992,-0.01985413022339344,0.016946274787187576,-0.0008634525584056973,0.026871072128415108
0.03363107144832611,0.005150623619556427,-0.019296545535326004,0.017252357676625252,-0.000874569290317595,0.02732091397047043
0.0337398461997509,0.0051888227462768555,-0.01951795443892479,0.017595086246728897,-0.0008782471995800734,0.026511404663324356
0.03444641828536987,0.004707186948508024,-0.01989569514989853,0.017979901283979416,-0.0009150311234407127,0.028201362118124962
0.0342385359108448,0.004421728663146496,-0.02034374698996544,0.016933593899011612,-0.0009348646271973848,0.028380578383803368
0.032929107546806335,0.0049248142167925835,-0.01972460001707077,0.016994396224617958,-0.0008624350884929299,0.027571115642786026
0.03380099684000015,0.005103106144815683,-0.01991669461131096,0.0166285689920187,-0.0008630259544588625,0.027745474129915237
0.033706024289131165,0.0049491506069898605,-0.01925615221261978,0.01676885224878788,-0.0007806314388290048,0.027558717876672745
0.034780699759721756,0.004868383519351482,-0.019939949735999107,0.01663655787706375,-0.0007395975408144295,0.027537360787391663
0.034203559160232544,0.004730061162263155,-0.02029264159500599,0.016951030120253563,-0.0007008427637629211,0.027194231748580933
0.03316915035247803,0.004634958226233721,-0.01991819217801094,0.017142951488494873,-0.0006680988008156419,0.02819949761033058
0.033577561378479004,0.004722016863524914,-0.019464265555143356,0.017146417871117592,-0.0006832085200585425,0.029374856501817703
0.035019103437662125,0.00504332734271884,-0.02044118195772171,0.01690448448061943,-0.0006701468373648822,0.0289866104722023
0.03469451516866684,0.004623274318873882,-0.02049131691455841,0.016622819006443024,-0.0006493842811323702,0.02768930047750473
0.034698959439992905,0.004549207165837288,-0.020541077479720116,0.017288828268647194,-0.0006429674685932696,0.02729915827512741
0.03477485105395317,0.0045469580218195915,-0.020139293745160103,0.016638269647955894,-0.0006346587324514985,0.02821435034275055
0.035130977630615234,0.004615797661244869,-0.019972123205661774,0.016737109050154686,-0.0006623529479838908,0.028850164264440536
0.03470144420862198,0.004683203063905239,-0.019659141078591347,0.016998205333948135,-0.0006422403384931386,0.028806401416659355
0.034787822514772415,0.004621106665581465,-0.0206669382750988,0.01668773591518402,-0.0006632594740949571,0.029560541734099388
0.034787822514772415,0.004621106665581465,-0.0206669382750988,0.01668773591518402,-0.0006632594740949571,0.029560541734099388
0.03496793657541275,0.004570479039102793,-0.020304301753640175,0.01674104481935501,-0.0007704121526330709,0.029090041294693947
0.03497697412967682,0.005064384546130896,-0.019789662212133408,0.016152039170265198,-0.0007738324929960072,0.028462465852499008
0.03499841317534447,0.004619866143912077,-0.02046757936477661,0.01646001823246479,-0.0007315627881325781,0.02807888574898243
0.03503768891096115,0.004413730930536985,-0.020578525960445404,0.016148895025253296,-0.0007477698381990194,0.028016213327646255
0.03557081148028374,0.0045631215907633305,-0.02021811716258526,0.016110414639115334,-0.0007572828908450902,0.029206348583102226
0.03550918027758598,0.004789772909134626,-0.0197770893573761,0.016543276607990265,-0.0006957097793929279,0.02923767641186714
0.035612259060144424,0.0048575629480183125,-0.02011800743639469,0.01702500507235527,-0.000669384200591594,0.02779882773756981
0.035794198513031006,0.004636289551854134,-0.02103300765156746,0.017567070201039314,-0.0006166950915940106,0.02925044298171997
0.03581443801522255,0.004597728606313467,-0.020960619673132896,0.017761290073394775,-0.0005966309690847993,0.029631011188030243
0.035655245184898376,0.004406316671520472,-0.020965101197361946,0.018146807327866554,-0.000579223211389035,0.02894427999854088
0.03645416721701622,0.0045792474411427975,-0.02119399607181549,0.01800389401614666,-0.0006071532261557877,0.028807107359170914
0.03615463897585869,0.00460212305188179,-0.020710987970232964,0.01813352294266224,-0.0006548615056090057,0.028708765283226967
0.03591124713420868,0.004786982201039791,-0.021461956202983856,0.018038323149085045,-0.0006958050653338432,0.02901378460228443
0.03684825077652931,0.004718874115496874,-0.02159951440989971,0.01733470894396305,-0.0006681884406134486,0.029231540858745575
0.036662664264440536,0.0046932632103562355,-0.02120175212621689,0.01767297461628914,-0.0006903260364197195,0.029162855818867683
0.03632993623614311,0.004410885274410248,-0.02094988338649273,0.017738953232765198,-0.0007049567648209631,0.029405679553747177
0.03698134794831276,0.004419042728841305,-0.021425658836960793,0.017959799617528915,-0.0006519514718092978,0.029675301164388657
0.03724931180477142,0.0047150831669569016,-0.02194841578602791,0.017682284116744995,-0.0007239921833388507,0.029867583885788918
0.036890458315610886,0.004712807014584541,-0.021248629316687584,0.017100922763347626,-0.0007525381515733898,0.029761798679828644
0.036890458315610886,0.004712807014584541,-0.021248629316687584,0.017100922763347626,-0.0007525381515733898,0.029761798679828644
0.03844210132956505,0.004854979924857616,-0.021423358470201492,0.017609046772122383,-0.0007855943986214697,0.0298199113458395
0.03844210132956505,0.004854979924857616,-0.021423358470201492,0.017609046772122383,-0.0007855943986214697,0.0298199113458395
0.03790295124053955,0.004572207573801279,-0.021592790260910988,0.018034031614661217,-0.0008925950387492776,0.030070139095187187
0.03584622964262962,0.004581722430884838,-0.021038725972175598,0.01773628406226635,-0.0009344842983409762,0.03020479902625084
0.03670189157128334,0.004690960980951786,-0.021273577585816383,0.017463907599449158,-0.0009319401578977704,0.0301339291036129
0.037828538566827774,0.004407484550029039,-0.021575020626187325,0.017995335161685944,-0.0009278827928937972,0.03057382069528103
0.03711560368537903,0.005031052976846695,-0.021368276327848434,0.018157780170440674,-0.0009149131365120411,0.0292226392775774
0.03803735226392746,0.005006211344152689,-0.021351199597120285,0.017775995656847954,-0.0009122111951000988,0.030606836080551147
0.0389074943959713,0.004781526047736406,-0.021315159276127815,0.018061695620417595,-0.0008433955372311175,0.03195206820964813
0.03626161441206932,0.004586413968354464,-0.02166643925011158,0.01772189699113369,-0.0008464855491183698,0.032194603234529495
0.0374225489795208,0.004597198683768511,-0.02145923674106598,0.018137652426958084,-0.0008452092297375202,0.030438881367444992
0.03839217498898506,0.004623371176421642,-0.021466927602887154,0.018394310027360916,-0.0007679327973164618,0.029350794851779938
0.03770208731293678,0.0046516298316419125,-0.02120530791580677,0.01849139854311943,-0.0007370252278633416,0.03050817921757698
0.03767184168100357,0.005272619426250458,-0.021208858117461205,0.019344335421919823,-0.0007515930919907987,0.030785569921135902
0.03777255862951279,0.005095982924103737,-0.021293289959430695,0.019238416105508804,-0.0007695734384469688,0.030960852280259132
0.03795614838600159,0.004523451905697584,-0.021915806457400322,0.018126055598258972,-0.0007188821909949183,0.03182688727974892
0.03816590458154678,0.004797638859599829,-0.022001752629876137,0.01807434670627117,-0.0007740887813270092,0.03098197653889656
0.03777218982577324,0.005291416309773922,-0.021700043231248856,0.018434729427099228,-0.0007341104210354388,0.029899219051003456
0.038219649344682693,0.005129887256771326,-0.02077043242752552,0.018976835533976555,-0.000696116010658443,0.03078368678689003
0.03995966538786888,0.004858288913965225,-0.02153969742357731,0.019087616354227066,-0.0006198132177814841,0.03218035772442818
0.037341468036174774,0.004705514758825302,-0.023768382146954536,0.01867399550974369,-0.0006238288478925824,0.03195720165967941
0.03720608726143837,0.004687917418777943,-0.0222940631210804,0.018906360492110252,-0.0005865324055776,0.03176651522517204
0.03881775587797165,0.00470463652163744,-0.02057507634162903,0.01874457858502865,-0.0006040127482265234,0.031341515481472015
0.03902535140514374,0.005008026957511902,-0.021834425628185272,0.01946542225778103,-0.0005656293360516429,0.030122481286525726
0.03969993814826012,0.004532421939074993,-0.023334262892603874,0.019525820389389992,-0.0005128650227561593,0.03200927749276161
0.03964550793170929,0.0045568980276584625,-0.022979479283094406,0.01844710484147072,-0.0005397157510742545,0.03297554329037666
0.03752555325627327,0.004466542508453131,-0.021435877308249474,0.01815098524093628,-0.0005723516806028783,0.03283649682998657
0.03752555325627327,0.004466542508453131,-0.021435877308249474,0.01815098524093628,-0.0005723516806028783,0.03283649682998657
0.03839593008160591,0.004667818080633879,-0.0224542785435915,0.017837855964899063,-0.0006095200660638511,0.03254428878426552
0.040140993893146515,0.004778931383043528,-0.021840078756213188,0.017553891986608505,-0.0010616498766466975,0.03249269723892212
0.0392615906894207,0.004859419539570808,-0.021908361464738846,0.018354546278715134,-0.001059911330230534,0.032771993428468704
0.03895571455359459,0.0045765964314341545,-0.022657115012407303,0.018795762211084366,-0.0010041942587122321,0.03253209963440895
0.03956209868192673,0.005008875858038664,-0.02223900519311428,0.019171521067619324,-0.0009336419752798975,0.032720234245061874
0.03907288238406181,0.004861690569669008,-0.022386593744158745,0.01836828514933586,-0.000992778455838561,0.032497722655534744
0.03922585770487785,0.0046906666830182076,-0.022418014705181122,0.018389742821455002,-0.0009816576493903995,0.03252526372671127
0.03944806754589081,0.004209401085972786,-0.022207152098417282,0.018364008516073227,-0.0009081711177714169,0.032748062163591385
0.03936498984694481,0.004209466278553009,-0.0220800768584013,0.018709665164351463,-0.0009029047796502709,0.03298671543598175
0.03955525532364845,0.0042045037262141705,-0.02230560965836048,0.01867317408323288,-0.0008085282752290368,0.03258661553263664
0.03986294940114021,0.004824118223041296,-0.0224104356020689,0.018976980820298195,-0.0007704695453867316,0.03266488015651703
0.04011457413434982,0.004854203667491674,-0.022661741822957993,0.01958264224231243,-0.0007635123911313713,0.034008536487817764
0.0403963066637516,0.004416540265083313,-0.022164365276694298,0.01930183544754982,-0.0007946303812786937,0.032992031425237656
0.03998073562979698,0.004118184559047222,-0.02279689349234104,0.0191733930259943,-0.0010360400192439556,0.03308747708797455
0.040088456124067307,0.004646806512027979,-0.022567328065633774,0.018928710371255875,-0.0010258383117616177,0.03390427306294441
0.04042026400566101,0.004678559023886919,-0.02202942594885826,0.019046248868107796,-0.0009435238898731768,0.033764325082302094
0.041118185967206955,0.004831345286220312,-0.02197217009961605,0.019779857248067856,-0.0009254161268472672,0.03490523248910904
0.041271086782217026,0.0043638632632792,-0.02236909046769142,0.019458776339888573,-0.0008365001995116472,0.034325528889894485
0.04119525104761124,0.004215860273689032,-0.022413918748497963,0.01925995945930481,-0.0007755875703878701,0.033091478049755096
0.041168246418237686,0.003993948921561241,-0.022302236407995224,0.019397927448153496,-0.0007624655845575035,0.03293268755078316
0.04133406654000282,0.004396532662212849,-0.021799655631184578,0.01946415938436985,-0.0007492727017961442,0.03374139964580536
0.041950810700654984,0.004108319990336895,-0.02188090607523918,0.019559398293495178,-0.000764524273108691,0.034289080649614334
