davideferrari95/blind_handover_controller/data/Test 165 - [2024-02-08 -- 11-06-13]/joint_states_data.csv
shoulder_pan_joint,shoulder_lift_joint,elbow_joint,wrist_1_joint,wrist_2_joint,wrist_3_joint
0.0002934964722953737,-0.03300550580024719,-0.005360085982829332,0.038440998643636703,-0.004923106636852026,0.000818100874312222
0.00027365409187041223,-0.033687058836221695,-0.005236044991761446,0.03900942578911781,-0.004736293572932482,0.0007352960528805852
0.00027365409187041223,-0.033687058836221695,-0.005236044991761446,0.03900942578911781,-0.004736293572932482,0.0007352960528805852
0.00027365409187041223,-0.033687058836221695,-0.005236044991761446,0.03900942578911781,-0.004736293572932482,0.0007352960528805852
0.0002579383144620806,-0.03379220888018608,-0.00523391691967845,0.038821469992399216,-0.0041327401995658875,0.0006671281298622489
0.00023140647681429982,-0.0345592126250267,-0.005452480632811785,0.03959769383072853,-0.003617097856476903,0.0005627425271086395
0.00022008827363606542,-0.03374245762825012,-0.005272742360830307,0.03912755846977234,-0.0035686681512743235,0.0005219154409132898
0.0002098247205140069,-0.03229861706495285,-0.005660000257194042,0.03973307088017464,-0.003331125481054187,0.0004866186354774982
0.00020047635189257562,-0.03291192278265953,-0.005415720399469137,0.03802649304270744,-0.003554835682734847,0.0004557948268484324
0.0002287478419020772,-0.03375537320971489,-0.0059798164293169975,0.037550412118434906,-0.004048459697514772,0.0004286465118639171
0.00022086859098635614,-0.033610668033361435,-0.00558980368077755,0.03744404762983322,-0.004317610524594784,0.00040455287671647966
0.00021220838243607432,-0.03324929624795914,-0.0059317066334187984,0.037531591951847076,-0.004029156640172005,0.00038302232860587537
0.00020418419444467872,-0.033407337963581085,-0.006313756108283997,0.03713763877749443,-0.003399570705369115,0.0003636701439972967
0.0001967450516531244,-0.0329102985560894,-0.006397351156920195,0.037048447877168655,-0.0029488401487469673,0.0003461794985923916
0.00018982880283147097,-0.03245650604367256,-0.006308915093541145,0.0371902771294117,-0.0027205401565879583,0.00033029456972144544
0.00018338188237976283,-0.0328572541475296,-0.0068831550888717175,0.0373871885240078,-0.002814962761476636,0.0003158031904604286
0.0001773592084646225,-0.03442288935184479,-0.006542553193867207,0.037352848798036575,-0.0032740950118750334,0.00030253129079937935
0.00017171875515487045,-0.03383522853255272,-0.0064352466724812984,0.036946557462215424,-0.003280437318608165,0.00029032997554168105
0.0001664261653786525,-0.0327594019472599,-0.0068363831378519535,0.03743579238653183,-0.003525675041601062,0.0002790744765661657
0.00016145095287356526,-0.032861705869436264,-0.007294807117432356,0.037818219512701035,-0.0033311538863927126,0.0002686600782908499
0.00015676359180361032,-0.03329421207308769,-0.0070030405186116695,0.037410952150821686,-0.0034737088717520237,0.0002589942014310509
0.00015234141028486192,-0.03163209930062294,-0.00712986383587122,0.03749838098883629,-0.0031539485789835453,0.00025000079767778516
0.00014816135808359832,-0.03382622450590134,-0.006743466481566429,0.03743058070540428,-0.003161156550049782,0.00024160993052646518
0.00014420475054066628,-0.03455255925655365,-0.007093522232025862,0.03777804225683212,-0.0030148010700941086,0.00023376492026727647
0.0001404542854288593,-0.033663906157016754,-0.007585245184600353,0.03820091485977173,-0.0032561190892010927,0.00022641304531134665
0.0001368934754282236,-0.032058488577604294,-0.007208994124084711,0.03808107599616051,-0.003170769428834319,0.0002195099223172292
0.0001368934754282236,-0.032058488577604294,-0.007208994124084711,0.03808107599616051,-0.003170769428834319,0.0002195099223172292
0.00013350909284781665,-0.03229907527565956,-0.007180094253271818,0.03959950432181358,-0.0034293567296117544,0.00021301503875292838
0.00013028786634095013,-0.03271814435720444,-0.0074232337065041065,0.0397832989692688,-0.0031294149812310934,0.00020689370285253972
0.00012721844541374594,-0.03253323584794998,-0.008349930867552757,0.03799745813012123,-0.0030738988425582647,0.00020111423509661108
0.00012149398389738053,-0.0324661023914814,-0.007535366807132959,0.039118051528930664,-0.0029732731636613607,0.00019047291425522417
0.00011882071703439578,-0.03235780447721481,-0.008150318637490273,0.0393131785094738,-0.002860352862626314,0.00018556349095888436
0.00011626241757767275,-0.03282739967107773,-0.007863950915634632,0.04042798653244972,-0.002771061845123768,0.00018090108642354608
0.00011381220974726602,-0.03274734318256378,-0.007339765317738056,0.03998400270938873,-0.002801191993057728,0.0001764672779245302
0.00011146302858833224,-0.03250322863459587,-0.0072921630926430225,0.037580810487270355,-0.0029519759118556976,0.00017224534531123936
0.00010920888598775491,-0.03232027590274811,-0.008043449372053146,0.03826263174414635,-0.0032986497972160578,0.00016822112957015634
0.0001070441139745526,-0.03240286558866501,-0.008104964159429073,0.0385718047618866,-0.003245254047214985,0.00016438020975328982
0.00010496356844669208,-0.03253181278705597,-0.007256923243403435,0.03910761699080467,-0.0031989216804504395,0.00016071111895143986
0.00010296217078575864,-0.03279200941324234,-0.006961258128285408,0.03890688717365265,-0.0028036986477673054,0.00015720220108050853
0.00010103577369591221,-0.03274885192513466,-0.008006362244486809,0.03840712457895279,-0.0028027519583702087,0.0001538430224172771
9.91803317447193e-05,-0.03257840871810913,-0.008449151180684566,0.038746386766433716,-0.0029228944331407547,0.00015062482270877808
9.739147935761139e-05,-0.03237784281373024,-0.00774781871587038,0.037823837250471115,-0.003036970505490899,0.00014753812865819782
9.566611697664484e-05,-0.03234342113137245,-0.007895641028881073,0.038359493017196655,-0.0030972177628427744,0.00013568489521276206
9.400086128152907e-05,-0.03256779909133911,-0.008068556897342205,0.038479939103126526,-0.002786076394841075,0.00012461283768061548
9.239256905857474e-05,-0.032350290566682816,-0.008223896846175194,0.037580810487270355,-0.0025873591657727957,0.00012165860243840143
9.083847544388846e-05,-0.03240138292312622,-0.007604548707604408,0.03850162774324417,-0.00242730719037354,0.00011931841436307877
8.933563367463648e-05,-0.03255772218108177,-0.007479905616492033,0.03957986459136009,-0.002553448313847184,0.00011709847603924572
8.788183185970411e-05,-0.03249197080731392,-0.008653855882585049,0.0375739224255085,-0.00251664943061769,0.0001149614981841296
8.647462527733296e-05,-0.0322858989238739,-0.008362219668924809,0.03665908798575401,-0.0027629623655229807,4.420503319124691e-05
8.511159830959514e-05,-0.03222006559371948,-0.007547200191766024,0.03784840181469917,-0.0024122444447129965,3.3892327337525785e-05
8.379101200262085e-05,-0.03185360133647919,-0.008103211410343647,0.03782130777835846,-0.0023080287501215935,2.0555933588184416e-05
8.25107199489139e-05,-0.03206516057252884,-0.008478035219013691,0.03900076076388359,-0.002281922847032547,1.6294088709400967e-05
8.126899774651974e-05,-0.03227115422487259,-0.00877430196851492,0.03880104422569275,-0.0025058796163648367,1.575471651449334e-05
8.006407006178051e-05,-0.03236284479498863,-0.007824758067727089,0.0372714139521122,-0.002521620597690344,1.546735620649997e-05
7.88944453233853e-05,-0.032228145748376846,-0.008391913957893848,0.036155544221401215,-0.002304092748090625,7.71886516304221e-06
7.775839912937954e-05,-0.03219370171427727,-0.008564705029129982,0.03791714832186699,-0.002200291259214282,5.03986768762843e-07
7.775839912937954e-05,-0.03219370171427727,-0.008564705029129982,0.03791714832186699,-0.002200291259214282,5.03986768762843e-07
7.665464363526553e-05,-0.03224683552980423,-0.007550738751888275,0.03814674913883209,-0.0021370856557041407,3.2906733338222693e-08
7.558174547739327e-05,-0.03172910958528519,-0.007450355216860771,0.03748619556427002,-0.001997601706534624,2.148574207438969e-09
7.453847501892596e-05,-0.03169448301196098,-0.008882408030331135,0.03718335181474686,-0.002161459531635046,1.4028654626851988e-10
7.352368265856057e-05,-0.031014559790492058,-0.008433016948401928,0.037559498101472855,-0.002239970490336418,9.159709449257925e-12
7.157467916840687e-05,-0.03183485195040703,-0.007584464270621538,0.036746397614479065,-0.002098213182762265,3.904927257740963e-14
7.063847442623228e-05,-0.031638920307159424,-0.008319035172462463,0.037150122225284576,-0.0020354094449430704,-0.0002425143902655691
5.85678790230304e-05,-0.03200520575046539,-0.007722869515419006,0.036730095744132996,-0.0020000042859464884,-0.0012348388554528356
5.737087121815421e-05,-0.03080679662525654,-0.008059361949563026,0.03712970018386841,-0.0018491281662136316,-0.0010925432434305549
5.6642660638317466e-05,-0.030837267637252808,-0.008519305847585201,0.03675335645675659,-0.0017639067955315113,-0.000913986237719655
5.5938540754141286e-05,-0.031053859740495682,-0.008255783468484879,0.03672224283218384,-0.001805263920687139,-0.0007816305733285844
5.5251708545256406e-05,-0.030655765905976295,-0.008425540290772915,0.0367443710565567,-0.0017998313996940851,-0.0006825622986070812
5.458159648696892e-05,-0.031560320407152176,-0.008608001284301281,0.03659236431121826,-0.0018626679666340351,-0.0006993571296334267
5.392753882915713e-05,-0.031597066670656204,-0.008212877437472343,0.036126453429460526,-0.0017052032053470612,-0.0006785751320421696
5.328891347744502e-05,-0.030482938513159752,-0.00799444131553173,0.03696317598223686,-0.001605605473741889,-0.0006564324721693993
5.2665272960439324e-05,-0.029800627380609512,-0.007915889844298363,0.03683849051594734,-0.0016431171679869294,-0.0005164773901924491
5.205608977121301e-05,-0.03052462637424469,-0.008381163701415062,0.03683946654200554,-0.0016454514116048813,-0.0005818402278237045
5.14607600052841e-05,-0.03109859675168991,-0.008481020107865334,0.03609694913029671,-0.0015932179521769285,-0.0006333492347039282
5.087899262434803e-05,-0.03095059283077717,-0.007716748397797346,0.03677216172218323,-0.001602012082003057,-0.001053636078722775
5.031016917200759e-05,-0.03039763681590557,-0.007838448509573936,0.03669152781367302,-0.0016411460237577558,-0.0012971997493878007
4.9753987696021795e-05,-0.030372727662324905,-0.008343650959432125,0.03681756928563118,-0.0015552114928141236,-0.0012445305474102497
1.9559761312848423e-06,-0.030746744945645332,-0.007569439709186554,0.03668186813592911,-0.0014045261777937412,-0.001094431965611875
2.624191708378021e-08,-0.030936622992157936,-0.00616101361811161,0.03693347051739693,-0.001411641831509769,-0.0010050671407952905
3.5206879078764075e-10,-0.030413728207349777,-0.006234266795217991,0.03638816997408867,-0.0013634010683745146,-0.0009704295662231743
4.723452098204239e-12,-0.02990136295557022,-0.0077840667217969894,0.03604079410433769,-0.001258426927961409,-0.000958343269303441
6.337114264332727e-14,-0.030704528093338013,-0.006863861344754696,0.03577786311507225,-0.0012015331303700805,-0.0010541414376348257
8.502047150648533e-16,-0.03173429146409035,-0.00603887252509594,0.03700331598520279,-0.001224792329594493,-0.0012551601976156235
1.1406580764728611e-17,-0.030581753700971603,-0.005762078333646059,0.03710174188017845,-0.0011258769081905484,-0.0016105127288028598
1.5303382877038293e-19,-0.030049927532672882,-0.0059388428926467896,0.03585188463330269,-0.0011491283075883985,-0.0018611181294545531
2.0531442714036597e-21,-0.030031433328986168,-0.0065040625631809235,0.03602541610598564,-0.0011300600599497557,-0.0017400686629116535
2.0531442714036597e-21,-0.030031433328986168,-0.0065040625631809235,0.03602541610598564,-0.0011300600599497557,-0.0017400686629116535
2.754554921814678e-23,-0.03126179426908493,-0.006510118953883648,0.036525409668684006,-0.001125263050198555,-0.0014537957031279802
4.958100567320889e-27,-0.030372250825166702,-0.005862019956111908,0.03851955384016037,-0.0014071310870349407,-0.001189150265417993
6.65192489778911e-29,-0.031304653733968735,-0.006070825736969709,0.037634000182151794,-0.0014050243189558387,-0.0011464748531579971
8.924405773589724e-31,-0.03085254691541195,-0.0063177794218063354,0.035834748297929764,-0.0013414234854280949,-0.0013387082144618034
1.1973229135750728e-32,-0.029299801215529442,-0.006033490877598524,0.036126069724559784,-0.0012555137509480119,-0.0025012397672981024
1.606361358828509e-34,-0.02986271120607853,-0.005684281699359417,0.03743958845734596,-0.0011849940055981278,-0.0026745276991277933
2.1551387441154527e-36,-0.03088616393506527,-0.005697519984096289,0.03656741976737976,-0.001025854959152639,-0.002475086133927107
2.8913938492175834e-38,-0.030336087569594383,-0.0058178831823170185,0.035866934806108475,-0.0008413515170104802,-0.002041138242930174
3.879172499836461e-40,-0.030303794890642166,-0.00610314542427659,0.0358441025018692,-0.0007758474675938487,-0.0017806572141125798
5.2044224965023706e-42,-0.030164197087287903,-0.006222366821020842,0.03610909357666969,-0.000729567720554769,-0.0015826441813260317
7.006492321624085e-44,-0.03013695776462555,-0.005663846619427204,0.035391051322221756,-0.0006459945579990745,-0.0013581168605014682
1.401298464324817e-45,-0.03016437403857708,-0.005762503948062658,0.03544510155916214,-0.0005770755233243108,-0.0014669172232970595
0.0,-0.03045918419957161,-0.005783082917332649,0.03505596145987511,-0.0005212992546148598,-0.002231607446447015
0.0,-0.030265184119343758,-0.0062006739899516106,0.03494485840201378,-0.0004753526591230184,-0.0027834628708660603
0.0,-0.03008132241666317,-0.006261417642235756,0.03613138571381569,-0.0004902741056866944,-0.0027027176693081856
0.0,-0.030015645548701286,-0.006083812564611435,0.03601253777742386,-0.0004702243022620678,-0.0025127846747636795
0.0,-0.029937759041786194,-0.00603211997076869,0.03394829109311104,-0.0004385574138723314,-0.0021741806995123625
0.0,-0.029884744435548782,-0.00623552268370986,0.03426903486251831,-0.0004100638616364449,-0.0019734532106667757
0.0,-0.030123597010970116,-0.006404877174645662,0.03525548800826073,-0.0003849979839287698,-0.0022117493208497763
0.0,-0.02997385710477829,-0.0063044060952961445,0.03517315164208412,-0.00036281454958952963,-0.0023409577552229166
0.0,-0.02945845015347004,-0.0066144755110144615,0.03618975356221199,-0.0003886742051690817,-0.002913673873990774
0.0,-0.02965552918612957,-0.006731717381626368,0.036294035613536835,-0.00037158449413254857,-0.003019099123775959
0.0,-0.029794294387102127,-0.00653043482452631,0.03478987514972687,-0.00035352809936739504,-0.0025806580670177937
0.0,-0.029794294387102127,-0.00653043482452631,0.03478987514972687,-0.00035352809936739504,-0.0025806580670177937
0.0,-0.029650853946805,-0.00594765180721879,0.03563157469034195,-0.0002488937752787024,-0.0019306171452626586
0.0,-0.029650853946805,-0.00594765180721879,0.03563157469034195,-0.0002488937752787024,-0.0019306171452626586
0.0,-0.03011738695204258,-0.00571016501635313,0.03576365113258362,-0.00023148201580625027,-0.0018375581130385399
0.0,-0.029533253982663155,-0.006410876289010048,0.035616859793663025,-0.0002579394495114684,-0.0023590249475091696
0.0,-0.029629990458488464,-0.007266750559210777,0.03604578599333763,-0.0002511392522137612,-0.0026580083649605513
0.0,-0.029577594250440598,-0.006353325210511684,0.035683002322912216,-0.00025987671688199043,-0.003214804921299219
0.0,-0.029654087498784065,-0.006143337581306696,0.03582802787423134,-0.0002892497577704489,-0.0028463725466281176
0.0,-0.030138714239001274,-0.006898086983710527,0.035687364637851715,-0.00028235820354893804,-0.0025216166395694017
0.0,-0.02968635968863964,-0.007282213773578405,0.03514983505010605,-0.00047393955173902214,-0.0025676321238279343
0.0,-0.029519613832235336,-0.006686971988528967,0.03533633425831795,-0.0004554605984594673,-0.0028770046774297953
0.0,-0.029426060616970062,-0.0061823222786188126,0.03583940118551254,-0.00041531817987561226,-0.0030244924128055573
0.0,-0.029464881867170334,-0.006121882703155279,0.03586866706609726,-0.000380307697923854,-0.003070605220273137
0.0,-0.02972213737666607,-0.006880257278680801,0.03533277288079262,-0.0004158169322181493,-0.0030685202218592167
0.0,-0.02929069474339485,-0.007292114198207855,0.034551460295915604,-0.0003900195879396051,-0.003119882894679904
0.0,-0.02917199768126011,-0.006959444377571344,0.03430866822600365,-0.000363993807695806,-0.0028017021249979734
0.0,-0.029092887416481972,-0.006416476797312498,0.03475380316376686,-0.0003410108620300889,-0.0026375255547463894
0.0,-0.02729087695479393,-0.006845651660114527,0.03515469282865524,-0.000320748018566519,-0.0026274293195456266
0.0,-0.02982907183468342,-0.007139645051211119,0.03467324748635292,-0.00030275669996626675,-0.002714957343414426
0.0,-0.02990642935037613,-0.006962406914681196,0.03369836136698723,-0.00028667686274275184,-0.0028366753831505775
0.0,-0.028728490695357323,-0.006950666196644306,0.03402397781610489,-0.0002722206700127572,-0.003029576037079096
0.0,-0.028494160622358322,-0.006851576268672943,0.03403443470597267,-0.00025915284641087055,-0.0031357971020042896
0.0,-0.027548154816031456,-0.007337165530771017,0.033922791481018066,-0.0002472819178365171,-0.0031765687745064497
0.0,-0.02784404344856739,-0.006817414425313473,0.03399914503097534,-0.0002364513638895005,-0.002973992144688964
0.0,-0.02859932743012905,-0.006773256231099367,0.033509619534015656,-0.0002265300281578675,-0.0029331445693969727
0.0,-0.02828914485871792,-0.006704232655465603,0.03359886258840561,-0.00021740842203143984,-0.002871292643249035
0.0,-0.028795888647437096,-0.007122103124856949,0.03380492702126503,-0.00020899251103401184,-0.0030357972718775272
0.0,-0.029387323185801506,-0.007113697472959757,0.03374798968434334,-0.00020120415138080716,-0.003149092197418213
0.0,-0.028552962467074394,-0.0069978684186935425,0.03388575464487076,-0.0001939755748026073,-0.0034502206835895777
0.0,-0.027886711061000824,-0.00668826000764966,0.03411920368671417,-0.00018724839901551604,-0.0033724771346896887
0.0,-0.02788349613547325,-0.007390207145363092,0.03331273794174194,-0.00018097253632731736,-0.003486085683107376
0.0,-0.02788349613547325,-0.007390207145363092,0.03331273794174194,-0.00018097253632731736,-0.003486085683107376
0.0,-0.02822940982878208,-0.007505313027650118,0.033798716962337494,-0.00017510342877358198,-0.0036198885645717382
0.0,-0.02870110049843788,-0.007333424407988787,0.034885793924331665,-0.00016960343054961413,-0.0037919790484011173
8.013272712048547e-09,-0.02833227440714836,-0.007839696481823921,0.03289256617426872,-0.0001595784560777247,-0.0031830952502787113
1.0750828005612334e-10,-0.028210153803229332,-0.006954910699278116,0.03338531032204628,-0.00015499744040425867,-0.0031261970289051533
1.4423607707508834e-12,-0.027908964082598686,-0.006829624529927969,0.033134181052446365,-0.00015067261119838804,-0.0033853119239211082
1.93511131191303e-14,-0.02825097367167473,-0.006853991188108921,0.03278277814388275,-0.0001465820532757789,-0.0036868813913315535
2.5961988643773853e-16,-0.0279972143471241,-0.007249483838677406,0.033293284475803375,-0.00014270812971517444,-0.003756665624678135
3.483132241597998e-18,-0.02771642804145813,-0.007389170583337545,0.03331717476248741,-0.00013903355284128338,-0.0036702919751405716
4.6730667208562586e-20,-0.027438320219516754,-0.006865418050438166,0.031483959406614304,-0.00013554352335631847,-0.003389088436961174
6.26951508449498e-22,-0.027444953098893166,-0.007276507094502449,0.031514666974544525,-0.00013222450797911733,-0.0030895217787474394
8.411354830802969e-24,-0.027945837005972862,-0.007807174697518349,0.03247114270925522,-0.00012906419578939676,-0.0034007735084742308
1.1284905466004949e-25,-0.028022674843668938,-0.007242778781801462,0.03282521292567253,-0.0001260513672605157,-0.003758428618311882
1.5140140701081355e-27,-0.027632733806967735,-0.007153857033699751,0.03121664933860302,-0.0001231759088113904,-0.0039051836356520653
2.0312431039384218e-29,-0.027428751811385155,-0.006832325365394354,0.03239724785089493,-0.00012042890739394352,-0.003862407524138689
2.7251718282994554e-31,-0.026789994910359383,-0.006911632604897022,0.03245122730731964,-0.00011780150089180097,-0.0041791899129748344
3.65616616064347e-33,-0.02692776545882225,-0.0075247399508953094,0.03183872997760773,-0.00011528649338288233,-0.004211894236505032
4.905213374089741e-35,-0.027569647878408432,-0.007093630265444517,0.03148292005062103,-0.00011287670349702239,-0.0038157824892550707
6.58096976999988e-37,-0.0270476583391428,-0.006855441723018885,0.0310423132032156,-0.00011056541552534327,-0.0035327873192727566
8.829210279617626e-39,-0.027102893218398094,-0.006927106529474258,0.031151654198765755,-0.00010834704153239727,-0.0036156089045107365
1.1845456178630544e-40,-0.027753399685025215,-0.007431547623127699,0.03236924111843109,-0.00010621579713188112,-0.004140496253967285
1.5890724585443426e-42,-0.0281098410487175,-0.0070870802737772465,0.031829360872507095,-8.908120798878372e-05,-0.004182794131338596
2.1019476964872256e-44,-0.027233822271227837,-0.006902943830937147,0.030075211077928543,-8.531154890079051e-05,-0.003960670903325081
0.0,-0.0263371579349041,-0.006724861450493336,0.029889097437262535,-8.359081402886659e-05,-0.004102419596165419
0.0,-0.026276366785168648,-0.007936690002679825,0.030553190037608147,-8.205765334423631e-05,-0.004001603927463293
0.0,-0.02660786360502243,-0.0073186797089874744,0.029992546886205673,-8.058758248807862e-05,-0.003811280708760023
0.0,-0.026628876104950905,-0.007267603185027838,0.030591122806072235,-7.916970207588747e-05,-0.004277999512851238
0.0,-0.02641022950410843,-0.006637751590460539,0.031474798917770386,-7.780098530929536e-05,-0.004548059776425362
0.0,-0.025979625061154366,-0.007212779950350523,0.03061513602733612,-7.647866732440889e-05,-0.004364697262644768
0.0,-0.025952981784939766,-0.0073466538451612,0.03002099320292473,-6.115921132732183e-05,-0.004016032908111811
0.0,-0.025952981784939766,-0.0073466538451612,0.03002099320292473,-6.115921132732183e-05,-0.004016032908111811
0.0,-0.02574649639427662,-0.006607355549931526,0.029446236789226532,-5.9236881497781724e-05,-0.00423521688207984
0.00010421986371511593,-0.02618045173585415,-0.006780154537409544,0.030260661616921425,-5.82190441491548e-05,-0.0042257304303348064
0.00014593284868169576,-0.026168184354901314,-0.006806639023125172,0.030898472294211388,-5.7288714742753655e-05,-0.004363714251667261
0.00013760333240497857,-0.026136048138141632,-0.006258049048483372,0.03036724217236042,-4.2108182242373005e-05,-0.00424047838896513
0.0001335205597570166,-0.025659684091806412,-0.006559366825968027,0.030202142894268036,-4.1039060306502506e-05,-0.004470512270927429
0.00015524920308962464,-0.02575131691992283,-0.006223979406058788,0.029933208599686623,-4.0397011616732925e-05,-0.00424704235047102
0.00015124423953238875,-0.02610700950026512,-0.006499712821096182,0.03016447089612484,-5.338064511306584e-06,-0.004381651524454355
0.00016324518946930766,-0.02588786743581295,-0.00653163343667984,0.030288342386484146,2.7408641471993178e-05,-0.004114924930036068
0.00016698395484127104,-0.025270085781812668,-0.006196182686835527,0.03024204820394516,4.1807965317275375e-05,-0.003854157868772745
0.0001780646707629785,-0.026008687913417816,-0.006177640985697508,0.030282657593488693,4.3035623093601316e-05,-0.0036794303450733423
0.00018124088819604367,-0.025986557826399803,-0.006260686554014683,0.029904181137681007,4.945772889186628e-05,-0.0036443769931793213
0.00037560792407020926,-0.025763237848877907,-0.006828767247498035,0.029537193477153778,5.5306998547166586e-05,-0.0037751488853245974
0.0003701352106872946,-0.026389027014374733,-0.006386131979525089,0.029398323968052864,6.771626067347825e-05,-0.0035766044165939093
0.0004097814962733537,-0.025865379720926285,-0.006104798521846533,0.029179688543081284,0.0003329294850118458,-0.0035590482875704765
0.0004232930368743837,-0.02509288303554058,-0.00608737301081419,0.028749456629157066,0.0005838045035488904,-0.004012652672827244
0.0004156514769420028,-0.024912338703870773,-0.0063450220040977,0.028711559250950813,0.0006548874662257731,-0.004141493700444698
0.00044512125896289945,-0.02543434500694275,-0.006411159411072731,0.028662139549851418,0.0006944205379113555,-0.003974518738687038
0.0005905534490011632,-0.025316700339317322,-0.006088057532906532,0.02849453315138817,0.0012279977090656757,-0.00381184509024024
0.0006997176096774638,-0.02537982352077961,-0.006085593719035387,0.028090910986065865,0.0012197380419820547,-0.003507592948153615
0.0006317636580206454,-0.025280136615037918,-0.0059843771159648895,0.028161363676190376,0.0011506713926792145,-0.0034884498454630375
0.0006585982628166676,-0.02517395280301571,-0.006391699425876141,0.02786695398390293,0.0010347925126552582,-0.0037021914031356573
0.0006790997576899827,-0.02597850188612938,-0.006804230622947216,0.02807624079287052,0.0009351845365017653,-0.004290136508643627
0.000812516373116523,-0.025249740108847618,-0.005908589344471693,0.02792954258620739,0.0009238695492967963,-0.004133615642786026
0.0008466860163025558,-0.025069044902920723,-0.005885033402591944,0.027920888736844063,0.000919786689337343,-0.003906416241079569
0.0008542006835341454,-0.02504413202404976,-0.006262282375246286,0.02818792685866356,0.0009296011994592845,-0.0037654214538633823
0.0008542006835341454,-0.02504413202404976,-0.006262282375246286,0.02818792685866356,0.0009296011994592845,-0.0037654214538633823
0.000869454990606755,-0.025163056328892708,-0.0074153137393295765,0.028376957401633263,0.001142688444815576,-0.0037279126700013876
0.0012018337147310376,-0.02526334673166275,-0.006677852012217045,0.028103988617658615,0.0011852175230160356,-0.003865413134917617
0.0011502489214763045,-0.025700479745864868,-0.006063672713935375,0.028210356831550598,0.0016441006446257234,-0.004178228788077831
0.0011225054040551186,-0.025173496454954147,-0.006442510988563299,0.028275083750486374,0.0017344449879601598,-0.004066957626491785
0.0011106074089184403,-0.025358447805047035,-0.006256219930946827,0.027895934879779816,0.0017303989734500647,-0.0042801108211278915
0.0012018686393275857,-0.025304848328232765,-0.006570843048393726,0.02797316573560238,0.0016233021160587668,-0.004526105243712664
0.001214391551911831,-0.02443860098719597,-0.00585358589887619,0.02835983783006668,0.0014683754416182637,-0.004377646837383509
0.0013408991508185863,-0.02486777864396572,-0.00612397026270628,0.028102247044444084,0.001534399576485157,-0.004194374196231365
0.0012779929675161839,-0.025359397754073143,-0.006364566273987293,0.02685932070016861,0.0017747461097314954,-0.0039851781912148
0.0014888896839693189,-0.02484005130827427,-0.006438961252570152,0.026970013976097107,0.0017564052250236273,-0.003909819293767214
0.0015133017441257834,-0.024650530889630318,-0.0061656637117266655,0.026863202452659607,0.0018252007430419326,-0.0042198169976472855
0.0014974900986999273,-0.024130964651703835,-0.006590426433831453,0.026459775865077972,0.0017037128563970327,-0.004564112052321434
0.001585963647812605,-0.024590572342276573,-0.005970049649477005,0.025964366272091866,0.0016122256638482213,-0.0046667540445923805
0.0015044306637719274,-0.0248948372900486,-0.006064191460609436,0.02607354149222374,0.0016673157224431634,-0.0045935302041471004
0.0015476758126169443,-0.024042215198278427,-0.006167438346892595,0.026612967252731323,0.0016256022499874234,-0.004647002089768648
0.0014531423803418875,-0.02436092123389244,-0.006140478886663914,0.025692543014883995,0.0018893417436629534,-0.0047478871420025826
0.0014007898280397058,-0.0250585675239563,-0.006044371519237757,0.02483648806810379,0.0018205129308626056,-0.0046353586949408054
0.0016053932486101985,-0.02554999478161335,-0.006083513144403696,0.024609655141830444,0.0020636310800909996,-0.004685876425355673
0.001909266342408955,-0.024576622992753983,-0.0060891155153512955,0.025215763598680496,0.0023142274003475904,-0.004589103162288666
0.0022286486346274614,-0.02416861429810524,-0.0064186337403953075,0.025556892156600952,0.00240322039462626,-0.004585675895214081
0.0022185787092894316,-0.024192554876208305,-0.006032176315784454,0.024945523589849472,0.002483312040567398,-0.0045563774183392525
0.002112525049597025,-0.0244595929980278,-0.005936978850513697,0.025401312857866287,0.002225406002253294,-0.004603321198374033
0.0019741258583962917,-0.02501257322728634,-0.006133571267127991,0.0257246233522892,0.0021168419625610113,-0.004523208364844322
0.001989407232031226,-0.024977287277579308,-0.006720991339534521,0.025652525946497917,0.0019535457249730825,-0.00436760950833559
0.0023549485486000776,-0.02473384700715542,-0.0067840684205293655,0.024800224229693413,0.0019397151190787554,-0.004481486044824123
0.002830388257279992,-0.02426561526954174,-0.006140821147710085,0.024030651897192,0.002187910722568631,-0.00467512896284461
0.002830388257279992,-0.02426561526954174,-0.006140821147710085,0.024030651897192,0.002187910722568631,-0.00467512896284461
0.002672586590051651,-0.02415904588997364,-0.006332458462566137,0.02445659041404724,0.0021460114512592554,-0.004595612641423941
0.002739573363214731,-0.024391207844018936,-0.006163319572806358,0.02514757588505745,0.0021825269795954227,-0.004448184743523598
0.0023100627586245537,-0.02464515157043934,-0.006499784998595715,0.02439073473215103,0.002025659428909421,-0.004098951350897551
0.0023100627586245537,-0.02464515157043934,-0.006499784998595715,0.02439073473215103,0.002025659428909421,-0.004098951350897551
0.0023600489366799593,-0.024559922516345978,-0.006377244368195534,0.02422734536230564,0.0018918425776064396,-0.003927294164896011
0.0026378422044217587,-0.024372834712266922,-0.005830479320138693,0.02439594827592373,0.0018586766673251987,-0.004203935153782368
0.003213795367628336,-0.024103254079818726,-0.006373409181833267,0.024089321494102478,0.001861333497799933,-0.0050155892968177795
0.0031020990572869778,-0.024154148995876312,-0.005782946012914181,0.023111626505851746,0.0026224832981824875,-0.005280624609440565
0.0029642428271472454,-0.024467522278428078,-0.0061858403496444225,0.023080948740243912,0.0026312307454645634,-0.005032525397837162
0.0028194303158670664,-0.023914365097880363,-0.005754658952355385,0.023182746022939682,0.002587143797427416,-0.0048373425379395485
0.0032793283462524414,-0.02430700697004795,-0.006315268110483885,0.023386988788843155,0.002281991532072425,-0.0044016302563250065
0.0030896898824721575,-0.024694152176380157,-0.006056286860257387,0.023770466446876526,0.002102868165820837,-0.004939281847327948
0.0031245218124240637,-0.024115750566124916,-0.005845575127750635,0.02408090978860855,0.0020744691137224436,-0.004983215592801571
0.0028981082141399384,-0.02309386059641838,-0.005906466860324144,0.023227762430906296,0.002209748374298215,-0.004876809194684029
0.002814482431858778,-0.022401148453354836,-0.005864653270691633,0.0219115037471056,0.002321100328117609,-0.0050232186913490295
0.003333944594487548,-0.022842751815915108,-0.006224562413990498,0.021794795989990234,0.002560702385380864,-0.004967654123902321
0.003792451461777091,-0.022805308923125267,-0.006350554991513491,0.022212354466319084,0.002813887083902955,-0.005057814065366983
0.003928603138774633,-0.0225689597427845,-0.0058700875379145145,0.022489316761493683,0.0027051803190261126,-0.00551209319382906
0.003376979613676667,-0.022208472713828087,-0.005643752403557301,0.0217414703220129,0.0024250312708318233,-0.00535650085657835
0.003353664418682456,-0.02260216325521469,-0.00563317583873868,0.0215316005051136,0.002495450433343649,-0.0050966390408575535
0.0036437998060137033,-0.02237570844590664,-0.006131750997155905,0.02235298790037632,0.002730787731707096,-0.005064399912953377
0.003836660413071513,-0.022961052134633064,-0.006469751242548227,0.02221078984439373,0.0028947866521775723,-0.005063310731202364
0.0036523572634905577,-0.02204435132443905,-0.0059800902381539345,0.021118832752108574,0.0028072702698409557,-0.005232656374573708
0.003510930808261037,-0.021683940663933754,-0.006123525556176901,0.02112686075270176,0.0024754218757152557,-0.0052928379736840725
0.0034551762510091066,-0.02172420732676983,-0.005675612483173609,0.020468534901738167,0.0022221605759114027,-0.005213599186390638
0.003651592181995511,-0.02137664705514908,-0.005914646666496992,0.019514072686433792,0.0022291908971965313,-0.005247296765446663
0.003651592181995511,-0.02137664705514908,-0.005914646666496992,0.019514072686433792,0.0022291908971965313,-0.005247296765446663
0.003996116109192371,-0.021260814741253853,-0.006464110221713781,0.019649356603622437,0.0025271663907915354,-0.005136116873472929
0.004014869220554829,-0.021593358367681503,-0.0059411716647446156,0.02017773687839508,0.002809760393574834,-0.005125338677316904
0.0042626201175153255,-0.021257134154438972,-0.005725043825805187,0.020086906850337982,0.002781539922580123,-0.005545318592339754
0.004035516642034054,-0.02070421725511551,-0.005645552650094032,0.019870441406965256,0.0027978902217000723,-0.005511865951120853
0.0038161342963576317,-0.021026017144322395,-0.0061987354420125484,0.01993825100362301,0.002639775862917304,-0.005622082855552435
0.00454022828489542,-0.02138524316251278,-0.005671508610248566,0.019548222422599792,0.002727593295276165,-0.005323540885001421
0.00440848246216774,-0.021106982603669167,-0.005768005270510912,0.019846299663186073,0.0029414240270853043,-0.005185442510992289
0.004196118097752333,-0.020718209445476532,-0.00583874573931098,0.01955384574830532,0.002950041089206934,-0.005766388028860092
0.0041703833267092705,-0.021225159987807274,-0.0061956737190485,0.019160371273756027,0.0027529047802090645,-0.005616382230073214
0.004462407436221838,-0.021143319085240364,-0.005841328762471676,0.01930372044444084,0.0028078248724341393,-0.0058487653732299805
0.004583312198519707,-0.02051733434200287,-0.005582697223871946,0.019175590947270393,0.002683409256860614,-0.005500028841197491
0.004368204157799482,-0.02114591747522354,-0.006004842929542065,0.019201163202524185,0.0025781639851629734,-0.0053771138191223145
0.0045333243906497955,-0.021326575428247452,-0.0056078010238707066,0.019003301858901978,0.002718272153288126,-0.005240680184215307
0.00462097954005003,-0.02071378193795681,-0.005943776573985815,0.018339473754167557,0.002818176057189703,-0.005054638721048832
0.0047195772640407085,-0.02074739895761013,-0.0061208033002913,0.018525926396250725,0.0028480414766818285,-0.0057489764876663685
0.004769759718328714,-0.02071707881987095,-0.00590482447296381,0.018414955586194992,0.002715627197176218,-0.005615030415356159
0.004926190245896578,-0.020700328052043915,-0.004832868929952383,0.017981521785259247,0.002826994052156806,-0.005791704636067152
0.004425649531185627,-0.020235633477568626,-0.005968404933810234,0.018115051090717316,0.002953980816528201,-0.005623908247798681
0.004419769626110792,-0.019902078434824944,-0.006846905220299959,0.01776508241891861,0.0029298290610313416,-0.005899052135646343
0.004505758173763752,-0.020558560267090797,-0.006663644686341286,0.01747986301779747,0.002921206410974264,-0.005885851103812456
0.004987419117242098,-0.020027877762913704,-0.005598901305347681,0.01785287819802761,0.0029489179141819477,-0.005895879119634628
0.0049583157524466515,-0.019770627841353416,-0.005961854476481676,0.017180031165480614,0.003110845573246479,-0.0059270397759974
0.0049530863761901855,-0.019963253289461136,-0.006050789728760719,0.01708097569644451,0.0030663160141557455,-0.005784790497273207
0.00514828460291028,-0.020068377256393433,-0.0063440995290875435,0.017391100525856018,0.0027266398537904024,-0.005771904718130827
0.004733200650662184,-0.019712643697857857,-0.006267435383051634,0.017414720728993416,0.0026955949142575264,-0.0055591044947505
0.00567874638363719,-0.019929056987166405,-0.005938563030213118,0.017279552295804024,0.002684367820620537,-0.005580650642514229
0.005375055596232414,-0.019564740359783173,-0.006223286502063274,0.016956662759184837,0.0028051603585481644,-0.005271147005259991
0.005375055596232414,-0.019564740359783173,-0.006223286502063274,0.016956662759184837,0.0028051603585481644,-0.005271147005259991
0.004960508551448584,-0.018874380737543106,-0.0063980575650930405,0.017051244154572487,0.00330774555914104,-0.005860984791070223
0.004817242734134197,-0.01914213038980961,-0.0063096932135522366,0.016507919877767563,0.0031744251027703285,-0.0059175752103328705
0.005088464822620153,-0.01951349899172783,-0.0063868178986012936,0.01658741757273674,0.003272172762081027,-0.006183869671076536
0.0051781232468783855,-0.019033102318644524,-0.006044201552867889,0.01669604517519474,0.003278008894994855,-0.0066430941224098206
0.0054034520871937275,-0.01940806582570076,-0.006002888083457947,0.0162433460354805,0.0029122389387339354,-0.005934911780059338
0.004748236853629351,-0.018986579030752182,-0.0062162308022379875,0.01621592603623867,0.002682799706235528,-0.005481599364429712
0.005106981378048658,-0.01880057342350483,-0.0059449938125908375,0.015851527452468872,0.0027637092862278223,-0.005956675857305527
0.005026369355618954,-0.018631797283887863,-0.006005509290844202,0.015529261901974678,0.002591219265013933,-0.00602769386023283
0.004957874305546284,-0.018546808511018753,-0.006421989295631647,0.015620563179254532,0.002718572039157152,-0.006266663782298565
0.005792516283690929,-0.018560297787189484,-0.006196119822561741,0.01562938094139099,0.0027955840341746807,-0.005776348523795605
0.005363105330616236,-0.018151145428419113,-0.006516748573631048,0.014198927208781242,0.0030944477766752243,-0.0059799677692353725
0.004831503611057997,-0.01815718039870262,-0.006242498755455017,0.015390315093100071,0.0030822434928268194,-0.0062552145682275295
0.005085477605462074,-0.018311088904738426,-0.0057413517497479916,0.015802843496203423,0.0028783194720745087,-0.006148515269160271
0.0052502634935081005,-0.01763226091861725,-0.006264673545956612,0.015386064536869526,0.002978663658723235,-0.0062154000625014305
0.005902834236621857,-0.01807377114892006,-0.006783823948353529,0.014564679004251957,0.0027756779454648495,-0.005891398061066866
0.0055832527577877045,-0.017917450517416,-0.006807295605540276,0.014862651005387306,0.002691354602575302,-0.006020309869199991
0.005744746420532465,-0.017421482130885124,-0.006225870456546545,0.01402642484754324,0.002771914005279541,-0.006430321838706732
0.0053486754186451435,-0.01804250292479992,-0.0064910477958619595,0.014116060920059681,0.0028147727716714144,-0.0066260602325201035
0.005701298825442791,-0.017414521425962448,-0.00612812303006649,0.013652889989316463,0.0026612624060362577,-0.0059053958393633366
0.005522067192941904,-0.01771024987101555,-0.006477773655205965,0.014156722463667393,0.0025659482926130295,-0.005883267614990473
0.005997075233608484,-0.01777694933116436,-0.006639838684350252,0.013779786415398121,0.002846838440746069,-0.006281508132815361
0.006182078737765551,-0.017014702782034874,-0.006205652840435505,0.01344740018248558,0.003343987977132201,-0.006337085738778114
0.005597321782261133,-0.017297567799687386,-0.006059648934751749,0.012920640408992767,0.0033379627857357264,-0.006573200225830078
0.005822133272886276,-0.016883688047528267,-0.006098440382629633,0.013332994654774666,0.0035473715979605913,-0.006033945828676224
0.0059895869344472885,-0.015751857310533524,-0.006882555317133665,0.013250451534986496,0.0037249187007546425,-0.005949090234935284
0.006342208478599787,-0.01666279137134552,-0.006792752537876368,0.012924352660775185,0.003411081852391362,-0.006432671565562487
0.006005316041409969,-0.016736114397644997,-0.0064802528358995914,0.013382050208747387,0.003126943251118064,-0.006697324104607105
0.006005316041409969,-0.016736114397644997,-0.0064802528358995914,0.013382050208747387,0.003126943251118064,-0.006697324104607105
0.0059571112506091595,-0.016945354640483856,-0.00636996328830719,0.013025512918829918,0.0028950669802725315,-0.006452211644500494
0.005934569984674454,-0.016704805195331573,-0.006838709581643343,0.013264632783830166,0.0028164098039269447,-0.006356931757181883
0.006517906207591295,-0.016243642196059227,-0.007119151763617992,0.012662957422435284,0.0029243642929941416,-0.006784361321479082
0.006236291956156492,-0.015879375860095024,-0.006802193820476532,0.013225555419921875,0.0033691944554448128,-0.006831859704107046
0.005578397307544947,-0.01637495681643486,-0.006457711569964886,0.012911188416182995,0.003211570903658867,-0.006547700148075819
0.005594024434685707,-0.016612231731414795,-0.007053337525576353,0.012770500965416431,0.0032177502289414406,-0.00632171705365181
0.0058935158886015415,-0.016850823536515236,-0.00705901812762022,0.012188390828669071,0.0035108120646327734,-0.006385076325386763
0.006186963524669409,-0.01633272133767605,-0.006874433718621731,0.012467561289668083,0.0033782797399908304,-0.006472645327448845
0.006017379462718964,-0.015810349956154823,-0.0060788849368691444,0.012155422940850258,0.003277088748291135,-0.006642959080636501
0.0060099465772509575,-0.014779478311538696,-0.006606861017644405,0.01223460491746664,0.0028949747793376446,-0.006117617711424828
0.00607937341555953,-0.0158707108348608,-0.007190876640379429,0.011982813477516174,0.0024277998600155115,-0.006139556877315044
0.0063423640094697475,-0.01577298901975155,-0.006675075273960829,0.012210116721689701,0.002212442457675934,-0.006811394356191158
0.006543587893247604,-0.015877023339271545,-0.006705795414745808,0.012125235050916672,0.002361439634114504,-0.006965918932110071
0.006271522957831621,-0.016314566135406494,-0.006783653981983662,0.01260989997535944,0.002624849323183298,-0.006706528831273317
0.006542148534208536,-0.01544689666479826,-0.00681266700848937,0.0121123306453228,0.0027540491428226233,-0.006130729801952839
0.006786750629544258,-0.015570520423352718,-0.006780538242310286,0.011492857709527016,0.00317338015884161,-0.006458763033151627
0.006583652459084988,-0.015284251421689987,-0.0067101093009114265,0.011980729177594185,0.00326420646160841,-0.006776930298656225
0.006622985005378723,-0.01600407436490059,-0.006888937205076218,0.01191486231982708,0.003206977155059576,-0.007091052830219269
0.006666777189821005,-0.015713674947619438,-0.007122893817722797,0.011498377658426762,0.0029390600975602865,-0.006837442982941866
0.006352078169584274,-0.015962690114974976,-0.006778096314519644,0.011398683302104473,0.002647432964295149,-0.007185196503996849
0.007970567792654037,-0.01523950882256031,-0.006115526892244816,0.010756632313132286,0.002455366775393486,-0.007057386916130781
0.006885987240821123,-0.015443377196788788,-0.006297280080616474,0.011047953739762306,0.0024654886219650507,-0.007063275668770075
0.00635265838354826,-0.015075954608619213,-0.006860476452857256,0.010580646805465221,0.002787176985293627,-0.007105583790689707
0.006626036949455738,-0.015009094960987568,-0.006803060416132212,0.010576699860394001,0.003138971282169223,-0.007227369584143162
0.006653803400695324,-0.015283809043467045,-0.006215160246938467,0.011150535196065903,0.0030669523403048515,-0.007361308205872774
0.007228306494653225,-0.015223144553601742,-0.005775586701929569,0.01115209236741066,0.003017206909134984,-0.006886363495141268
0.007228306494653225,-0.015223144553601742,-0.005775586701929569,0.01115209236741066,0.003017206909134984,-0.006886363495141268
0.007594446185976267,-0.014940059743821621,-0.005556071177124977,0.010594244115054607,0.0028817143756896257,-0.006810709834098816
0.006833030842244625,-0.014478808268904686,-0.00622792961075902,0.010556375607848167,0.0028907768428325653,-0.006965326610952616
0.006587160751223564,-0.014875398017466068,-0.006744133774191141,0.009325836785137653,0.0033018989488482475,-0.00705314613878727
0.007100211922079325,-0.014540866017341614,-0.006377427373081446,0.009588894434273243,0.0031524845398962498,-0.007326013874262571
0.007182827219367027,-0.014932355843484402,-0.005623334553092718,0.010525358840823174,0.0031850484665483236,-0.007386664394289255
0.006925094407051802,-0.014534622430801392,-0.006344526074826717,0.009588075801730156,0.0030754993204027414,-0.007412532810121775
0.00771070783957839,-0.014331242069602013,-0.006377379409968853,0.009467611089348793,0.003151502925902605,-0.0077189113944768906
0.00774909695610404,-0.014567648060619831,-0.006048862356692553,0.00909439567476511,0.0029588828328996897,-0.0071985190734267235
0.007704494055360556,-0.013843050226569176,-0.0055770049802958965,0.007795791607350111,0.0030237147584557533,-0.006479568779468536
0.007067432627081871,-0.013987675309181213,-0.005793382413685322,0.007424970623105764,0.003210213501006365,-0.006882146000862122
0.007363730575889349,-0.013958224095404148,-0.0065217940136790276,0.007235005497932434,0.003353649517521262,-0.00748021062463522
0.008021672256290913,-0.014128054492175579,-0.006017623469233513,0.007242433726787567,0.003340680617839098,-0.007596066687256098
0.007825784385204315,-0.01365284901112318,-0.005619922652840614,0.006913178134709597,0.003315072041004896,-0.007338936906307936
0.007047505117952824,-0.013328933157026768,-0.005688664503395557,0.006637244950979948,0.0029930986929684877,-0.007127538789063692
0.007467146031558514,-0.013715937733650208,-0.0061419690027832985,0.006707319989800453,0.002994951093569398,-0.007428297773003578
0.007648791186511517,-0.013698055408895016,-0.006600350607186556,0.0064878580160439014,0.0030783875845372677,-0.008022820577025414
0.008122324012219906,-0.01372249610722065,-0.006145168095827103,0.005771095398813486,0.0033839617390185595,-0.007898536510765553
0.007676380220800638,-0.013426695950329304,-0.006087437272071838,0.005825267173349857,0.0036548972129821777,-0.007558485027402639
0.007707708049565554,-0.013012118637561798,-0.005615961272269487,0.005479220300912857,0.0033307033590972424,-0.007449522614479065
0.007668206002563238,-0.012727785855531693,-0.0058975727297365665,0.0055589983239769936,0.0030354137998074293,-0.008054297417402267
0.0077127255499362946,-0.013668647967278957,-0.0065434095449745655,0.005594099871814251,0.00294460728764534,-0.00816358532756567
0.007464689202606678,-0.012964093126356602,-0.005936759058386087,0.005951834376901388,0.0029395930469036102,-0.007686098106205463
0.007638032082468271,-0.013221070170402527,-0.005772996228188276,0.005665730684995651,0.003268874017521739,-0.007567774970084429
0.007761170156300068,-0.012659023515880108,-0.0056319283321499825,0.005628145765513182,0.0031932976562529802,-0.007563443388789892
0.008097684010863304,-0.012787016108632088,-0.00609455443918705,0.0052192010916769505,0.0034577960614115,-0.0075383856892585754
0.008097684010863304,-0.012787016108632088,-0.00609455443918705,0.0052192010916769505,0.0034577960614115,-0.0075383856892585754
0.008203272707760334,-0.012535943649709225,-0.006540488917380571,0.004713868722319603,0.0032644346356391907,-0.007826721295714378
0.008444264531135559,-0.012560516595840454,-0.006002111826092005,0.0046720486134290695,0.0033465931192040443,-0.007566577289253473
0.008107033558189869,-0.012740416452288628,-0.00561964325606823,0.005002231802791357,0.0034276347141712904,-0.007656692992895842
0.007975723594427109,-0.012313609011471272,-0.005700787529349327,0.0053297728300094604,0.003335839370265603,-0.007540921680629253
0.008046635426580906,-0.012309613637626171,-0.006274071056395769,0.005307950545102358,0.0031103622168302536,-0.007585613988339901
0.008763674646615982,-0.011630933731794357,-0.006452549714595079,0.004679223522543907,0.0030378983356058598,-0.0076584238559007645
0.008074980229139328,-0.012242329306900501,-0.005847829394042492,0.004727138672024012,0.003305338090285659,-0.007837079465389252
0.008558936417102814,-0.012017253786325455,-0.0055654156021773815,0.00473659485578537,0.003270144108682871,-0.00758630083873868
0.008597013540565968,-0.012611129321157932,-0.006339478772133589,0.004689230117946863,0.00336147821508348,-0.008042343892157078
0.008524766191840172,-0.011779080145061016,-0.006917809601873159,0.004718573298305273,0.003387156641110778,-0.007780673913657665
0.008472150191664696,-0.01164686307311058,-0.006298368331044912,0.004350042436271906,0.003160094376653433,-0.008107508532702923
0.008711897768080235,-0.010846950113773346,-0.005558406934142113,0.0034557627514004707,0.0034244952257722616,-0.00809420458972454
0.008705082349479198,-0.011109992861747742,-0.005534224212169647,0.0031297467648983,0.0037255757488310337,-0.008251460269093513
0.009026402607560158,-0.011774786747992039,-0.00623894901946187,0.004142964258790016,0.003400438465178013,-0.00830475240945816
0.008720996789634228,-0.010908660478889942,-0.006754531525075436,0.004677711054682732,0.003171193180605769,-0.008270898833870888
0.008630466647446156,-0.010933417826890945,-0.006329824216663837,0.004410041030496359,0.003093426814302802,-0.008431201800704002
0.008752956986427307,-0.011365015059709549,-0.005908537656068802,0.003925697412341833,0.0032010674476623535,-0.008364501409232616
0.009306936524808407,-0.010880403220653534,-0.005777025129646063,0.003661997616291046,0.003548510605469346,-0.008324861526489258
0.009340253658592701,-0.011166872456669807,-0.005953516811132431,0.0031892091501504183,0.004056890495121479,-0.008354995399713516
0.008839421905577183,-0.010749032720923424,-0.006719655357301235,0.0027755287010222673,0.003948800265789032,-0.00852597039192915
0.009127989411354065,-0.01091595645993948,-0.0065502263605594635,0.0022833251859992743,0.003722847206518054,-0.008707608096301556
0.009375360794365406,-0.011018156073987484,-0.006150929257273674,0.0021267130505293608,0.003495593788102269,-0.008707498200237751
0.009075099602341652,-0.010479305870831013,-0.005752538330852985,0.002214272040873766,0.0034134488087147474,-0.0089025367051363
0.00898186769336462,-0.010723824612796307,-0.006571561563760042,0.002607626374810934,0.003617927199229598,-0.0085605438798666
0.009575873613357544,-0.010631891898810863,-0.006751685868948698,0.002550113946199417,0.003928979858756065,-0.00839756429195404
0.00954580307006836,-0.010241341777145863,-0.006502537988126278,0.0022150599397718906,0.004026526119560003,-0.008429165929555893
0.00914638303220272,-0.010305652394890785,-0.0064445179887115955,0.0018728009890764952,0.003943443764001131,-0.008709197863936424
0.009980270639061928,-0.010638642124831676,-0.00576030695810914,0.001661638612858951,0.003898866940289736,-0.0085276635363698
0.009751403704285622,-0.010066223330795765,-0.006241315044462681,0.0012359062675386667,0.0038901218213140965,-0.008538070134818554
0.009126081131398678,-0.01020236499607563,-0.006942616775631905,0.00123047293163836,0.004153586458414793,-0.008762598969042301
0.009327931329607964,-0.009432959370315075,-0.006461653858423233,0.0012161161284893751,0.003931404557079077,-0.008536743000149727
0.009899572469294071,-0.009436562657356262,-0.005616597831249237,0.0011834062170237303,0.003473934018984437,-0.008751051500439644
0.009899572469294071,-0.009436562657356262,-0.005616597831249237,0.0011834062170237303,0.003473934018984437,-0.008751051500439644
0.009464830160140991,-0.009625199250876904,-0.0057571930810809135,0.0011590636568143964,0.0034434637054800987,-0.008873810060322285
0.009919487871229649,-0.009205026552081108,-0.0064157284796237946,0.0010911060962826014,0.0034853178076446056,-0.008650231175124645
0.009240600280463696,-0.009565462358295918,-0.00571619626134634,0.0011269832029938698,0.003553191665560007,-0.008456273004412651
0.010820693336427212,-0.00887579470872879,-0.005416705273091793,0.0010100641520693898,0.003724550362676382,-0.009382804855704308
0.010277512483298779,-0.008844347670674324,-0.006008605472743511,0.0009774211794137955,0.003452457720413804,-0.009116359055042267
0.009578315541148186,-0.008661803789436817,-0.006882005371153355,0.0008603722671978176,0.0038287905044853687,-0.009541735984385014
0.00981112476438284,-0.008483768440783024,-0.006461196579039097,0.0008095728699117899,0.004197503440082073,-0.009122953750193119
0.009736426174640656,-0.00825402420014143,-0.006056320387870073,0.0007717596599832177,0.003602012526243925,-0.00897171813994646
0.009763863869011402,-0.008123639039695263,-0.005836539436131716,0.0006576174637302756,0.003524216590449214,-0.008838295936584473
0.010245464742183685,-0.008265277370810509,-0.005850889254361391,0.0005734915612265468,0.0032225900795310736,-0.00932934321463108
0.010021674446761608,-0.007733003236353397,-0.006332904566079378,0.0005085333250463009,0.003493628930300474,-0.008976263925433159
0.009984651580452919,-0.00701878871768713,-0.006242560688406229,0.0004568181175272912,0.004186203703284264,-0.009428292512893677
0.01032248418778181,-0.006762195844203234,-0.005916339345276356,0.0004146653809584677,0.004547897260636091,-0.009166796691715717
0.009901332668960094,-0.00678989477455616,-0.005768771283328533,0.00037964279181323946,0.004192741587758064,-0.009839996695518494
0.00996229238808155,-0.006696265656501055,-0.005777137819677591,0.00035008101258426905,0.0038852246943861246,-0.010001852177083492
0.010640940628945827,-0.006669608876109123,-0.006347006652504206,0.0003247928398195654,0.003730412805452943,-0.008794059976935387
0.010111162438988686,-0.006780094467103481,-0.006216672249138355,0.0003029167710337788,0.003770845476537943,-0.010443794541060925
0.010449426248669624,-0.006685120053589344,-0.006195934023708105,0.00028380172443576157,0.004092605784535408,-0.010125553235411644
0.010442781262099743,-0.0061607807874679565,-0.00628632353618741,0.0002669562236405909,0.004253934137523174,-0.009286245331168175
0.010267016477882862,-0.005885805003345013,-0.00548634072765708,0.000252001074841246,0.0041084494441747665,-0.00935766939073801
0.01059646811336279,-0.005245133303105831,-0.006125251296907663,0.00023863313253968954,0.003929908853024244,-0.009615522809326649
0.01051411498337984,-0.005783888977020979,-0.006246951408684254,0.00022661189723294228,0.0041180988773703575,-0.010044521652162075
0.010359873063862324,-0.005416815169155598,-0.006163100246340036,0.0002157440030714497,0.00408798735588789,-0.009271247312426567
0.010150953195989132,-0.0059031411074101925,-0.006217195186764002,0.0002058711543213576,0.0038327365182340145,-0.009455107152462006
0.010150953195989132,-0.0059031411074101925,-0.006217195186764002,0.0002058711543213576,0.0038327365182340145,-0.009455107152462006
0.010510916821658611,-0.005284114275127649,-0.005499459803104401,0.00019686276209540665,0.003676074557006359,-0.009693216532468796
0.009842286817729473,-0.004987473599612713,-0.0059073553420603275,0.00018860973068512976,0.004102764651179314,-0.00966882985085249
0.01065168995410204,-0.005148725118488073,-0.005973493680357933,0.00014728039968758821,0.004172563552856445,-0.009639585390686989
0.009937282651662827,-0.005619910545647144,-0.0063118645921349525,0.0001340425806120038,0.0043000527657568455,-0.010179304517805576
0.010288831777870655,-0.005188526585698128,-0.005534656345844269,0.00010120389197254553,0.004533030092716217,-0.010056883096694946
0.010085539892315865,-0.004533137194812298,-0.006002903450280428,9.385319572174922e-05,0.004428241401910782,-0.009789088740944862
0.009905732236802578,-0.004355291370302439,-0.006005530711263418,-6.434007082134485e-05,0.004093450494110584,-0.009550497867166996
0.010542522184550762,-0.0044939410872757435,-0.006229071877896786,-0.00010328915232094005,0.0038400173652917147,-0.010070363990962505
0.010083899833261967,-0.004231907892972231,-0.006347929127514362,-0.00013451538688968867,0.0037341280840337276,-0.0099458834156394
0.010313181206583977,-0.004436803981661797,-0.005617720074951649,-0.0006382048595696688,0.0038016149774193764,-0.009989907033741474
0.010249079205095768,-0.0037437027785927057,-0.0058687180280685425,-0.001387732452712953,0.0038612065836787224,-0.009900381788611412
0.010103619657456875,-0.0035031186416745186,-0.005911638960242271,-0.002570089651271701,0.003807885106652975,-0.010371816344559193
0.01047450676560402,-0.0036735048051923513,-0.006198604125529528,-0.002708921441808343,0.0035621935967355967,-0.01020797435194254
0.009978240355849266,-0.0037850288208574057,-0.006381987128406763,-0.00260283425450325,0.0035972034092992544,-0.01033190917223692
0.009804636240005493,-0.003692959202453494,-0.0056813000701367855,-0.002871013479307294,0.003887230297550559,-0.010187369771301746
0.01043134368956089,-0.003200249280780554,-0.0064809247851371765,-0.0038481373339891434,0.004065948072820902,-0.009797262027859688
0.010663960129022598,-0.0031704953871667385,-0.005990459118038416,-0.0048267352394759655,0.00400442024692893,-0.010577067732810974
0.010514144785702229,-0.003326802747324109,-0.005758996121585369,-0.005083037074655294,0.004354621283710003,-0.010266105644404888
0.011149494908750057,-0.003180369269102812,-0.005780670791864395,-0.005779746919870377,0.004460748750716448,-0.009653668850660324
0.0113651342689991,-0.0030180527828633785,-0.005778669845312834,-0.00615764269605279,0.004317359533160925,-0.010085455141961575
0.010283764451742172,-0.0027586775831878185,-0.0061371903866529465,-0.0068098087795078754,0.004493488930165768,-0.01000871043652296
0.010589958168566227,-0.0028773238882422447,-0.005495714023709297,-0.006856455467641354,0.004172809422016144,-0.009663940407335758
0.010430189780890942,-0.0026643848977983,-0.005824421998113394,-0.008675869554281235,0.004017115104943514,-0.010146287269890308
0.010439740493893623,-0.0025351769290864468,-0.005962071940302849,-0.008799226954579353,0.003926296718418598,-0.010075622238218784
0.010873574763536453,-0.002651088871061802,-0.0062179649248719215,-0.009009609930217266,0.004000518005341291,-0.0098571190610528
0.010092992335557938,-0.0024033894296735525,-0.006383329164236784,-0.008881471119821072,0.004490851890295744,-0.01012213621288538
0.010092992335557938,-0.0024033894296735525,-0.006383329164236784,-0.008881471119821072,0.004490851890295744,-0.01012213621288538
0.01061997003853321,-0.002291407436132431,-0.006008132826536894,-0.008822035044431686,0.00479904655367136,-0.010482115671038628
0.010573030449450016,-0.0021392859052866697,-0.006000629160553217,-0.009149373508989811,0.0046657295897603035,-0.010562599636614323
0.010939698666334152,-0.002158781513571739,-0.005643378011882305,-0.008860851638019085,0.004656635224819183,-0.010248529724776745
0.010587644763290882,-0.002494955435395241,-0.005953037645667791,-0.008793111890554428,0.004171726759523153,-0.010547838173806667
0.0106969540938735,-0.0023713004775345325,-0.006264214403927326,-0.009982201270759106,0.003813672810792923,-0.00988701917231083
0.010838847607374191,-0.0022094794549047947,-0.005951861850917339,-0.010456521064043045,0.004237453918904066,-0.009988740086555481
0.009485559538006783,-0.002141276840120554,-0.005682408809661865,-0.009235876612365246,0.004511763341724873,-0.009902269579470158
0.012327486649155617,-0.0024125687777996063,-0.006075590383261442,-0.010233443230390549,0.004345830529928207,-0.010312962345778942
0.01137834507972002,-0.0021263412199914455,-0.007005179766565561,-0.010355308651924133,0.004588615149259567,-0.010362807661294937
0.010897764004766941,-0.002022179774940014,-0.006335481535643339,-0.010473608039319515,0.004589233547449112,-0.010454628616571426
0.011014822870492935,-0.0017669320804998279,-0.005657472647726536,-0.010898943990468979,0.004115609917789698,-0.010666652582585812
0.011031711474061012,-0.0015799913089722395,-0.005363638512790203,-0.011190473102033138,0.004296122584491968,-0.01088893972337246
0.011440051719546318,-0.0014399505453184247,-0.005921972915530205,-0.012566300109028816,0.004638882353901863,-0.011182364076375961
0.013244107365608215,-0.0016823492478579283,-0.006377087440341711,-0.011548778973519802,0.004582343623042107,-0.011411517858505249
0.013332688249647617,-0.001772143179550767,-0.005936525762081146,-0.011439978145062923,0.0044611189514398575,-0.01055220328271389
0.013649306260049343,-0.0018479343270882964,-0.005631257314234972,-0.012300928123295307,0.004814468324184418,-0.010252607055008411
0.013355405069887638,-0.0016173095209524035,-0.005579473450779915,-0.01281485240906477,0.004472068976610899,-0.010686881840229034
0.013750357553362846,-0.0014448387082666159,-0.005497746169567108,-0.012831664644181728,0.0040099783800542355,-0.010993551462888718
0.013474266976118088,-0.0011811814038082957,-0.005866775289177895,-0.012078485451638699,0.004076027311384678,-0.010925553739070892
0.013762527145445347,-0.0011302141938358545,-0.006163005717098713,-0.011668204329907894,0.004240583628416061,-0.011259153485298157
0.013947279192507267,-0.0008842152892611921,-0.005971231032162905,-0.011328080669045448,0.004499451257288456,-0.011058821342885494
0.014208494685590267,-0.0008218843140639365,-0.0059857615269720554,-0.01117943786084652,0.004918071441352367,-0.010563584975898266
0.013697130605578423,-0.0009230328723788261,-0.0050674243830144405,-0.011127561330795288,0.004953733645379543,-0.010647461749613285
0.013982857577502728,-0.0012830758932977915,-0.006503894925117493,-0.011120819486677647,0.00485267024487257,-0.010845351964235306
0.013810207135975361,-0.0012503110338002443,-0.006576033309102058,-0.011659305542707443,0.0049232859164476395,-0.011220617219805717
0.013810207135975361,-0.0012503110338002443,-0.006576033309102058,-0.011659305542707443,0.0049232859164476395,-0.011220617219805717
0.014265201054513454,-0.0011846149573102593,-0.005977120716124773,-0.012175552546977997,0.0053170230239629745,-0.01103680394589901
0.014264816418290138,-0.001123567228205502,-0.0059667606838047504,-0.011390435509383678,0.005195498466491699,-0.011448218487203121
0.014392657205462456,-0.0009849303169175982,-0.005922498181462288,-0.012089255265891552,0.005634613335132599,-0.011825024150311947
0.014281611889600754,-0.0008664967608638108,-0.00630179513245821,-0.012249290011823177,0.005273538175970316,-0.011608768254518509
0.01424312125891447,-0.0007737049018032849,-0.00624062167480588,-0.012834298424422741,0.004805948585271835,-0.011853378266096115
0.014156320132315159,-0.0006354820216074586,-0.006069885566830635,-0.012923969887197018,0.004373843315988779,-0.011493590660393238
0.01407538540661335,-0.0006634346791543067,-0.006150229834020138,-0.01378137618303299,0.0047400291077792645,-0.011550655588507652
0.014026027172803879,-0.000603534746915102,-0.0065407296642661095,-0.013832900673151016,0.00483119348064065,-0.011346941813826561
0.014077185653150082,-0.0006199483759701252,-0.006235610693693161,-0.013754472136497498,0.005008303094655275,-0.01241996232420206
0.014433481730520725,-0.0005787269910797477,-0.005299058277159929,-0.013728423044085503,0.004864820744842291,-0.011335426941514015
0.014207415282726288,-0.000535768864210695,-0.0059243799187242985,-0.014164390973746777,0.004808398894965649,-0.01078562717884779
0.01435799803584814,-0.0004986554267816246,-0.006049262825399637,-0.014198284596204758,0.004702369216829538,-0.011268777772784233
0.014270997606217861,-0.0004663493309635669,-0.0066269636154174805,-0.014793126843869686,0.004925827961415052,-0.011742268688976765
0.014436318539083004,-0.0004379771708045155,-0.006320972461253405,-0.013938719406723976,0.004917517304420471,-0.012002791278064251
0.014756760559976101,-0.0004128587315790355,-0.006014996208250523,-0.014271154068410397,0.004936589859426022,-0.01152510941028595
0.014738628640770912,-0.0003904655168298632,-0.005862521007657051,-0.014451805502176285,0.00508905528113246,-0.011785025708377361
0.014430973678827286,-0.00037037773290649056,-0.005930002313107252,-0.015596151351928711,0.005329709034413099,-0.012274973094463348
0.014681193046271801,-0.00035225492320023477,-0.006594957783818245,-0.015850448980927467,0.005058676935732365,-0.012345227412879467
0.014941232278943062,-0.0003358234534971416,-0.006386275868862867,-0.015914129093289375,0.005151053424924612,-0.012716943398118019
0.014863651245832443,-0.00028238524100743234,-0.006221995688974857,-0.01574089750647545,0.005027566105127335,-0.0123972799628973
0.014781396836042404,-0.00026879386859945953,-0.0056365919299423695,-0.01560352835804224,0.005474353674799204,-0.01231038011610508
0.014704336412250996,-0.0002577740524429828,-0.006366461981087923,-0.016139188781380653,0.005195690784603357,-0.012559449300169945
0.014928159303963184,-0.00024764041882008314,-0.0062413024716079235,-0.016419298946857452,0.005211643874645233,-0.012754957191646099
0.015407186932861805,-0.00023921579122543335,-0.005894914735108614,-0.01746348850429058,0.005026457831263542,-0.012745972722768784
0.014841440133750439,-8.822858944768086e-05,-0.00605006655678153,-0.01736733689904213,0.005403005983680487,-0.012689275667071342
0.015076481737196445,-4.2852290789596736e-05,-0.00566129619255662,-0.01788993366062641,0.004798342008143663,-0.012710947543382645
0.014957536943256855,-3.936975190299563e-05,-0.006766422186046839,-0.01812204346060753,0.004693564027547836,-0.012558335438370705
0.014976602047681808,-7.093724707374349e-05,-0.007059526164084673,-0.017337968572974205,0.0047631654888391495,-0.012848440557718277
0.014976602047681808,-7.093724707374349e-05,-0.007059526164084673,-0.017337968572974205,0.0047631654888391495,-0.012848440557718277
0.015205295756459236,-7.230584742501378e-05,-0.005907733924686909,-0.01783926412463188,0.005065588746219873,-0.012837027199566364
0.01567966118454933,-4.673813600675203e-05,-0.005887093488126993,-0.018216853961348534,0.005455974489450455,-0.01294354535639286
0.015220949426293373,-3.365033626323566e-05,-0.006474113557487726,-0.017142094671726227,0.005302323028445244,-0.01275908388197422
0.015715813264250755,-1.261631496163318e-06,-0.0063040656968951225,-0.019764689728617668,0.005293259397149086,-0.013187188655138016
0.015552584081888199,-1.6926396284588918e-08,-0.005819463636726141,-0.018768996000289917,0.005307288374751806,-0.01287276204675436
0.015180005691945553,-2.2708920854874748e-10,-0.005781979765743017,-0.01879383623600006,0.005419410765171051,-0.012769907712936401
0.015267965383827686,-3.0466918050919833e-12,-0.006512559484690428,-0.019105758517980576,0.005633963271975517,-0.012858550064265728
0.015596265904605389,-4.0875258771255404e-14,-0.007235297467559576,-0.01901274174451828,0.006022307556122541,-0.012865472584962845
0.01567152887582779,-5.483937998870228e-16,-0.006676778197288513,-0.0198151096701622,0.006099896039813757,-0.012774166651070118
0.01588483154773712,-7.35740179892537e-18,-0.0064582847990095615,-0.01969091407954693,0.00610671192407608,-0.012882201932370663
0.01579117216169834,-9.870894237376744e-20,-0.00585174048319459,-0.019780920818448067,0.0056827859953045845,-0.013119110837578773
0.016040198504924774,-1.3243065681487898e-21,-0.006480813026428223,-0.020474927499890327,0.005654818844050169,-0.013318238779902458
0.015471234917640686,-1.776726331052499e-23,-0.007139983121305704,-0.02094258926808834,0.005425554234534502,-0.013323857448995113
0.016457196325063705,-2.3837049416108575e-25,-0.006738242693245411,-0.02137908898293972,0.005246310960501432,-0.013254179619252682
0.01613081805408001,-3.198044806067904e-27,-0.006060297600924969,-0.020949587225914,0.005131096113473177,-0.013180731795728207
0.01651928201317787,0.0005547155160456896,-0.006245014723390341,-0.0215434767305851,0.005622008815407753,-0.01275230199098587
0.01675243489444256,0.0007146408897824585,-0.006877069361507893,-0.022167054936289787,0.005414108745753765,-0.013442551717162132
0.016526030376553535,0.0006670212605968118,-0.006710250861942768,-0.022045442834496498,0.00537473987787962,-0.013046967796981335
0.0168234221637249,0.0005941331037320197,-0.006138309836387634,-0.021446645259857178,0.00528670521453023,-0.013120925053954124
0.016276812180876732,0.0005352188018150628,-0.00609017675742507,-0.021674176678061485,0.005240866914391518,-0.01283214334398508
0.01630081981420517,0.00048693534336052835,-0.005854345392435789,-0.02181592956185341,0.005762119311839342,-0.012735018506646156
0.016306204721331596,0.0005179552244953811,-0.006499915383756161,-0.022411983460187912,0.005921222735196352,-0.012899041175842285
0.016628852114081383,0.0005416936473920941,-0.006438382901251316,-0.022553764283657074,0.006051675882190466,-0.012979181483387947
0.017206605523824692,0.0005135479150339961,-0.006068404298275709,-0.022434242069721222,0.005945261102169752,-0.013366024009883404
0.017206605523824692,0.0005135479150339961,-0.006068404298275709,-0.022434242069721222,0.005945261102169752,-0.013366024009883404
0.017070280387997627,0.0005835248157382011,-0.006267381366342306,-0.022599155083298683,0.0056078252382576466,-0.013447584584355354
0.017070280387997627,0.0005835248157382011,-0.006267381366342306,-0.022599155083298683,0.0056078252382576466,-0.013447584584355354
0.01704818196594715,0.0006116986041888595,-0.006140655372291803,-0.022971261292696,0.005252792499959469,-0.013291641138494015
0.017262879759073257,0.0005900676478631794,-0.006239637266844511,-0.02338433265686035,0.005791752599179745,-0.013583492487668991
0.017216915264725685,0.00101380399428308,-0.006547676399350166,-0.023762475699186325,0.005844058468937874,-0.013568089343607426
0.017405478283762932,0.00099999422673136,-0.006169127766042948,-0.023711513727903366,0.0057118600234389305,-0.01371000800281763
0.017470084130764008,0.0008629529620520771,-0.006628288887441158,-0.023341866210103035,0.005752247758209705,-0.013625743798911572
0.017522787675261497,0.0008014831691980362,-0.006289992481470108,-0.023059949278831482,0.005510260351002216,-0.013102077879011631
0.01754596270620823,0.0007502143271267414,-0.0064131347462534904,-0.02336508221924305,0.005903337150812149,-0.013074485585093498
0.0171146672219038,0.0007749022915959358,-0.006291616708040237,-0.023233672603964806,0.005475518759340048,-0.013218885287642479
0.017829446122050285,0.0008898123633116484,-0.005997159518301487,-0.02393079735338688,0.00542732048779726,-0.013320250436663628
0.017724664881825447,0.0013460407499223948,-0.0063948119059205055,-0.02432459592819214,0.0056474171578884125,-0.013487270101904869
0.017980540171265602,0.0013459607725962996,-0.0063673281110823154,-0.02412313222885132,0.005547652952373028,-0.01373233087360859
0.018147706985473633,0.0013141887029632926,-0.006112273316830397,-0.02454048953950405,0.005764972884207964,-0.014033369719982147
0.017858918756246567,0.0016645583091303706,-0.006344822235405445,-0.023956159129738808,0.0061113894917070866,-0.014294024556875229
0.018402012065052986,0.0029958283994346857,-0.0065572974272072315,-0.02328498847782612,0.005683707073330879,-0.014221475459635258
0.018314022570848465,0.005181854125112295,-0.006058335304260254,-0.025144850835204124,0.00584044586867094,-0.014121475629508495
0.017996948212385178,0.005954430904239416,-0.0061970665119588375,-0.02652653120458126,0.005962147377431393,-0.014350997284054756
0.018919210880994797,0.005124252755194902,-0.006113964598625898,-0.02601279318332672,0.006287900730967522,-0.014392196200788021
0.01853446662425995,0.004542712587863207,-0.006084232125431299,-0.02616216242313385,0.0062095969915390015,-0.014389736577868462
0.01842227764427662,0.004685841500759125,-0.006529154255986214,-0.027114538475871086,0.0058507295325398445,-0.0144805321469903
0.01881350949406624,0.004841228481382132,-0.005748811177909374,-0.027049129828810692,0.006001506932079792,-0.014628514647483826
0.018546316772699356,0.005175240337848663,-0.005913055967539549,-0.025871621444821358,0.005851818714290857,-0.014640687964856625
0.018979312852025032,0.005542449653148651,-0.006321502383798361,-0.025648726150393486,0.0060516465455293655,-0.014455684460699558
0.019194968044757843,0.005510426592081785,-0.0060929651372134686,-0.026510659605264664,0.006020034663379192,-0.014427468180656433
0.019178373739123344,0.005666501820087433,-0.006255723536014557,-0.027182577177882195,0.005969860590994358,-0.01434108056128025
0.019083533436059952,0.0056362152099609375,-0.006151949055492878,-0.026974644511938095,0.0061166780069470406,-0.014358612708747387
0.019100908190011978,0.005539787467569113,-0.00544486241415143,-0.02667682059109211,0.005869949236512184,-0.014578649774193764
0.019100908190011978,0.005539787467569113,-0.00544486241415143,-0.02667682059109211,0.005869949236512184,-0.014578649774193764
0.019016340374946594,0.005205925088375807,-0.0059499372728168964,-0.02707342617213726,0.005731781013309956,-0.01473655179142952
0.01924852840602398,0.00539180263876915,-0.005577385425567627,-0.027341781184077263,0.005463925190269947,-0.014526759274303913
0.019106680527329445,0.005806085653603077,-0.006374048534780741,-0.02729892171919346,0.005667314864695072,-0.01421215757727623
0.019559074193239212,0.006184251978993416,-0.0057378471828997135,-0.026943353936076164,0.006111859809607267,-0.014584347605705261
0.02052711509168148,0.006256324704736471,-0.005903090350329876,-0.027980396524071693,0.006173336412757635,-0.014840969815850258
0.019599145278334618,0.0064086876809597015,-0.005852207541465759,-0.02928229607641697,0.0057641915045678616,-0.014970430172979832
0.01954503171145916,0.006791852414608002,-0.006114447023719549,-0.02925289236009121,0.005747352726757526,-0.014490224421024323
0.019569924101233482,0.0069986688904464245,-0.005723693408071995,-0.028522251173853874,0.005387184210121632,-0.01467490941286087
0.01873864233493805,0.0072177411057055,-0.005574511829763651,-0.027814866974949837,0.005930440034717321,-0.01476997695863247
0.02063874900341034,0.007001515477895737,-0.005262099206447601,-0.028743036091327667,0.006577873602509499,-0.015300585888326168
0.02041570283472538,0.007338687777519226,-0.006021987646818161,-0.029719460755586624,0.006099645514041185,-0.015109768137335777
0.019765574485063553,0.007488144561648369,-0.0061162253841757774,-0.02919452078640461,0.005811101756989956,-0.014909213408827782
0.01929420605301857,0.007513682823628187,-0.006270908284932375,-0.029678700491786003,0.0062957522459328175,-0.014981202781200409
0.02023913897573948,0.007752442266792059,-0.006197921000421047,-0.031050894409418106,0.006218843627721071,-0.01541913952678442
0.01984737627208233,0.007779736537486315,-0.005521094426512718,-0.030624356120824814,0.0063999067060649395,-0.015036724507808685
0.020047729834914207,0.008206812664866447,-0.0060529811307787895,-0.028713712468743324,0.006425580009818077,-0.015162142924964428
0.020567692816257477,0.007924268022179604,-0.0062234182842075825,-0.0291947852820158,0.006343756802380085,-0.015135280787944794
0.02054152451455593,0.007678263355046511,-0.006422071252018213,-0.03074168600142002,0.0063209570944309235,-0.015498118475079536
0.019493458792567253,0.008482701145112514,-0.00595160573720932,-0.03031318448483944,0.006707423832267523,-0.015498647466301918
0.01962873712182045,0.008602876216173172,-0.005663649179041386,-0.029871784150600433,0.006792291067540646,-0.015577783808112144
0.02024681307375431,0.008400295861065388,-0.006136761978268623,-0.030275452882051468,0.0063780234195292,-0.015551985241472721
0.02024681307375431,0.008400295861065388,-0.006136761978268623,-0.030275452882051468,0.0063780234195292,-0.015551985241472721
0.020319638773798943,0.009111529216170311,-0.006487562321126461,-0.029077058658003807,0.006170958746224642,-0.015965038910508156
0.020309962332248688,0.008510340936481953,-0.005860608536750078,-0.03025830164551735,0.005859535653144121,-0.015588843263685703
0.02034623548388481,0.008823669515550137,-0.005214984528720379,-0.03052252158522606,0.0057878210209310055,-0.015382906422019005
0.02034623548388481,0.008823669515550137,-0.005214984528720379,-0.03052252158522606,0.0057878210209310055,-0.015382906422019005
0.020250353962183,0.009535891003906727,-0.005641367752104998,-0.030811365693807602,0.005567420739680529,-0.014945444650948048
0.020146111026406288,0.009439202025532722,-0.006479091010987759,-0.03075188212096691,0.006033006124198437,-0.014935019426047802
0.020705070346593857,0.009113899432122707,-0.006115976721048355,-0.03126896172761917,0.00591345364227891,-0.014263167046010494
0.020741205662488937,0.010296107269823551,-0.0060106622986495495,-0.031210072338581085,0.0060745966620743275,-0.015151063911616802
0.02044294774532318,0.00993670430034399,-0.005406179465353489,-0.03192534297704697,0.006109822075814009,-0.015580028295516968
0.020902473479509354,0.009605291299521923,-0.0059308637864887714,-0.03301618993282318,0.005882947705686092,-0.01618405617773533
0.020878978073596954,0.010829058475792408,-0.006460602395236492,-0.03274453431367874,0.006294142454862595,-0.015592748299241066
0.02074872888624668,0.010139345191419125,-0.005714533384889364,-0.03263162076473236,0.006395181640982628,-0.015490373596549034
0.021502168849110603,0.010294031351804733,-0.005535664036870003,-0.032364387065172195,0.006515728309750557,-0.01570643112063408
0.021630125120282173,0.010462156496942043,-0.006040692329406738,-0.03258199617266655,0.0065448894165456295,-0.016123032197356224
0.02091020718216896,0.010093321092426777,-0.00658402917906642,-0.03276422247290611,0.006142340134829283,-0.016371596604585648
0.021028710529208183,0.010885737836360931,-0.006317970808595419,-0.03304101526737213,0.006400102283805609,-0.016285991296172142
0.021422263234853745,0.010820489376783371,-0.005910153966397047,-0.03348793461918831,0.006625710055232048,-0.015253482386469841
0.021238280460238457,0.01107252947986126,-0.0058722482062876225,-0.03331517055630684,0.0067098368890583515,-0.015287425369024277
0.020901117473840714,0.011311301030218601,-0.005932464264333248,-0.03331570699810982,0.0066236210986971855,-0.015232695266604424
0.02119617350399494,0.011084521189332008,-0.006647784728556871,-0.03395325317978859,0.00663337018340826,-0.015862364321947098
0.021034281700849533,0.011048628948628902,-0.006752261891961098,-0.033969223499298096,0.006448997650295496,-0.015882069244980812
0.021189946681261063,0.011099502444267273,-0.0061781215481460094,-0.03424398973584175,0.006680641323328018,-0.015948006883263588
0.020977312698960304,0.011556305922567844,-0.005693558603525162,-0.034591756761074066,0.006913213524967432,-0.01647137477993965
0.021297020837664604,0.011771362274885178,-0.0056453850120306015,-0.03483173996210098,0.0069943927228450775,-0.015628356486558914
0.021650293841958046,0.011552533134818077,-0.006177921313792467,-0.035524193197488785,0.007176374085247517,-0.015810687094926834
0.021600080654025078,0.012035890482366085,-0.006242710165679455,-0.03597752004861832,0.006698718294501305,-0.01600710302591324
0.02118385024368763,0.011670886538922787,-0.005509661044925451,-0.036218129098415375,0.0064706578850746155,-0.016294419765472412
0.021225254982709885,0.011813133023679256,-0.005801744759082794,-0.03615634888410568,0.006584259681403637,-0.016059400513768196
0.021642467007040977,0.011967889964580536,-0.005453149322420359,-0.03573523461818695,0.006642898079007864,-0.015845341607928276
0.021642467007040977,0.011967889964580536,-0.005453149322420359,-0.03573523461818695,0.006642898079007864,-0.015845341607928276
0.021493878215551376,0.012636709026992321,-0.006218392867594957,-0.03754901885986328,0.006727060303092003,-0.01650509238243103
0.021493878215551376,0.012636709026992321,-0.006218392867594957,-0.03754901885986328,0.006727060303092003,-0.01650509238243103
0.021435266360640526,0.011314217001199722,-0.005882526747882366,-0.03571861982345581,0.006809307727962732,-0.016434017568826675
0.02067306637763977,0.011293640360236168,-0.005248908884823322,-0.03459756076335907,0.006444677244871855,-0.01618512161076069
0.021747253835201263,0.012083574198186398,-0.0058027952909469604,-0.03662041947245598,0.006932055577635765,-0.016248047351837158
0.02196851186454296,0.01203809306025505,-0.006809404119849205,-0.03676100820302963,0.006973876617848873,-0.016229446977376938
0.021979205310344696,0.012385054491460323,-0.006113242823630571,-0.037229590117931366,0.006801573559641838,-0.016385572031140327
0.02233547903597355,0.012417127378284931,-0.005777910817414522,-0.0362367257475853,0.006659661885350943,-0.01652938686311245
0.022087721154093742,0.012019871734082699,-0.005944066680967808,-0.03653041273355484,0.0067661539651453495,-0.016451111063361168
0.021294206380844116,0.011519691906869411,-0.006517511326819658,-0.03702406957745552,0.007294182665646076,-0.016223197802901268
0.02211899124085903,0.01242309994995594,-0.006242323666810989,-0.03727172315120697,0.0075231208465993404,-0.016587967053055763
0.022647401317954063,0.012270417995750904,-0.0060415142215788364,-0.03717605769634247,0.007407607510685921,-0.016687002032995224
0.02257048524916172,0.012428991496562958,-0.006402181927114725,-0.03558700904250145,0.0066516404040157795,-0.016682321205735207
0.02194492146372795,0.01245321985334158,-0.0061171469278633595,-0.03712824359536171,0.0062340740114450455,-0.016426360234618187
0.02254478447139263,0.013034097850322723,-0.006400607526302338,-0.03764357417821884,0.0064266761764883995,-0.01676078327000141
0.02327730879187584,0.012935827486217022,-0.006522861309349537,-0.0368485264480114,0.007097258232533932,-0.01659526862204075
0.02299356646835804,0.013208549469709396,-0.0062583754770457745,-0.03780734911561012,0.006607439834624529,-0.016469014808535576
0.022437339648604393,0.01381656713783741,-0.006358364596962929,-0.03956806659698486,0.006577067077159882,-0.016503306105732918
0.022811049595475197,0.012941079214215279,-0.006334222387522459,-0.03749146685004234,0.007066790480166674,-0.01641816273331642
0.022679848596453667,0.013128753751516342,-0.006157660391181707,-0.03671683743596077,0.0069891782477498055,-0.016904238611459732
0.02256912551820278,0.012836945243179798,-0.006282916758209467,-0.037912480533123016,0.006681400816887617,-0.016587452962994576
0.022618411108851433,0.013063705526292324,-0.005736216437071562,-0.03776061162352562,0.007089043501764536,-0.016617193818092346
0.02293824590742588,0.013285672292113304,-0.005452149547636509,-0.039304930716753006,0.007390870712697506,-0.01676657423377037
0.023124543949961662,0.014216465875506401,-0.0067891934886574745,-0.03966057673096657,0.007532753050327301,-0.017395010218024254
0.02328779362142086,0.013390635140240192,-0.0066535999067127705,-0.03835546225309372,0.007386982906609774,-0.017412342131137848
0.023188138380646706,0.01379949040710926,-0.005974621511995792,-0.03911767527461052,0.007328013423830271,-0.016887396574020386
0.023524971678853035,0.013745713979005814,-0.005883483216166496,-0.040811434388160706,0.0072219641879200935,-0.01714169792830944
0.022962959483265877,0.014139324426651001,-0.006330801174044609,-0.04067223519086838,0.007829869166016579,-0.017101114615797997
0.02314615063369274,0.013780307024717331,-0.006871827878057957,-0.04094074293971062,0.00793006457388401,-0.01690620556473732
0.02314615063369274,0.013780307024717331,-0.006871827878057957,-0.04094074293971062,0.00793006457388401,-0.01690620556473732
0.023324616253376007,0.013902075588703156,-0.0065969182178378105,-0.04110180586576462,0.007788865827023983,-0.01685546711087227
0.023653021082282066,0.014094246551394463,-0.00570130068808794,-0.0412210188806057,0.007207017857581377,-0.017043257132172585
0.02310301549732685,0.013828662224113941,-0.006001862697303295,-0.04137970507144928,0.007197253871709108,-0.016942694783210754
0.022863581776618958,0.014031294733285904,-0.006494283210486174,-0.041711051017045975,0.007722478825598955,-0.016828300431370735
0.0229885745793581,0.013653714209794998,-0.006885412149131298,-0.042144082486629486,0.0077589331194758415,-0.01661722920835018
0.02349271811544895,0.014345739036798477,-0.006605560891330242,-0.04281819239258766,0.006757440511137247,-0.017222963273525238
0.02365172654390335,0.014557552523911,-0.006018604151904583,-0.04217306524515152,0.007105634547770023,-0.017181318253278732
0.023180795833468437,0.014402507804334164,-0.006356347352266312,-0.04245973378419876,0.007499725557863712,-0.017080063000321388
0.02343427762389183,0.014697287231683731,-0.006823834963142872,-0.043105632066726685,0.007479901425540447,-0.01711929403245449
0.02440217137336731,0.014690618962049484,-0.006811049301177263,-0.0437859445810318,0.007305538281798363,-0.016940508037805557
0.02377030812203884,0.014799576252698898,-0.006139618344604969,-0.04310642555356026,0.0071149249561131,-0.016736425459384918
0.023887932300567627,0.015026604756712914,-0.006203505210578442,-0.043182261288166046,0.007258112076669931,-0.01716550439596176
0.0236990787088871,0.015222183428704739,-0.007114422041922808,-0.04414284601807594,0.007124812342226505,-0.018234042450785637
0.023718057200312614,0.01556859165430069,-0.006866013631224632,-0.04485345631837845,0.00702077429741621,-0.017439329996705055
0.02348371036350727,0.0154485534876585,-0.006239993963390589,-0.04452327638864517,0.007326377555727959,-0.017615003511309624
0.024659819900989532,0.01598997600376606,-0.006118199788033962,-0.04491743817925453,0.00793441105633974,-0.017911378294229507
0.025508560240268707,0.01569446735084057,-0.006779124028980732,-0.04568253830075264,0.0076778242364525795,-0.018168149515986443
0.02502148412168026,0.016291143372654915,-0.006895625963807106,-0.04577668011188507,0.007005378603935242,-0.01802743226289749
0.024444961920380592,0.016068287193775177,-0.006447863299399614,-0.045585423707962036,0.007128053344786167,-0.01746162585914135
0.0236048586666584,0.016772285103797913,-0.0065391939133405685,-0.04502195492386818,0.007483373861759901,-0.0180913545191288
0.024553785100579262,0.01629178784787655,-0.00631271256133914,-0.047603871673345566,0.007767875213176012,-0.018479306250810623
0.025272713974118233,0.016243288293480873,-0.007121242582798004,-0.047280676662921906,0.007462935987859964,-0.018819572404026985
0.024823356419801712,0.01673629693686962,-0.006757316645234823,-0.04462888836860657,0.007322054821997881,-0.0186538677662611
0.02539934776723385,0.016789207234978676,-0.006579084787517786,-0.04579079523682594,0.008154522627592087,-0.01812957227230072
0.025672120973467827,0.017941879108548164,-0.00663409847766161,-0.04632784426212311,0.007933799177408218,-0.018728511407971382
0.026092523708939552,0.01698196306824684,-0.007348351180553436,-0.04803362861275673,0.00808771513402462,-0.018703019246459007
0.026092523708939552,0.01698196306824684,-0.007348351180553436,-0.04803362861275673,0.00808771513402462,-0.018703019246459007
0.025787338614463806,0.016209689900279045,-0.007378873415291309,-0.045369308441877365,0.007699849549680948,-0.01849203370511532
0.025270605459809303,0.016734642907977104,-0.006754914298653603,-0.04419761151075363,0.00792100839316845,-0.018732355907559395
0.025214247405529022,0.016472134739160538,-0.006350773386657238,-0.045751653611660004,0.007736208848655224,-0.018122488632798195
0.025373632088303566,0.01750233769416809,-0.00689198961481452,-0.046250030398368835,0.007430936209857464,-0.01820017583668232
0.026357604190707207,0.0176731925457716,-0.007121677044779062,-0.046078115701675415,0.007697395980358124,-0.017778292298316956
0.026033297181129456,0.017546197399497032,-0.00719864247366786,-0.04558354616165161,0.007911821827292442,-0.01861738972365856
0.026542408391833305,0.017433341592550278,-0.006654985249042511,-0.046130936592817307,0.007392123341560364,-0.01902681589126587
0.026629997417330742,0.018092656508088112,-0.007229332812130451,-0.04617641866207123,0.00732534471899271,-0.01894538663327694
0.026669388636946678,0.017681416124105453,-0.007051147520542145,-0.04892975091934204,0.008087500929832458,-0.018746664747595787
0.026411183178424835,0.018663926050066948,-0.00656623300164938,-0.048868466168642044,0.008322774432599545,-0.018773943185806274
0.026318084448575974,0.018729649484157562,-0.006844494491815567,-0.04709221050143242,0.007947149686515331,-0.01867707632482052
0.027478942647576332,0.018071094527840614,-0.007625602185726166,-0.048971667885780334,0.00755405193194747,-0.018718412145972252
0.027087979018688202,0.018688209354877472,-0.007076723966747522,-0.05068220943212509,0.0075331986881792545,-0.018543267622590065
0.026986368000507355,0.018680041655898094,-0.0064238072372972965,-0.05106750503182411,0.007665495853871107,-0.018486779183149338
0.027192996814846992,0.018208306282758713,-0.006468862760812044,-0.04877468943595886,0.007866126485168934,-0.01881752535700798
0.02710479125380516,0.019034368917346,-0.0068174246698617935,-0.05009465292096138,0.007896816357970238,-0.018883327022194862
0.02747604250907898,0.019306432455778122,-0.007082706782966852,-0.051062650978565216,0.007621848490089178,-0.019120434299111366
0.02750449813902378,0.018795793876051903,-0.006834227126091719,-0.050032880157232285,0.007564105559140444,-0.01933991350233555
0.027984237298369408,0.019729524850845337,-0.007410789839923382,-0.05055828392505646,0.00796579010784626,-0.019142769277095795
0.027718225494027138,0.02006194368004799,-0.006677044089883566,-0.05120551213622093,0.008247125893831253,-0.019289139658212662
0.027779895812273026,0.019614452496170998,-0.007033798843622208,-0.05159255117177963,0.007988263852894306,-0.019413508474826813
0.02794583886861801,0.019571788609027863,-0.006668602582067251,-0.05173216387629509,0.008006898686289787,-0.019923146814107895
0.028144441545009613,0.02010320872068405,-0.006813667714595795,-0.05096828192472458,0.008866067975759506,-0.019563239067792892
0.028144441545009613,0.02010320872068405,-0.006813667714595795,-0.05096828192472458,0.008866067975759506,-0.019563239067792892
0.028418168425559998,0.02007775940001011,-0.007623107172548771,-0.051995325833559036,0.007265753112733364,-0.01923549734055996
0.028399279341101646,0.020196061581373215,-0.006649445742368698,-0.05198604241013527,0.007304620463401079,-0.019423680379986763
0.028399279341101646,0.020196061581373215,-0.006649445742368698,-0.05198604241013527,0.007304620463401079,-0.019423680379986763
0.028888851404190063,0.020183661952614784,-0.006186631042510271,-0.05254090949892998,0.007532732095569372,-0.019814712926745415
0.028882142156362534,0.02034260332584381,-0.006514443084597588,-0.052517250180244446,0.008143889717757702,-0.01965782232582569
0.02937375381588936,0.020806413143873215,-0.00721601489931345,-0.052599500864744186,0.007806791458278894,-0.019487623125314713
0.029483254998922348,0.021026451140642166,-0.006891964469105005,-0.05248609557747841,0.008083410561084747,-0.01962844654917717
0.029030563309788704,0.020596185699105263,-0.006450831890106201,-0.052688032388687134,0.007776397746056318,-0.01978326588869095
0.029072092846035957,0.021095115691423416,-0.006521401461213827,-0.05262717604637146,0.00746602937579155,-0.01977981999516487
0.029359718784689903,0.021578973159193993,-0.006637961603701115,-0.052648335695266724,0.007548934780061245,-0.02003367990255356
0.0298488587141037,0.021012594923377037,-0.006657864898443222,-0.05231982842087746,0.008622461929917336,-0.01942729391157627
0.027022317051887512,0.02177966944873333,-0.006392845883965492,-0.05346716567873955,0.008482501842081547,-0.01945163868367672
0.029908789321780205,0.02202518656849861,-0.006494332104921341,-0.05154125392436981,0.008181674405932426,-0.019717874005436897
0.03062129020690918,0.021937908604741096,-0.006171528249979019,-0.05199652537703514,0.00816585123538971,-0.019724087789654732
0.029274875298142433,0.02168169617652893,-0.006503578275442123,-0.052483927458524704,0.008126778528094292,-0.02034059911966324
0.030152542516589165,0.022178631275892258,-0.006770292297005653,-0.054915785789489746,0.00864120852202177,-0.020195508375763893
0.03096587583422661,0.022131292149424553,-0.006615506485104561,-0.05284082889556885,0.008643344044685364,-0.02007577382028103
0.030616415664553642,0.022703200578689575,-0.006247957237064838,-0.053486913442611694,0.008503148332238197,-0.020300893113017082
0.02978542074561119,0.02243436500430107,-0.006502972450107336,-0.05532333254814148,0.00864549819380045,-0.02069331705570221
0.029825085774064064,0.022382821887731552,-0.006923528388142586,-0.055967580527067184,0.008188541978597641,-0.020723704248666763
0.03113306313753128,0.022549057379364967,-0.006641719024628401,-0.05585573986172676,0.008249755948781967,-0.019757384434342384
0.031046051532030106,0.023017501458525658,-0.006177886854857206,-0.055859580636024475,0.008793994784355164,-0.019637130200862885
0.03100336156785488,0.023099398240447044,-0.006424963008612394,-0.055521510541439056,0.008885965682566166,-0.019759122282266617
0.030648840591311455,0.022665612399578094,-0.007001715246587992,-0.055198948830366135,0.008700571022927761,-0.01990087889134884
0.030612148344516754,0.022872984409332275,-0.0064736721105873585,-0.05713532865047455,0.008767877705395222,-0.020240560173988342
0.030836397781968117,0.02362682856619358,-0.0062239146791398525,-0.05658175051212311,0.008578644134104252,-0.02043781243264675
0.030761312693357468,0.02380302920937538,-0.006346005015075207,-0.05497519671916962,0.008655577898025513,-0.020151203498244286
0.030837951228022575,0.023653894662857056,-0.006909816060215235,-0.056139834225177765,0.00853536557406187,-0.02127380110323429
0.03076460398733616,0.023543616756796837,-0.007067536469548941,-0.0583101324737072,0.008451929315924644,-0.01986733078956604
0.030834386125206947,0.023734766989946365,-0.007079197093844414,-0.05831250175833702,0.008631343021988869,-0.019489893689751625
0.030834386125206947,0.023734766989946365,-0.007079197093844414,-0.05831250175833702,0.008631343021988869,-0.019489893689751625
0.030286312103271484,0.0239925105124712,-0.00699287373572588,-0.056124988943338394,0.008508218452334404,-0.01977369375526905
0.029975423589348793,0.02428782545030117,-0.006470706779509783,-0.05671439692378044,0.008389538154006004,-0.020197013393044472
0.030575426295399666,0.024585548788309097,-0.007030029781162739,-0.058314885944128036,0.008722932077944279,-0.020534904673695564
0.030603211373090744,0.02410549484193325,-0.006804770790040493,-0.058109182864427567,0.008685323409736156,-0.020372608676552773
0.03063366375863552,0.023952186107635498,-0.006783123128116131,-0.0580061636865139,0.008004455827176571,-0.0206088125705719
0.030057193711400032,0.024168070405721664,-0.006450477056205273,-0.05769674852490425,0.007908828556537628,-0.020809756591916084
0.032367948442697525,0.02458825707435608,-0.006873010192066431,-0.05850706994533539,0.008689009584486485,-0.020621871575713158
0.0313115268945694,0.02341412752866745,-0.006617619190365076,-0.057754743844270706,0.008226023986935616,-0.020594729110598564
0.03030220791697502,0.024246392771601677,-0.0066084484569728374,-0.05770096927881241,0.008445292711257935,-0.02068392187356949
0.030752012506127357,0.024703174829483032,-0.006673830561339855,-0.057608529925346375,0.008468464948236942,-0.020446915179491043
0.03183687478303909,0.024828966706991196,-0.007391698192805052,-0.059011392295360565,0.008259226568043232,-0.020922858268022537
0.03093692660331726,0.024301430210471153,-0.0066207884810864925,-0.05662284046411514,0.007925955578684807,-0.02093653194606304
0.03130216896533966,0.024788422510027885,-0.006262660026550293,-0.05684655159711838,0.008565126918256283,-0.020774146541953087
0.031886033713817596,0.025857727974653244,-0.006896558217704296,-0.05710509419441223,0.009043116122484207,-0.021558647975325584
0.03207588568329811,0.02565108612179756,-0.007057689130306244,-0.05823061242699623,0.00859556719660759,-0.021205443888902664
0.03135755658149719,0.025338593870401382,-0.006668266840279102,-0.057226888835430145,0.008611952885985374,-0.021190902218222618
0.03149911016225815,0.024187546223402023,-0.006404660642147064,-0.06030796468257904,0.008963661268353462,-0.021186137571930885
0.032195210456848145,0.024781934916973114,-0.006384628359228373,-0.0596865750849247,0.008936180733144283,-0.02139747329056263
0.03210858628153801,0.025477604940533638,-0.006575760431587696,-0.05898245424032211,0.009164920076727867,-0.021150650456547737
0.03204204514622688,0.025267452001571655,-0.007431617472320795,-0.06033266708254814,0.008535278961062431,-0.021024415269494057
0.032117925584316254,0.025190820917487144,-0.006528602447360754,-0.06233767420053482,0.008799483068287373,-0.020872291177511215
0.03203364461660385,0.025744332000613213,-0.0063682128675282,-0.06055387109518051,0.009094694629311562,-0.021198054775595665
0.03165169432759285,0.02615894004702568,-0.006380707956850529,-0.061287008225917816,0.008965929038822651,-0.023313026875257492
0.03191317245364189,0.026161473244428635,-0.007254239171743393,-0.06181494891643524,0.009175115264952183,-0.021697038784623146
0.032071225345134735,0.02612195536494255,-0.006909637711942196,-0.06257029622793198,0.00915318913757801,-0.021079635247588158
0.03250383958220482,0.02634243853390217,-0.006622140295803547,-0.06206727772951126,0.00899741891771555,-0.021369026973843575
0.03238741308450699,0.02615542896091938,-0.0064008175395429134,-0.06194538623094559,0.00856507197022438,-0.0219425018876791
0.03263501077890396,0.02630952000617981,-0.007141195237636566,-0.06213565543293953,0.009496292099356651,-0.021935492753982544
0.03263501077890396,0.02630952000617981,-0.007141195237636566,-0.06213565543293953,0.009496292099356651,-0.021935492753982544
0.032305438071489334,0.0265987366437912,-0.007585558574646711,-0.062006086111068726,0.008674642071127892,-0.02202034555375576
0.03217244893312454,0.02653062902390957,-0.0069056302309036255,-0.06441882997751236,0.008431089110672474,-0.021657442674040794
0.03274526074528694,0.026600221171975136,-0.0071572195738554,-0.06391390413045883,0.009126538410782814,-0.02188509702682495
0.03283005952835083,0.026739755645394325,-0.006540964357554913,-0.06252502650022507,0.009478559717535973,-0.02273618057370186
0.03315281495451927,0.02775394544005394,-0.006829440128058195,-0.06541552394628525,0.008724258281290531,-0.022542599588632584
0.03312080726027489,0.028253192082047462,-0.006711569149047136,-0.06274459511041641,0.009172330610454082,-0.022190731018781662
0.032861609011888504,0.027930401265621185,-0.0066491481848061085,-0.06328362971544266,0.008749148808419704,-0.022297779098153114
0.03274684026837349,0.02701488323509693,-0.007357953116297722,-0.0639616921544075,0.008723297156393528,-0.022679168730974197
0.033145200461149216,0.027578528970479965,-0.007551802787929773,-0.06369775533676147,0.009089567698538303,-0.023531612008810043
0.03315531462430954,0.028532397001981735,-0.006498961243778467,-0.06270461529493332,0.009208050556480885,-0.023094946518540382
0.03294839337468147,0.028316715732216835,-0.006382306106388569,-0.06224505603313446,0.009058445692062378,-0.02265707403421402
0.03343641757965088,0.02843295782804489,-0.007010756526142359,-0.06268664449453354,0.009184901602566242,-0.02209366485476494
0.03352274000644684,0.029584087431430817,-0.0075460635125637054,-0.06263941526412964,0.009414978325366974,-0.021879497915506363
0.033144716173410416,0.029490333050489426,-0.00598122039809823,-0.06295221298933029,0.00902626570314169,-0.022056996822357178
0.03337840735912323,0.029686369001865387,-0.007300744764506817,-0.06321929395198822,0.008889268152415752,-0.02313246577978134
0.034289561212062836,0.028326326981186867,-0.0069429934956133366,-0.06395375728607178,0.009318252094089985,-0.022773616015911102
0.03495821729302406,0.028935294598340988,-0.006872851867228746,-0.06480622291564941,0.009272351861000061,-0.023874767124652863
0.03347967937588692,0.029984191060066223,-0.0065437485463917255,-0.06576146930456161,0.00930201169103384,-0.022705910727381706
0.03306049481034279,0.02996092103421688,-0.00669992808252573,-0.06640562415122986,0.009513824246823788,-0.023412367329001427
0.03437500819563866,0.029755841940641403,-0.006690405309200287,-0.06773220002651215,0.00945061631500721,-0.02338157780468464
0.033991582691669464,0.030162055045366287,-0.007363845128566027,-0.06718547642230988,0.009361748583614826,-0.02287207916378975
0.03480197489261627,0.029915671795606613,-0.006730882450938225,-0.06448303163051605,0.009768382646143436,-0.0222895797342062
0.03532814607024193,0.030059022828936577,-0.00634872168302536,-0.06591284275054932,0.009580859914422035,-0.02274417318403721
0.03412993252277374,0.029948966577649117,-0.006654911208897829,-0.06901808083057404,0.009036296978592873,-0.023148000240325928
0.033711086958646774,0.029881268739700317,-0.006720005068928003,-0.06643464416265488,0.008680189028382301,-0.02346654422581196
0.03442584350705147,0.030098773539066315,-0.007185016758739948,-0.06767386943101883,0.00936533510684967,-0.023308919742703438
0.035425327718257904,0.029834387823939323,-0.006459562107920647,-0.06881322711706161,0.00916343741118908,-0.023143038153648376
0.035425327718257904,0.029834387823939323,-0.006459562107920647,-0.06881322711706161,0.00916343741118908,-0.023143038153648376
0.03395194932818413,0.03040466643869877,-0.006460831966251135,-0.06896315515041351,0.009576814249157906,-0.022954095155000687
0.03587804362177849,0.030346140265464783,-0.006696279626339674,-0.06951229274272919,0.00888283271342516,-0.02356267161667347
0.03565032780170441,0.030204692855477333,-0.0072776624001562595,-0.06920288503170013,0.009142318740487099,-0.023397907614707947
