davideferrari95/blind_handover_controller/data/Test 273 - [2024-02-08 -- 12-55-14]/joint_states_data.csv
shoulder_pan_joint,shoulder_lift_joint,elbow_joint,wrist_1_joint,wrist_2_joint,wrist_3_joint
0.007023285608738661,0.00899917259812355,-0.01214995700865984,0.005997717846184969,0.0,0.009082838892936707
0.007023285608738661,0.00899917259812355,-0.01214995700865984,0.005997717846184969,0.0,0.009082838892936707
0.006606156472116709,0.00802038237452507,-0.012200936675071716,0.005420774687081575,0.0,0.007673603482544422
0.006619581021368504,0.007694221567362547,-0.012609375640749931,0.005092981271445751,0.0,0.007661022245883942
0.006771866697818041,0.008719285018742085,-0.01246263924986124,0.004823407623916864,0.0,0.006987064145505428
0.007255437318235636,0.008177590556442738,-0.012975291348993778,0.004713858477771282,0.0,0.007085297256708145
0.007116937544196844,0.008154498413205147,-0.01238841749727726,0.0046899570152163506,0.0,0.007514600642025471
0.007001026999205351,0.008556688204407692,-0.012677321210503578,0.0044541135430336,0.0,0.007402727380394936
0.007430451922118664,0.008287236094474792,-0.012282106094062328,0.00437981728464365,0.0,0.006988015491515398
0.006825065240263939,0.00818291399627924,-0.012516574002802372,0.00413369620218873,0.0,0.006567738018929958
0.006364833097904921,0.008902598172426224,-0.012151282280683517,0.004391069523990154,0.0,0.006861456669867039
0.006736686918884516,0.008490808308124542,-0.012234459631145,0.004558497574180365,0.0,0.006616042461246252
0.006586176343262196,0.008364761248230934,-0.012364945374429226,0.00460998946800828,0.0,0.006392145995050669
0.007095813751220703,0.008159050717949867,-0.012216643430292606,0.004426961299031973,0.0,0.006111712194979191
0.0068000731989741325,0.008700663223862648,-0.012746919877827168,0.004096600227057934,0.0,0.006533969193696976
0.006663452833890915,0.00872781965881586,-0.01219705305993557,0.0038620142731815577,0.0,0.00700158067047596
0.006663452833890915,0.00872781965881586,-0.01219705305993557,0.0038620142731815577,0.0,0.00700158067047596
0.006605188362300396,0.008021735586225986,-0.012531418353319168,0.004077415447682142,0.0,0.006908690556883812
0.007206683047115803,0.00876352097839117,-0.012171370908617973,0.004043285269290209,0.0,0.006679503712803125
0.007553615141659975,0.009032032452523708,-0.012402383610606194,0.004360998049378395,0.0,0.006694047711789608
0.006672416813671589,0.008423689752817154,-0.012518618255853653,0.004545551724731922,0.0,0.007077132351696491
0.006389185786247253,0.008514538407325745,-0.01181709673255682,0.004387043882161379,0.0,0.00787742342799902
0.006866191979497671,0.008941303007304668,-0.012051803059875965,0.004046561196446419,0.0,0.007277676835656166
0.006829674821346998,0.008487545885145664,-0.011908513493835926,0.004307589028030634,0.0,0.00679774209856987
0.007256251759827137,0.008194060996174812,-0.012774256989359856,0.0042855218052864075,0.0,0.006713357288390398
0.006454174872487783,0.008412938565015793,-0.011783015914261341,0.004064757842570543,0.0,0.006447940599173307
0.006349372211843729,0.008555091917514801,-0.011882331222295761,0.003959746565669775,0.0,0.00638024415820837
0.007207066752016544,0.008573872968554497,-0.012451210990548134,0.003911327105015516,0.0,0.00625000661239028
0.007605006918311119,0.009220635518431664,-0.011846009641885757,0.004062033724039793,0.0,0.007328920066356659
0.00700096320360899,0.008263468742370605,-0.012792476452887058,0.0040473537519574165,0.0,0.006753106135874987
0.006567220203578472,0.008387771435081959,-0.012290249578654766,0.003901838092133403,0.0,0.006206140853464603
0.006877420470118523,0.008020570501685143,-0.01265590637922287,0.0039055778179317713,0.0,0.006610178854316473
0.007037254981696606,0.008716628886759281,-0.012448066845536232,0.004321340471506119,0.0,0.006809619255363941
0.0067513627000153065,0.008367916569113731,-0.01198034267872572,0.0044620283879339695,0.0,0.0069361403584480286
0.006767902057617903,0.00880175456404686,-0.011863311752676964,0.004085964523255825,0.0,0.006956936325877905
0.00657729571685195,0.008418221026659012,-0.012400299310684204,0.0039086672477424145,0.0,0.00644076569005847
0.00622605113312602,0.00828926544636488,-0.012527769431471825,0.0038919872604310513,0.0,0.00658902432769537
0.006679893005639315,0.008749276399612427,-0.012801716104149818,0.003867881838232279,0.0,0.007208868861198425
0.006896257866173983,0.009103196673095226,-0.0127630103379488,0.004292482975870371,0.0,0.007327554281800985
0.00653289258480072,0.008482835255563259,-0.012367332354187965,0.004147593397647142,0.0,0.007089381106197834
0.006483031902462244,0.008308740332722664,-0.013187183998525143,0.004238080698996782,0.0,0.006907241884618998
0.006707532797008753,0.008891989476978779,-0.012408208101987839,0.004201154690235853,0.0,0.007185333874076605
0.006700537633150816,0.00849897600710392,-0.01293186191469431,0.004286579787731171,0.0,0.007470459211617708
0.006700537633150816,0.00849897600710392,-0.01293186191469431,0.004286579787731171,0.0,0.007470459211617708
0.006388264242559671,0.008567405864596367,-0.0124594047665596,0.004223918076604605,0.0,0.007545314263552427
0.006535959895700216,0.009011264890432358,-0.013293552212417126,0.004460849333554506,0.0,0.007485674228519201
0.006568787153810263,0.008817427791655064,-0.012552381493151188,0.004075170960277319,0.0,0.007090279366821051
0.006254428066313267,0.008623420260846615,-0.012606979347765446,0.004292226862162352,0.0,0.0069361194036901
0.00646543363109231,0.008731892332434654,-0.012647019699215889,0.004133159760385752,0.0,0.007103376090526581
0.0066291107796132565,0.008630759082734585,-0.01268806867301464,0.003927956335246563,0.0,0.0067624119110405445
0.006374129559844732,0.008090253919363022,-0.012889995239675045,0.00401458702981472,0.0,0.006996207870543003
0.006193697918206453,0.0076949624344706535,-0.012411708012223244,0.004071456380188465,0.0,0.006478810217231512
0.006206351798027754,0.008168043568730354,-0.012904221192002296,0.004389008041471243,0.0,0.006312662269920111
0.006757338996976614,0.008685802109539509,-0.012359049171209335,0.00424529705196619,0.0,0.006336526479572058
0.007029111497104168,0.00844788271933794,-0.012573549523949623,0.004436498042196035,0.0,0.00686322245746851
0.006361991632729769,0.008354896679520607,-0.012274335138499737,0.004635934717953205,0.0,0.00693880207836628
0.006464080419391394,0.008922439068555832,-0.012816580943763256,0.004367238376289606,0.0,0.0066664330661296844
0.00635115010663867,0.008354621939361095,-0.012737596407532692,0.004418550059199333,0.0,0.007074115332216024
0.007086541503667831,0.008084503933787346,-0.011860243044793606,0.00407261261716485,0.0,0.006647399161010981
0.006797800771892071,0.007999371737241745,-0.012220319360494614,0.003810051130130887,0.0,0.0067877257242798805
0.006581597495824099,0.008695131167769432,-0.012052279897034168,0.004227406810969114,0.0,0.006790494080632925
0.006488176062703133,0.008046834729611874,-0.01293946336954832,0.004073938354849815,0.0,0.006902020890265703
0.007156464271247387,0.00812576711177826,-0.012750721536576748,0.004365216009318829,0.0,0.006266141310334206
0.007399566471576691,0.008386281318962574,-0.012209385633468628,0.003964373376220465,0.0,0.0068603637628257275
0.006631152238696814,0.008246011100709438,-0.012294103391468525,0.003924438264220953,0.0,0.0066354721784591675
0.00638001412153244,0.00890825130045414,-0.013073253445327282,0.00394024420529604,0.0,0.006544134579598904
0.006889341864734888,0.00859031267464161,-0.011491226963698864,0.003989598713815212,0.0,0.006358977407217026
0.007390302140265703,0.007738160435110331,-0.011819688603281975,0.004348597954958677,0.0,0.0066755167208611965
0.006961908657103777,0.008084152825176716,-0.011850561015307903,0.004220755770802498,0.0,0.006859893910586834
0.006337287370115519,0.009027412161231041,-0.011594855226576328,0.0041595762595534325,0.0,0.007075934670865536
0.006464882288128138,0.008590295910835266,-0.01231942418962717,0.004213952925056219,0.0,0.006865199189633131
0.0070445360615849495,0.008118673227727413,-0.011892834678292274,0.004515696782618761,0.0,0.007300505414605141
0.0070445360615849495,0.008118673227727413,-0.011892834678292274,0.004515696782618761,0.0,0.007300505414605141
0.006977648474276066,0.008955744095146656,-0.011884123086929321,0.004327981732785702,0.0,0.006724684499204159
0.006977648474276066,0.008955744095146656,-0.011884123086929321,0.004327981732785702,0.0,0.006724684499204159
0.006364657077938318,0.008335770107805729,-0.011928747408092022,0.004446492996066809,0.0,0.006703766994178295
0.006740219425410032,0.008230950683355331,-0.012445914559066296,0.004540302790701389,0.0,0.00676032155752182
0.007047585211694241,0.008443634957075119,-0.011575478129088879,0.004639250226318836,0.0,0.007241010665893555
0.0065013328567147255,0.008340873755514622,-0.012092025019228458,0.004573863931000233,0.0,0.007015833631157875
0.006360065657645464,0.008180605247616768,-0.011906172148883343,0.004408312030136585,0.0,0.007181498222053051
0.0066096181981265545,0.008920175954699516,-0.012051655910909176,0.004075947217643261,0.0,0.007002470549196005
0.007072798907756805,0.008667548187077045,-0.011941663920879364,0.004318025894463062,0.0,0.007268090266734362
0.006675994023680687,0.007892638444900513,-0.011324499733746052,0.004249147139489651,0.0,0.006902780849486589
0.006368052214384079,0.008197351358830929,-0.012570099905133247,0.004050973802804947,0.0,0.00676685618236661
0.006485863588750362,0.00937897339463234,-0.01160665787756443,0.004301405977457762,0.0,0.0065576559863984585
0.006786712445318699,0.008483490906655788,-0.011957072652876377,0.0042188698425889015,0.0,0.006760460324585438
0.007113362196832895,0.008467400446534157,-0.011646764352917671,0.00434035062789917,0.0,0.006690305657684803
0.006905251648277044,0.0090937539935112,-0.011332393623888493,0.004639767110347748,0.0,0.007151601370424032
0.006629586219787598,0.008650727570056915,-0.011572587303817272,0.004286769311875105,0.0,0.006975620519369841
0.007274827919900417,0.008265499025583267,-0.011056477203965187,0.0043467311188578606,0.0,0.00702290702611208
0.007603444159030914,0.00896025262773037,-0.011723499745130539,0.004178613889962435,0.0,0.007272935938090086
0.007030792534351349,0.008401790633797646,-0.011483200825750828,0.004357100930064917,0.0,0.007135623600333929
0.006629025097936392,0.008331624791026115,-0.010868080891668797,0.00462957751005888,0.0,0.006759343668818474
0.006435479037463665,0.008039119653403759,-0.01183839701116085,0.004629892762750387,0.0,0.007093443535268307
0.007418457418680191,0.008619314059615135,-0.011517847888171673,0.00403389148414135,0.0,0.006678656674921513
0.006632645148783922,0.008200791664421558,-0.011484503746032715,0.004302493296563625,0.0,0.007023032288998365
0.006881025154143572,0.008718939498066902,-0.010942238382995129,0.0042880261316895485,0.0,0.007472627330571413
0.007448776159435511,0.008616667240858078,-0.011413336731493473,0.004916745238006115,0.0,0.007091043516993523
0.007448776159435511,0.008616667240858078,-0.011413336731493473,0.004916745238006115,0.0,0.007091043516993523
0.0070301624946296215,0.008184405043721199,-0.01091801654547453,0.00488631334155798,0.0,0.0067655593156814575
0.006433086935430765,0.008666648529469967,-0.01157444342970848,0.004388566128909588,0.0,0.007107417564839125
0.006433086935430765,0.008666648529469967,-0.01157444342970848,0.004388566128909588,0.0,0.007107417564839125
0.0070184385403990746,0.008321263827383518,-0.010843396186828613,0.004503089003264904,0.0,0.007377136033028364
0.007040317170321941,0.008230352774262428,-0.011250505223870277,0.0045947059988975525,0.0,0.007977988570928574
0.007073499727994204,0.008371416479349136,-0.011775181628763676,0.004665093962103128,0.0,0.006726192310452461
0.007100754417479038,0.008507191203534603,-0.011672623455524445,0.005034956615418196,0.0,0.006173341069370508
0.007282675709575415,0.008057030849158764,-0.011607080698013306,0.004718900192528963,0.0,0.006425191648304462
0.007276230026036501,0.00874676089733839,-0.010943276807665825,0.004550441168248653,0.0,0.007032562047243118
0.007276230026036501,0.00874676089733839,-0.010943276807665825,0.004550441168248653,0.0,0.007032562047243118
0.006602417211979628,0.008329400792717934,-0.01161231379956007,0.004642015788704157,0.0,0.006695361342281103
0.006462648510932922,0.00806690938770771,-0.011349058710038662,0.004649943206459284,0.0,0.007556627504527569
0.006959032732993364,0.008187448605895042,-0.01210145466029644,0.005034223198890686,0.0,0.007898055948317051
0.00711526395753026,0.008273355662822723,-0.01145673543214798,0.005011286586523056,0.0,0.007563087157905102
0.0070104338228702545,0.007817762903869152,-0.01148039661347866,0.0047759064473211765,0.0,0.007023169659078121
0.007042974699288607,0.007530823815613985,-0.01162610575556755,0.004374841693788767,0.0,0.0066037592478096485
0.007413256913423538,0.00765251973643899,-0.011226770468056202,0.004334127530455589,0.0,0.00713325385004282
0.007604431360960007,0.007807771675288677,-0.012061799876391888,0.004092711489647627,0.0,0.007201035041362047
0.0073892478831112385,0.007523138541728258,-0.012091350741684437,0.004319484811276197,0.0,0.006830959115177393
0.007319638039916754,0.00782310962677002,-0.011127197183668613,0.00436192424967885,0.0,0.007014070637524128
0.007438072934746742,0.008056024089455605,-0.01098695956170559,0.004552771337330341,0.0,0.0073179928585886955
0.007239107042551041,0.00824128556996584,-0.011900374665856361,0.004417522344738245,0.0,0.00741258729249239
0.0071203261613845825,0.007807640358805656,-0.012006758712232113,0.004195875488221645,0.0,0.007388440892100334
0.00769092608243227,0.00778203085064888,-0.01245768740773201,0.004039598163217306,0.0,0.007603108417242765
0.007548691239207983,0.007739433087408543,-0.011772019788622856,0.004062643274664879,0.0,0.007118000648915768
0.007748602423816919,0.006995268166065216,-0.01079269964247942,0.004406317137181759,0.0,0.0073488508351147175
0.007231756579130888,0.007227712776511908,-0.011700192466378212,0.004379612393677235,0.0,0.007514297962188721
0.007561669684946537,0.007491633296012878,-0.01125976350158453,0.004470354877412319,0.0,0.007689078338444233
0.007656739559024572,0.007504103239625692,-0.012629720382392406,0.004186881240457296,0.0,0.006983209401369095
0.007656739559024572,0.007504103239625692,-0.012629720382392406,0.004186881240457296,0.0,0.006983209401369095
0.0071480292826890945,0.007048412226140499,-0.011924976482987404,0.0040124948136508465,1.2545417575893225e-06,0.006986161693930626
0.007148751523345709,0.006808786187320948,-0.010840804316103458,0.0040078978054225445,8.191261713363929e-08,0.00684853782877326
0.0074691809713840485,0.0072141289710998535,-0.011902548372745514,0.004314580000936985,5.348307574593036e-09,0.0070878686383366585
0.007610447239130735,0.007242655847221613,-0.01167694665491581,0.004692381713539362,3.492062750076741e-10,0.007394593674689531
0.007111004088073969,0.007298704236745834,-0.012229482643306255,0.004770689643919468,2.2800674542855504e-11,0.007365349680185318
0.007026410195976496,0.0075323148630559444,-0.011763641610741615,0.00468925666064024,1.4887211472261463e-12,0.007103606592863798
0.007939262315630913,0.007836705073714256,-0.01136853452771902,0.004269480239599943,9.72028515078445e-14,0.007260844111442566
0.007719821762293577,0.007090805564075708,-0.010866495780646801,0.004003135487437248,6.346651008285863e-15,0.007702796719968319
0.007336133625358343,0.006775447633117437,-0.012295149266719818,0.004238515626639128,4.1439099063968557e-16,0.007326662540435791
0.007282756268978119,0.00668272515758872,-0.011774045415222645,0.005059863440692425,2.705677177978289e-17,0.007076983340084553
0.008233954198658466,0.007223464548587799,-0.011714675463736057,0.004721476696431637,1.766613770132564e-18,0.006704573519527912
0.007860003970563412,0.007089073304086924,-0.011380297131836414,0.004534666892141104,1.1534726034261678e-19,0.007242001127451658
0.007480343338102102,0.0072573283687233925,-0.01276182197034359,0.004172875080257654,7.53135184591174e-21,0.007791218813508749
0.00807576347142458,0.00704728439450264,-0.011367679573595524,0.004245382267981768,4.917434251108071e-22,0.0073529863730072975
0.007663424126803875,0.00802413560450077,-0.01164957694709301,0.004112291615456343,3.2107329884648154e-23,0.007199397776275873
0.007408678065985441,0.007914508692920208,-0.011817432008683681,0.004281903151422739,2.096379317393566e-24,0.006989062298089266
0.007237316574901342,0.007490330375730991,-0.011058401316404343,0.004579216707497835,1.3687858367184166e-25,0.006816868670284748
0.007884779013693333,0.007662680931389332,-0.012514234520494938,0.004516034387052059,8.937192395639437e-27,0.006840335670858622
0.007997008971869946,0.0076590646058321,-0.011402139440178871,0.0043653883039951324,5.8353481754796645e-28,0.007223987486213446
0.007401501294225454,0.007346373982727528,-0.011994821950793266,0.004110398236662149,2.4877003873570722e-30,0.007385094650089741
0.0076088085770606995,0.007216193247586489,-0.011479457840323448,0.004312408622354269,1.6242905708023916e-31,0.007445255294442177
0.008051122538745403,0.007449019234627485,-0.011817610822618008,0.00426071509718895,1.060545696991253e-32,0.007767668459564447
0.008295929990708828,0.0075477599166333675,-0.011117507703602314,0.00441346550360322,6.9246057952437776e-34,0.00789501890540123
0.007989799603819847,0.006879648193717003,-0.011536012403666973,0.0049193003214895725,4.5212726974990707e-35,0.00800998043268919
0.007989799603819847,0.006879648193717003,-0.011536012403666973,0.0049193003214895725,4.5212726974990707e-35,0.00800998043268919
0.007720587309449911,0.00746561586856842,-0.01095077209174633,0.0045615448616445065,1.9274894007951003e-37,0.0076645235531032085
0.007720587309449911,0.00746561586856842,-0.01095077209174633,0.0045615448616445065,1.9274894007951003e-37,0.0076645235531032085
0.007702300325036049,0.007481098175048828,-0.0118322242051363,0.004450121894478798,1.258512877042747e-38,0.007574498187750578
0.00724440161138773,0.007265598513185978,-0.011769572272896767,0.004109953995794058,8.21718616883144e-40,0.007368286140263081
0.007778172846883535,0.0072609125636518,-0.011683326214551926,0.004360693506896496,5.36529156020686e-41,0.00755601841956377
0.007591015659272671,0.007607914507389069,-0.01176016591489315,0.0046819644048810005,3.5032461608120427e-42,0.007214220240712166
0.007425728254020214,0.007425738964229822,-0.01126060076057911,0.00478313397616148,2.284116496849452e-43,0.007345357909798622
0.007697182707488537,0.007272959221154451,-0.011977573856711388,0.0047758291475474834,1.5414283107572988e-44,0.007099796086549759
0.007925872690975666,0.007377831265330315,-0.011559327132999897,0.004539866931736469,1.401298464324817e-45,0.0070633599534630775
0.008028640411794186,0.007605794817209244,-0.011625871062278748,0.004376339726150036,0.0,0.006930523552000523
0.008109494112432003,0.0077085671946406364,-0.011655592359602451,0.004547907039523125,0.0,0.0076224310323596
0.007855179719626904,0.007174296770244837,-0.01112357247620821,0.004704792518168688,0.0,0.007886753417551517
0.00836802739650011,0.006995165720582008,-0.01166453491896391,0.004911650903522968,0.0,0.007951679639518261
0.008573963306844234,0.0077807484194636345,-0.012027638964354992,0.0047775390557944775,0.0,0.007673417218029499
0.008000297471880913,0.0074517675675451756,-0.0118522634729743,0.004519222304224968,0.0,0.008070292882621288
0.00852248352020979,0.006617083214223385,-0.01162293367087841,0.004565565846860409,0.0,0.007892944850027561
0.008043868467211723,0.006884938571602106,-0.01128782331943512,0.0044921752996742725,0.0,0.007639988791197538
0.007951159030199051,0.007335734087973833,-0.012063007801771164,0.004425759427249432,0.0,0.007442005909979343
0.00817163847386837,0.007696644868701696,-0.011383727192878723,0.004826625343412161,0.0,0.008338476531207561
0.008569236844778061,0.007159866858273745,-0.011922857724130154,0.0050824834033846855,0.0,0.007127874065190554
0.008437594398856163,0.007277479395270348,-0.011498463340103626,0.005330461543053389,0.0,0.007067892234772444
0.009108327329158783,0.0076407562009990215,-0.011758255772292614,0.004987792111933231,0.0,0.00826222263276577
0.008694970980286598,0.007386933546513319,-0.011791761964559555,0.0049379607662558556,0.0,0.008281301707029343
0.008239473216235638,0.007458153180778027,-0.012155563570559025,0.0047561838291585445,0.0,0.008273491635918617
0.008330645971000195,0.007686576806008816,-0.011651105247437954,0.004817713983356953,0.0,0.007769347634166479
0.008839255198836327,0.007827618159353733,-0.011127724312245846,0.004962034523487091,0.0,0.007981703616678715
0.008668413385748863,0.007126607932150364,-0.011791392229497433,0.004772879183292389,0.0,0.007792570162564516
0.008668413385748863,0.007126607932150364,-0.011791392229497433,0.004772879183292389,0.0,0.007792570162564516
0.008688287809491158,0.00685499794781208,-0.011372089385986328,0.004460448399186134,0.0,0.008565935306251049
0.008819758892059326,0.007316759321838617,-0.011674333363771439,0.00472254678606987,0.0,0.008298903703689575
0.008430971764028072,0.007222478743642569,-0.011418651789426804,0.005146674811840057,0.0,0.008296078070998192
0.008536024019122124,0.00697806291282177,-0.011913519352674484,0.005135982763022184,0.0,0.00795479491353035
0.008536024019122124,0.00697806291282177,-0.011913519352674484,0.005135982763022184,0.0,0.00795479491353035
0.008750703185796738,0.0069912211038172245,-0.011663908138871193,0.004808058962225914,0.0,0.008259986527264118
0.008959805592894554,0.007493158336728811,-0.01222208421677351,0.004779806360602379,0.0,0.00784185342490673
0.008110573515295982,0.006882915273308754,-0.01164791639894247,0.004762906115502119,0.0,0.007605292834341526
0.008861381560564041,0.00693717785179615,-0.011238045059144497,0.004596133716404438,0.0,0.007975239306688309
0.008977845311164856,0.007053536828607321,-0.011947870254516602,0.004764602519571781,0.0,0.008405509404838085
0.008402264676988125,0.007014345843344927,-0.011530205607414246,0.00522081321105361,0.0,0.00816810317337513
0.009154727682471275,0.007249068468809128,-0.01194329746067524,0.004883569665253162,0.0,0.00774209201335907
0.008699805475771427,0.00737545033916831,-0.011943645775318146,0.0049521587789058685,0.0,0.008161946199834347
0.008359616622328758,0.006650280207395554,-0.011162111535668373,0.004825755953788757,0.0,0.008113001473248005
0.008977660909295082,0.006973017938435078,-0.012068059295415878,0.004390740301460028,0.0,0.007734908722341061
0.00890428852289915,0.007179270498454571,-0.011771966703236103,0.004312888719141483,0.0,0.007993832230567932
0.008942242711782455,0.0066377208568155766,-0.011867496185004711,0.005571400746703148,0.0,0.008355402387678623
0.008852195926010609,0.006927909329533577,-0.01191140990704298,0.00556197389960289,0.0,0.008220735006034374
0.008994142524898052,0.007008340209722519,-0.011592723429203033,0.005229130852967501,0.0,0.007981544360518456
0.009401299990713596,0.007616220507770777,-0.012098617851734161,0.004869931843131781,0.0,0.008162794634699821
0.008644548244774342,0.006776405498385429,-0.011704119853675365,0.004788826685398817,0.0,0.00792713463306427
0.008900855667889118,0.006578052416443825,-0.012210015207529068,0.005268809851258993,0.0,0.008044037036597729
0.008871065452694893,0.006772201042622328,-0.012250839732587337,0.00526027474552393,0.0,0.007947870530188084
0.008786632679402828,0.007325148209929466,-0.012151211500167847,0.004797136876732111,0.0,0.007933518849313259
0.008901084773242474,0.006894716061651707,-0.011599036864936352,0.004931996576488018,0.0,0.008126668632030487
0.009062527678906918,0.006507029756903648,-0.012622914277017117,0.004961500875651836,0.0,0.008157857693731785
0.009431544691324234,0.006884864531457424,-0.012408057227730751,0.00505960825830698,0.0,0.008406206034123898
0.009431544691324234,0.006884864531457424,-0.012408057227730751,0.00505960825830698,0.0,0.008406206034123898
0.009431544691324234,0.006884864531457424,-0.012408057227730751,0.00505960825830698,0.0,0.008406206034123898
0.008480391465127468,0.006970260292291641,-0.01240120455622673,0.004893949721008539,0.0,0.008351203985512257
0.008803332224488258,0.007407832890748978,-0.012450023554265499,0.004833945073187351,0.0,0.008361561223864555
0.00918345432728529,0.0071239229291677475,-0.012217436917126179,0.004947239998728037,0.0,0.0083406250923872
0.008618802763521671,0.007199930492788553,-0.01265046652406454,0.004905676934868097,0.0,0.008047020062804222
0.008618802763521671,0.007199930492788553,-0.01265046652406454,0.004905676934868097,0.0,0.008047020062804222
0.008925391361117363,0.00681693758815527,-0.012627726420760155,0.004762070253491402,0.0,0.008757343515753746
0.009288647212088108,0.006730054505169392,-0.0128225302323699,0.004649398382753134,0.0,0.009130982682108879
0.008967621251940727,0.006897650193423033,-0.012707768008112907,0.0046494267880916595,0.0,0.008318521082401276
0.009126831777393818,0.0069886730052530766,-0.01265583373606205,0.004568052012473345,0.0,0.008661964908242226
0.009078516624867916,0.006936853285878897,-0.012848933227360249,0.00505728367716074,0.0,0.008514929562807083
0.009208493866026402,0.007345500402152538,-0.012365050613880157,0.005227052140980959,0.0,0.008350107818841934
0.00931285135447979,0.007126911543309689,-0.013131910935044289,0.00507337274029851,0.0,0.008266119286417961
0.009171762503683567,0.007223781198263168,-0.012215145863592625,0.0048107607290148735,0.0,0.008474823087453842
0.009852087125182152,0.006898687686771154,-0.012496484443545341,0.004748326260596514,0.0,0.008571255020797253
0.009176263585686684,0.006885180249810219,-0.01211208663880825,0.004750493913888931,0.0,0.008567680604755878
0.00951381679624319,0.007213296834379435,-0.012358519248664379,0.004674052353948355,0.0,0.008713370189070702
0.009459557011723518,0.007140826433897018,-0.012847022153437138,0.005136041436344385,0.0,0.008060657419264317
0.009330564178526402,0.0065937587060034275,-0.012116115540266037,0.005165206268429756,0.0,0.00808278564363718
0.010034056380391121,0.006831699050962925,-0.012736888602375984,0.005361091811209917,0.0,0.008282792754471302
0.009710351005196571,0.006803616881370544,-0.012358119711279869,0.005484380293637514,0.0,0.008632752113044262
0.009278188459575176,0.00723180640488863,-0.012333902530372143,0.005146353039890528,0.0,0.008703324943780899
0.010457077994942665,0.006722545251250267,-0.011886883527040482,0.005164789501577616,0.0,0.009455038234591484
0.009634518064558506,0.006822423078119755,-0.012517960742115974,0.005707945674657822,0.0,0.008191890083253384
0.009767877869307995,0.007173018995672464,-0.01223746594041586,0.005414783488959074,0.0,0.008385111577808857
0.00940602645277977,0.006679394282400608,-0.012919745407998562,0.005214071366935968,0.0,0.008409702219069004
0.008961254730820656,0.006583147682249546,-0.011867919005453587,0.005425516981631517,0.0,0.009249200113117695
0.009530504234135151,0.00638830428943038,-0.012120025232434273,0.005057441536337137,0.0,0.00862220861017704
0.010062336921691895,0.006708958186209202,-0.012485968880355358,0.00527954613789916,0.0,0.00835359189659357
0.009597410447895527,0.006739991717040539,-0.011603482067584991,0.005129344295710325,0.0,0.009426544420421124
0.009801557287573814,0.006755949463695288,-0.012233409099280834,0.004963218700140715,0.0,0.00905142817646265
0.010026155970990658,0.006641480140388012,-0.011579146608710289,0.005060703493654728,0.0,0.008920001797378063
0.010026155970990658,0.006641480140388012,-0.011579146608710289,0.005060703493654728,0.0,0.008920001797378063
0.009513520635664463,0.0072416639886796474,-0.011840020306408405,0.0050432817079126835,0.0,0.00870134774595499
0.009726421907544136,0.0067988196387887,-0.011407136917114258,0.004719175398349762,0.0,0.008635791949927807
0.010142373852431774,0.006554618943482637,-0.011536475270986557,0.004888596944510937,0.0,0.008646023459732533
0.009150710888206959,0.006714516319334507,-0.01230922993272543,0.005399192683398724,0.0,0.008492444641888142
0.009758610278367996,0.0070151775144040585,-0.01168974582105875,0.005305361468344927,0.0,0.008976928889751434
0.010574480518698692,0.007570743560791016,-0.012613405473530293,0.005656085442751646,0.0,0.009297833777964115
0.009955672547221184,0.00696165394037962,-0.01254667341709137,0.005432389676570892,0.0,0.008823019452393055
0.010022672824561596,0.006523896008729935,-0.012464783154428005,0.005317299161106348,0.0,0.00897675659507513
0.010390093550086021,0.006378260441124439,-0.012355039827525616,0.005160406231880188,-0.0001760376471793279,0.008995010517537594
0.009779845364391804,0.006659152451902628,-0.01187591627240181,0.005707389209419489,-0.0001889205741463229,0.009070777334272861
0.010816763155162334,0.007144554518163204,-0.012235155329108238,0.005411745980381966,-0.00018258013005834073,0.008986134082078934
0.010134795680642128,0.006797022186219692,-0.012088277377188206,0.005091354250907898,-0.000175543173099868,0.009736110456287861
0.010258916765451431,0.006545740179717541,-0.012785066850483418,0.005071497056633234,-0.00020045549899805337,0.009303232654929161
0.010545903816819191,0.006625188514590263,-0.01264522597193718,0.0050766621716320515,-0.00019526082905940711,0.009408568032085896
0.0097561776638031,0.006799014285206795,-0.012632968835532665,0.0049602859653532505,-0.00018857550458051264,0.008799830451607704
0.009365733712911606,0.0066518960520625114,-0.012385129928588867,0.005287353415042162,-0.0001822199992602691,0.009266898967325687
0.010779817588627338,0.006607106886804104,-0.012253890745341778,0.005367978010326624,-0.0001762717729434371,0.009042374789714813
0.010386846959590912,0.006349189672619104,-0.012960844673216343,0.005777013022452593,-0.00017069898603949696,0.010024459101259708
0.010356072336435318,0.006786675658077002,-0.012713620439171791,0.005784493871033192,-0.00017367719556204975,0.009495392441749573
0.010059759952127934,0.0068806614726781845,-0.012531806714832783,0.006032720673829317,-0.00018100756278727204,0.009351550601422787
0.0104237524792552,0.006205613724887371,-0.012285432778298855,0.00605963496491313,-0.00017673430556897074,0.00934147834777832
0.011131503619253635,0.006357123143970966,-0.012212878093123436,0.0056983549147844315,-0.00017196264525409788,0.009378839284181595
0.010029416531324387,0.006969187408685684,-0.012392234988510609,0.005556837189942598,-0.00016739641432650387,0.009349441155791283
0.009757153689861298,0.006950908340513706,-0.012289881706237793,0.006034116726368666,-0.0001832896814448759,0.00923958420753479
0.010320398956537247,0.006399848032742739,-0.012143794447183609,0.005584593862295151,-0.00018145606736652553,0.009058374911546707
0.010003628209233284,0.006098349578678608,-0.012610776349902153,0.005308349151164293,-0.00017717275477480143,0.009324402548372746
0.010427810251712799,0.006483767181634903,-0.012360772117972374,0.005536459386348724,-0.00017292884876951575,0.009384600445628166
0.010877749882638454,0.006842483300715685,-0.012608954682946205,0.005555791314691305,-0.00016887360834516585,0.009217670187354088
0.010877749882638454,0.006842483300715685,-0.012608954682946205,0.005555791314691305,-0.00016887360834516585,0.009217670187354088
0.009921864606440067,0.006801484618335962,-0.0126503836363554,0.0057357256300747395,-0.00016500329365953803,0.009298096410930157
0.01015243399888277,0.006833041086792946,-0.011958586983382702,0.005577110219746828,-0.00016130653966683894,0.009290631860494614
0.010667189955711365,0.00653914175927639,-0.012576593086123466,0.0056478101760149,-0.0001577717630425468,0.009246079251170158
0.009916596114635468,0.006911023985594511,-0.0123662194237113,0.0054625957272946835,-0.000167621168657206,0.009321672841906548
0.010554123669862747,0.007024649530649185,-0.012525142170488834,0.005547042470425367,-0.00017416269110981375,0.009454166516661644
0.01022615097463131,0.006519529968500137,-0.012182352133095264,0.005362337920814753,-0.00016849262465257198,0.009587441571056843
0.00984354317188263,0.006414487957954407,-0.012477397918701172,0.0057169063948094845,-0.00016246410086750984,0.009383313357830048
0.01061947736889124,0.0066934870555996895,-0.012256825342774391,0.005479571875184774,-0.00015680586511734873,0.009208801202476025
0.010244843550026417,0.006742493715137243,-0.01169137004762888,0.005298188421875238,-0.00015152536798268557,0.009314126335084438
0.01012683380395174,0.006461853627115488,-0.012692430056631565,0.00518422294408083,-0.0001465886743972078,0.00938524678349495
0.01026175171136856,0.006731911096721888,-0.012812509201467037,0.005684852600097656,-0.00014196358097251505,0.01025476586073637
0.01015708688646555,0.006836849730461836,-0.013462009839713573,0.005835939198732376,-0.0001376216532662511,0.00956753920763731
0.010273009538650513,0.007300545461475849,-0.01266410667449236,0.0060323504731059074,-0.00015671613800805062,0.009423332288861275
0.010081388987600803,0.00667881965637207,-0.012761606834828854,0.005660213064402342,-0.00015539593005087227,0.009638701565563679
0.010448931716382504,0.006553241051733494,-0.01290337834507227,0.005416341125965118,-0.00015125145728234202,0.010622321628034115
0.010094641707837582,0.006674224976450205,-0.011845473200082779,0.005455445498228073,-0.00014714330609422177,0.009733933955430984
0.010560933500528336,0.0071481880731880665,-0.012456193566322327,0.005915163550525904,-0.0001432407443644479,0.009646961465477943
0.010062674060463905,0.006997460033744574,-0.01237503718584776,0.005836798343807459,-0.0001395392173435539,0.009469485841691494
0.010415310971438885,0.007501890882849693,-0.012380861677229404,0.00618691137060523,-0.00013268165639601648,0.010307538323104382
0.010415310971438885,0.007501890882849693,-0.012380861677229404,0.00618691137060523,-0.00013268165639601648,0.010307538323104382
0.010436083190143108,0.006986393127590418,-0.012978840619325638,0.006294336635619402,-0.00014745007501915097,0.009861803613603115
0.010408511385321617,0.006553643848747015,-0.012594815343618393,0.0066840918734669685,-0.00014416167687159032,0.010609051212668419
0.01042190846055746,0.006635596044361591,-0.01267262827605009,0.006522331386804581,-0.00014094192010816187,0.010206124745309353
0.01017041876912117,0.007257298566401005,-0.01247001625597477,0.00613959226757288,-0.0001378580927848816,0.009900000877678394
0.010527120903134346,0.007057810202240944,-0.013173695653676987,0.006025105249136686,-0.00013490601850207895,0.010003505274653435
0.009880706667900085,0.006343630142509937,-0.012726405635476112,0.006219357717782259,-0.00013207769370637834,0.010664759203791618
0.010409601964056492,0.006352095399051905,-0.013517734594643116,0.0066170599311590195,-0.00014661421300843358,0.010244929231703281
0.010163519531488419,0.006753206718713045,-0.013084751553833485,0.0067765358835458755,-0.00014479091623798013,0.010363180190324783
0.009850488044321537,0.007209589704871178,-0.013236143626272678,0.006076678168028593,-0.00014200845907907933,0.010298667475581169
0.009850488044321537,0.007209589704871178,-0.013236143626272678,0.006076678168028593,-0.00014200845907907933,0.010298667475581169
0.010695347562432289,0.007450852543115616,-0.012585239484906197,0.005742474924772978,-0.0001392664125887677,0.010147729888558388
0.010527178645133972,0.006952919997274876,-0.013351362198591232,0.005542272236198187,-0.00013662403216585517,0.01053326204419136
0.01019799243658781,0.007313822396099567,-0.013850807212293148,0.005748296622186899,-0.00013407986261881888,0.010068296454846859
0.010620135813951492,0.00683208042755723,-0.012862908653914928,0.005980794783681631,-0.00013162859249860048,0.010126836597919464
0.009998355992138386,0.006896264851093292,-0.012997680343687534,0.006051389500498772,-0.00012926539056934416,0.010338077321648598
0.010818487033247948,0.006637011654675007,-0.012387880124151707,0.006171087734401226,-0.00013868340465705842,0.010407907888293266
0.01128587406128645,0.006906098686158657,-0.012946591712534428,0.006699475925415754,-0.00013625776045955718,0.010776590555906296
0.010119348764419556,0.006814978551119566,-0.012849671766161919,0.006893899757415056,-0.00013236538507044315,0.010795093141496181
0.01036121603101492,0.007341347634792328,-0.013419901952147484,0.006485258229076862,-0.0001285901089431718,0.010590302757918835
0.010745856910943985,0.006618906743824482,-0.012988925911486149,0.006318847648799419,-0.0001250179047929123,0.010824154131114483
0.010377272963523865,0.006324195768684149,-0.013227506540715694,0.0063426378183066845,-0.00012163841893197969,0.010349785909056664
0.010765068233013153,0.0061759003438055515,-0.013042652979493141,0.006332289427518845,-0.0001300699368584901,0.010261442512273788
0.01068591047078371,0.007083950564265251,-0.012903225608170033,0.006506749894469976,-0.00013769202632829547,0.0107483034953475
0.011047075502574444,0.0074287536554038525,-0.012692292220890522,0.006869356147944927,-0.00013496517203748226,0.010577957145869732
0.01255654077976942,0.0066422363743186,-0.01249613892287016,0.0065049645490944386,-0.00013171948376111686,0.010332068428397179
0.011805949732661247,0.00644381670281291,-0.0132125960662961,0.006979216355830431,-0.00012858599075116217,0.010798461735248566
0.011729434132575989,0.0071309213526546955,-0.013661014847457409,0.006639939732849598,-0.00014183037274051458,0.010494627989828587
0.011864163912832737,0.00691984174773097,-0.01288424152880907,0.0066629028879106045,-0.0001399252359988168,0.010556334629654884
0.011835567653179169,0.006301986053586006,-0.013018163852393627,0.007012460380792618,-0.00013696453243028373,0.010136640630662441
0.011625966988503933,0.00632910430431366,-0.012558639980852604,0.006935203447937965,-0.00014825972903054208,0.009988313540816307
0.01176521833986044,0.0072492267936468124,-0.012505155988037586,0.006571180187165737,-0.0001496912445873022,0.00987605843693018
0.011663272976875305,0.007000517565757036,-0.012585295364260674,0.006269211880862713,-0.00014693143020849675,0.00973042193800211
0.012116876430809498,0.006387524306774139,-0.01279368530958891,0.005967948120087385,-0.00014401163207367063,0.01020199153572321
0.012338460423052311,0.006478799507021904,-0.01331762969493866,0.006298009771853685,-0.0001411888952134177,0.010228220373392105
0.012276437133550644,0.006759551353752613,-0.012553753331303596,0.006556427106261253,-0.0001384733768645674,0.01062522828578949
0.012351805344223976,0.007243859115988016,-0.013144624419510365,0.006690243724733591,-0.0001360275928163901,0.010988672263920307
0.011899459175765514,0.006824325304478407,-0.012132512405514717,0.0068450202234089375,-0.0001944088435266167,0.010380815714597702
0.012534606270492077,0.006375226657837629,-0.012341787107288837,0.007110503036528826,-0.00019038243044633418,0.010730672627687454
0.011976740323007107,0.006486577447503805,-0.012414851225912571,0.00684093963354826,-0.00018291680316906422,0.010704650543630123
0.011976740323007107,0.006486577447503805,-0.012414851225912571,0.00684093963354826,-0.00018291680316906422,0.010704650543630123
0.01193324662744999,0.007050617132335901,-0.012817313894629478,0.0060504344291985035,-0.0001757882273523137,0.010713635943830013
0.012605939991772175,0.00682523287832737,-0.013386157341301441,0.00642124330624938,-0.00020071952894795686,0.01159863080829382
0.011650677770376205,0.006619608029723167,-0.012704547494649887,0.006649951916188002,-0.00019550810975488275,0.011097660288214684
0.0120866559445858,0.006397024728357792,-0.013128192164003849,0.007154201623052359,-0.00018880626885220408,0.009990956634283066
0.01264153141528368,0.0066225528717041016,-0.012670599855482578,0.007355809677392244,-0.00018243533850181848,0.010709935799241066
0.011885163374245167,0.00677231140434742,-0.013240760192275047,0.006698256824165583,-0.00017647320055402815,0.01083055417984724
0.012200925499200821,0.006349923554807901,-0.012420284561812878,0.006560820154845715,-0.00017088802997022867,0.0104134576395154
0.011964444071054459,0.00635579414665699,-0.013342331163585186,0.0067635150626301765,-0.00018960250599775463,0.010827033780515194
0.0120098190382123,0.0065033528953790665,-0.012888503260910511,0.006827559322118759,-0.0001872625289252028,0.011442110873758793
0.011717500165104866,0.006818301510065794,-0.013135983608663082,0.0068589793518185616,-0.0001820657926145941,0.011352071538567543
0.01235450990498066,0.006888241972774267,-0.012818031013011932,0.0071720825508236885,-0.00017696514260023832,0.011117016896605492
0.012441198341548443,0.006471430417150259,-0.012760247103869915,0.0067563410848379135,-0.0001721307053230703,0.011039207689464092
0.012231032364070415,0.006213375832885504,-0.012923686765134335,0.007236039265990257,-0.00018833349167834967,0.011931645683944225
0.012738187797367573,0.006444917060434818,-0.01254741009324789,0.007275514304637909,-0.00018632138380780816,0.011497871950268745
0.0123118432238698,0.006458415649831295,-0.012934931553900242,0.00692199170589447,-0.0001773373514879495,0.011278090998530388
0.0122106047347188,0.006519111804664135,-0.01308798510581255,0.007055997848510742,-0.0001730751828290522,0.011024614796042442
0.012888550758361816,0.0062790364027023315,-0.012606586329638958,0.007395525928586721,-0.00016901221533771604,0.011136052198708057
0.012250171042978764,0.006765487138181925,-0.012463457882404327,0.007528664078563452,-0.00019467039965093136,0.011336083523929119
0.011977672576904297,0.006915209349244833,-0.012902198359370232,0.007016805000603199,-0.00019604648696258664,0.01101955957710743
0.012446549721062183,0.006962521467357874,-0.012309919111430645,0.006731368601322174,-0.00018847848696168512,0.011651373468339443
0.012446549721062183,0.006962521467357874,-0.012309919111430645,0.006731368601322174,-0.00018847848696168512,0.011651373468339443
0.01223032083362341,0.006557375658303499,-0.012911548838019371,0.007113198284059763,-0.00021466701582539827,0.011427853256464005
0.01254658680409193,0.006706778425723314,-0.012851070612668991,0.006961469538509846,-0.00020857671916019171,0.010756969451904297
0.012314777821302414,0.006798796355724335,-0.012826597318053246,0.006664156913757324,-0.00020095739455427974,0.010833065025508404
0.012834293767809868,0.0068733952939510345,-0.012829223647713661,0.006435202434659004,-0.00020957441302016377,0.011418956331908703
0.011171580292284489,0.006900758016854525,-0.012895451858639717,0.007027718238532543,-0.00021714191825594753,0.012114886194467545
0.013037534430623055,0.006487404927611351,-0.01256668008863926,0.006779429968446493,-0.0002331400610273704,0.011395697481930256
0.012928270734846592,0.006680748425424099,-0.012449962086975574,0.006539232563227415,-0.0002327162364963442,0.011370575055480003
0.012485901825129986,0.006772910710424185,-0.012851282022893429,0.006769985426217318,-0.00022587964485865086,0.011474104598164558
0.012821266427636147,0.006441926583647728,-0.012326334603130817,0.007072621025145054,-0.00021903766901232302,0.011508578434586525
0.012667527422308922,0.0070785777643322945,-0.012898311018943787,0.00747613376006484,-0.00021257215121295303,0.011694077402353287
0.013011681847274303,0.006797002162784338,-0.012600515969097614,0.007448189426213503,-0.0003197503392584622,0.011768926866352558
0.012888877652585506,0.006832255981862545,-0.012889668345451355,0.007344561628997326,-0.0003138468600809574,0.011383193545043468
0.013305850327014923,0.006528434809297323,-0.012583520263433456,0.00767134502530098,-0.0002943802683148533,0.011047898791730404
0.013032658025622368,0.0069432989694178104,-0.012735137715935707,0.007184620946645737,-0.0002763614465948194,0.011196370236575603
0.013148028403520584,0.006837825290858746,-0.01282174326479435,0.00720324506983161,-0.00026036894996650517,0.01150425709784031
0.01323787309229374,0.005685633979737759,-0.012456152588129044,0.006932898424565792,-0.00024612233391962945,0.011437799781560898
0.01285270880907774,0.005788270849734545,-0.013221043162047863,0.007029060740023851,-0.00027681104256771505,0.011430780403316021
0.01297618355602026,0.005502859130501747,-0.0123368538916111,0.007994715124368668,-0.00026600572164170444,0.01197314728051424
0.013204244896769524,0.006022444926202297,-0.012903017923235893,0.006774242501705885,-0.00024231600400526077,0.012123135849833488
0.013043881393969059,0.006332834716886282,-0.013259341940283775,0.0072183506563305855,-0.0002319078048458323,0.012350072152912617
0.013254968449473381,0.006040617357939482,-0.01285497285425663,0.007171252742409706,-0.0002568919153418392,0.011582866311073303
0.01279749721288681,0.005719756241887808,-0.013158793561160564,0.0068605015985667706,-0.00024898973060771823,0.011474339291453362
0.013208169490098953,0.0056690070778131485,-0.01331794261932373,0.006925450637936592,-0.00023966342268977314,0.011584999971091747
0.013083810918033123,0.005859081633388996,-0.012523391284048557,0.00735774589702487,-0.00023088784655556083,0.012294896878302097
0.013346326537430286,0.006234510336071253,-0.013793474063277245,0.007092111278325319,-0.0002462655247654766,0.012126949615776539
0.01344030536711216,0.006013762671500444,-0.013295557349920273,0.007228386122733355,-0.0002453095221426338,0.011650054715573788
0.013198092579841614,0.0056243897415697575,-0.013214309699833393,0.006992620415985584,-0.00023769630934111774,0.0119303148239851
0.0132931899279356,0.0056003001518547535,-0.01287042535841465,0.007080476265400648,-0.00023807962134014815,0.011840353719890118
0.01305986475199461,0.0058226389810442924,-0.013799300417304039,0.007330107036978006,-0.00022913640714250505,0.012267063371837139
0.01305986475199461,0.0058226389810442924,-0.013799300417304039,0.007330107036978006,-0.00022913640714250505,0.012267063371837139
0.01349638868123293,0.006215672008693218,-0.013111022301018238,0.007153661921620369,-0.0002504465519450605,0.011903415434062481
0.013169433921575546,0.005976852960884571,-0.013951830565929413,0.007056220900267363,-0.00024902887525968254,0.012617023661732674
0.013612430542707443,0.005307135637849569,-0.013732326216995716,0.006842204835265875,-0.0002731539716478437,0.012216846458613873
0.013188978657126427,0.005871922709047794,-0.013532519340515137,0.006952318828552961,-0.0002663744380697608,0.012005572207272053
0.013755152001976967,0.005618044640868902,-0.013187292031943798,0.007166076451539993,-0.000273751124041155,0.012507240287959576
0.013254310004413128,0.006455220282077789,-0.01359088346362114,0.006998537108302116,-0.0002798072819132358,0.012436121702194214
0.013808703981339931,0.005875267554074526,-0.013581917621195316,0.0071680862456560135,-0.0002703894570004195,0.01260367501527071
0.01368124969303608,0.005561802536249161,-0.013678975403308868,0.006832722574472427,-0.0002612838288769126,0.012150528840720654
0.013624629005789757,0.005344294011592865,-0.013316082768142223,0.006966584827750921,-0.0004214238724671304,0.012330024503171444
0.013796684332191944,0.005958641413599253,-0.013008651323616505,0.007164806593209505,-0.0003963989147450775,0.012343677692115307
0.013651300221681595,0.006428568623960018,-0.013090785592794418,0.007043786346912384,-0.00036501343129202724,0.011953101493418217
0.013898969627916813,0.005721721798181534,-0.013070986606180668,0.007395883556455374,-0.0003376530949026346,0.012248620390892029
0.013751162216067314,0.00572030246257782,-0.013729024678468704,0.008055144920945168,-0.0003140731423627585,0.012060243636369705
0.014084766618907452,0.005838584154844284,-0.012913576327264309,0.008108015172183514,-0.0002935707743745297,0.012549479492008686
0.013628343120217323,0.006350894924253225,-0.01366560161113739,0.00804299395531416,-0.00027558344299905,0.012543350458145142
0.014175519347190857,0.006973410025238991,-0.013635325245559216,0.008226485922932625,-0.00025967269903048873,0.012915168888866901
0.013977768830955029,0.006275199353694916,-0.013759818859398365,0.008507008664309978,-0.0002455000358168036,0.013124791905283928
0.014061019755899906,0.006037153769284487,-0.013877566903829575,0.007634966634213924,-0.0002625687629915774,0.012830119580030441
0.014260782860219479,0.006158954929560423,-0.013382859528064728,0.008041075430810452,-0.0002529551275074482,0.012940763495862484
0.013585957698523998,0.006479113828390837,-0.013331604190170765,0.007831036113202572,-0.00024180150649044663,0.012782287783920765
0.014216338284313679,0.006454000249505043,-0.013383054174482822,0.007644990924745798,-0.0002314471930731088,0.012308528646826744
0.013913504779338837,0.005895691923797131,-0.0135846808552742,0.007704684045165777,-0.00022193335462361574,0.012491147965192795
0.014344187453389168,0.005910917185246944,-0.013227625750005245,0.007320490665733814,-0.00021317077334970236,0.01268473919481039
0.014344187453389168,0.005910917185246944,-0.013227625750005245,0.007320490665733814,-0.00021317077334970236,0.01268473919481039
0.013948307372629642,0.006495272275060415,-0.013256107456982136,0.008373272605240345,-0.0002050736511591822,0.012370927259325981
0.01443789154291153,0.006717498414218426,-0.013531066477298737,0.008718790486454964,-0.00019756951951421797,0.012624352239072323
0.014178292825818062,0.00590768177062273,-0.013104995712637901,0.008377648890018463,-0.00019059493206441402,0.012444342486560345
0.01447978150099516,0.005846919491887093,-0.013522964902222157,0.008047131821513176,-0.00021270533034112304,0.012584704905748367
0.014078652486205101,0.005910695064812899,-0.012937046587467194,0.007691779173910618,-0.0002075622178381309,0.012409750372171402
0.014804576523602009,0.0062414356507360935,-0.013659498654305935,0.006965500768274069,-0.000201059301616624,0.012747403234243393
0.014040508307516575,0.006722059566527605,-0.01310111116617918,0.007417475804686546,-0.00019484794756863266,0.012895951047539711
0.014399576000869274,0.006848315242677927,-0.013795535080134869,0.007792576681822538,-0.00018900271970778704,0.012724853120744228
0.014222011901438236,0.00601669168099761,-0.01350974477827549,0.007526816800236702,-0.00018349722085986286,0.013003136962652206
0.014810963533818722,0.006365032400935888,-0.013947040773928165,0.0074682398699223995,-0.00019717271788977087,0.012956639751791954
0.014249957166612148,0.007426462136209011,-0.013531971722841263,0.007650339510291815,-0.0001977353822439909,0.012823430821299553
0.015148025937378407,0.007029676344245672,-0.013712778687477112,0.007496844045817852,-0.00019282977154944092,0.012892418541014194
0.014575138688087463,0.006340065971016884,-0.01361534371972084,0.007439169567078352,-0.0001878249313449487,0.013777036219835281
0.014595543965697289,0.0063394224271178246,-0.013513300567865372,0.00738977687433362,-0.00015890410577412695,0.01206300314515829
0.014396310783922672,0.00680014630779624,-0.013567089103162289,0.008265310898423195,-0.00014630681835114956,0.012145228683948517
0.015216952189803123,0.006800546310842037,-0.013328686356544495,0.008464067243039608,-0.00014122914581093937,0.012711605057120323
0.014778093434870243,0.00645426707342267,-0.013447246514260769,0.007986396551132202,-0.00013690041669178754,0.012992462143301964
0.015130480751395226,0.006395532749593258,-0.013285132125020027,0.00774661498144269,-0.00015763938426971436,0.013299214653670788
0.015644339844584465,0.006577716208994389,-0.013547226786613464,0.007410387042909861,-0.00017476135690230876,0.01297044288367033
0.014989362098276615,0.006411087233573198,-0.013807249255478382,0.007250751368701458,-0.00019199754751753062,0.01305522583425045
0.015068420208990574,0.0060767512768507,-0.01316290907561779,0.007940773852169514,-0.00018990261014550924,0.01306461077183485
0.01478662434965372,0.006543100345879793,-0.014041601680219173,0.008344067260622978,-0.000402017030864954,0.012676536105573177
0.01468807365745306,0.005882588215172291,-0.013490901328623295,0.008210181258618832,-0.00043240521335974336,0.013100177980959415
0.014904213137924671,0.00608313363045454,-0.013767278753221035,0.007676233071833849,-0.0004371383984107524,0.013200958259403706
0.015169592574238777,0.0061788796447217464,-0.013131124898791313,0.0080637838691473,-0.0004370097885839641,0.013285829685628414
0.01578962430357933,0.00598699739202857,-0.013943136669695377,0.008228985592722893,-0.00040641168016009033,0.013307231478393078
0.015070075169205666,0.00622408976778388,-0.013589519076049328,0.008174183778464794,-0.0004244149604346603,0.013198980130255222
0.015070075169205666,0.00622408976778388,-0.013589519076049328,0.008174183778464794,-0.0004244149604346603,0.013198980130255222
0.015305754728615284,0.006198252085596323,-0.013875625096261501,0.007760884240269661,-0.00041114361374638975,0.013084030710160732
0.0153201250359416,0.006208745762705803,-0.013689707033336163,0.008682281710207462,-0.0004275320970918983,0.012852521613240242
0.015590027906000614,0.005971108563244343,-0.013896041549742222,0.008489899337291718,-0.0004179395909886807,0.013169558718800545
0.01521167904138565,0.006078960373997688,-0.013461444526910782,0.007909020408987999,-0.0005248300149105489,0.013196111656725407
0.01597345434129238,0.005929247010499239,-0.01328278984874487,0.008047259412705898,-0.0005228532827459276,0.01351730152964592
0.015474424697458744,0.00649592000991106,-0.013884990476071835,0.008630551397800446,-0.0005538242403417826,0.013287928886711597
0.015718236565589905,0.0064384532161056995,-0.013857146725058556,0.0085364431142807,-0.0005675620050169528,0.013492604717612267
0.015660980716347694,0.0058826180174946785,-0.014214363880455494,0.008392754010856152,-0.0005418556393124163,0.013473429717123508
0.016109570860862732,0.005755647551268339,-0.014622154645621777,0.009071258828043938,-0.0005081329727545381,0.01367141492664814
0.016005761921405792,0.0058897510170936584,-0.014393814839422703,0.009165439754724503,-0.0006338493549264967,0.013728129677474499
0.015579784289002419,0.00614091707393527,-0.01387746725231409,0.009130429476499557,-0.0005669243982993066,0.01371690072119236
0.015674972906708717,0.006146675907075405,-0.014274103567004204,0.009191906079649925,-0.0005776804173365235,0.014280888251960278
0.015624972060322762,0.005974446423351765,-0.013982478529214859,0.009509740397334099,-0.0005422132089734077,0.013559875078499317
0.01602148450911045,0.0058697001077234745,-0.014431886374950409,0.008306166157126427,-0.0004940324579365551,0.0134392399340868
0.015709547325968742,0.005845313426107168,-0.014074070379137993,0.007752027828246355,-0.0004526718985289335,0.013555191457271576
0.01611473597586155,0.005959134083241224,-0.014217394404113293,0.009040739387273788,-0.00044989489833824337,0.01347567979246378
0.01627354882657528,0.0057302918285131454,-0.014630124904215336,0.008207646198570728,-0.00042177774594165385,0.013529385440051556
0.015949692577123642,0.006054222118109465,-0.014432490803301334,0.008456793613731861,-0.0003954212588723749,0.013315840624272823
0.01598973013460636,0.005919476505368948,-0.014569219201803207,0.009330428205430508,-0.0003720667154993862,0.013565568253397942
0.016263986006379128,0.005923759192228317,-0.014470506459474564,0.00833558663725853,-0.00039472916978411376,0.01360610406845808
0.0159973856061697,0.0061049992218613625,-0.014807193540036678,0.008730247616767883,-0.0003798401157837361,0.013910484500229359
0.0159973856061697,0.0061049992218613625,-0.014807193540036678,0.008730247616767883,-0.0003798401157837361,0.013910484500229359
0.016095971688628197,0.00579136423766613,-0.014484569430351257,0.008552422747015953,-0.0003611698921304196,0.013834417797625065
0.01596318930387497,0.0056379749439656734,-0.01538457628339529,0.008345095440745354,-0.0003439364372752607,0.01441813725978136
0.01639811508357525,0.005328443832695484,-0.015018042176961899,0.008134646341204643,-0.00032825491507537663,0.014942450448870659
0.01616254262626171,0.0057284897193312645,-0.0154117401689291,0.008608212694525719,-0.00029000427457503974,0.014039537869393826
0.01633923314511776,0.006095166318118572,-0.015313679352402687,0.00881954189389944,-0.0002526702010072768,0.013424556702375412
0.016239628195762634,0.006017462350428104,-0.014733545482158661,0.008485764265060425,-0.0002379267243668437,0.013926050625741482
0.01623726077377796,0.005627202335745096,-0.015062096528708935,0.00892668031156063,-0.0002258884342154488,0.01468650996685028
0.016643596813082695,0.005800185725092888,-0.0149994483217597,0.008739364333450794,-0.00021508302597794682,0.01503197941929102
0.01605229079723358,0.005786560010164976,-0.015320178121328354,0.00824821088463068,-0.00020526927255559713,0.014543012715876102
0.016606995835900307,0.006039205007255077,-0.014738609082996845,0.008042903617024422,-0.00019631155009847134,0.014802994206547737
0.0165733490139246,0.006392814218997955,-0.015447132289409637,0.008989431895315647,-0.00018810437177307904,0.014479700475931168
0.0167081281542778,0.005762454122304916,-0.01482804212719202,0.009108124300837517,-0.00021185613877605647,0.014889886602759361
0.01631290651857853,0.005917752627283335,-0.01530042476952076,0.009041959419846535,-0.00020799311459995806,0.01470919419080019
0.016645098105072975,0.006561438553035259,-0.014585893601179123,0.009060032665729523,-0.00020054791821166873,0.015104915015399456
0.01684744283556938,0.006283770781010389,-0.015254324302077293,0.009532185271382332,-0.00019338306447025388,0.014676847495138645
0.01673208922147751,0.006288358476012945,-0.01480452623218298,0.009115348570048809,-0.00018669756536837667,0.0142978485673666
0.01733999513089657,0.005644966848194599,-0.014835473150014877,0.009208591654896736,-0.00019520067144185305,0.014044241979718208
0.01672935299575329,0.005831859540194273,-0.014143113046884537,0.009448686614632607,-0.00020272417168598622,0.014656883664429188
0.017110591754317284,0.006496103014796972,-0.014941254630684853,0.008624461479485035,-0.00019727765175048262,0.014477151446044445
0.014818133786320686,0.0063334135338664055,-0.015123600140213966,0.010099640116095543,-0.00021045190806034952,0.014746801927685738
0.01740887574851513,0.005752588622272015,-0.014166055247187614,0.009397311136126518,-0.0002060433034785092,0.014924363233149052
0.017549831420183182,0.0058752489276230335,-0.014957351610064507,0.008910655044019222,-0.00020041302195750177,0.014750365167856216
0.017059247940778732,0.006272883154451847,-0.014339127577841282,0.008935539051890373,-0.00019535374303814024,0.015093522146344185
0.017314502969384193,0.006322898436337709,-0.015242425724864006,0.008975843898952007,-0.00021225262025836855,0.014927364885807037
0.01683245599269867,0.005991718731820583,-0.014886360615491867,0.008898045867681503,-0.00020432203018572181,0.015239870175719261
0.01683245599269867,0.005991718731820583,-0.014886360615491867,0.008898045867681503,-0.00020432203018572181,0.015239870175719261
0.01770208217203617,0.005547353532165289,-0.01506458967924118,0.00941211637109518,-0.00022944185184314847,0.014731388539075851
0.01719191111624241,0.005925765261054039,-0.014345724135637283,0.009598460979759693,-0.00022455617727246135,0.014781522564589977
0.0176398903131485,0.006280237343162298,-0.014820554293692112,0.009687122888863087,-0.0002158811257686466,0.014682108536362648
0.017726466059684753,0.006100332830101252,-0.01487838663160801,0.009371423162519932,-0.0002076005475828424,0.01467878744006157
0.01740446873009205,0.0062905061058700085,-0.015079490840435028,0.009466945193707943,-0.00022880655888002366,0.01450263150036335
0.017460480332374573,0.005749717820435762,-0.014515482820570469,0.009264929220080376,-0.00022461800836026669,0.014689563773572445
0.016876408830285072,0.005277752410620451,-0.014919951558113098,0.009308502078056335,-0.0002171345695387572,0.014711684547364712
0.017162306234240532,0.005277382675558329,-0.0151163749396801,0.009574186988174915,-0.0002359303762204945,0.014730715192854404
0.017550062388181686,0.0061523630283772945,-0.015139922499656677,0.009202035143971443,-0.0002320062048966065,0.015073594637215137
0.017415177077054977,0.005808626301586628,-0.015186394564807415,0.009587138891220093,-0.0003671984013635665,0.015223423950374126
0.017951127141714096,0.005799942649900913,-0.014969133771955967,0.009780729189515114,-0.00038269421202130616,0.015331258997321129
0.01765972189605236,0.005491713527590036,-0.014864237979054451,0.009518692269921303,-0.00038685230538249016,0.015090212225914001
0.017845986410975456,0.005707694683223963,-0.01474618911743164,0.009789472445845604,-0.00039230455877259374,0.015235318802297115
0.01763315312564373,0.005901897791773081,-0.01493317075073719,0.009742253459990025,-0.0003948379890061915,0.015077989548444748
0.01738959737122059,0.00576277170330286,-0.014691168442368507,0.00938902236521244,-0.00037321384297683835,0.015283150598406792
0.018088774755597115,0.0055079287849366665,-0.015295740216970444,0.00947627890855074,-0.00035244383616372943,0.015172062441706657
0.018048645928502083,0.005584328435361385,-0.01460089161992073,0.009974760934710503,-0.00037816594704054296,0.01641112193465233
0.017630569636821747,0.005384023301303387,-0.015014074742794037,0.00984446331858635,-0.00036204044590704143,0.015072827227413654
0.01835288479924202,0.00586841581389308,-0.01438705250620842,0.010396520607173443,-0.00034689821768552065,0.015029915608465672
0.018149031326174736,0.005352701060473919,-0.014548932202160358,0.009531252086162567,-0.0004383607883937657,0.01555660180747509
0.01796819269657135,0.00524064851924777,-0.014668998308479786,0.009982633404433727,-0.0004218841786496341,0.015200725756585598
0.017921723425388336,0.005784852895885706,-0.014077757485210896,0.009794594720005989,-0.0003923749318346381,0.015442772768437862
0.018484238535165787,0.005584908649325371,-0.015110042877495289,0.00928592961281538,-0.00036584874032996595,0.015399814583361149
0.018583741039037704,0.005574909038841724,-0.014917935244739056,0.008975004777312279,-0.00039575211121700704,0.015808094292879105
0.018421636894345284,0.005513765383511782,-0.015166623517870903,0.009536963887512684,-0.00037561237695626915,0.015955865383148193
0.01859951578080654,0.005508135072886944,-0.01435250137001276,0.00952823180705309,-0.00035468352143652737,0.01627204194664955
0.018269522115588188,0.005598253104835749,-0.01496802270412445,0.009576860815286636,-0.00033578751026652753,0.016288641840219498
0.018269522115588188,0.005598253104835749,-0.01496802270412445,0.009576860815286636,-0.00033578751026652753,0.016288641840219498
0.018381578847765923,0.005621667951345444,-0.01438612025231123,0.010492279194295406,-0.00031879072776064277,0.016232986003160477
0.018766093999147415,0.005649487022310495,-0.01513360720127821,0.010094160214066505,-0.0003034314722754061,0.016135595738887787
0.018682191148400307,0.0055633848533034325,-0.014485130086541176,0.009191240184009075,-0.00028948544058948755,0.015585996210575104
0.018550263717770576,0.005514409858733416,-0.015073845162987709,0.00947825238108635,-0.0002767638652585447,0.015872091054916382
0.018594292923808098,0.006038840860128403,-0.014682011678814888,0.00949922576546669,-0.0003004070895258337,0.015990767627954483
0.018428921699523926,0.005528376903384924,-0.01480904407799244,0.009470700286328793,-0.000290582946036011,0.016033727675676346
0.019059384241700172,0.005976120475679636,-0.014527800492942333,0.01005517691373825,-0.00027945221518166363,0.015842255204916
0.019255060702562332,0.00554383872076869,-0.014972985722124577,0.009788832627236843,-0.00026980493566952646,0.015867125242948532
0.018557369709014893,0.005324409808963537,-0.015030407346785069,0.00966527871787548,-0.00025052810087800026,0.015851955860853195
0.01895705983042717,0.005069511942565441,-0.01544788759201765,0.010088222101330757,-0.00023704834165982902,0.015858357772231102
0.019475912675261497,0.005418957676738501,-0.014865817502140999,0.010532158426940441,-0.00022516514582093805,0.016401298344135284
0.019385190680623055,0.005710959434509277,-0.014817074872553349,0.010017666034400463,-0.00021443124569486827,0.016618050634860992
0.01942342147231102,0.006287806201726198,-0.01557252462953329,0.009944488294422626,-0.00022467662347480655,0.016613662242889404
0.019290365278720856,0.00548968929797411,-0.015341021120548248,0.010082187131047249,-0.00023355578014161438,0.01627395488321781
0.019264157861471176,0.005281794350594282,-0.015879957005381584,0.009779218584299088,-0.00022503739455714822,0.01659003272652626
0.019669227302074432,0.005462424363940954,-0.015149177983403206,0.010202738456428051,-0.00021610892144963145,0.01620108261704445
0.019671166315674782,0.005381220020353794,-0.015741974115371704,0.010560979135334492,-0.00024007755564525723,0.0159719530493021
0.01936451531946659,0.006029014475643635,-0.015099473297595978,0.010450745932757854,-0.000233291502809152,0.015969283878803253
0.01948513835668564,0.005719210021197796,-0.015766505151987076,0.010500081814825535,-0.00025298152468167245,0.016190845519304276
0.019585121423006058,0.005104728974401951,-0.015683935955166817,0.010363753885030746,-0.0002400817902525887,0.0171916913241148
0.02017778716981411,0.005297990050166845,-0.015155698172748089,0.010646956972777843,-0.000275687052635476,0.016635462641716003
0.020128851756453514,0.005292701069265604,-0.01584118977189064,0.010496391914784908,-0.0002989968052133918,0.016496505588293076
0.020128851756453514,0.005292701069265604,-0.01584118977189064,0.010496391914784908,-0.0002989968052133918,0.016496505588293076
0.02020806074142456,0.005774468649178743,-0.01555212214589119,0.010749106295406818,-0.00028291819035075605,0.016327593475580215
0.019616151228547096,0.005218947306275368,-0.01566392183303833,0.0104707982391119,-0.00031591832521371543,0.016375204548239708
0.01996784843504429,0.005059757269918919,-0.015743594616651535,0.010399622842669487,-0.0003385890449862927,0.016674578189849854
0.019640354439616203,0.00530038308352232,-0.01545418705791235,0.010921768844127655,-0.00035576277878135443,0.016744928434491158
0.01912722922861576,0.005100463982671499,-0.015774885192513466,0.010949230752885342,-0.00036023525171913207,0.016551971435546875
0.02005980908870697,0.00550456577911973,-0.01559644378721714,0.011048567481338978,-0.0005929594626650214,0.01624440588057041
0.020415570586919785,0.0055891298688948154,-0.015913663432002068,0.011343101039528847,-0.0006600020569749177,0.01656668819487095
0.020217442885041237,0.005560791119933128,-0.015205727890133858,0.010323433205485344,-0.0006439930875785649,0.01687537133693695
0.019636336714029312,0.005302984733134508,-0.015956567600369453,0.009998425841331482,-0.0006236110348254442,0.01594526879489422
0.020069820806384087,0.004917295183986425,-0.015379780903458595,0.009982341900467873,-0.0005699831526726484,0.015987608581781387
0.02047814428806305,0.00537757808342576,-0.01571527309715748,0.009755142964422703,-0.0005922082345932722,0.016897447407245636
0.020546436309814453,0.005261639598757029,-0.015144234523177147,0.01023102831095457,-0.0005513558862730861,0.017130251973867416
0.020236041396856308,0.0053734867833554745,-0.01560832466930151,0.010186017490923405,-0.0005453458870761096,0.017362330108880997
0.0204667579382658,0.005544877145439386,-0.015899386256933212,0.00985446572303772,-0.0005180989974178374,0.017260603606700897
0.020082799717783928,0.005115341395139694,-0.01590399071574211,0.01013006828725338,-0.0005115427193231881,0.016942812129855156
0.02000775747001171,0.005218776874244213,-0.01608586497604847,0.009875287301838398,-0.0005042952252551913,0.01702527515590191
0.020138271152973175,0.005406670272350311,-0.015570247545838356,0.010632715187966824,-0.0005009850719943643,0.016971487551927567
0.020549733191728592,0.005628598853945732,-0.015610859729349613,0.011263932101428509,-0.0004956757184118032,0.01699066162109375
0.020726392045617104,0.005270858760923147,-0.015246502123773098,0.010472876019775867,-0.00046158471377566457,0.017026584595441818
0.020815759897232056,0.005664390977472067,-0.016119331121444702,0.01054478995501995,-0.00048326648538932204,0.01691414602100849
0.020631402730941772,0.0054017663933336735,-0.01562630571424961,0.010426882654428482,-0.0004596665676217526,0.017167160287499428
0.020851392298936844,0.005648965947329998,-0.015796102583408356,0.010304663330316544,-0.00044838336179964244,0.017360499128699303
0.021057935431599617,0.005791096482425928,-0.015949862077832222,0.0107236597687006,-0.00046810973435640335,0.017582464963197708
0.02068064734339714,0.005537139717489481,-0.01622876524925232,0.010203663259744644,-0.0004477848415262997,0.017323408275842667
0.02077861875295639,0.00520984036847949,-0.015890710055828094,0.010612443089485168,-0.0004480644129216671,0.017951641231775284
0.020609213039278984,0.005266224965453148,-0.01602805405855179,0.010376984253525734,-0.0004469400446396321,0.01792536862194538
0.021091410890221596,0.004981982056051493,-0.015387668274343014,0.010359141044318676,-0.00044829296530224383,0.017792481929063797
0.020524971187114716,0.005961612798273563,-0.016078893095254898,0.01089808251708746,-0.0004473078588489443,0.018131563439965248
0.020707683637738228,0.005480389576405287,-0.015431677922606468,0.011074626818299294,-0.0004227910831104964,0.018224414438009262
0.021226661279797554,0.004783181939274073,-0.016185319051146507,0.010420839302241802,-0.0004600771644618362,0.018252557143568993
0.021226661279797554,0.004783181939274073,-0.016185319051146507,0.010420839302241802,-0.0004600771644618362,0.018252557143568993
0.02108285389840603,0.004848680924624205,-0.015467620454728603,0.010906101204454899,-0.00042643066262826324,0.017948567867279053
0.020667608827352524,0.005286312196403742,-0.015761209651827812,0.010716810822486877,-0.00042776940972544253,0.01780114322900772
0.021029897034168243,0.005111967213451862,-0.015512187033891678,0.010594259016215801,-0.0004281381261534989,0.018046680837869644
0.021303541958332062,0.005415020044893026,-0.015880879014730453,0.010649504140019417,-0.0003987534437328577,0.0179536584764719
0.02099987305700779,0.005201813764870167,-0.016131727024912834,0.010704712010920048,-0.00037145259557291865,0.018028736114501953
0.02103239856660366,0.00510828522965312,-0.01583530381321907,0.01110153365880251,-0.000401421042624861,0.018401170149445534
0.022285498678684235,0.0052544609643518925,-0.016304368153214455,0.011156726628541946,-0.0003806726017501205,0.01842844858765602
0.02176845818758011,0.0049363174475729465,-0.015718679875135422,0.011347025632858276,-0.0003591892309486866,0.01834925264120102
0.02154465764760971,0.005503316409885883,-0.016065102070569992,0.01165781356394291,-0.0003818296536337584,0.01849934831261635
0.021231820806860924,0.00539533793926239,-0.015713244676589966,0.010795040987432003,-0.0003680579538922757,0.018396085128188133
0.021821603178977966,0.005419241730123758,-0.01637660153210163,0.011116907931864262,-0.00035175037919543684,0.018272388726472855
0.021492015570402145,0.005519994534552097,-0.015955859795212746,0.011517267674207687,-0.0003517222939990461,0.01834949478507042
0.021544767543673515,0.005422062240540981,-0.016096511855721474,0.010971279814839363,-0.0003278815420344472,0.018366018310189247
0.02218053862452507,0.005690349731594324,-0.016167426481842995,0.011133769527077675,-0.0003585265949368477,0.01861920766532421
0.022376948967576027,0.005893378984183073,-0.01602492667734623,0.010569554753601551,-0.00034296666854061186,0.018543068319559097
0.022619986906647682,0.005859198048710823,-0.016624940559267998,0.010738680139183998,-0.00034911325201392174,0.018768325448036194
0.022247564047574997,0.005336851812899113,-0.016097888350486755,0.011527692899107933,-0.0003537045849952847,0.019051143899559975
0.021061552688479424,0.005735909566283226,-0.016796652227640152,0.011095450259745121,-0.0003598281473387033,0.018670666962862015
0.022421693429350853,0.005454428493976593,-0.016291018575429916,0.011240800842642784,-0.0003634631575550884,0.018968813121318817
0.022444574162364006,0.005833160597831011,-0.016706187278032303,0.010937195271253586,-0.00041978887747973204,0.018753021955490112
0.022074852138757706,0.0055887894704937935,-0.01603437215089798,0.011819310486316681,-0.0004112902097404003,0.01915290206670761
0.02246101386845112,0.004893878009170294,-0.016784995794296265,0.011450394988059998,-0.00044392229756340384,0.019366919994354248
0.023233825340867043,0.004943106323480606,-0.016467241570353508,0.0113957729190588,-0.00046980433398857713,0.020046502351760864
0.023093143478035927,0.004935977049171925,-0.017207471653819084,0.011480579152703285,-0.0004839985049329698,0.018608829006552696
0.022783350199460983,0.005192416254431009,-0.01695440337061882,0.011513293720781803,-0.0004815148713532835,0.01874535158276558
0.022783350199460983,0.005192416254431009,-0.01695440337061882,0.011513293720781803,-0.0004815148713532835,0.01874535158276558
0.02266662009060383,0.0049835206009447575,-0.016382277011871338,0.012559344992041588,-0.0006356406956911087,0.019139282405376434
0.022594135254621506,0.005202258937060833,-0.016805674880743027,0.01232894230633974,-0.0006106026121415198,0.019749172031879425
0.02304515242576599,0.004985234700143337,-0.01669807732105255,0.012326742522418499,-0.0005929020117036998,0.02003565803170204
0.023343604058027267,0.005522840190678835,-0.017416514456272125,0.012183994054794312,-0.0005761014763265848,0.019229670986533165
0.0234567578881979,0.005268299952149391,-0.0166581179946661,0.011543049477040768,-0.0005232709227129817,0.018533410504460335
0.023367898538708687,0.005081165116280317,-0.01669563725590706,0.012415634468197823,-0.00047717426787130535,0.018866201862692833
0.023445868864655495,0.005077886860817671,-0.01726408675312996,0.01158893946558237,-0.00043840642319992185,0.019340453669428825
0.02339613251388073,0.004983691498637199,-0.017081130295991898,0.011394469998776913,-0.0004054625751450658,0.020107364282011986
0.023533441126346588,0.005168353207409382,-0.016575846821069717,0.011627710424363613,-0.0003771240881178528,0.019945276901125908
0.023741556331515312,0.0053404392674565315,-0.015973998233675957,0.011239135637879372,-0.00040713659836910665,0.019460691139101982
0.023527801036834717,0.0050067356787621975,-0.017024844884872437,0.011753339320421219,-0.0003857597184833139,0.019498048350214958
0.022166764363646507,0.004825992044061422,-0.01723661832511425,0.011707075871527195,-0.0003637124609667808,0.020517608150839806
0.023820918053388596,0.004707177169620991,-0.016896624118089676,0.011633450165390968,-0.0003438692365307361,0.02084951102733612
0.024320833384990692,0.0047404468059539795,-0.016904419288039207,0.011949530802667141,-0.000360425328835845,0.020064568147063255
0.023902660235762596,0.0050501748919487,-0.01654970459640026,0.012674052268266678,-0.00035350461257621646,0.019520632922649384
0.024260932579636574,0.004899345804005861,-0.016978953033685684,0.0130451126024127,-0.0003376286767888814,0.019235318526625633
0.023966023698449135,0.0046997275203466415,-0.016856234520673752,0.013114586472511292,-0.0002804760297294706,0.019555918872356415
0.023871077224612236,0.0046476502902805805,-0.01721259392797947,0.013466604053974152,-0.0002589579380583018,0.020532066002488136
0.024746550247073174,0.004552699625492096,-0.016891589388251305,0.013403994031250477,-0.0002720448246691376,0.02087397687137127
0.02501717396080494,0.004656474571675062,-0.017295969650149345,0.013203887268900871,-0.00026422785595059395,0.0208604633808136
0.025052553042769432,0.005221269559115171,-0.016324667260050774,0.013547644950449467,-0.0002886578149627894,0.02085777372121811
0.02454776130616665,0.00505599332973361,-0.017143258824944496,0.013106513768434525,-0.0002808049612212926,0.020768534392118454
0.02481078915297985,0.0049033211544156075,-0.017300382256507874,0.013423587195575237,-0.00030496306135319173,0.020270150154829025
0.024908525869250298,0.004711468704044819,-0.016973286867141724,0.012918135151267052,-0.0002948316978290677,0.0206316951662302
0.02440735325217247,0.004457109607756138,-0.017209451645612717,0.012550430372357368,-0.0004382847691886127,0.020591216161847115
0.02507472224533558,0.004589134361594915,-0.016458597034215927,0.012348944321274757,-0.0004928259877488017,0.02090790681540966
0.025783080607652664,0.004747258964926004,-0.017162322998046875,0.012208789587020874,-0.0004620042454916984,0.020807282999157906
0.025352448225021362,0.005047573707997799,-0.017024047672748566,0.01276356354355812,-0.00048754570889286697,0.020798761397600174
0.025352448225021362,0.005047573707997799,-0.017024047672748566,0.01276356354355812,-0.00048754570889286697,0.020798761397600174
0.025629956275224686,0.0048900688998401165,-0.01697668433189392,0.012660949490964413,-0.0004603027773555368,0.020805809646844864
0.025717144832015038,0.004915799014270306,-0.017206380143761635,0.012472051195800304,-0.00047457710024900734,0.021320801228284836
0.025657139718532562,0.004744052421301603,-0.016595857217907906,0.012336143292486668,-0.00045844653504900634,0.02129400335252285
0.025843869894742966,0.004676212556660175,-0.01748727262020111,0.012541286647319794,-0.0005631954991258681,0.02120465412735939
0.02537330612540245,0.004622794687747955,-0.017121046781539917,0.012979680672287941,-0.0005948517937213182,0.0214163139462471
0.02576570026576519,0.004558209795504808,-0.016907120123505592,0.012918761000037193,-0.000626089982688427,0.021161265671253204
0.025991316884756088,0.004312848672270775,-0.01730703003704548,0.013213939033448696,-0.0006307451985776424,0.021220508962869644
0.02612966112792492,0.004536950495094061,-0.01701744645833969,0.012817604467272758,-0.0006151850102469325,0.02116924151778221
0.02717583440244198,0.004982619546353817,-0.017447669059038162,0.013389107771217823,-0.0006726649589836597,0.021417349576950073
0.027240099385380745,0.004415229894220829,-0.01710306853055954,0.013258999213576317,-0.0007346556521952152,0.0214808601886034
0.026098480448126793,0.004071184433996677,-0.01719452254474163,0.013139951042830944,-0.0007583190454170108,0.021564742550253868
0.02572699822485447,0.004390605725347996,-0.017232375219464302,0.012796628288924694,-0.0007250230992212892,0.021800635382533073
0.026801424100995064,0.004571737255901098,-0.016743246465921402,0.012985865585505962,-0.0007398553425446153,0.02122402749955654
0.02666519396007061,0.0046724905259907246,-0.01720859482884407,0.013194595463573933,-0.0008015738567337394,0.02098909765481949
0.026326442137360573,0.004709336906671524,-0.016911376267671585,0.013167500495910645,-0.0008430886082351208,0.021420206874608994
0.026989545673131943,0.004392475821077824,-0.01720680668950081,0.013330006040632725,-0.0008364374516531825,0.021914802491664886
0.02761528082191944,0.004541121888905764,-0.01736934669315815,0.013114919885993004,-0.0008432636386714876,0.021885976195335388
0.026824157685041428,0.00426372280344367,-0.017417384311556816,0.012886774726212025,-0.0008078311220742762,0.02094210498034954
0.02643579989671707,0.004148723557591438,-0.017082922160625458,0.013138849288225174,-0.0007017601747065783,0.02082105726003647
0.027207747101783752,0.004427051637321711,-0.017303604632616043,0.013266068883240223,-0.0006962660700082779,0.021208984777331352
0.027708470821380615,0.00454398849979043,-0.017580043524503708,0.013654635287821293,-0.000640463549643755,0.02180979959666729
0.027226367965340614,0.004260445944964886,-0.017024394124746323,0.013890151865780354,-0.000643901526927948,0.021722963079810143
0.02755790576338768,0.004474067594856024,-0.017142677679657936,0.014421899802982807,-0.0006669721333310008,0.02173413336277008
0.027155349031090736,0.0044024004600942135,-0.016972824931144714,0.014105199836194515,-0.0006500525632873178,0.021775556728243828
0.02733776345849037,0.004225398413836956,-0.017523571848869324,0.014349918812513351,-0.0006767803570255637,0.0218049306422472
0.027401188388466835,0.0043980637565255165,-0.017586063593626022,0.013805916532874107,-0.0006763135897926986,0.021947341039776802
0.027661938220262527,0.004119890742003918,-0.017140505835413933,0.013755330815911293,-0.0006528672529384494,0.02194369025528431
0.02740231156349182,0.00448446162045002,-0.017612604424357414,0.013283583335578442,-0.0006730884779244661,0.021269088611006737
0.02750200778245926,0.004629276227205992,-0.018049294129014015,0.013181332498788834,-0.0006254710606299341,0.021267805248498917
0.027569953352212906,0.00423019053414464,-0.018144886940717697,0.013693835586309433,-0.0007240520208142698,0.02176167257130146
0.027569953352212906,0.00423019053414464,-0.018144886940717697,0.013693835586309433,-0.0007240520208142698,0.02176167257130146
0.027405675500631332,0.003975212574005127,-0.01795729249715805,0.01360810175538063,-0.0007524338434450328,0.02270341105759144
0.02765866555273533,0.004190342966467142,-0.017142480239272118,0.013646133244037628,-0.000667775864712894,0.02282744087278843
0.02717464789748192,0.004481159616261721,-0.017853785306215286,0.013361319899559021,-0.0006669607246294618,0.0223817378282547
0.027492797002196312,0.0041169412434101105,-0.01801143027842045,0.013795715756714344,-0.0006231312872841954,0.021990880370140076
0.027473345398902893,0.0044386195950210094,-0.017851758748292923,0.013419014401733875,-0.0005683131166733801,0.022072244435548782
0.02762555330991745,0.004160433541983366,-0.0187019482254982,0.013681251555681229,-0.0005213340045884252,0.02228744514286518
0.02646360546350479,0.004400889854878187,-0.01815803162753582,0.013181100599467754,-0.0004814604762941599,0.022478098049759865
0.027888847514986992,0.004373416304588318,-0.017714615911245346,0.013850988820195198,-0.0004942182567901909,0.022683680057525635
0.028371460735797882,0.004140407312661409,-0.018235284835100174,0.013690934516489506,-0.00047613895731046796,0.022913025692105293
0.028819095343351364,0.003950810991227627,-0.018069429323077202,0.014087941497564316,-0.0004474901652429253,0.02293401211500168
0.028244655579328537,0.004306221380829811,-0.018727410584688187,0.013537718914449215,-0.0003824308514595032,0.023170296102762222
0.02719612419605255,0.004682386294007301,-0.018591130152344704,0.013149208389222622,-0.00040843375609256327,0.02303197607398033
0.027840223163366318,0.004704184364527464,-0.017891470342874527,0.013090534135699272,-0.0004345177731011063,0.023319046944379807
0.028871890157461166,0.004200027324259281,-0.018788129091262817,0.013432865962386131,-0.0004500604991335422,0.02343733422458172
0.02867359295487404,0.004176637157797813,-0.018534516915678978,0.012891869992017746,-0.00042753099114634097,0.024262871593236923
0.02925417758524418,0.004419855773448944,-0.017566697672009468,0.013546740636229515,-0.0006537730805575848,0.022914258763194084
0.02874835580587387,0.004071291070431471,-0.017685968428850174,0.013377928175032139,-0.0006883187452331185,0.022887317463755608
0.028750792145729065,0.004425130784511566,-0.018931206315755844,0.01397669780999422,-0.0006735121714882553,0.02350018359720707
0.028479496017098427,0.004477538168430328,-0.018655739724636078,0.014315328560769558,-0.0006496048881672323,0.023662252351641655
0.02857450395822525,0.004333145916461945,-0.018185485154390335,0.014956466853618622,-0.0005915386136621237,0.02336062118411064
0.029093656688928604,0.004087384790182114,-0.01862725242972374,0.01481056772172451,-0.000612642674241215,0.02353622391819954
0.0292121022939682,0.004240584094077349,-0.018282972276210785,0.015269664116203785,-0.0006047158385626972,0.02341916225850582
0.028936978429555893,0.004502402618527412,-0.017986100167036057,0.015041574835777283,-0.0006191020365804434,0.023471752181649208
0.028821641579270363,0.004580402281135321,-0.018512476235628128,0.015081717632710934,-0.0006491662934422493,0.023370567709207535
0.028681118041276932,0.004742411896586418,-0.018026432022452354,0.015161266550421715,-0.0006744248094037175,0.023488059639930725
0.028681118041276932,0.004742411896586418,-0.018026432022452354,0.015161266550421715,-0.0006744248094037175,0.023488059639930725
0.029175834730267525,0.004119897726923227,-0.018668174743652344,0.015319045633077621,-0.0008411804446950555,0.023255880922079086
0.029143942520022392,0.004238456953316927,-0.017761019989848137,0.015371917746961117,-0.0008306680829264224,0.023289520293474197
0.029196064919233322,0.004497184418141842,-0.018614865839481354,0.01577000319957733,-0.0007482905639335513,0.023420805111527443
0.029196064919233322,0.004497184418141842,-0.018614865839481354,0.01577000319957733,-0.0007482905639335513,0.023420805111527443
0.029470287263393402,0.004634811542928219,-0.018576662987470627,0.014647978357970715,-0.0006589440745301545,0.02375907450914383
0.029714012518525124,0.004751947708427906,-0.01802937127649784,0.014695128425955772,-0.0005872792098671198,0.024142317473888397
0.029985791072249413,0.0045861960388720036,-0.018799036741256714,0.014160534366965294,-0.0006055542035028338,0.02406662330031395
0.029661117121577263,0.004322956316173077,-0.018305882811546326,0.014573047868907452,-0.0005618123104795814,0.02375204488635063
0.029653867706656456,0.004357630852609873,-0.018319031223654747,0.014114612713456154,-0.00051639333833009,0.0239497609436512
0.030081551522016525,0.0045983134768903255,-0.018650762736797333,0.014310992322862148,-0.0004772827960550785,0.024313628673553467
0.02998271770775318,0.004724755883216858,-0.018041975796222687,0.014176403172314167,-0.0004902382497675717,0.024267755448818207
0.029679561033844948,0.004679893609136343,-0.0183681920170784,0.014432331547141075,-0.0004726865154225379,0.023540619760751724
0.030140861868858337,0.004677408374845982,-0.018884560093283653,0.01405053399503231,-0.00038488348945975304,0.02327197790145874
0.03025517798960209,0.004132233560085297,-0.01819577068090439,0.014528940431773663,-0.0004169643798377365,0.02363300509750843
0.03050556778907776,0.004400916397571564,-0.018526453524827957,0.01444641686975956,-0.00044710715883411467,0.024286935105919838
0.03058766759932041,0.00469164690002799,-0.018676631152629852,0.015058429911732674,-0.0004773941182065755,0.024309838190674782
0.031139587983489037,0.004622035659849644,-0.018572278320789337,0.015117834322154522,-0.0009992268169298768,0.02521704137325287
0.031216144561767578,0.004720950033515692,-0.018725665286183357,0.01474723219871521,-0.0009930256055667996,0.025617916136980057
0.031041480600833893,0.004817009437829256,-0.01888030394911766,0.015241178683936596,-0.0009376332745887339,0.024857360869646072
0.030792031437158585,0.004468591883778572,-0.01915442757308483,0.014893853105604649,-0.0010767452185973525,0.022784464061260223
0.03054000809788704,0.004249435383826494,-0.018342142924666405,0.015482124872505665,-0.0009774636710062623,0.024192262440919876
0.030785754323005676,0.004246839322149754,-0.01802007295191288,0.015514777041971684,-0.0009329686290584505,0.02496947906911373
0.030892126262187958,0.004978940822184086,-0.018585091456770897,0.015863342210650444,-0.0008391442825086415,0.025523262098431587
0.03151502087712288,0.0045272172428667545,-0.01917772926390171,0.01560680940747261,-0.0007421056507155299,0.025323014706373215
0.03214002773165703,0.0045390953309834,-0.018821604549884796,0.015817774459719658,-0.0006638889899477363,0.024793526157736778
0.031284231692552567,0.0045527066104114056,-0.01914377324283123,0.01574164628982544,-0.0006743671256117523,0.02502640150487423
0.030455155298113823,0.004593372344970703,-0.018794657662510872,0.015666566789150238,-0.0006257359054870903,0.02484809048473835
0.03159340098500252,0.004688521847128868,-0.0184247437864542,0.015499984845519066,-0.0005414325278252363,0.024883154779672623
0.03159340098500252,0.004688521847128868,-0.0184247437864542,0.015499984845519066,-0.0005414325278252363,0.024883154779672623
0.031705982983112335,0.0047632078640162945,-0.018512103706598282,0.014828923158347607,-0.0004555480554699898,0.025201745331287384
0.031868595629930496,0.0050364029593765736,-0.018436431884765625,0.015053550712764263,-0.00045148268691264093,0.02521071955561638
0.032487571239471436,0.00494989613071084,-0.019126445055007935,0.014644109643995762,-0.00044971625902689993,0.025226466357707977
0.03136969730257988,0.00485575245693326,-0.019390936940908432,0.015138527378439903,-0.00046837495756335557,0.02515161782503128
0.030704710632562637,0.004620848223567009,-0.01855352334678173,0.015385637059807777,-0.0004983170656487346,0.025083206593990326
0.030362838879227638,0.004599539563059807,-0.0190768763422966,0.01625075750052929,-0.0004821765760425478,0.024898458272218704
0.03126094490289688,0.004715397022664547,-0.01963246427476406,0.015930606052279472,-0.0006107509252615273,0.025364790111780167
0.032253772020339966,0.004949822090566158,-0.019146623089909554,0.016020596027374268,-0.0005489666946232319,0.02514312043786049
0.030704384669661522,0.004725189879536629,-0.018917303532361984,0.015550927259027958,-0.0005369939026422799,0.02553245984017849
0.032704778015613556,0.004882487002760172,-0.019863896071910858,0.015620375983417034,-0.0005268492386676371,0.025435127317905426
0.03240909054875374,0.005139348097145557,-0.01895652711391449,0.015601693652570248,-0.00048250530380755663,0.025663886219263077
0.03195704147219658,0.004544541239738464,-0.019194314256310463,0.015350009314715862,-0.0004972222959622741,0.02540472149848938
0.03161201998591423,0.004493336658924818,-0.019321298226714134,0.015309126116335392,-0.0004764021432492882,0.02597399242222309
0.031950440257787704,0.005106184631586075,-0.01930878683924675,0.015452681109309196,-0.000490540056489408,0.0257793590426445
0.03189866989850998,0.004911528434604406,-0.019498160108923912,0.015484188683331013,-0.0004560523957479745,0.025654083117842674
0.03233765438199043,0.004858297295868397,-0.019123181700706482,0.015973862260580063,-0.00047681177966296673,0.025435207411646843
0.03308859467506409,0.005068882834166288,-0.01960945315659046,0.016238240525126457,-0.00045550568029284477,0.02605539746582508
0.03305911645293236,0.004608656279742718,-0.01952528767287731,0.016772164031863213,-0.0004211919440422207,0.026974597945809364
0.032622966915369034,0.005083388648927212,-0.019025465473532677,0.015987487509846687,-0.0003907698846887797,0.026258250698447227
0.03265339881181717,0.004915191326290369,-0.01890086941421032,0.016223950311541557,-0.00042086781468242407,0.025548450648784637
0.033855706453323364,0.0049015530385077,-0.019547123461961746,0.015886064618825912,-0.0003979549801442772,0.025004660710692406
0.033066269010305405,0.004776044748723507,-0.019534025341272354,0.01505750697106123,-0.00042431626934558153,0.025608601048588753
0.03186344355344772,0.0046314368955791,-0.01949908770620823,0.0157362911850214,-0.0004542146052699536,0.026300543919205666
0.033082544803619385,0.0046562193892896175,-0.019785093143582344,0.015849146991968155,-0.0005027730367146432,0.025699570775032043
0.033715568482875824,0.004775764420628548,-0.019290262833237648,0.01664118468761444,-0.0004996078205294907,0.026142332702875137
0.033715568482875824,0.004775764420628548,-0.019290262833237648,0.01664118468761444,-0.0004996078205294907,0.026142332702875137
0.03325551748275757,0.004706083331257105,-0.01922549307346344,0.016671404242515564,-0.0005310794222168624,0.027057303115725517
0.03394310176372528,0.005261904560029507,-0.01964612305164337,0.01695220358669758,-0.0005284392973408103,0.026442522183060646
0.03381038084626198,0.0051048933528363705,-0.019733469933271408,0.016430556774139404,-0.0005221687024459243,0.026047972962260246
0.03294042870402336,0.004780338611453772,-0.019391436129808426,0.016483580693602562,-0.0007243537693284452,0.02605602517724037
0.03245853632688522,0.004981680307537317,-0.01937994919717312,0.017052384093403816,-0.0007587026339024305,0.02566732093691826
0.03426627442240715,0.005300912540405989,-0.019127923995256424,0.016651557758450508,-0.0007266703178174794,0.026805495843291283
0.03416465222835541,0.00473487563431263,-0.019187821075320244,0.01679232530295849,-0.0006947912625037134,0.02745761349797249
0.03336730971932411,0.00508574815467,-0.019765501841902733,0.016316015273332596,-0.0007058433839119971,0.026912206783890724
0.03379613161087036,0.005501575767993927,-0.019198138266801834,0.016706090420484543,-0.0007384055061265826,0.02670923061668873
0.03347434103488922,0.004841401241719723,-0.019142430275678635,0.016454696655273438,-0.0007604333222843707,0.026637563481926918
0.03407815471291542,0.00459705526009202,-0.019388986751437187,0.01620796136558056,-0.000749472645111382,0.026127317920327187
0.033904898911714554,0.004909217357635498,-0.019037673249840736,0.016502415761351585,-0.0007648396422155201,0.026077069342136383
0.03388085588812828,0.004973660688847303,-0.0188763327896595,0.016575776040554047,-0.000734266301151365,0.026399092748761177
0.0335911400616169,0.004792334511876106,-0.01936819590628147,0.017241979017853737,-0.000751637271605432,0.026699844747781754
0.034026626497507095,0.004731492605060339,-0.018845167011022568,0.016822930425405502,-0.0007802366744726896,0.026557857170701027
0.03433462977409363,0.004665756598114967,-0.018887052312493324,0.016870392486453056,-0.000738199451006949,0.026697291061282158
0.03470801189541817,0.004642101004719734,-0.01959063671529293,0.016779305413365364,-0.0007538237841799855,0.02672235481441021
0.03456763178110123,0.004655900411307812,-0.01938812993466854,0.016297439113259315,-0.0006792906788177788,0.026949351653456688
0.03433650732040405,0.004656204953789711,-0.019412582740187645,0.016645558178424835,-0.0006380811682902277,0.027348138391971588
0.033542733639478683,0.004656583070755005,-0.019275203347206116,0.017227033153176308,-0.000602319254539907,0.027307571843266487
0.03506297245621681,0.004724913742393255,-0.019104089587926865,0.017061471939086914,-0.0005989184719510376,0.02722121775150299
0.035375114530324936,0.004558168351650238,-0.019333859905600548,0.017058206722140312,-0.0005821761442348361,0.0274128969758749
0.03503476455807686,0.003778795013204217,-0.018947046250104904,0.0171176977455616,-0.0006041113520041108,0.027689259499311447
0.03503476455807686,0.003778795013204217,-0.018947046250104904,0.0171176977455616,-0.0006041113520041108,0.027689259499311447
0.03479535132646561,0.00317589845508337,-0.019844744354486465,0.016911637037992477,-0.0005695669678971171,0.027684880420565605
0.03493088483810425,0.00357469217851758,-0.020254401490092278,0.016727536916732788,-0.0005464741843752563,0.02768823876976967
0.03533158823847771,0.003915168344974518,-0.019290482625365257,0.016954608261585236,-0.0006155741866678,0.028164349496364594
0.034937165677547455,0.004081740975379944,-0.01965971849858761,0.017019862309098244,-0.0006516824942082167,0.027691390365362167
0.034937165677547455,0.004081740975379944,-0.01965971849858761,0.017019862309098244,-0.0006516824942082167,0.027691390365362167
0.03478340432047844,0.00383908418007195,-0.020055780187249184,0.016655126586556435,-0.0006722005200572312,0.028358789160847664
0.0351567380130291,0.003564152168110013,-0.01913982257246971,0.016745859757065773,-0.0006180829950608313,0.028652384877204895
0.0346703939139843,0.0035447978880256414,-0.02020585723221302,0.016337333247065544,-0.0006382462452165782,0.028433766216039658
0.03537868335843086,0.0034938608296215534,-0.021095534786581993,0.01659834012389183,-0.0006681872764602304,0.029071595519781113
0.03620751574635506,0.0036051177885383368,-0.02032475918531418,0.01651579700410366,-0.0007099346839822829,0.02908804640173912
0.03535265102982521,0.0036982554011046886,-0.019660085439682007,0.016711119562387466,-0.0006801884155720472,0.028406212106347084
0.03455022722482681,0.0036980286240577698,-0.02045886404812336,0.01726342737674713,-0.0006813457584939897,0.027742300182580948
0.03539062291383743,0.003968853037804365,-0.020213186740875244,0.016648931428790092,-0.0006354367360472679,0.02774791419506073
0.03514476865530014,0.0038446146063506603,-0.020178988575935364,0.0169574785977602,-0.0006184043595567346,0.02905523218214512
0.035910461097955704,0.003512222319841385,-0.020382683724164963,0.016628099605441093,-0.0006028141942806542,0.02865619771182537
0.03689040243625641,0.0034871590323746204,-0.02067437767982483,0.016941703855991364,-0.000558404834009707,0.028442053124308586
0.0358411967754364,0.003685943316668272,-0.019642280414700508,0.01661834865808487,-0.0005447917501442134,0.029170531779527664
0.034668371081352234,0.0038567690644413233,-0.02031058631837368,0.016392311081290245,-0.0004913832526654005,0.028993984684348106
0.0357975959777832,0.00345312780700624,-0.02050921507179737,0.01687452755868435,-0.0005255520809441805,0.028020203113555908
0.03645921126008034,0.0035691235680133104,-0.020207567140460014,0.016838787123560905,-0.00048381625674664974,0.0274402666836977
0.03597654029726982,0.0038482118397951126,-0.02065124548971653,0.017276423051953316,-0.0005131079233251512,0.027907220646739006
0.03602232784032822,0.0040216208435595036,-0.020862163975834846,0.017260195687413216,-0.0004786115023307502,0.029034456238150597
0.03598204255104065,0.003470024559646845,-0.020182175561785698,0.017494486644864082,-0.0005573097732849419,0.028788700699806213
0.03623967617750168,0.003647499717772007,-0.02071523107588291,0.018054643645882607,-0.0006122338818386197,0.02874171920120716
0.03561731055378914,0.0038285301998257637,-0.020635142922401428,0.018434200435876846,-0.0006947829388082027,0.028802165761590004
0.03528887778520584,0.004383599851280451,-0.01987615041434765,0.018089212477207184,-0.0006827558390796185,0.028479108586907387
0.035967033356428146,0.00413272250443697,-0.020328961312770844,0.017591213807463646,-0.00113673135638237,0.02928764559328556
0.035809870809316635,0.00395040400326252,-0.020713260397315025,0.017281439155340195,-0.0011425497941672802,0.02930408902466297
0.0357540063560009,0.003955590073019266,-0.020341968163847923,0.016984911635518074,-0.0011076274095103145,0.029095444828271866
0.03672705218195915,0.004019530024379492,-0.020050780847668648,0.018149517476558685,-0.0009750582394190133,0.028752794489264488
0.03601047769188881,0.004040325991809368,-0.020659612491726875,0.01864122413098812,-0.0009000060381367803,0.02889782376587391
0.03601047769188881,0.004040325991809368,-0.020659612491726875,0.01864122413098812,-0.0009000060381367803,0.02889782376587391
0.03528672456741333,0.004071484785526991,-0.020855199545621872,0.01815357618033886,-0.0007598312804475427,0.029142087325453758
0.035776011645793915,0.004016253165900707,-0.02036578767001629,0.01791122928261757,-0.0007705586613155901,0.029344039037823677
0.03529353812336922,0.003933256026357412,-0.020352084189653397,0.018258700147271156,-0.0007353628752753139,0.02852366305887699
0.03640906885266304,0.0038653030060231686,-0.020393913611769676,0.018382586538791656,-0.0007020960911177099,0.030079269781708717
0.03729848936200142,0.004336128942668438,-0.02035786397755146,0.019089406356215477,-0.0007185963913798332,0.029941605404019356
0.03557253256440163,0.004190478473901749,-0.020142309367656708,0.01877165213227272,-0.0006654722383245826,0.02958781085908413
0.03497486561536789,0.0038858132902532816,-0.020504022017121315,0.0179287176579237,-0.0006741265533491969,0.029865311458706856
0.03722517192363739,0.003763046581298113,-0.02052057348191738,0.018032077699899673,-0.0007124330732040107,0.02966209501028061
0.037099894136190414,0.003791983239352703,-0.019697347655892372,0.017698567360639572,-0.000738990493118763,0.030220147222280502
0.03656438738107681,0.003875242080539465,-0.020132048055529594,0.017969075590372086,-0.0011063249548897147,0.029463645070791245
0.03660585731267929,0.003903956152498722,-0.020324386656284332,0.01829039677977562,-0.0010332632809877396,0.0298930536955595
0.037271466106176376,0.0038218190893530846,-0.020220715552568436,0.01804637350142002,-0.001009046216495335,0.031330693513154984
0.0369395837187767,0.0040597254410386086,-0.020574400201439857,0.01822003349661827,-0.00098489411175251,0.03126262500882149
0.03725449740886688,0.0040154228918254375,-0.020672578364610672,0.0181961078196764,-0.0009350277250632644,0.029899409040808678
0.037572260946035385,0.0037874856498092413,-0.020511841401457787,0.018234314396977425,-0.0009313744376413524,0.0290321484208107
0.03755767270922661,0.003649256657809019,-0.020157823339104652,0.018395982682704926,-0.0009090528474189341,0.029886307194828987
0.036912765353918076,0.0036724901292473078,-0.020599020645022392,0.01828576624393463,-0.0008212542161345482,0.030057424679398537
0.03722682595252991,0.004345417488366365,-0.02045545168220997,0.018258560448884964,-0.0008245345670729876,0.030243169516324997
0.03759760782122612,0.003906663041561842,-0.02096107043325901,0.0177757628262043,-0.0008128694607876241,0.030818212777376175
0.03804149851202965,0.00418771430850029,-0.021599793806672096,0.01806514896452427,-0.0008090082556009293,0.030304275453090668
0.038141846656799316,0.004219080321490765,-0.021049588918685913,0.018364155665040016,-0.0008325895178131759,0.029549460858106613
0.03783947229385376,0.004501283168792725,-0.020551592111587524,0.01816953718662262,-0.0009831383358687162,0.030662918463349342
