davideferrari95/blind_handover_controller/data/Test 233 - [2024-02-08 -- 12-29-42]/joint_states_data.csv
shoulder_pan_joint,shoulder_lift_joint,elbow_joint,wrist_1_joint,wrist_2_joint,wrist_3_joint
0.009649138897657394,0.012761978432536125,-0.017738215625286102,0.0012141081970185041,-0.005362783558666706,0.006868315394967794
0.009649138897657394,0.012761978432536125,-0.017738215625286102,0.0012141081970185041,-0.005362783558666706,0.006868315394967794
0.009649138897657394,0.012761978432536125,-0.017738215625286102,0.0012141081970185041,-0.005362783558666706,0.006868315394967794
0.010400262661278248,0.012978862971067429,-0.01686118170619011,0.0010026481468230486,-0.004409953951835632,0.007178719155490398
0.010971465148031712,0.013414616696536541,-0.0169856958091259,0.0010973225580528378,-0.004591029603034258,0.007486693561077118
0.01096169464290142,0.012841260991990566,-0.016963766887784004,0.0014249334344640374,-0.004531349055469036,0.007856608368456364
0.010316077619791031,0.013299599289894104,-0.017700770869851112,0.0015909710200503469,-0.003604298457503319,0.007169714663177729
0.010701850056648254,0.012932335026562214,-0.017441276460886,0.0019491745624691248,-0.0028209402225911617,0.007615025620907545
0.01072869636118412,0.01350478921085596,-0.016877224668860435,0.0020638559944927692,-0.002349206479266286,0.007783286739140749
0.010588292963802814,0.013419980183243752,-0.017703169956803322,0.0022894572466611862,-0.0024166118819266558,0.007494283374398947
0.01024223119020462,0.013938273303210735,-0.017091065645217896,0.0020533758215606213,-0.0029948572628200054,0.007430511061102152
0.010483255609869957,0.012895570136606693,-0.01708131842315197,0.0018211703281849623,-0.003581846598535776,0.008538691326975822
0.010075344704091549,0.013268508948385715,-0.017415812239050865,0.0018532292451709509,-0.0036878136452287436,0.008018923923373222
0.009862407110631466,0.013928908854722977,-0.017197279259562492,0.0020416195038706064,-0.0034752562642097473,0.007800199091434479
0.010578498244285583,0.01306040957570076,-0.01716761104762554,0.0020676671992987394,-0.003081464907154441,0.008346143178641796
0.011100653558969498,0.013147481717169285,-0.01655413582921028,0.0021170517429709435,-0.0026911753229796886,0.009127880446612835
0.01087492611259222,0.012696674093604088,-0.017117615789175034,0.0019854826387017965,-0.0024670474231243134,0.00867305789142847
0.01182049885392189,0.012854107655584812,-0.01733976975083351,0.0019076686585322022,-0.002480522496625781,0.008353780955076218
0.011420037597417831,0.012815930880606174,-0.016785748302936554,0.0017934468341991305,-0.0024738775100558996,0.008402002975344658
0.010537433438003063,0.014010037295520306,-0.0170487891882658,0.0018503818428143859,-0.002871427219361067,0.008421377278864384
0.011758537963032722,0.013605417683720589,-0.016014017164707184,0.0019661742262542248,-0.0032589512411504984,0.008837749250233173
0.01142280362546444,0.013897057622671127,-0.0169436726719141,0.0022304600570350885,-0.003410911886021495,0.009067222476005554
0.01172169204801321,0.013406377285718918,-0.01688116230070591,0.0025564024690538645,-0.0034319793339818716,0.008907734416425228
0.011527424678206444,0.012794643640518188,-0.01686890795826912,0.002835734747350216,-0.003620802192017436,0.009583697654306889
0.011206848546862602,0.013239048421382904,-0.016516629606485367,0.0028083669021725655,-0.0033335431944578886,0.009047945961356163
0.011281472630798817,0.012678324244916439,-0.01605411246418953,0.002825829666107893,-0.00314941443502903,0.008927677758038044
0.011124327778816223,0.01340927928686142,-0.01676352508366108,0.0028272306080907583,-0.002986765932291746,0.009063275530934334
0.011029340326786041,0.012850232422351837,-0.01640830934047699,0.0028597889468073845,-0.0029660682193934917,0.009051689878106117
0.011552496813237667,0.013098989613354206,-0.01658487133681774,0.0027122963219881058,-0.0029345080256462097,0.009336002171039581
0.011435833759605885,0.013033075258135796,-0.0152541883289814,0.002644689055159688,-0.003087037242949009,0.009564469568431377
0.011050020344555378,0.013333408161997795,-0.015429775230586529,0.002563245827332139,-0.0029154520016163588,0.009483352303504944
0.011050020344555378,0.013333408161997795,-0.015429775230586529,0.002563245827332139,-0.0029154520016163588,0.009483352303504944
0.010943025350570679,0.012715122662484646,-0.015474067069590092,0.002253011567518115,-0.0024442120920866728,0.009402502328157425
0.010943025350570679,0.012715122662484646,-0.015474067069590092,0.002253011567518115,-0.0024442120920866728,0.009402502328157425
0.01092007290571928,0.012457788921892643,-0.015245921909809113,0.0024698309134691954,-0.0021327603608369827,0.010428291745483875
0.010918954387307167,0.012928476557135582,-0.016161294654011726,0.0026956554502248764,-0.002123583573848009,0.01001743134111166
0.011212517507374287,0.012296786531805992,-0.015715591609477997,0.002876763232052326,-0.0023976482916623354,0.00999336875975132
0.01085017342120409,0.012202784419059753,-0.015833865851163864,0.00295681762509048,-0.002814610954374075,0.009609615430235863
0.011546675115823746,0.011832231655716896,-0.015051326714456081,0.0030851075425744057,-0.0028238885570317507,0.011091560125350952
0.011198749765753746,0.012386664748191833,-0.016034940257668495,0.0029902670066803694,-0.002561751054599881,0.011605496518313885
0.010793601162731647,0.012138300575315952,-0.016100846230983734,0.0028974649030715227,-0.002197485649958253,0.010937199927866459
0.011641687713563442,0.011611981317400932,-0.016677454113960266,0.0030723221134394407,-0.0019318131962791085,0.010550109669566154
0.011284293606877327,0.012052939273416996,-0.016183461993932724,0.002968589309602976,-0.001767302630469203,0.010546778328716755
0.011438192799687386,0.011707102879881859,-0.015008678659796715,0.003279231023043394,-0.0019330013310536742,0.010265315882861614
0.011204460635781288,0.012168609537184238,-0.01580381579697132,0.0035308264195919037,-0.0024697654880583286,0.009910703636705875
0.010721957311034203,0.01196193229407072,-0.01528849732130766,0.0034583494998514652,-0.002301717409864068,0.010628964751958847
0.011076122522354126,0.012258235365152359,-0.015792129561305046,0.0032800885383039713,-0.002258769003674388,0.010255101136863232
0.011291876435279846,0.012115905061364174,-0.014946280978620052,0.0033055355306714773,-0.001983262598514557,0.010199080221354961
0.010916391387581825,0.01151924766600132,-0.01557496003806591,0.0032024795655161142,-0.0016865895595401525,0.010497590526938438
0.011723293922841549,0.011803158558905125,-0.015110284090042114,0.003419328946620226,-0.0014875773340463638,0.010821840725839138
0.011322882026433945,0.011610772460699081,-0.015440604649484158,0.003581866156309843,-0.001280838274396956,0.010733507573604584
0.011184373870491982,0.011688030324876308,-0.01594461128115654,0.003134983591735363,-0.0012098164297640324,0.010412154719233513
0.011382250115275383,0.012086642906069756,-0.015584714710712433,0.0030289627611637115,-0.0009819886181503534,0.010432712733745575
0.010947342962026596,0.011503069661557674,-0.015261673368513584,0.0032454191241413355,-0.0009558408055454493,0.010672151111066341
0.011899003759026527,0.011714618653059006,-0.015331772156059742,0.0034459263551980257,-0.0009463426540605724,0.010781821794807911
0.01134257297962904,0.011132372543215752,-0.015645688399672508,0.004083437379449606,-0.0009400224662385881,0.011019639670848846
0.01125109288841486,0.011261866427958012,-0.015297181904315948,0.0036190846003592014,-0.0009107551304623485,0.011088449507951736
0.01097811572253704,0.011532067321240902,-0.015545750968158245,0.003177482867613435,-0.0008973500807769597,0.010967325419187546
0.011098306626081467,0.01138241495937109,-0.015086721628904343,0.0028185539413243532,-0.0008637278224341571,0.01112375594675541
0.011098306626081467,0.01138241495937109,-0.015086721628904343,0.0028185539413243532,-0.0008637278224341571,0.01112375594675541
0.011100690811872482,0.011586613953113556,-0.014559482224285603,0.0031277728267014027,-0.0009054032852873206,0.011396724730730057
0.01095410343259573,0.011768589727580547,-0.015278828330338001,0.002952326089143753,-0.0009097660658881068,0.01135009154677391
0.011456123553216457,0.011791132390499115,-0.01486989390105009,0.00308500649407506,-0.0008418082725256681,0.010877519845962524
0.010873016901314259,0.011500807479023933,-0.015370829030871391,0.003532221307978034,-0.0008368003182113171,0.01112254336476326
0.011121570132672787,0.011893287301063538,-0.014580188319087029,0.003872389206662774,-0.0008027112344279885,0.011820492334663868
0.010983393527567387,0.011317906901240349,-0.015144922770559788,0.003960072994232178,-0.0007642762502655387,0.011767864227294922
0.010414338670670986,0.011417120695114136,-0.014428947120904922,0.003565063001587987,-0.0007256435928866267,0.011667310260236263
0.01089557446539402,0.01161106862127781,-0.015144499018788338,0.004021325148642063,-0.0006380812264978886,0.011432502418756485
0.01109739113599062,0.01118797343224287,-0.014758440665900707,0.004098415374755859,-0.000663135142531246,0.011424919590353966
0.010337409563362598,0.01174570806324482,-0.015143903903663158,0.003923871088773012,-0.000669194501824677,0.011738036759197712
0.010578781366348267,0.011776579543948174,-0.014769778586924076,0.0038181059062480927,-0.0006254047621041536,0.011236884631216526
0.010300268419086933,0.01190913561731577,-0.015193856321275234,0.0038786488585174084,-0.0006404042360372841,0.01195115502923727
0.010735816322267056,0.011962147429585457,-0.014896961860358715,0.004237551707774401,-0.0005969101330265403,0.011586833745241165
0.010745251551270485,0.011462626047432423,-0.015088818967342377,0.004254166502505541,-0.0005745452945120633,0.011397380381822586
0.010551870800554752,0.012048793025314808,-0.015081002376973629,0.0035620396956801414,-0.000532744568772614,0.011680186726152897
0.011107973754405975,0.01138235442340374,-0.01475102361291647,0.0034891851246356964,-0.0005476070218719542,0.011027227155864239
0.010504057630896568,0.01141372974961996,-0.015212859027087688,0.0036430249456316233,-0.0005167052149772644,0.01095519121736288
0.010617000982165337,0.012099775485694408,-0.015173487365245819,0.0037822334561496973,-0.0005460148677229881,0.011572922579944134
0.010936647653579712,0.012132772244513035,-0.015079835429787636,0.0038222516886889935,-0.0005069180042482913,0.011269304901361465
0.010728654451668262,0.011848099529743195,-0.015097120776772499,0.0041103907860815525,-0.0005186939379200339,0.011622142046689987
0.01079474575817585,0.011659153737127781,-0.015249226242303848,0.004197041969746351,-0.0004981262609362602,0.011141614057123661
0.010487724095582962,0.011587987653911114,-0.014616038650274277,0.00408875523135066,-0.00046681842650286853,0.011300753802061081
0.01012522354722023,0.01232918631285429,-0.015216373838484287,0.0035844743251800537,-0.00043844181345775723,0.011659159325063229
0.010331375524401665,0.011442556045949459,-0.014511713758111,0.0038553914055228233,-0.00041505732224322855,0.011344031430780888
0.010616297833621502,0.011666628532111645,-0.014995630830526352,0.004211015999317169,-0.00040511286351829767,0.011492840014398098
0.010616297833621502,0.011666628532111645,-0.014995630830526352,0.004211015999317169,-0.00040511286351829767,0.011492840014398098
0.010703607462346554,0.011408442631363869,-0.01464137714356184,0.004082724452018738,-0.0003732835757546127,0.011234763078391552
0.01121691707521677,0.01151876151561737,-0.015268444083631039,0.004340656101703644,-0.0003447751805651933,0.011763699352741241
0.010283599607646465,0.011033384129405022,-0.015146618708968163,0.004257161635905504,-0.0002989426429849118,0.010965562425553799
0.010239229537546635,0.011805014684796333,-0.014476573094725609,0.004367680288851261,-0.0002803093520924449,0.011398161761462688
0.010314573533833027,0.01143947709351778,-0.015101746656000614,0.004462197422981262,-0.0003129773831460625,0.011515047401189804
0.010383878834545612,0.011370446532964706,-0.014596797525882721,0.004116659052670002,-0.0002988538471981883,0.011197611689567566
0.0106931421905756,0.011761864647269249,-0.014985103160142899,0.00439421646296978,-0.0002833757607731968,0.010439431294798851
0.010332870297133923,0.011393577791750431,-0.014268818311393261,0.004595504608005285,-0.00026925504789687693,0.011808513663709164
0.011090654879808426,0.01194603182375431,-0.015070716850459576,0.004345074761658907,-0.00025646391441114247,0.01200641505420208
0.011958584189414978,0.011581923812627792,-0.014733579009771347,0.0042338501662015915,-0.000244832452153787,0.011352387256920338
0.012881611473858356,0.011587695218622684,-0.014935281127691269,0.004030223004519939,-0.0002342119551030919,0.010914448648691177
0.013185149058699608,0.012393363751471043,-0.01462800893932581,0.0037880432792007923,-0.00022447337687481195,0.011466779746115208
0.012355613522231579,0.011400805786252022,-0.014948337338864803,0.0038725791964679956,-0.00021551364625338465,0.010985162109136581
0.012752491980791092,0.011985711753368378,-0.014722689986228943,0.004454798065125942,-0.00020724038768094033,0.011052521876990795
0.012913973070681095,0.01190334465354681,-0.01506421621888876,0.004676428157836199,-0.0001995796919800341,0.011019623838365078
0.012579064816236496,0.011432047933340073,-0.014448416419327259,0.004354299511760473,-0.00019246581359766424,0.010804877616465092
0.013039267621934414,0.011676226742565632,-0.014810767956078053,0.0039266254752874374,-0.00018584090867079794,0.010770391672849655
0.012587440200150013,0.011457686312496662,-0.014910492114722729,0.004164877347648144,-0.00017965711595024914,0.010702836327254772
0.012993802316486835,0.011784673668444157,-0.01494373194873333,0.004177447408437729,-0.00017387178377248347,0.0107465460896492
0.012149015441536903,0.0116787850856781,-0.015016254037618637,0.004311423748731613,-0.0001684477465460077,0.01170055940747261
0.012691543437540531,0.012187138199806213,-0.014806876890361309,0.00427615363150835,-0.00016335176769644022,0.011254681274294853
0.012348802760243416,0.011501878499984741,-0.015370657667517662,0.004739349242299795,-0.00015855465608183295,0.011023128405213356
0.012834063731133938,0.011283937841653824,-0.015615418553352356,0.004503559321165085,-0.00015403187717311084,0.010744786821305752
0.012444788590073586,0.011913989670574665,-0.01579306833446026,0.004603639245033264,-0.00014975943486206234,0.011245634406805038
0.012227853760123253,0.011424810625612736,-0.015115948393940926,0.004189724568277597,-0.0001457179751014337,0.011237263679504395
0.01278091873973608,0.01233017910271883,-0.015166869387030602,0.004165329970419407,-0.00014188924978952855,0.010966328904032707
0.012273509055376053,0.011092612519860268,-0.01579436846077442,0.004387712571769953,-0.0001348044752376154,0.01101202517747879
0.012273509055376053,0.011092612519860268,-0.01579436846077442,0.004387712571769953,-0.0001348044752376154,0.01101202517747879
0.012087538838386536,0.011662708595395088,-0.015728069469332695,0.00454388651996851,-0.0001315210829488933,0.011476220563054085
0.012831638567149639,0.011196207255125046,-0.016190752387046814,0.004697874654084444,-0.00012839371629524976,0.010808352380990982
0.012538330629467964,0.011175159364938736,-0.015334216877818108,0.004534285981208086,-0.0001254118251381442,0.0112833883613348
0.012932277284562588,0.011513818986713886,-0.015369618311524391,0.0045748003758490086,-0.00012256520858500153,0.010341087356209755
0.012894232757389545,0.010985766537487507,-0.01499466598033905,0.004487916827201843,-0.00011984483717242256,0.01054732408374548
0.012391329742968082,0.01125796977430582,-0.01504046656191349,0.004407168831676245,-0.00011724284559022635,0.010631905868649483
0.012354815378785133,0.010865391232073307,-0.015639653429389,0.0042775943875312805,-0.00011475135397631675,0.010356930084526539
0.010757043026387691,0.010944333858788013,-0.01555462833493948,0.004115208052098751,-0.00011236362479394302,0.01052712183445692
0.013009646907448769,0.01110237929970026,-0.01556121464818716,0.00440699327737093,-0.00011007294233422726,0.01072764489799738
0.013061056844890118,0.010405673645436764,-0.015252193436026573,0.004655721131712198,-0.00010787406063172966,0.010206700302660465
0.012528127059340477,0.011000767350196838,-0.015483934432268143,0.00472151767462492,-0.00010576131171546876,0.010560538619756699
0.012492157518863678,0.010688701644539833,-0.01480354368686676,0.0047001102939248085,-0.00010372969700256363,0.010846521705389023
0.012365262024104595,0.010093535296618938,-0.014797106385231018,0.0046377903781831264,-0.00010177463263971731,0.01055851113051176
0.01248016208410263,0.010618407279253006,-0.015750102698802948,0.004313935991376638,-8.75370460562408e-05,0.010535716079175472
0.012148205190896988,0.010642604902386665,-0.01624644175171852,0.004418236669152975,-8.201169111998752e-05,0.010646946728229523
0.01271612849086523,0.010442592203617096,-0.01513412594795227,0.0050113913603127,-8.02916765678674e-05,0.010991714894771576
0.012287461198866367,0.010660996660590172,-0.015113160014152527,0.00514659658074379,-7.886769890319556e-05,0.010490606538951397
0.012230807915329933,0.010761707089841366,-0.014758877456188202,0.0057019321247935295,-6.403508450603113e-05,0.01020048838108778
0.012801825068891048,0.010162190534174442,-0.015729058533906937,0.005231284070760012,-6.108899106038734e-05,0.01081546675413847
0.01242490578442812,0.010667399503290653,-0.014909815043210983,0.004582366440445185,-4.882605207967572e-05,0.011355643160641193
0.012627235613763332,0.010106825269758701,-0.015232990495860577,0.00450887531042099,-4.447260653250851e-05,0.010732990689575672
0.012277794070541859,0.010292993858456612,-0.01569923758506775,0.00511319562792778,-4.3532556446734816e-05,0.010536625981330872
0.01286519318819046,0.010213798843324184,-0.015082999132573605,0.0055697918869555,2.8922775527462363e-05,0.009996683336794376
0.012123924680054188,0.01059147622436285,-0.015245458111166954,0.0056517901830375195,4.128323053009808e-05,0.00991345476359129
0.012751592323184013,0.010521279647946358,-0.015058170072734356,0.005050934851169586,4.860952321905643e-05,0.010611317120492458
0.01237551774829626,0.010447956621646881,-0.01526255626231432,0.00483491737395525,6.329876487143338e-05,0.010966985486447811
0.012524206191301346,0.009869684465229511,-0.014763524755835533,0.005018888507038355,7.695050589973107e-05,0.010391407646238804
0.012524206191301346,0.009869684465229511,-0.014763524755835533,0.005018888507038355,7.695050589973107e-05,0.010391407646238804
0.012400416657328606,0.01031112764030695,-0.015395816415548325,0.005326170939952135,0.000584149151109159,0.01035300362855196
0.012298093177378178,0.010587150231003761,-0.014784079045057297,0.004890461452305317,0.0007156815263442695,0.010016380809247494
0.01273696031421423,0.010668625123798847,-0.015433608554303646,0.0051193502731621265,0.0007249957998283207,0.011185566894710064
0.01273696031421423,0.010668625123798847,-0.015433608554303646,0.0051193502731621265,0.0007249957998283207,0.011185566894710064
0.012684772722423077,0.010431809350848198,-0.014745141379535198,0.005483848042786121,0.0007486806716769934,0.01064749713987112
0.012815291061997414,0.010410432703793049,-0.015405284240841866,0.0053387535735964775,0.0007795443525537848,0.009738986380398273
0.013017424382269382,0.009851108305156231,-0.014240666292607784,0.0050281016156077385,0.0007967344135977328,0.009536166675388813
0.012699702754616737,0.01040051132440567,-0.014845061115920544,0.004797469824552536,0.0008093664655461907,0.009904158301651478
0.012805051170289516,0.01031835749745369,-0.01449558511376381,0.004732918459922075,0.0007768818759359419,0.00987294316291809
0.012646976858377457,0.010189101099967957,-0.015183595009148121,0.004645173437893391,0.0009933618130162358,0.00967894122004509
0.013448299840092659,0.01003193762153387,-0.014504379592835903,0.005208222195506096,0.0010105748660862446,0.01040272880345583
0.012869803234934807,0.010047849267721176,-0.014570502564311028,0.0054966784082353115,0.0009970462415367365,0.00990371871739626
0.012991325929760933,0.010716922581195831,-0.014266016893088818,0.005079000722616911,0.0010785007616505027,0.009163864888250828
0.013130580075085163,0.010406671091914177,-0.014926949515938759,0.0049563124775886536,0.0010853518033400178,0.009496640413999557
0.01278029102832079,0.010390237905085087,-0.014771681278944016,0.004806015640497208,0.0010562980314716697,0.009960051625967026
0.01300529483705759,0.009886596351861954,-0.015058979392051697,0.004733375273644924,0.001033466192893684,0.009628341533243656
0.012930268421769142,0.010258267633616924,-0.014575166627764702,0.004763426259160042,0.0009856197284534574,0.009817736223340034
0.013234514743089676,0.010465565137565136,-0.0146262738853693,0.005119373090565205,0.0009760010289028287,0.00944049097597599
0.012838420458137989,0.009326756931841373,-0.014365965500473976,0.004898111801594496,0.0010304368333891034,0.009644191712141037
0.012724215164780617,0.01024915836751461,-0.014656586572527885,0.0045785559341311455,0.0010924943489953876,0.009816044941544533
0.01259677205234766,0.010113517753779888,-0.01450657844543457,0.0047669922932982445,0.0011605486506596208,0.009533288888633251
0.013140706345438957,0.010009853169322014,-0.01491463277488947,0.00482425419613719,0.0012496206909418106,0.009938227944076061
0.012913676910102367,0.01092124730348587,-0.014612671919167042,0.004899469204246998,0.0013326869811862707,0.009489844553172588
0.013248959556221962,0.010448897257447243,-0.014668099582195282,0.005071395542472601,0.0014596495311707258,0.009402796626091003
0.01313224621117115,0.009945105761289597,-0.015154154039919376,0.00494653545320034,0.0013882552739232779,0.009393323212862015
0.013496632687747478,0.010568225756287575,-0.014644910581409931,0.004739369265735149,0.0014917388325557113,0.009272503666579723
0.013325036503374577,0.010034384205937386,-0.015136565081775188,0.00482908682897687,0.001410829834640026,0.009249056689441204
0.01303970254957676,0.010797807946801186,-0.014718674123287201,0.00494800740852952,0.001348822726868093,0.009027400054037571
0.01358764711767435,0.01043503824621439,-0.014566381461918354,0.004492044914513826,0.0013794872211292386,0.008882134221494198
0.012936301529407501,0.010155725292861462,-0.014200904406607151,0.004530835431069136,0.001402105437591672,0.009355779737234116
0.013144698925316334,0.010054359212517738,-0.014784354716539383,0.004460992757230997,0.0013745662290602922,0.009385457262396812
0.01320452056825161,0.009650595486164093,-0.014820941723883152,0.004735340364277363,0.0014135930687189102,0.009011314250528812
0.01320452056825161,0.009650595486164093,-0.014820941723883152,0.004735340364277363,0.0014135930687189102,0.009011314250528812
0.0130552276968956,0.01007523201406002,-0.014752371236681938,0.0048699104227125645,0.0014799812342971563,0.009365257807075977
0.01330582331866026,0.010103695094585419,-0.014556245878338814,0.005271201021969318,0.0014496601652354002,0.009486270137131214
0.013044114224612713,0.010006011463701725,-0.014238104224205017,0.005487286020070314,0.0013726628385484219,0.009452776052057743
0.013378928415477276,0.010665523819625378,-0.014707151800394058,0.0048551918007433414,0.001423373119905591,0.009131070226430893
0.013683076947927475,0.011005044914782047,-0.015124805271625519,0.004481184761971235,0.0014077876694500446,0.008987893350422382
0.01332375779747963,0.009860503487288952,-0.015492992475628853,0.004542459733784199,0.0013560752850025892,0.008964656852185726
0.013432190753519535,0.009897297248244286,-0.01500322949141264,0.004689421504735947,0.0014157280093058944,0.009324419312179089
0.012988422997295856,0.01017572358250618,-0.014906426891684532,0.004722540266811848,0.0014329501427710056,0.009391787461936474
0.013573084957897663,0.009721404872834682,-0.014385567046701908,0.004675458651036024,0.0013681449927389622,0.00920059997588396
0.013302360661327839,0.010090197436511517,-0.01524184737354517,0.00483568012714386,0.0013306868495419621,0.008753959089517593
0.013891873881220818,0.010051014833152294,-0.014846494421362877,0.004665255080908537,0.0013463366776704788,0.008888015523552895
0.01333572342991829,0.010265548713505268,-0.015233438462018967,0.0043140496127307415,0.0013817118015140295,0.008748229593038559
0.013626990839838982,0.011064949445426464,-0.014368392527103424,0.004417167045176029,0.0014315202133730054,0.008973385207355022
0.013330284506082535,0.010125399567186832,-0.015001004561781883,0.00465364707633853,0.0013364056358113885,0.008938498795032501
0.013887198641896248,0.009517766535282135,-0.014624360017478466,0.005255499854683876,0.001271567540243268,0.008583747781813145
0.013500936329364777,0.009917868301272392,-0.015257712453603745,0.00523306243121624,0.0012381596025079489,0.008887790143489838
0.013820084743201733,0.009853706695139408,-0.014551580883562565,0.0048850844614207745,0.0011887599248439074,0.008736608549952507
0.013728958554565907,0.009546496905386448,-0.015384303405880928,0.004737065173685551,0.0011596435215324163,0.008789674378931522
0.013746817596256733,0.00991667341440916,-0.014917449094355106,0.004798624664545059,0.001211336930282414,0.008939054794609547
0.013731374405324459,0.010514633730053902,-0.014557719230651855,0.004670613911002874,0.0010347868083044887,0.00852099247276783
0.013779335655272007,0.009535684250295162,-0.014396416954696178,0.0046588703989982605,0.001004777499474585,0.008392482995986938
0.01318861823529005,0.010384580120444298,-0.014929006807506084,0.005174137186259031,0.0008739897166378796,0.008356570266187191
0.013690931722521782,0.009983447380363941,-0.014692762866616249,0.005163767375051975,0.0008693261188454926,0.008419232442975044
0.013690931722521782,0.009983447380363941,-0.014692762866616249,0.005163767375051975,0.0008693261188454926,0.008419232442975044
0.014113106764853,0.010599382221698761,-0.015182730741798878,0.00493155000731349,0.0007814918644726276,0.008159222081303596
0.0140154417604208,0.009967765770852566,-0.014869085513055325,0.004666648805141449,0.0006422952865250409,0.008866021409630775
0.013941414654254913,0.010010277852416039,-0.014282753691077232,0.004752487409859896,0.000515012361574918,0.008160301484167576
0.01388608105480671,0.010182229802012444,-0.014591655693948269,0.005278674885630608,0.0004542704555206001,0.008265125565230846
0.013511762954294682,0.009708109311759472,-0.014789068140089512,0.004762668628245592,0.0004120449593756348,0.008977523073554039
0.014405231922864914,0.010167923755943775,-0.014772056601941586,0.005266198888421059,0.00041390978731215,0.008623757399618626
0.013704869896173477,0.010138124227523804,-0.014883199706673622,0.00561180803924799,0.0004152702749706805,0.00786014087498188
0.013160644099116325,0.009738252498209476,-0.014487575739622116,0.0052286856807768345,0.0004199038667138666,0.008884718641638756
0.013160644099116325,0.009738252498209476,-0.014487575739622116,0.0052286856807768345,0.0004199038667138666,0.008884718641638756
0.013749678619205952,0.009553669951856136,-0.014402283355593681,0.005199583247303963,0.0003954278363380581,0.008360079489648342
0.01378027256578207,0.009388229809701443,-0.014739585109055042,0.005332598462700844,0.0003721793764270842,0.008398531936109066
0.013897422701120377,0.009469340555369854,-0.014306173659861088,0.005137257277965546,0.00037588030681945384,0.007873785682022572
0.013744200579822063,0.009675237350165844,-0.014271202497184277,0.004976896569132805,0.00037871330277994275,0.008100724779069424
0.013722547329962254,0.009257184341549873,-0.014159026555716991,0.005077223293483257,0.00036119052674621344,0.008317147381603718
0.013458087109029293,0.009274671785533428,-0.014663487672805786,0.005392950493842363,0.00035339652094990015,0.007938026450574398
0.013862961903214455,0.009483951143920422,-0.0145882498472929,0.005705624353140593,0.0003298864758107811,0.008064906112849712
0.014143677428364754,0.009093520231544971,-0.01472756639122963,0.005742923356592655,0.00030748985591344535,0.008093247190117836
0.014148826710879803,0.010100333951413631,-0.014378448948264122,0.005921873729676008,0.00028782064327970147,0.007509315386414528
0.014443537220358849,0.009837005287408829,-0.014431402087211609,0.005565992556512356,0.0003103573981206864,0.0074418215081095695
0.013889802619814873,0.009307514876127243,-0.01430952176451683,0.005854410119354725,0.00030526728369295597,0.008039301261305809
0.013991938903927803,0.009129257872700691,-0.01497563999146223,0.005571543704718351,0.0002896999940276146,0.008347304537892342
0.013999794609844685,0.009351958520710468,-0.014934598468244076,0.005360757932066917,0.0002749951963778585,0.007918096147477627
0.014261198230087757,0.00903332605957985,-0.01487141102552414,0.005367940757423639,0.00028296091477386653,0.007733124308288097
0.014047916978597641,0.009401346556842327,-0.014738368801772594,0.005394982639700174,0.0002897106169257313,0.007692679762840271
0.01404005941003561,0.009260307066142559,-0.014921900816261768,0.005304038058966398,0.000278206542134285,0.007983219809830189
0.013933646492660046,0.009558567777276039,-0.01465857308357954,0.005396238528192043,0.0002665194042492658,0.008257710374891758
0.01407009270042181,0.008944216184318066,-0.014739183709025383,0.005539957899600267,0.0002557052066549659,0.007729892618954182
0.01417575404047966,0.009643233381211758,-0.014860318042337894,0.0052266800776124,0.0002761629002634436,0.008152362890541553
0.013980608433485031,0.008951841853559017,-0.014580179005861282,0.004909875337034464,0.0002604892652016133,0.007688124198466539
0.014173573814332485,0.009411456994712353,-0.015073567628860474,0.005202934145927429,0.0002514100051485002,0.007572323549538851
0.014128824695944786,0.00918729230761528,-0.014307647943496704,0.005401299800723791,0.0002436404611216858,0.0075569613836705685
0.014128824695944786,0.00918729230761528,-0.014307647943496704,0.005401299800723791,0.0002436404611216858,0.0075569613836705685
0.014449361711740494,0.009014773182570934,-0.014712714590132236,0.005870876833796501,0.00024234193551819772,0.00776867289096117
0.013862109743058681,0.009060953743755817,-0.013994975946843624,0.005327235441654921,0.0002306900714756921,0.007576370146125555
0.014337229542434216,0.0097504248842597,-0.01500526163727045,0.005013125948607922,0.00021948460198473185,0.007807280868291855
0.013860007748007774,0.008886393159627914,-0.014502091333270073,0.0052003413438797,0.00020927753939758986,0.007682309485971928
0.014339305460453033,0.009782133623957634,-0.014814446680247784,0.005074190441519022,0.000219523353734985,0.007398657966405153
0.013790498487651348,0.009121975861489773,-0.01421702466905117,0.0059143840335309505,0.00022842377074994147,0.006968099158257246
0.014353062026202679,0.00897950492799282,-0.014400770887732506,0.006108209490776062,0.00022029256797395647,0.00716432137414813
0.014003479853272438,0.00859967339783907,-0.014141934923827648,0.005939726252108812,0.0002117311378242448,0.007419420871883631
0.014337923377752304,0.009328790009021759,-0.015106664039194584,0.0059654549695551395,0.00023318969761021435,0.007594755385071039
0.013909313827753067,0.009090994484722614,-0.014564844779670238,0.005876457318663597,0.00022876505681779236,0.007610809523612261
0.014488829299807549,0.008844221942126751,-0.014637510292232037,0.005705131683498621,0.0002443659177515656,0.007681092247366905
0.01385995652526617,0.009438489563763142,-0.014180079102516174,0.0057284040376544,0.0002434971829643473,0.007509441580623388
0.01442167442291975,0.008793664164841175,-0.015027860179543495,0.005914265755563974,0.00023599872656632215,0.0073342109099030495
0.013679161667823792,0.0087346900254488,-0.014675360172986984,0.005625068675726652,0.00022894291032571346,0.007252394687384367
0.01428662333637476,0.009040948934853077,-0.015055316500365734,0.005598356015980244,0.0002956088865175843,0.007917801849544048
0.013915604911744595,0.009987358935177326,-0.014370097778737545,0.005822460167109966,0.0002824027615133673,0.0076487124897539616
0.0141262486577034,0.008956581354141235,-0.014975269325077534,0.005884835030883551,0.0002660493482835591,0.007459618151187897
0.013833346776664257,0.009220238775014877,-0.012908045202493668,0.005969261284917593,0.00029798178002238274,0.006704702973365784
0.01401454582810402,0.009346873499453068,-0.015663806349039078,0.005767154041677713,0.00028528631082735956,0.006719553843140602
0.013915281742811203,0.009773984551429749,-0.015039656311273575,0.005626372992992401,0.00031324391602538526,0.006808774080127478
0.014305392280220985,0.008967822417616844,-0.014853215776383877,0.005421773064881563,0.00030103008612059057,0.006359864491969347
0.014136803336441517,0.0089939646422863,-0.014701220206916332,0.005930757615715265,0.0002874715719372034,0.006903733126819134
0.01273281965404749,0.008581656031310558,-0.01524541899561882,0.006153772585093975,0.0003115292056463659,0.007549257017672062
0.01486404612660408,0.00868496298789978,-0.014915360137820244,0.006037548650056124,0.0003008953353855759,0.0070619299076497555
0.015082857571542263,0.009046419523656368,-0.015318866819143295,0.005520591512322426,0.00028909160755574703,0.00638244254514575
0.014423657208681107,0.00900245364755392,-0.014742638915777206,0.005659178830683231,0.0003716850478667766,0.006546295713633299
0.014466933906078339,0.008953049778938293,-0.014722952619194984,0.006179746240377426,0.00038872958975844085,0.007338435389101505
0.014712581411004066,0.00979230459779501,-0.014684023335576057,0.006113662384450436,0.00036361473030410707,0.007521352730691433
0.014712581411004066,0.00979230459779501,-0.014684023335576057,0.006113662384450436,0.00036361473030410707,0.007521352730691433
0.01432848535478115,0.008593560196459293,-0.014865553937852383,0.005457960534840822,0.000340728962328285,0.006711422931402922
0.01514950580894947,0.008747212588787079,-0.014735949225723743,0.006008394993841648,0.0003465053450781852,0.0063584595918655396
0.014591464772820473,0.009287247434258461,-0.014449825510382652,0.006664168555289507,0.00035117100924253464,0.006768474355340004
0.014863798394799232,0.008860290981829166,-0.014016697183251381,0.006669631227850914,0.00033411019830964506,0.006968645844608545
0.014460797421634197,0.008739438839256763,-0.014969481155276299,0.00629933038726449,0.00031737584504298866,0.006478094961494207
0.015201524831354618,0.008946489542722702,-0.01476796343922615,0.006100705359131098,0.0003423603775445372,0.006256335414946079
0.015069590881466866,0.00887121818959713,-0.014904272742569447,0.0064133587293326855,0.0003293213085271418,0.006200355011969805
0.015259560197591782,0.008755404502153397,-0.015306578949093819,0.0065428586676716805,0.0003150774573441595,0.006106085609644651
0.014627060852944851,0.009383506141602993,-0.01514443289488554,0.006850306410342455,0.0003378144174348563,0.006468960549682379
0.015512778423726559,0.008964112028479576,-0.015118910931050777,0.006684526335448027,0.0003261988749727607,0.006759951822459698
0.014987703412771225,0.008644932880997658,-0.015168308280408382,0.006782670505344868,0.00030492732184939086,0.00631176820024848
0.014609633944928646,0.008757486008107662,-0.014194643124938011,0.00669009517878294,0.000334993121214211,0.005962639581412077
0.014572372660040855,0.009179273620247841,-0.014835472218692303,0.0066210986115038395,0.00032177349203266203,0.0053237006068229675
0.01521968748420477,0.009003236889839172,-0.014321950264275074,0.006460894364863634,0.0003040879964828491,0.006438385229557753
0.014894619584083557,0.008615159429609776,-0.015066809020936489,0.006435403600335121,0.0003325715661048889,0.006717796437442303
0.015262537635862827,0.009575542993843555,-0.01439669355750084,0.00662927096709609,0.00031866025528870523,0.006410276051610708
0.015280834399163723,0.008798441849648952,-0.015166155062615871,0.00705756526440382,0.0003246662672609091,0.0057676746509969234
0.014856984838843346,0.008547605015337467,-0.014722651802003384,0.006653284188359976,0.00032947183353826404,0.005981370806694031
0.015284565277397633,0.009344969876110554,-0.01530888769775629,0.00639359001070261,0.00031628223950974643,0.006433567032217979
0.015165895223617554,0.009259333834052086,-0.014544902369379997,0.0065728300251066685,0.0003030513762496412,0.006153083872050047
0.015372184105217457,0.008792483247816563,-0.014888232573866844,0.006804982200264931,0.0002908137103077024,0.005847536493092775
0.015244829468429089,0.00949353352189064,-0.014314696192741394,0.006554506719112396,0.0003306273720227182,0.006058849859982729
0.015614142641425133,0.008992543444037437,-0.014649972319602966,0.006265126168727875,0.00031533994479104877,0.006048710085451603
0.01511694397777319,0.009260459803044796,-0.014571281149983406,0.00641500111669302,0.00029516153153963387,0.005753731355071068
0.016060730442404747,0.008742923848330975,-0.015291614457964897,0.006724263541400433,0.000277015584288165,0.005507763009518385
0.0150034474208951,0.009057149291038513,-0.014363890513777733,0.006384008098393679,0.000306087255012244,0.0054326835088431835
0.015324637293815613,0.009040404111146927,-0.015066935680806637,0.0061180428601801395,0.00029550620820373297,0.00556267611682415
0.015576425939798355,0.009353309869766235,-0.014937273226678371,0.006009840872138739,0.0002667172811925411,0.005971268750727177
0.015792066231369972,0.008850027807056904,-0.014587083831429482,0.006855829153209925,0.0002541617723181844,0.005677792243659496
0.015792066231369972,0.008850027807056904,-0.014587083831429482,0.006855829153209925,0.0002541617723181844,0.005677792243659496
0.01622876524925232,0.008983089588582516,-0.014730790629982948,0.006986002903431654,0.0002726134262047708,0.005314869340509176
0.016214726492762566,0.009502693079411983,-0.014215430244803429,0.006198618561029434,0.000270314107183367,0.00522275734692812
0.015618897043168545,0.009157788939774036,-0.015088116750121117,0.005945323035120964,0.0002597800921648741,0.005123664624989033
0.015818951651453972,0.008988788351416588,-0.01492266170680523,0.006557990796864033,0.0002495291701052338,0.005734895821660757
0.01558026671409607,0.00941875297576189,-0.014766248874366283,0.00711445976048708,0.00024002327700145543,0.005450153257697821
0.016128187999129295,0.009176910854876041,-0.014601750299334526,0.006925761234015226,0.0002556451363489032,0.00514758238568902
0.015968404710292816,0.00913747027516365,-0.014784405007958412,0.006337644066661596,0.0002461348776705563,0.004939874168485403
0.015968404710292816,0.00913747027516365,-0.014784405007958412,0.006337644066661596,0.0002461348776705563,0.004939874168485403
0.015748877078294754,0.00918816402554512,-0.01495249755680561,0.0068953814916312695,0.00023802992654964328,0.005273955874145031
0.016040446236729622,0.009337270632386208,-0.015240607783198357,0.006824604235589504,0.00023041381791699678,0.005659049842506647
0.01617615483701229,0.009184852242469788,-0.015072437934577465,0.00636316416785121,0.0002232682309113443,0.005222836509346962
0.01520414650440216,0.010121744126081467,-0.015370800159871578,0.006435871124267578,0.0002168843348044902,0.005112153477966785
0.01639331504702568,0.009222697466611862,-0.015141799114644527,0.006645418703556061,0.000207286182558164,0.00499388063326478
0.016254454851150513,0.009822162799537182,-0.015400410629808903,0.007284976541996002,0.00019818090368062258,0.0047065154649317265
0.01619906723499298,0.009671330451965332,-0.014864375814795494,0.00691002793610096,0.00020838728232774884,0.0047637396492064
0.015720266848802567,0.009145165793597698,-0.015278525650501251,0.006229211576282978,0.00021729705622419715,0.004740829113870859
0.016377469524741173,0.009250464849174023,-0.015153608284890652,0.006145497318357229,0.00020997690444346517,0.004404524341225624
0.01627286896109581,0.00956227071583271,-0.015500842593610287,0.0070362999103963375,0.00020218758436385542,0.004483328666538
0.01638110540807247,0.009413079358637333,-0.01465606689453125,0.0071467445231974125,0.00019489436817821115,0.004522026050835848
0.016334528103470802,0.008999072946608067,-0.015366698615252972,0.006645154673606157,0.0002173342800233513,0.00489672040566802
0.01611190102994442,0.010169116780161858,-0.014943919144570827,0.006202591583132744,0.00021192854910623282,0.004850601311773062
0.016734249889850616,0.009547879919409752,-0.01621551439166069,0.006493507418781519,0.00020515124197117984,0.004843533039093018
0.01630404219031334,0.009242050349712372,-0.015315341763198376,0.007058881223201752,0.00019868875097017735,0.004615615122020245
0.01630404219031334,0.009242050349712372,-0.015315341763198376,0.007058881223201752,0.00019868875097017735,0.004615615122020245
0.016715126112103462,0.009569341316819191,-0.014904418960213661,0.006466465536504984,0.00021313296747393906,0.004713856149464846
0.016905969008803368,0.00967195350676775,-0.015609009191393852,0.006430146750062704,0.00020741368643939495,0.004751306492835283
0.01682697981595993,0.009955796413123608,-0.015538711100816727,0.0068629104644060135,0.0002016325743170455,0.005189137998968363
0.01682697981595993,0.009955796413123608,-0.015538711100816727,0.0068629104644060135,0.0002016325743170455,0.005189137998968363
0.016868647187948227,0.009689725935459137,-0.015851039439439774,0.0068846954964101315,0.00023751995468046516,0.004642325919121504
0.01679925061762333,0.010077258571982384,-0.015258543193340302,0.007221507374197245,0.00024026920436881483,0.004272099584341049
0.017115997150540352,0.00970853865146637,-0.015763210132718086,0.007678492460399866,0.00022904580691829324,0.004027991555631161
0.01744587905704975,0.009522500447928905,-0.01511139702051878,0.007248034700751305,0.00021801218099426478,0.0038893125019967556
0.016636541113257408,0.010632839985191822,-0.015745634213089943,0.006783055607229471,0.0002386485575698316,0.0042900824919342995
0.017323248088359833,0.009832658804953098,-0.015383644960820675,0.006300096400082111,0.00023779332695994526,0.004643692634999752
0.01721549965441227,0.009448237717151642,-0.016374938189983368,0.00649269949644804,0.0002283670037286356,0.004786524921655655
0.01732340268790722,0.010104072280228138,-0.015919193625450134,0.00714768236503005,0.0002191386156482622,0.004499060567468405
0.016962654888629913,0.009631511755287647,-0.01594090647995472,0.0067789265885949135,0.00021059381833765656,0.004065779037773609
0.01686973311007023,0.009431126527488232,-0.0152207650244236,0.006875506602227688,0.0002026879956247285,0.003887432860210538
0.01756642758846283,0.010148467496037483,-0.01603781431913376,0.006745927035808563,0.00021943954925518483,0.004276672378182411
0.01724047027528286,0.00948197953402996,-0.016394102945923805,0.006964409723877907,0.0002194015687564388,0.00416149478405714
0.01748744398355484,0.009239991195499897,-0.015587523579597473,0.007760053966194391,0.00021249712153803557,0.004239784553647041
0.01791708543896675,0.009727738797664642,-0.016325900331139565,0.007827188819646835,0.00020559442054945976,0.004236004315316677
0.017602654173970222,0.009560109116137028,-0.01583010144531727,0.007825947366654873,0.00022377775167115033,0.004418026190251112
0.01777610182762146,0.009951614774763584,-0.016280842944979668,0.00787544809281826,0.0002203242329414934,0.00421319343149662
0.017634859308600426,0.010083654895424843,-0.015513087622821331,0.008013781160116196,0.00021399692923296243,0.00399659713730216
0.017662981525063515,0.00971995946019888,-0.016134224832057953,0.007569670677185059,0.00020783385843969882,0.003802844788879156
0.017778122797608376,0.009706747718155384,-0.01602238602936268,0.007917736656963825,0.0002020643587457016,0.0037280551623553038
0.01797696389257908,0.009821834042668343,-0.01633310317993164,0.007828844711184502,0.0002300763298990205,0.0036727271508425474
0.018232446163892746,0.009447712451219559,-0.016443030908703804,0.007142628543078899,0.00022126984549686313,0.0037065367214381695
0.01829763688147068,0.009708850644528866,-0.015605841763317585,0.0070814210921525955,0.00021105316409375519,0.0037861347664147615
0.017804792150855064,0.009821435436606407,-0.01651042513549328,0.006604422349482775,0.0002016059443121776,0.0037465838249772787
0.01793099008500576,0.008873946964740753,-0.016080696135759354,0.0068593923933804035,0.00019295993843115866,0.003742348635569215
0.017468063160777092,0.007922474294900894,-0.0165970828384161,0.006774913985282183,0.00020312689593993127,0.0036995033733546734
0.015926789492368698,0.008503113873302937,-0.015705255791544914,0.0068717594258487225,0.00021202485368121415,0.00370348384603858
0.01777743361890316,0.008532494306564331,-0.015706742182374,0.007178869564086199,0.0002050750917987898,0.0036287540569901466
0.017794739454984665,0.008451739326119423,-0.016156988218426704,0.007628174033015966,0.00019764008175116032,0.0036796473432332277
0.017794739454984665,0.008451739326119423,-0.016156988218426704,0.007628174033015966,0.00019764008175116032,0.0036796473432332277
0.01786847598850727,0.008064624853432178,-0.016029534861445427,0.0076047335751354694,0.000190665406989865,0.0033328921999782324
0.01767345704138279,0.008685115724802017,-0.015726154670119286,0.007623930927366018,0.00019920554768759757,0.003552711568772793
0.017407242208719254,0.007939746603369713,-0.01607857272028923,0.007345088757574558,0.000201068542082794,0.003468065056949854
0.017729097977280617,0.008018742315471172,-0.015266329050064087,0.007579386699944735,0.0001949074794538319,0.0035992306657135487
0.018246471881866455,0.0081742899492383,-0.015812862664461136,0.0074477833695709705,0.0001890616986202076,0.0037039476446807384
0.018083414062857628,0.0074754031375050545,-0.015599132515490055,0.00731879286468029,0.00018355314387008548,0.0034670664463192225
0.01776420697569847,0.007406724616885185,-0.016137992963194847,0.007574665825814009,0.00019086292013525963,0.0033187642693519592
0.018513977527618408,0.008246710523962975,-0.015621442347764969,0.007680042181164026,0.000197376444702968,0.0031719738617539406
0.01757817156612873,0.007820351049304008,-0.01602552831172943,0.007655345369130373,0.00019285683811176568,0.003374645719304681
0.017571520060300827,0.007429370656609535,-0.016178978607058525,0.007083891425281763,0.00018787432054523379,0.003354039741680026
0.01806986890733242,0.0080558517947793,-0.015839675441384315,0.007465417496860027,0.00018309938604943454,0.0035344413481652737
0.01822841912508011,0.007857529446482658,-0.0160960853099823,0.007768884766846895,0.00017855862097349018,0.0036099660210311413
0.01862880028784275,0.007854864932596684,-0.015481287613511086,0.007832374423742294,0.0001742373569868505,0.0032462584786117077
0.01786774769425392,0.00757596967741847,-0.016162509098649025,0.0071438574232161045,0.00017012034368235618,0.0029168506152927876
0.0177447609603405,0.0073561891913414,-0.015634557232260704,0.007114333566278219,0.00016619334928691387,0.002854105783626437
0.018505174666643143,0.007840028032660484,-0.01581977866590023,0.0072583905421197414,0.0001624435535632074,0.0026585094165056944
0.018233761191368103,0.007570250425487757,-0.015651704743504524,0.0073468335904181,0.00015885937318671495,0.0026127637829631567
0.01828888989984989,0.0073291463777422905,-0.01607159525156021,0.007290424779057503,0.00015542979235760868,0.0028027035295963287
0.018121860921382904,0.007350797764956951,-0.01589658297598362,0.007414710242301226,0.00015214526501949877,0.003367006778717041
0.01789107173681259,0.007671524304896593,-0.015577840618789196,0.007561675272881985,0.00014899679808877409,0.0036198431625962257
0.01884463243186474,0.0073618157766759396,-0.01592451147735119,0.008079105988144875,0.00014607985212933272,0.0033708864357322454
0.018306022509932518,0.007325232028961182,-0.015849260613322258,0.007915179245173931,0.00014167308108881116,0.0028359193820506334
0.01788080483675003,0.0081255491822958,-0.016351288184523582,0.00834836345165968,0.0001373607519781217,0.0025852553080767393
0.018487872555851936,0.008272603154182434,-0.015165239572525024,0.008483635261654854,0.0001332923857262358,0.002606798429042101
0.018140172585844994,0.007883983664214611,-0.015648605301976204,0.008455597795546055,0.0001294576213695109,0.0028945107478648424
0.01864839717745781,0.0077056591399014,-0.014929804019629955,0.00804883986711502,0.0001258370466530323,0.0033313750755041838
0.01864839717745781,0.0077056591399014,-0.014929804019629955,0.00804883986711502,0.0001258370466530323,0.0033313750755041838
0.018512269482016563,0.007894644513726234,-0.01548183523118496,0.007951874285936356,0.00011917173105757684,0.002893783152103424
0.01849036104977131,0.00791516900062561,-0.01587345078587532,0.007945251651108265,0.00013775999832432717,0.0027154230047017336
0.018173666670918465,0.008517633192241192,-0.01560512837022543,0.008387472480535507,0.00013247347669675946,0.002480793511494994
0.01888885907828808,0.008458905853331089,-0.015898272395133972,0.008016398176550865,0.00012930705270264298,0.0025869212113320827
0.01888885907828808,0.008458905853331089,-0.015898272395133972,0.008016398176550865,0.00012930705270264298,0.0025869212113320827
0.01922532171010971,0.007880325429141521,-0.015559050254523754,0.00808244850486517,0.00012628341210074723,0.0026978885289281607
0.01849912852048874,0.008049734868109226,-0.016107814386487007,0.007908604107797146,0.0001233976217918098,0.002719762036576867
0.018739640712738037,0.008291262201964855,-0.015555978752672672,0.008015880361199379,0.00012064065231243148,0.0027450192719697952
0.01884698122739792,0.008209298364818096,-0.015730245038866997,0.008161129429936409,0.00013508884876500815,0.002483412390574813
0.017269551753997803,0.008405491709709167,-0.015321183949708939,0.0078880088403821,0.00013455870794132352,0.0022753761149942875
0.019282812252640724,0.008075413294136524,-0.01594885066151619,0.008257345296442509,0.0001318954018643126,0.0019725405145436525
0.019396325573325157,0.008209909312427044,-0.01631876453757286,0.008282709866762161,0.00012920050357934088,0.0018512660171836615
0.018891949206590652,0.008042271248996258,-0.015970660373568535,0.00782049261033535,0.00012660471838898957,0.0017956969095394015
0.019820814952254295,0.007578092161566019,-0.01609666831791401,0.007967888377606869,0.00012411054922267795,0.0018837398383766413
0.019670581445097923,0.0077303447760641575,-0.015934063121676445,0.00808328203856945,0.00013461380149237812,0.0022407148499041796
0.018913572654128075,0.008643535897135735,-0.016331486403942108,0.007648627273738384,0.0001361708709737286,0.002246329328045249
0.018964970484375954,0.00802165362983942,-0.015604068525135517,0.0073696160688996315,0.0001339062728220597,0.002237811451777816
0.018986046314239502,0.008204488083720207,-0.016219088807702065,0.00832391157746315,0.00013147851859685034,0.0020285951904952526
0.019062791019678116,0.008994233794510365,-0.01578560471534729,0.008551024831831455,0.00012912173406220973,0.0019661257974803448
0.020078809931874275,0.008617005310952663,-0.016743216663599014,0.00802876427769661,0.00012684697867371142,0.0018769477028399706
0.01991184428334236,0.007762552704662085,-0.01621963270008564,0.008143520914018154,0.00012465092004276812,0.0018130493117496371
0.018891626968979836,0.008192074485123158,-0.015872210264205933,0.00890722032636404,0.00013948343985248357,0.0017197331180796027
0.01958600804209709,0.008281494490802288,-0.01630505919456482,0.008623846806585789,0.0001511629088781774,0.0017042683903127909
0.01981743425130844,0.00878321286290884,-0.016186583787202835,0.008212681859731674,0.00014728440146427602,0.0016967825358733535
0.019806930795311928,0.00808908324688673,-0.016684329137206078,0.008245897479355335,0.00014268391532823443,0.001804195111617446
0.019780904054641724,0.008290082216262817,-0.01597445271909237,0.00856848992407322,0.0001383027120027691,0.001807745429687202
0.019900504499673843,0.008173814043402672,-0.016342760995030403,0.008199120871722698,0.00013417880109045655,0.0015777735970914364
0.019185367971658707,0.008286633528769016,-0.015820404514670372,0.00831508357077837,0.00013029341062065214,0.0015985700301826
0.01975538767874241,0.008510978892445564,-0.01653376594185829,0.008578638546168804,0.0001266266335733235,0.0014890771126374602
0.019729377701878548,0.00839866604655981,-0.01602310873568058,0.008434818126261234,0.00012316074571572244,0.001422931905835867
0.019729377701878548,0.00839866604655981,-0.01602310873568058,0.008434818126261234,0.00012316074571572244,0.001422931905835867
0.019542593508958817,0.007881077006459236,-0.01603940688073635,0.008277776651084423,0.00013991612649988383,0.0014706194633617997
0.019542593508958817,0.007881077006459236,-0.01603940688073635,0.008277776651084423,0.00013991612649988383,0.0014706194633617997
0.019493818283081055,0.008110826835036278,-0.016489090397953987,0.008593793958425522,0.00013320791185833514,0.001561053330078721
0.01956220716238022,0.007692319341003895,-0.01567753404378891,0.008763913996517658,0.0001300016592722386,0.001867840881459415
0.020112480968236923,0.007777071092277765,-0.016073573380708694,0.008711916394531727,0.0001269454078283161,0.0017330694245174527
0.019795820116996765,0.008802074007689953,-0.015603230334818363,0.008826084434986115,0.0001240295823663473,0.0014800992794334888
0.019459187984466553,0.008483657613396645,-0.016042834147810936,0.00816247146576643,0.00012124466593377292,0.0013462615897879004
0.019845714792609215,0.007795119192451239,-0.015889190137386322,0.008592150174081326,0.00011858212383231148,0.0010996534256264567
0.019937491044402122,0.008553636260330677,-0.015760008245706558,0.008658012375235558,0.00011603393795667216,0.0010487786494195461
0.01962987706065178,0.008488262072205544,-0.015711212530732155,0.008637423627078533,0.00013126230624038726,0.0010095540201291442
0.019924825057387352,0.0084722014144063,-0.015182853676378727,0.008447839878499508,0.0001297121780226007,0.0011477888328954577
0.02010241150856018,0.0080218855291605,-0.016016919165849686,0.008581566624343395,0.00012716908531729132,0.0017241912428289652
0.020083950832486153,0.008309001103043556,-0.015605360269546509,0.00832135509699583,0.00012465780309867114,0.0017503169365227222
0.020377617329359055,0.008052654564380646,-0.01632135547697544,0.007731751538813114,0.00012223921658005565,0.001536466064862907
0.020403485745191574,0.007567789405584335,-0.01562843658030033,0.008647317066788673,0.00011991261271759868,0.001377896755002439
0.019932417199015617,0.008293479681015015,-0.01573314517736435,0.008819546550512314,0.00011767285468522459,0.001181146246381104
0.020209139212965965,0.008582054637372494,-0.015706684440374374,0.008942299522459507,0.0001155151185230352,0.0011121025308966637
0.02075820602476597,0.00773535156622529,-0.01615515537559986,0.008701276034116745,0.00011343515507178381,0.0010260541457682848
0.019442308694124222,0.007891188375651836,-0.016512759029865265,0.008933070115745068,0.00011142880248371512,0.0009489473886787891
0.020405681803822517,0.008312131278216839,-0.01602788269519806,0.008879824541509151,0.00010949216812150553,0.0008416503551416099
0.02053806744515896,0.008398803882300854,-0.01596810109913349,0.00864132959395647,0.00012197493197163567,0.0006729004671797156
0.02006991021335125,0.008333622477948666,-0.015316108241677284,0.0093417102470994,0.00012086374044883996,0.0006481946329586208
0.02007022686302662,0.007902780547738075,-0.016241732984781265,0.009050936438143253,0.00011892847396666184,0.0006858095875941217
0.02016192115843296,0.008807346224784851,-0.01570894382894039,0.008626701310276985,0.00011699984315782785,0.000718039576895535
0.02036285400390625,0.008488615974783897,-0.016097432002425194,0.008876744657754898,0.00011512930359458551,0.001131847850047052
0.020595844835042953,0.007780976593494415,-0.015655843541026115,0.00906812772154808,0.00011331728455843404,0.0011364667443558574
0.020375637337565422,0.00806359387934208,-0.016060590744018555,0.008486737497150898,0.00011156150867464021,0.001112231519073248
0.020730571821331978,0.008217446506023407,-0.01606735587120056,0.008813317865133286,0.000109859298390802,0.0010989781003445387
0.020492764189839363,0.007659743539988995,-0.016151187941432,0.008870641700923443,0.00010660601401468739,0.0007708724006079137
0.020965784788131714,0.008286645635962486,-0.015597661025822163,0.00875963643193245,0.00010505057434784248,0.0006579309119842947
0.021170224994421005,0.00853127520531416,-0.01627163589000702,0.00896445568650961,0.00010353991820011288,0.0006286162533797324
0.020720532163977623,0.00790917593985796,-0.015463165938854218,0.00910712219774723,0.00010207205195911229,0.0006066218484193087
0.020720532163977623,0.00790917593985796,-0.015463165938854218,0.00910712219774723,0.00010207205195911229,0.0006066218484193087
0.02116086706519127,0.007654018700122833,-0.01569446362555027,0.008968071080744267,9.925778431352228e-05,0.0004977764328941703
0.02116086706519127,0.007654018700122833,-0.01569446362555027,0.008968071080744267,9.925778431352228e-05,0.0004977764328941703
0.021050922572612762,0.007744821719825268,-0.01623537577688694,0.00931479036808014,9.790802141651511e-05,0.0005262696067802608
0.021039139479398727,0.007370147854089737,-0.01670684479176998,0.008823592215776443,9.659453644417226e-05,0.0004899222403764725
0.020781781524419785,0.007428525015711784,-0.016216542571783066,0.009305835701525211,9.56031508394517e-05,0.00045482636778615415
0.021292004734277725,0.007833657786250114,-0.016518764197826385,0.009563345462083817,9.372376371175051e-05,0.00042420095996931195
0.020961761474609375,0.007467078510671854,-0.016192886978387833,0.009171861223876476,9.18186706257984e-05,0.0003974259307142347
0.021021898835897446,0.007418052293360233,-0.016338838264346123,0.008469250984489918,8.998311386676505e-05,0.0003738321829587221
0.020987000316381454,0.006851765792816877,-0.015621591359376907,0.008893568068742752,8.821905066724867e-05,0.00035288374056108296
0.021311158314347267,0.007672459818422794,-0.01678759977221489,0.008615748956799507,8.652275573695078e-05,0.0003754730278160423
0.021830644458532333,0.007539793848991394,-0.0166950486600399,0.008582336828112602,8.489051106153056e-05,0.000362235790817067
0.021719783544540405,0.007244065869599581,-0.016923710703849792,0.009564853273332119,8.331877324962988e-05,0.0003452314995229244
0.021525084972381592,0.007339819800108671,-0.016950316727161407,0.009150201454758644,8.180403528967872e-05,0.0003294544294476509
0.02091313526034355,0.007530882954597473,-0.016114557161927223,0.009365330450236797,8.034355414565653e-05,0.000315037410473451
0.02071140706539154,0.0073800948448479176,-0.01688152179121971,0.00973581988364458,7.893424481153488e-05,0.0003018279676325619
0.021304959431290627,0.0070328908041119576,-0.01665528304874897,0.009739245288074017,7.757350977044553e-05,0.00028968221158720553
0.02181716077029705,0.007172879762947559,-0.01716022938489914,0.008987514302134514,7.62588533689268e-05,0.0002784759853966534
0.021245967596769333,0.007736265193670988,-0.016506820917129517,0.008844966068863869,7.498810009565204e-05,0.00026810471899807453
0.021291425451636314,0.00700960261747241,-0.016497375443577766,0.008792215958237648,7.375898712780327e-05,0.00022835683193989098
0.021497605368494987,0.007133572828024626,-0.01747308298945427,0.009013155475258827,7.256946992129087e-05,0.00021847273455932736
0.02229241281747818,0.007625535596162081,-0.016523633152246475,0.00901937484741211,7.141774403862655e-05,0.00021102560276631266
0.021727826446294785,0.007762172259390354,-0.016338523477315903,0.010043439455330372,7.030198321444914e-05,0.000204177456907928
0.021517036482691765,0.00727298716083169,-0.01625281758606434,0.008742256090044975,6.922060856595635e-05,0.0001977664651349187
0.021248260512948036,0.007193284574896097,-0.01665598154067993,0.008505411446094513,6.817191024310887e-05,0.00019174718181602657
0.021421706303954124,0.007540848106145859,-0.016615206375718117,0.009658394381403923,6.616718746954575e-05,0.00018074410036206245
0.02203080616891384,0.00732813635841012,-0.016835564747452736,0.009505044668912888,6.520833994727582e-05,0.00011688706581480801
0.02203080616891384,0.00732813635841012,-0.016835564747452736,0.009505044668912888,6.520833994727582e-05,0.00011688706581480801
0.021976912394165993,0.006862417329102755,-0.01616813801229,0.010785029269754887,6.427692278521135e-05,5.799490463687107e-05
0.021693706512451172,0.00686223478987813,-0.016521543264389038,0.010660097934305668,6.337173545034602e-05,5.2685860282508656e-05
0.021516602486371994,0.00757424533367157,-0.016197580844163895,0.010332598350942135,6.249170837691054e-05,2.719913754845038e-05
0.022838249802589417,0.007150018587708473,-0.016500413417816162,0.009614711627364159,6.1635764723178e-05,2.488237078068778e-05
0.022024650126695633,0.006659990642219782,-0.016903888434171677,0.010367549024522305,6.080296225263737e-05,1.6246410723397275e-06
0.021947253495454788,0.007250158116221428,-0.01652875915169716,0.010885356925427914,5.9992322348989546e-05,1.0607744371782246e-07
0.02209506928920746,0.007877328433096409,-0.016665486618876457,0.010506240651011467,5.920308467466384e-05,6.926099249682238e-09
0.021861499175429344,0.007848843932151794,-0.015759631991386414,0.009862860664725304,5.843432154506445e-05,4.522247853966377e-10
0.02232014387845993,0.007035721093416214,-0.01678362675011158,0.010607466101646423,6.771759217372164e-05,2.9527047473720813e-11
0.02236410602927208,0.006440888624638319,-0.016557127237319946,0.010674861259758472,6.82479512761347e-05,-0.0003436413826420903
0.02229594625532627,0.00700273597612977,-0.016392622143030167,0.010059108957648277,6.748552550561726e-05,-0.0011788596166297793
0.02207670360803604,0.007318854331970215,-0.016452234238386154,0.01083629671484232,6.66584019199945e-05,-0.0011961127165704966
0.022283092141151428,0.006842394825071096,-0.016012955456972122,0.010334853082895279,6.584601214854047e-05,-0.0010269563645124435
0.02235633321106434,0.007147391326725483,-0.016338104382157326,0.009771059267222881,6.505278724944219e-05,-0.0009921679738909006
0.02237335965037346,0.007472713477909565,-0.01564667746424675,0.010029229335486889,6.427844346035272e-05,-0.000887313683051616
0.022780539467930794,0.007654236163944006,-0.016459379345178604,0.010564233176410198,6.352233322104439e-05,-0.0007823841297067702
0.02284218743443489,0.007469307165592909,-0.016266679391264915,0.009602643549442291,6.278379441937432e-05,-0.0008560705464333296
0.022440316155552864,0.0063614207319915295,-0.01637602224946022,0.010047584772109985,6.206220132298768e-05,-0.0009128997917287052
0.022062722593545914,0.006239791866391897,-0.01667434349656105,0.010170032270252705,6.135703733889386e-05,-0.0014630742371082306
0.022635919973254204,0.006971342023462057,-0.016619596630334854,0.009314559400081635,6.066771311452612e-05,-0.0018711532466113567
0.023658515885472298,0.006944587919861078,-0.017102723941206932,0.009911678731441498,5.999371569487266e-05,-0.0021211502607911825
0.023416932672262192,0.006422464270144701,-0.01627429947257042,0.010387779213488102,1.5245188478729688e-05,-0.0018853163346648216
0.022593047469854355,0.006228629965335131,-0.016867993399500847,0.0099236611276865,9.954018196367542e-07,-0.0012045421171933413
0.02211827039718628,0.006663642358034849,-0.016596149653196335,0.01047661155462265,6.499261928638589e-08,-0.0011848779395222664
0.02211827039718628,0.006663642358034849,-0.016596149653196335,0.01047661155462265,6.499261928638589e-08,-0.0011848779395222664
0.02355623058974743,0.006794650573283434,-0.01683523692190647,0.010483392514288425,2.770737250745725e-10,-0.0012727506691589952
0.02355623058974743,0.006794650573283434,-0.01683523692190647,0.010483392514288425,2.770737250745725e-10,-0.0012727506691589952
0.023440133780241013,0.006884080357849598,-0.01621335744857788,0.010493507608771324,1.8090933265324516e-11,-0.002121686702594161
0.02284550853073597,0.007497511338442564,-0.016627075150609016,0.01032501645386219,1.181208559783431e-12,-0.002758044982329011
0.024202454835176468,0.006429554428905249,-0.016837643459439278,0.010816332884132862,5.035677363513175e-15,-0.002559373388066888
0.023721227422356606,0.006782157812267542,-0.016777027398347855,0.010384086519479752,3.2879375851754703e-16,-0.0020771294366568327
0.02376781776547432,0.006739959120750427,-0.01646076887845993,0.010454640723764896,2.1467882957676506e-17,-0.001751698786392808
0.022840401157736778,0.006449648179113865,-0.01664891093969345,0.010502737015485764,1.4016993205920393e-18,-0.0016068232944235206
0.0225406214594841,0.006446941755712032,-0.016150612384080887,0.010077438317239285,9.152094964583477e-20,-0.0021513334941118956
0.023724831640720367,0.006601549685001373,-0.01666470617055893,0.010784555226564407,5.9756642205953105e-21,-0.003006818238645792
0.02411024458706379,0.00686220545321703,-0.016292188316583633,0.010589313693344593,3.9016815509806263e-22,-0.003616649890318513
0.023949962109327316,0.006395396776497364,-0.016697494313120842,0.010780379176139832,2.5475193238725097e-23,-0.0037165582180023193
0.023949485272169113,0.00646775308996439,-0.016896670684218407,0.011124805547297001,1.6633481257535594e-24,-0.003298721741884947
0.023522086441516876,0.006278464570641518,-0.016506701707839966,0.011058316566050053,1.086047487968792e-25,-0.0030902258586138487
0.02396409399807453,0.007065479177981615,-0.016935717314481735,0.010623622685670853,7.09111381786243e-27,-0.002915560035035014
0.023817194625735283,0.0066191693767905235,-0.016629725694656372,0.010820453986525536,4.629990956792816e-28,-0.002910698065534234
0.02417738549411297,0.006758054718375206,-0.017402704805135727,0.01055391225963831,3.023053090020992e-29,-0.0027789378073066473
0.02395133301615715,0.006882016081362963,-0.01669107750058174,0.011081558652222157,1.9738376398329645e-30,-0.0029522061813622713
0.02384958602488041,0.006877785082906485,-0.0167361069470644,0.010964727960526943,1.28877486062007e-31,-0.0029875582549721003
0.024165265262126923,0.006805569864809513,-0.017225585877895355,0.010597927495837212,8.414778514413253e-33,-0.003932255785912275
0.02385811135172844,0.007599160075187683,-0.017357148230075836,0.01113184355199337,5.494249575483833e-34,-0.004750859457999468
0.02418636530637741,0.00695204921066761,-0.01812778413295746,0.010916639119386673,3.587352767264081e-35,-0.0051284367218613625
0.024579178541898727,0.006448430474847555,-0.01729566417634487,0.010382536798715591,2.3422849566229607e-36,-0.004819481633603573
0.024747885763645172,0.006582460831850767,-0.017000896856188774,0.010664708912372589,1.5293447459436102e-37,-0.004522360395640135
0.02492249198257923,0.006619208492338657,-0.01722429133951664,0.010529947467148304,9.985528141215322e-39,-0.004248594865202904
0.02448687143623829,0.0065494561567902565,-0.016642462462186813,0.010217900387942791,6.51983537794872e-40,-0.00429089879617095
0.024607950821518898,0.006174453999847174,-0.01737073063850403,0.010632636956870556,4.257004604772362e-41,-0.0041560642421245575
0.024411961436271667,0.0064923823811113834,-0.01715422421693802,0.01058818120509386,2.780176153220437e-42,-0.004491611383855343
0.024639815092086792,0.006281137466430664,-0.017702577635645866,0.01094544306397438,1.821688003622262e-43,-0.004677382297813892
0.02487587183713913,0.006182556506246328,-0.017430126667022705,0.01120645459741354,1.1210387714598537e-44,-0.004777413792908192
0.024786118417978287,0.006841120310127735,-0.01674642413854599,0.011540792882442474,1.401298464324817e-45,-0.005027122795581818
0.025390198454260826,0.006421192083507776,-0.016793377697467804,0.010756254196166992,0.0,-0.004447744227945805
0.024910343810915947,0.006662664003670216,-0.01743956096470356,0.010992222465574741,0.0,-0.003973631653934717
0.024910343810915947,0.006662664003670216,-0.01743956096470356,0.010992222465574741,0.0,-0.003973631653934717
0.024438830092549324,0.006820733193308115,-0.017661189660429955,0.011345426551997662,0.0,-0.0041446378454566
0.024691278114914894,0.006804926786571741,-0.017037702724337578,0.010509483516216278,0.0,-0.00458854716271162
0.025127213448286057,0.006398501805961132,-0.017468340694904327,0.010734783485531807,0.0,-0.005066986661404371
0.02542845532298088,0.007079902105033398,-0.01661052368581295,0.010611064732074738,0.0,-0.004959399811923504
0.02514703758060932,0.006682161241769791,-0.018261423334479332,0.010643604211509228,0.0,-0.0049395011737942696
0.025130607187747955,0.007078318390995264,-0.016669820994138718,0.011186669580638409,0.0,-0.004754347261041403
0.02530391700565815,0.006629678420722485,-0.016877111047506332,0.010898161679506302,0.0,-0.00486898235976696
0.025783903896808624,0.006624886300414801,-0.018279002979397774,0.011076467111706734,0.0,-0.005325196776539087
0.025037754327058792,0.006651157047599554,-0.017398996278643608,0.011449364945292473,0.0,-0.005517244338989258
0.025109058246016502,0.007362114265561104,-0.01709880121052265,0.011186165735125542,0.0,-0.005243223626166582
0.025294901803135872,0.006899706088006496,-0.017405541613698006,0.01159887108951807,0.0,-0.0056974804028868675
0.025922322645783424,0.006346459966152906,-0.01714758388698101,0.011253196746110916,0.0,-0.005561545956879854
0.02514038048684597,0.0067285168915987015,-0.017519373446702957,0.01124283391982317,0.0,-0.005980590358376503
0.025543803349137306,0.007112488150596619,-0.01716136373579502,0.01137177087366581,0.0,-0.005714362021535635
0.026454688981175423,0.0069388351403176785,-0.017414342612028122,0.011064198799431324,0.0,-0.005785488989204168
0.02611042559146881,0.0064077661372721195,-0.017460254952311516,0.011842118576169014,0.0,-0.00646186713129282
0.025605816394090652,0.006260514724999666,-0.016912125051021576,0.011849679984152317,0.0,-0.0065813083201646805
0.024822361767292023,0.006669316440820694,-0.017480753362178802,0.011696298606693745,0.0,-0.0061948406510055065
0.025432560592889786,0.007445515599101782,-0.01720033772289753,0.011722962372004986,0.0,-0.005682923831045628
0.0259415190666914,0.007034976501017809,-0.017826972529292107,0.011738711036741734,0.0,-0.0056089176796376705
0.025987721979618073,0.0064897299744188786,-0.017769502475857735,0.01209464855492115,0.0,-0.006205236539244652
0.02627258002758026,0.006361937616020441,-0.017110377550125122,0.01154289860278368,0.0,-0.006789179518818855
0.026639902964234352,0.006888219621032476,-0.01745515875518322,0.011504794470965862,0.0,-0.006796997506171465
0.02691018208861351,0.0070602381601929665,-0.017172882333397865,0.01206189300864935,0.0,-0.006553722079843283
0.02612220123410225,0.0067903450690209866,-0.01751329004764557,0.012080088257789612,0.0,-0.006454790011048317
0.025334695354104042,0.007247741799801588,-0.01782931387424469,0.012150564230978489,0.0,-0.006505804602056742
0.025339258834719658,0.00665818527340889,-0.017455844208598137,0.012031246908009052,0.0,-0.006574882194399834
0.02577812410891056,0.007192797493189573,-0.017584368586540222,0.01273349765688181,0.0,-0.00631963973864913
0.026413168758153915,0.006780414376407862,-0.017343150451779366,0.012972228229045868,0.0,-0.006199060473591089
0.026393458247184753,0.0066132009960711,-0.017428740859031677,0.012735554948449135,0.0,-0.007241230923682451
0.026723721995949745,0.006642341613769531,-0.016999047249555588,0.012169242836534977,0.0,-0.006953184027224779
0.026920445263385773,0.006602116860449314,-0.01775488257408142,0.012554990127682686,0.0,-0.007253231480717659
0.026920445263385773,0.006602116860449314,-0.01775488257408142,0.012554990127682686,0.0,-0.007253231480717659
0.026724671944975853,0.006490230560302734,-0.017651699483394623,0.012193904258310795,0.0,-0.007100995164364576
0.026745630428195,0.006429676897823811,-0.017400281503796577,0.012242648750543594,0.0,-0.006933045107871294
0.026904866099357605,0.006081638857722282,-0.017213279381394386,0.01252447348088026,0.0,-0.0067598470486700535
0.026882845908403397,0.006617560051381588,-0.016866881400346756,0.012584690935909748,0.0,-0.006858285516500473
0.02632066048681736,0.006815637461841106,-0.017524374648928642,0.012769047170877457,0.0,-0.00705702742561698
0.02660263143479824,0.006216501817107201,-0.01716424897313118,0.01219017244875431,4.044767138111638e-06,-0.007156796753406525
0.02651863358914852,0.006153748836368322,-0.017664548009634018,0.012554341927170753,2.640944103404763e-07,-0.007500832434743643
0.026336271315813065,0.006822701543569565,-0.01822364516556263,0.012373041361570358,1.7243477756778702e-08,-0.007475989870727062
0.02657024748623371,0.006980228703469038,-0.01745736040174961,0.012949966825544834,1.1258758370047417e-09,-0.00797716248780489
0.026682507246732712,0.006735189817845821,-0.017827875912189484,0.012713618576526642,7.351164815760924e-11,-0.008002246730029583
0.027267493307590485,0.006388657260686159,-0.017689403146505356,0.012891429476439953,4.799785568998516e-12,-0.007899225689470768
0.027198391035199165,0.006432332098484039,-0.017676953226327896,0.012879693880677223,3.13391673723018e-13,-0.007963928394019604
0.026378121227025986,0.007087542209774256,-0.017773371189832687,0.01245243288576603,2.046223569274544e-14,-0.007900686003267765
0.026204925030469894,0.00643491093069315,-0.01736227422952652,0.012774231843650341,1.3360378790775351e-15,-0.007692085579037666
0.02697686478495598,0.006186062935739756,-0.017765648663043976,0.012521510012447834,8.723373286345835e-17,-0.008158987388014793
0.027245353907346725,0.006102032493799925,-0.01781861111521721,0.012749151326715946,5.695739464142615e-18,-0.007718990556895733
0.02657056786119938,0.006618612911552191,-0.017757486552000046,0.012569816783070564,3.7189109762195e-19,-0.00795789621770382
0.027225589379668236,0.006782970856875181,-0.017851537093520164,0.012784036807715893,2.428183356711871e-20,-0.008109047077596188
0.027462581172585487,0.006440464407205582,-0.01783234439790249,0.01286068744957447,1.585430079580413e-21,-0.007818005979061127
0.026473768055438995,0.006154936272650957,-0.018099602311849594,0.012688745744526386,1.0351725623478135e-22,-0.008068098686635494
0.026124784722924232,0.0061949738301336765,-0.018840130418539047,0.012966073118150234,-0.0002590074436739087,-0.00847901776432991
0.025736620649695396,0.006622623186558485,-0.017918270081281662,0.01257268711924553,-0.00027635155129246414,-0.008205587044358253
0.026933670043945312,0.0065370420925319195,-0.017394322901964188,0.013254683464765549,-0.0002624090120662004,-0.008463309146463871
0.027434347197413445,0.00638390751555562,-0.018278110772371292,0.012971058487892151,-0.0002480795083101839,-0.008509436622262001
0.027237558737397194,0.006610346492379904,-0.018030444160103798,0.013363201171159744,-0.00027582302573136985,-0.008698073215782642
0.027500927448272705,0.006333604920655489,-0.018399270251393318,0.013000261969864368,-0.00026771932607516646,-0.007808078546077013
0.027365056797862053,0.006543776951730251,-0.018042901530861855,0.013313536532223225,-0.0002831305027939379,-0.009741558693349361
0.027365056797862053,0.006543776951730251,-0.018042901530861855,0.013313536532223225,-0.0002831305027939379,-0.009741558693349361
0.027664273977279663,0.006300175562500954,-0.01863010972738266,0.013710599392652512,-0.0002721613273024559,-0.008909530937671661
0.027667991816997528,0.006110986694693565,-0.01802409067749977,0.013434995897114277,-0.0002792040759231895,-0.008833925239741802
0.02777675911784172,0.00648788595572114,-0.01790955290198326,0.013413980603218079,-0.000285145768430084,-0.008714080788195133
0.02780405431985855,0.006681183818727732,-0.01854427345097065,0.013292647898197174,-0.00027535087428987026,-0.008602172136306763
0.027880754321813583,0.006659173872321844,-0.018037505447864532,0.013162735849618912,-0.0003076220746152103,-0.00861267652362585
0.027961289510130882,0.006205827929079533,-0.018277645111083984,0.013440970331430435,-0.00032628970802761614,-0.008480509743094444
0.02823847532272339,0.006354608107358217,-0.018278921023011208,0.013297579251229763,-0.00030672535649500787,-0.007969330064952374
0.028296135365962982,0.006672971416264772,-0.017832061275839806,0.013647010549902916,-0.00028730681515298784,-0.008076146245002747
0.028468072414398193,0.006422640755772591,-0.01846415363252163,0.013091898523271084,-0.00032032819581218064,-0.008169683627784252
0.02884536236524582,0.006077934987843037,-0.018264073878526688,0.013613474555313587,-0.0003054797707591206,-0.00902052316814661
0.02852274663746357,0.006192599423229694,-0.018166588619351387,0.01307293213903904,-0.00031283218413591385,-0.008906478062272072
0.02848856709897518,0.006263905670493841,-0.018541863188147545,0.013582680374383926,-0.00031877277069725096,-0.008398473262786865
0.02902284264564514,0.006746696773916483,-0.018010368570685387,0.01314283162355423,-0.00032603638828732073,-0.008634835481643677
0.029094314202666283,0.0065666986629366875,-0.01835073158144951,0.013607542030513287,-0.0003308819723315537,-0.009162506088614464
0.02869984693825245,0.006702963728457689,-0.018291736021637917,0.01334090530872345,-0.0003175811725668609,-0.009221644140779972
0.028921063989400864,0.006051728501915932,-0.018100256100296974,0.013172736391425133,-0.0003050287486985326,-0.009360316209495068
0.029305236414074898,0.006164728198200464,-0.01877480186522007,0.01321575976908207,-0.0003669528232421726,-0.00942259281873703
0.029121555387973785,0.00664500892162323,-0.01857500895857811,0.013444791547954082,-0.0003779662656597793,-0.009422648698091507
0.029429100453853607,0.00675511360168457,-0.017844263464212418,0.01386459730565548,-0.00038212176878005266,-0.009150109253823757
0.029705364257097244,0.00632478529587388,-0.018235106021165848,0.013532904908061028,-0.00035874894820153713,-0.009198805317282677
0.029505988582968712,0.006237087305635214,-0.018185433000326157,0.013696962967514992,-0.00036379435914568603,-0.010306821204721928
0.029778962954878807,0.0065563395619392395,-0.018325749784708023,0.013837221078574657,-0.0003676864434964955,-0.009835909120738506
0.02982357144355774,0.0064726476557552814,-0.01880704052746296,0.014303119853138924,-0.00037326038000173867,-0.010286751203238964
0.029895620420575142,0.00614158483222127,-0.018139345571398735,0.013590765185654163,-0.0003763201821129769,-0.01007203571498394
0.029948828741908073,0.005802917759865522,-0.018132565543055534,0.013553659431636333,-0.0004285513423383236,-0.009891301393508911
0.03033292479813099,0.004854436032474041,-0.01793750934302807,0.013708563521504402,-0.00048559228889644146,-0.00993106048554182
0.030245481058955193,0.005328924860805273,-0.01822483167052269,0.013925207778811455,-0.0004546648124232888,-0.009959877468645573
0.030245481058955193,0.005328924860805273,-0.01822483167052269,0.013925207778811455,-0.0004546648124232888,-0.009959877468645573
0.02991073951125145,0.005228610709309578,-0.0177925955504179,0.014732648618519306,-0.0004803252231795341,-0.010464023798704147
0.03046533837914467,0.005784443113952875,-0.01803644374012947,0.014189436100423336,-0.00045396489440463483,-0.010146177373826504
0.030859654769301414,0.005402183625847101,-0.018381254747509956,0.014767122454941273,-0.0004239397239871323,-0.010461004450917244
0.030333811417222023,0.005885178688913584,-0.017969129607081413,0.014092987403273582,-0.0004390028479974717,-0.010194892063736916
0.02927171066403389,0.0054033310152590275,-0.018224122002720833,0.014174312353134155,-0.00042700825724750757,-0.009924645535647869
0.029762014746665955,0.0052858395501971245,-0.018325962126255035,0.013587050139904022,-0.0005284774815663695,-0.010502602905035019
0.030854426324367523,0.005410115234553814,-0.01766136661171913,0.014263632707297802,-0.0005683173076249659,-0.01026664488017559
0.030145201832056046,0.005126824602484703,-0.01861073635518551,0.014131973497569561,-0.000559423875529319,-0.010498200543224812
0.030391164124011993,0.005410847719758749,-0.01857750490307808,0.014742258936166763,-0.0005848085274919868,-0.011039821431040764
0.031028317287564278,0.0053229923360049725,-0.01779269054532051,0.014808733947575092,-0.0007197802187874913,-0.01145708654075861
0.03220060095191002,0.005694466643035412,-0.018097776919603348,0.015224452130496502,-0.0008354659075848758,-0.011612698435783386
0.030116919428110123,0.005240521859377623,-0.01826920360326767,0.014592789113521576,-0.0007879634504206479,-0.012244821526110172
0.03014245815575123,0.004892456810921431,-0.018682166934013367,0.014916719868779182,-0.0006917270948179066,-0.011720697395503521
0.031521521508693695,0.005198617000132799,-0.019809190183877945,0.014428439550101757,-0.0007080034702084959,-0.011417105793952942
0.031279318034648895,0.005087621044367552,-0.01924014836549759,0.015151179395616055,-0.0006861211732029915,-0.011297937482595444
0.031046630814671516,0.005461131222546101,-0.019443603232502937,0.014590741135179996,-0.000663065176922828,-0.01164884865283966
0.031295087188482285,0.005582731682807207,-0.01951454021036625,0.014838442206382751,-0.0006199904601089656,-0.012121296487748623
0.030667968094348907,0.005003717262297869,-0.01886509358882904,0.014545779675245285,-0.0005576357361860573,-0.011957399547100067
0.030978359282016754,0.005455805454403162,-0.01898658461868763,0.014734157361090183,-0.000588999770116061,-0.011992793530225754
0.030978359282016754,0.005455805454403162,-0.01898658461868763,0.014734157361090183,-0.000588999770116061,-0.011992793530225754
0.031181812286376953,0.005363256670534611,-0.019660240039229393,0.014228455722332,-0.0006019161082804203,-0.012433293275535107
0.03104156069457531,0.005533386021852493,-0.019188866019248962,0.014553544111549854,-0.000607418071012944,-0.01066126674413681
0.030964769423007965,0.005560846067965031,-0.018723811954259872,0.014344850555062294,-0.0005942210555076599,-0.012036779895424843
0.03125806525349617,0.005323610734194517,-0.019428420811891556,0.015007292851805687,-0.0006301585235632956,-0.011987694539129734
0.032178282737731934,0.005256718955934048,-0.01951233111321926,0.015319043770432472,-0.0006580797489732504,-0.011834116652607918
0.032541535794734955,0.004946218337863684,-0.01954103820025921,0.015091940760612488,-0.0005926672602072358,-0.011953134089708328
0.030395857989788055,0.0053624906577169895,-0.01935724727809429,0.014956174418330193,-0.000577269122004509,-0.01198024582117796
0.03029083088040352,0.005342609714716673,-0.018532484769821167,0.01477460190653801,-0.0005642545875161886,-0.011598998680710793
0.03172150254249573,0.0049912226386368275,-0.019101636484265327,0.014462657272815704,-0.0005201678723096848,-0.011851174756884575
0.031145058572292328,0.00469594681635499,-0.019200237467885017,0.014580100774765015,-0.0005444236448965967,-0.012248202227056026
0.03146017715334892,0.005031418055295944,-0.01886093057692051,0.014924741350114346,-0.0005100108101032674,-0.012372496537864208
0.03223798796534538,0.004925088491290808,-0.019755171611905098,0.015282048843801022,-0.00047959713265299797,-0.012678115628659725
0.03148486837744713,0.005485870875418186,-0.019381213933229446,0.015656836330890656,-0.0005105423042550683,-0.012312183156609535
0.030723989009857178,0.005298875272274017,-0.018772998824715614,0.015766726806759834,-0.0005443075788207352,-0.012513263151049614
0.030836785212159157,0.004909992683678865,-0.01913142390549183,0.015462812036275864,-0.0005731366691179574,-0.012438730336725712
0.03199343755841255,0.004600109998136759,-0.019687166437506676,0.015532388351857662,-0.0007424456998705864,-0.012716451659798622
0.032553888857364655,0.005003342404961586,-0.019100774079561234,0.014938085339963436,-0.0007981256931088865,-0.0127381207421422
0.03190901130437851,0.005115738604217768,-0.019142450764775276,0.015054799616336823,-0.000805932970251888,-0.013010409660637379
0.03189650550484657,0.005353627726435661,-0.019362008199095726,0.014731508679687977,-0.0007155679049901664,-0.01291598379611969
0.03171652927994728,0.005451001692563295,-0.019310887902975082,0.01496867649257183,-0.0007302985177375376,-0.013049880042672157
0.03159238025546074,0.005535501521080732,-0.019320953637361526,0.014403585344552994,-0.0007290415233001113,-0.012986867688596249
0.03173348307609558,0.00527907581999898,-0.019146420061588287,0.015496228821575642,-0.0006815609522163868,-0.013140907511115074
0.03163587674498558,0.005081856157630682,-0.019239405170083046,0.015363331884145737,-0.0006217466434463859,-0.013567587360739708
0.03168870136141777,0.005696306936442852,-0.019728662446141243,0.015290309675037861,-0.0005497194943018258,-0.013230903074145317
0.03190390020608902,0.005494524259120226,-0.01939231902360916,0.014962677843868732,-0.0005808301502838731,-0.012965518981218338
0.03202683478593826,0.005301918834447861,-0.018935421481728554,0.015443865209817886,-0.0005722936475649476,-0.012885204516351223
0.03231436759233475,0.004949213471263647,-0.01926961913704872,0.015230270102620125,-0.0005601809825748205,-0.013294152915477753
0.03203651309013367,0.005584408529102802,-0.018888438120484352,0.015576787292957306,-0.0006202327203936875,-0.01303007360547781
0.031897787004709244,0.0053509012795984745,-0.01914939470589161,0.015769295394420624,-0.0006106764194555581,-0.013230878859758377
0.031897787004709244,0.0053509012795984745,-0.01914939470589161,0.015769295394420624,-0.0006106764194555581,-0.013230878859758377
0.03202434256672859,0.005792982876300812,-0.019264202564954758,0.015984639525413513,-0.0006349870818667114,-0.013240297324955463
0.03216119483113289,0.005321866367012262,-0.01908901520073414,0.01564772054553032,-0.000626132357865572,-0.013570766896009445
0.032362960278987885,0.0054152836091816425,-0.019402144476771355,0.01603063941001892,-0.0006082360632717609,-0.013326176442205906
0.03212568163871765,0.0052123842760920525,-0.0188340712338686,0.01546228677034378,-0.000625796674285084,-0.013406236656010151
0.03225976973772049,0.005393988452851772,-0.018563764169812202,0.015668973326683044,-0.0006938955630175769,-0.013487718999385834
0.032698094844818115,0.005757316015660763,-0.019310960546135902,0.015482298098504543,-0.0007454560836777091,-0.013503731228411198
0.03290632367134094,0.005955894943326712,-0.019311213865876198,0.015683114528656006,-0.000751633895561099,-0.013367286883294582
0.032548464834690094,0.005279147997498512,-0.01891683042049408,0.015608832240104675,-0.0006946452194824815,-0.013335401192307472
0.03285088762640953,0.005663238000124693,-0.01900394633412361,0.015810200944542885,-0.0006926096393726766,-0.013406224548816681
0.032915033400058746,0.005351643543690443,-0.019247043877840042,0.015590512193739414,-0.0006502778269350529,-0.013487529009580612
0.03292141482234001,0.005963665433228016,-0.019135519862174988,0.015565413981676102,-0.0006728359730914235,-0.013156161643564701
0.03335881233215332,0.005525288637727499,-0.019599510356783867,0.015592671930789948,-0.0006101180915720761,-0.012533532455563545
0.034026049077510834,0.005401719827204943,-0.018863437697291374,0.015554229728877544,-0.0006312844343483448,-0.014245696365833282
0.03279179334640503,0.005506366956979036,-0.018818119540810585,0.01656743325293064,-0.0006226738914847374,-0.014213984832167625
0.03314797580242157,0.005261966958642006,-0.019438231363892555,0.016035808250308037,-0.0006051842356100678,-0.013973665423691273
0.032927148044109344,0.0057655684649944305,-0.01993212290108204,0.016458546742796898,-0.0006282241665758193,-0.013674705289304256
0.03334733098745346,0.005707495845854282,-0.019334303215146065,0.015900900587439537,-0.0006654589087702334,-0.013624376617372036
0.03356055170297623,0.005842842627316713,-0.019747108221054077,0.015638083219528198,-0.0007114732288755476,-0.01367079745978117
0.03356055170297623,0.005842842627316713,-0.019747108221054077,0.015638083219528198,-0.0007114732288755476,-0.01367079745978117
0.03489888831973076,0.005406885873526335,-0.019596127793192863,0.01523302961140871,-0.0006942200125195086,-0.013586039654910564
0.03391658514738083,0.0053170546889305115,-0.018903879448771477,0.015924109145998955,-0.0006675245240330696,-0.013470273464918137
0.033013712614774704,0.005502314772456884,-0.019747236743569374,0.016446128487586975,-0.0007742767338640988,-0.013810099102556705
0.03401031717658043,0.005572584457695484,-0.019587833434343338,0.016666118055582047,-0.0007056908216327429,-0.013950414955615997
0.03340072184801102,0.005632525775581598,-0.01926758512854576,0.016091924160718918,-0.0007261785212904215,-0.013568742200732231
0.03475136309862137,0.005173251964151859,-0.019554106518626213,0.01705353520810604,-0.000698339135851711,-0.013993367552757263
0.03429418429732323,0.005318164359778166,-0.019166698679327965,0.01728888787329197,-0.0006705078412778676,-0.013881614431738853
0.034045349806547165,0.005643067881464958,-0.020048629492521286,0.017097102478146553,-0.0006835827953182161,-0.014233185909688473
0.03305238485336304,0.005256953649222851,-0.019999224692583084,0.016071876510977745,-0.0006704953266307712,-0.014557093381881714
0.0343557707965374,0.005176587961614132,-0.018669407814741135,0.015229861252009869,-0.0007086185505613685,-0.014313185587525368
0.03467264771461487,0.004968210123479366,-0.019607912749052048,0.015834586694836617,-0.0007051383145153522,-0.014166141860187054
0.034668851643800735,0.005212489515542984,-0.02025238797068596,0.015115516260266304,-0.0007245398010127246,-0.014152059331536293
0.03380303457379341,0.005448158830404282,-0.01900944858789444,0.015903767198324203,-0.0006993036950007081,-0.014237439259886742
0.03413724899291992,0.00521900225430727,-0.019347863271832466,0.01575218141078949,-0.0008066894952207804,-0.014201450161635876
0.03404249995946884,0.005324156954884529,-0.020205993205308914,0.016243765130639076,-0.0008594518876634538,-0.013769378885626793
0.03438863530755043,0.005342366639524698,-0.020193591713905334,0.016493646427989006,-0.0008676705765537918,-0.01409732736647129
0.03351336717605591,0.00506054051220417,-0.01981443166732788,0.016315238550305367,-0.0008718104218132794,-0.013830351643264294
0.033731378614902496,0.005379353649914265,-0.019999593496322632,0.0166975986212492,-0.0008811359293758869,-0.014089541509747505
0.035127852112054825,0.0050881546922028065,-0.019534273073077202,0.016530336812138557,-0.0008148826309479773,-0.014493172988295555
0.034644097089767456,0.005228258669376373,-0.020336784422397614,0.016275539994239807,-0.0007953770691528916,-0.014597583562135696
0.03319883719086647,0.005544183310121298,-0.020953726023435593,0.015988649800419807,-0.0007198787643574178,-0.014100983738899231
0.034082334488630295,0.00612260214984417,-0.020512793213129044,0.016519438475370407,-0.0006368291797116399,-0.014058254659175873
0.03444858267903328,0.005354962777346373,-0.020000943914055824,0.01641562581062317,-0.0005696553271263838,-0.014301616698503494
0.03444399684667587,0.005407830234616995,-0.020541876554489136,0.016400281339883804,-0.0005780521314591169,-0.014719623140990734
0.035073477774858475,0.005225456785410643,-0.020866308361291885,0.01629437319934368,-0.0005471803597174585,-0.014586511999368668
0.035073477774858475,0.005225456785410643,-0.020866308361291885,0.01629437319934368,-0.0005471803597174585,-0.014586511999368668
0.03457964211702347,0.005748454947024584,-0.020534541457891464,0.01638435572385788,-0.0005162509041838348,-0.01397960726171732
0.03415437787771225,0.005154687445610762,-0.020719707012176514,0.01620676927268505,-0.0004959236248396337,-0.013623034581542015
0.035316579043865204,0.004918329417705536,-0.020979484543204308,0.016561735421419144,-0.0004659846017602831,-0.013438507914543152
0.0352163165807724,0.005231316667050123,-0.020754998549818993,0.016158128157258034,-0.0003756981168407947,-0.013930538669228554
0.03552217409014702,0.005083264783024788,-0.020936673507094383,0.016106193885207176,-0.00039402462425641716,-0.014286291785538197
0.03541863337159157,0.005349567625671625,-0.021277636289596558,0.016040384769439697,-0.0003816092503257096,-0.013450061902403831
0.03551952540874481,0.005156995728611946,-0.021169429644942284,0.015755096450448036,-0.0004127595166210085,-0.014450744725763798
0.03541380167007446,0.004905111622065306,-0.02040029689669609,0.016275912523269653,-0.00044280578731559217,-0.015446670353412628
0.03570496663451195,0.005041382275521755,-0.020863711833953857,0.016643863171339035,-0.0006704582483507693,-0.014806556515395641
0.03568585589528084,0.004962303675711155,-0.020956313237547874,0.017196305096149445,-0.0007682280847802758,-0.014340829104185104
0.035521432757377625,0.004868805408477783,-0.020760413259267807,0.01696818508207798,-0.0007744027534499764,-0.01400437019765377
0.035552605986595154,0.005633360706269741,-0.02083154395222664,0.0174002293497324,-0.0007135001942515373,-0.014561433345079422
0.03589583933353424,0.004886537324637175,-0.021387562155723572,0.01777072250843048,-0.0007213491480797529,-0.01476282998919487
0.036060880869627,0.005003334954380989,-0.021280119195580482,0.016931377351284027,-0.0006654386525042355,-0.015097630210220814
0.03650860860943794,0.004992000758647919,-0.020764468237757683,0.016955597326159477,-0.0006153226713649929,-0.014728202484548092
0.03629989176988602,0.004822822287678719,-0.020686261355876923,0.01648556999862194,-0.0006034093676134944,-0.015140683390200138
0.03643319755792618,0.004695724230259657,-0.021343275904655457,0.01712924800813198,-0.0005360661307349801,-0.01511024497449398
0.036679573357105255,0.005206733476370573,-0.02121075987815857,0.017303433269262314,-0.0005680206813849509,-0.015372445806860924
0.03637755662202835,0.005065634846687317,-0.021104028448462486,0.017069119960069656,-0.0005191715899854898,-0.015428833663463593
0.03645394742488861,0.0047344062477350235,-0.020957300439476967,0.017406770959496498,-0.0004739323921967298,-0.015472142025828362
0.036489538848400116,0.004690381698310375,-0.02112293429672718,0.017293982207775116,-0.00043568044202402234,-0.01518815103918314
0.036871615797281265,0.004705123137682676,-0.021257508546113968,0.017531873658299446,-0.0004655771190300584,-0.015465484000742435
0.03670712932944298,0.004663235507905483,-0.021368196234107018,0.017632847651839256,-0.00043731380719691515,-0.015280107036232948
0.03670350834727287,0.004756215028464794,-0.021686214953660965,0.017539573833346367,-0.0004091624286957085,-0.015863733366131783
0.036858078092336655,0.005123544950038195,-0.021582119166851044,0.017848961055278778,-0.00042463181307539344,-0.015719689428806305
0.037291161715984344,0.004868723917752504,-0.021367603912949562,0.018026690930128098,-0.0004129066364839673,-0.015871888026595116
0.03706097975373268,0.004555691033601761,-0.020681092515587807,0.018205834552645683,-0.00039128639036789536,-0.016144029796123505
0.03706097975373268,0.004555691033601761,-0.020681092515587807,0.018205834552645683,-0.00039128639036789536,-0.016144029796123505
0.03687687963247299,0.004776072222739458,-0.022914597764611244,0.017701849341392517,-0.00032274078694172204,-0.015934349969029427
0.037320829927921295,0.004849190823733807,-0.021699771285057068,0.01832577772438526,-0.0003008607018273324,-0.016079269349575043
0.03709881380200386,0.0051019699312746525,-0.020377550274133682,0.01859525591135025,-0.000334445561747998,-0.016101406887173653
0.03675733134150505,0.004942950792610645,-0.021755846217274666,0.018468866124749184,-0.0003439899010118097,-0.015954291447997093
0.037540171295404434,0.00481727859005332,-0.02285301871597767,0.018594413995742798,-0.0003489911032374948,-0.015810638666152954
0.03787805140018463,0.004546279087662697,-0.02206079475581646,0.01924709603190422,-0.0003763556887861341,-0.01594485528767109
0.037292495369911194,0.004854228347539902,-0.020621176809072495,0.018920892849564552,-0.0005452677723951638,-0.016137903556227684
0.03620319068431854,0.00486330222338438,-0.02208637446165085,0.01909760758280754,-0.0006413870141841471,-0.016794173046946526
0.0376206710934639,0.004908932838588953,-0.021944710984826088,0.018574519082903862,-0.0007195593789219856,-0.016847044229507446
0.03731009364128113,0.004604168236255646,-0.021202081814408302,0.017557254061102867,-0.0006982682389207184,-0.01650119572877884
0.037821125239133835,0.004215687047690153,-0.02141381986439228,0.017664430662989616,-0.0009421409922651947,-0.016409698873758316
0.038502130657434464,0.0044328984804451466,-0.021954979747533798,0.017554735764861107,-0.0008200550801120698,-0.01676740124821663
0.03682752326130867,0.0047447169199585915,-0.021807484328746796,0.018515832722187042,-0.0008245283970609307,-0.01724001206457615
0.036904629319906235,0.004805514123290777,-0.02143479511141777,0.019026022404432297,-0.0008100774139165878,-0.016906844452023506
0.038854196667671204,0.004462945740669966,-0.021316351369023323,0.01868891716003418,-0.0007417254964821041,-0.01668987236917019
0.036909040063619614,0.004517735913395882,-0.02178073115646839,0.01903717778623104,-0.000753171683754772,-0.016530841588974
0.037303194403648376,0.004894547164440155,-0.022078806534409523,0.018999284133315086,-0.0006870828219689429,-0.016601020470261574
0.03767813369631767,0.004968983121216297,-0.021786555647850037,0.018826253712177277,-0.0006022537127137184,-0.017219465225934982
0.03834497183561325,0.004386221058666706,-0.021391291171312332,0.018932120874524117,-0.0005305548547767103,-0.017358217388391495
0.03792619705200195,0.0043489993549883366,-0.021949483081698418,0.018745452165603638,-0.0005624378100037575,-0.017266474664211273
0.03787609562277794,0.004543779883533716,-0.02179650031030178,0.018087249249219894,-0.0005145289469510317,-0.01669103465974331
0.03967931866645813,0.0047563211992383,-0.02149939350783825,0.0181898083537817,-0.0005428074509836733,-0.016730932518839836
0.038540467619895935,0.004712649621069431,-0.021855907514691353,0.01807103306055069,-0.000504112453199923,-0.01714504323899746
0.03746359422802925,0.004508026875555515,-0.021815862506628036,0.018443912267684937,-0.0005246202345006168,-0.017735902220010757
0.03845064342021942,0.004789645783603191,-0.02162986621260643,0.018885070458054543,-0.0004963102983310819,-0.01754206232726574
0.03860751539468765,0.004355720244348049,-0.021686922758817673,0.018630104139447212,-0.0005061068804934621,-0.017137162387371063
0.03860751539468765,0.004355720244348049,-0.021686922758817673,0.018630104139447212,-0.0005061068804934621,-0.017137162387371063
0.03975880518555641,0.004433660302311182,-0.021700803190469742,0.018264763057231903,-0.000468994869152084,-0.016941305249929428
0.039112359285354614,0.004622560925781727,-0.021656930446624756,0.01858990080654621,-0.00048791212611831725,-0.017096295952796936
0.03835591673851013,0.004756575915962458,-0.02178090624511242,0.01822880282998085,-0.0004651407361961901,-0.016672449186444283
0.03915629908442497,0.004609778523445129,-0.02098291739821434,0.018810486420989037,-0.0005207086214795709,-0.016821186989545822
0.039685867726802826,0.004549349658191204,-0.02151697315275669,0.018327677622437477,-0.0005878032534383237,-0.017463266849517822
0.03929920122027397,0.004400527570396662,-0.021594595164060593,0.018963169306516647,-0.0006882832967676222,-0.01737930439412594
0.039001643657684326,0.00515596941113472,-0.021247433498501778,0.01900300942361355,-0.0007174495840445161,-0.016954414546489716
0.03942786902189255,0.005056651309132576,-0.02100924775004387,0.018437927588820457,-0.0007371799438260496,-0.01718859374523163
0.039165932685136795,0.004795475862920284,-0.02151354029774666,0.01879790984094143,-0.000690541579388082,-0.017185306176543236
0.03914603590965271,0.004530284553766251,-0.021738819777965546,0.01872609741985798,-0.0008516653906553984,-0.018103092908859253
0.03929947689175606,0.004700869787484407,-0.021118206903338432,0.01854109577834606,-0.000732203247025609,-0.018262304365634918
0.03940067067742348,0.004770759493112564,-0.0211698766797781,0.0192425437271595,-0.0007219979306682944,-0.0176352821290493
0.03943878039717674,0.004866745322942734,-0.02156490832567215,0.01947699673473835,-0.0006612626602873206,-0.017278920859098434
0.03958667442202568,0.0049293688498437405,-0.022329188883304596,0.01944359764456749,-0.0006818803958594799,-0.017375513911247253
0.0392630398273468,0.005069985054433346,-0.02214185521006584,0.019591839984059334,-0.0006855787942185998,-0.017655450850725174
0.04003084450960159,0.004391058813780546,-0.021482203155755997,0.019619032740592957,-0.0006445373874157667,-0.017769483849406242
0.03957595303654671,0.003493501339107752,-0.02141403965651989,0.019344577565789223,-0.0005794443422928452,-0.017931004986166954
0.039442457258701324,0.0030804125126451254,-0.02204626426100731,0.019877996295690536,-0.0006022072630003095,-0.018415160477161407
0.03947266936302185,0.0031720001716166735,-0.02185659669339657,0.019505362957715988,-0.0006318490486592054,-0.01796669140458107
0.039724987000226974,0.0036605135537683964,-0.021815327927470207,0.01843157783150673,-0.0006567397504113615,-0.017751535400748253
0.03970859944820404,0.004269420634955168,-0.021711260080337524,0.018771713599562645,-0.0007706071482971311,-0.018240289762616158
