davideferrari95/blind_handover_controller/data/Test 13 - [2024-02-07 -- 13-13-57]/joint_states_data.csv
shoulder_pan_joint,shoulder_lift_joint,elbow_joint,wrist_1_joint,wrist_2_joint,wrist_3_joint
0.004755276720970869,0.007926298305392265,-0.007954678498208523,0.0018148047383874655,0.00019003063789568841,0.005624235142022371
0.004755276720970869,0.007926298305392265,-0.007954678498208523,0.0018148047383874655,0.00019003063789568841,0.005624235142022371
0.004954902455210686,0.008055047132074833,-0.008393951691687107,0.0015861024148762226,0.0001973980397451669,0.005923752672970295
0.004954902455210686,0.008055047132074833,-0.008393951691687107,0.0015861024148762226,0.0001973980397451669,0.005923752672970295
0.004952581599354744,0.008481529541313648,-0.0077776312828063965,0.0014446693239733577,0.00020394468447193503,0.005579829216003418
0.004802371375262737,0.008248908445239067,-0.008203555829823017,0.001161989290267229,0.0001990979944821447,0.0052823820151388645
0.005063809920102358,0.008225786499679089,-0.008745198138058186,0.001073693041689694,0.00019379056175239384,0.005113248713314533
0.005039817187935114,0.007925586774945259,-0.007949179038405418,0.001021729432977736,0.00018871463544201106,0.0049973432905972
0.004730318207293749,0.008012370206415653,-0.00744881434366107,0.0010196167277172208,0.00018389421165920794,0.005216227378696203
0.004642083775252104,0.00795759353786707,-0.00764178391546011,0.0010869542602449656,0.00017931422917172313,0.005044898949563503
0.00471628550440073,0.007761628367006779,-0.008361347950994968,0.0011082083219662309,0.00017541275883559138,0.005069088190793991
0.004845981951802969,0.008301541209220886,-0.0074827480129897594,0.0010978721547871828,0.00015650958812329918,0.005304514896124601
0.005109729245305061,0.008390718139708042,-0.006875215098261833,0.0011425284901633859,0.0001504394895164296,0.004991319961845875
0.0047219241969287395,0.00793916080147028,-0.007934932596981525,0.001224613399244845,0.0001409570249961689,0.005001131910830736
0.004598940722644329,0.008558633737266064,-0.00688343308866024,0.001225787797011435,0.00013667566236108541,0.004850677214562893
0.004974838346242905,0.00807780772447586,-0.006753322668373585,0.0011885900748893619,0.00013264609151519835,0.004822230897843838
0.0051105935126543045,0.007544724270701408,-0.007125473115593195,0.0012271249433979392,0.00012884792522527277,0.005036411806941032
0.004987626802176237,0.008035494014620781,-0.007769073359668255,0.0012228715931996703,0.00012526093632914126,0.00493577728047967
0.004749195650219917,0.00803388562053442,-0.007327594328671694,0.0012090640375390649,0.00012186852836748585,0.004818086512386799
0.004602611064910889,0.007446788251399994,-0.007130690850317478,0.0011766869574785233,0.00011865505075547844,0.00502780033275485
0.004997521173208952,0.007240131497383118,-0.006964745931327343,0.0011462230468168855,0.00011560662824194878,0.005108766257762909
0.004995235241949558,0.0074774157255887985,-0.00800663698464632,0.0010906972456723452,0.0001127107025240548,0.004847030155360699
0.005126550793647766,0.007391748484224081,-0.007064549718052149,0.00105257797986269,0.00010995665797963738,0.004850872326642275
0.004970583599060774,0.006992303300648928,-0.007268197368830442,0.0010269765043631196,0.00010733376257121563,0.005009036045521498
0.005436548963189125,0.006981824990361929,-0.006855424027889967,0.0009834031807258725,0.00010483319056220353,0.00479481415823102
0.005081620067358017,0.007082098629325628,-0.008060322143137455,0.0009067185455933213,0.0001125187409343198,0.004911483731120825
0.005081620067358017,0.007082098629325628,-0.008060322143137455,0.0009067185455933213,0.0001125187409343198,0.004911483731120825
0.004874291829764843,0.007401223294436932,-0.007723180577158928,0.0008542701252736151,0.00011951906344620511,0.005302732344716787
0.0051245796494185925,0.006903374567627907,-0.006613119971007109,0.0008577471598982811,0.00011753752187360078,0.004604673013091087
0.005046232137829065,0.006411834619939327,-0.006654066499322653,0.0008630846859887242,0.00011507328599691391,0.0043970332480967045
0.0050124903209507465,0.006360888481140137,-0.007414181716740131,0.0008272193954326212,0.0001126747956732288,0.004559946712106466
0.00527879036962986,0.00715741328895092,-0.007110262755304575,0.001010205363854766,0.00011037197691621259,0.004689212888479233
0.004901816137135029,0.007064021658152342,-0.006798109970986843,0.0010033719008788466,0.00010816108988365158,0.004829447250813246
0.005134170409291983,0.006868750788271427,-0.0066610355861485004,0.0009894222021102905,0.00010603727423585951,0.005199597682803869
0.00503949262201786,0.006640370469540358,-0.007401377893984318,0.001057456829585135,0.00010399498569313437,0.004916368518024683
0.004828526638448238,0.00673779146745801,-0.006727605126798153,0.001064474112354219,0.00010203019337495789,0.004668549168854952
0.004829369485378265,0.006922821514308453,-0.00625337241217494,0.001039151451550424,0.0001001380369416438,0.004184303339570761
0.005609766114503145,0.006944822613149881,-0.006132988724857569,0.0010191198671236634,9.831490024225786e-05,0.004224296659231186
0.005199365317821503,0.0065325484611094,-0.007103795651346445,0.0009989615064114332,9.655699977884069e-05,0.004231018014252186
0.005125182680785656,0.0069494470953941345,-0.006372489500790834,0.0009811591589823365,9.32230832404457e-05,0.005079064052551985
0.004940534941852093,0.006436593364924192,-0.006452346220612526,0.0009700008085928857,9.164104994852096e-05,0.004721349570900202
0.005709707271307707,0.006200461648404598,-0.006648207549005747,0.0009698802605271339,9.011180372908711e-05,0.004453989677131176
0.005436934996396303,0.006572290323674679,-0.007470104843378067,0.0009757972438819706,8.863273251336068e-05,0.004766219761222601
0.005382538307458162,0.0068432423286139965,-0.006646395195275545,0.0009651102009229362,8.72014497872442e-05,0.004523429088294506
0.005224250257015228,0.00665720459073782,-0.0061647119000554085,0.000956313859205693,9.916933777276427e-05,0.005017790012061596
0.00475038168951869,0.0061968849040567875,-0.0064882501028478146,0.0009336178773082793,9.849012712948024e-05,0.005316100548952818
0.0048769093118608,0.006564343348145485,-0.006633504759520292,0.0009165480150841177,9.703015530249104e-05,0.004759371746331453
0.0048769093118608,0.006564343348145485,-0.006633504759520292,0.0009165480150841177,9.703015530249104e-05,0.004759371746331453
0.0053877015598118305,0.006622673477977514,-0.006641173269599676,0.0008404026157222688,9.413442603545263e-05,0.004417178686708212
0.0053877015598118305,0.006622673477977514,-0.006641173269599676,0.0008404026157222688,9.413442603545263e-05,0.004417178686708212
0.005207845475524664,0.006549986079335213,-0.006744124926626682,0.0008466808940283954,9.274862532038242e-05,0.004631476476788521
0.004919630475342274,0.006601962726563215,-0.006432060617953539,0.0008334617596119642,9.140306065091863e-05,0.00460349814966321
0.004845004063099623,0.006619250867515802,-0.007330588065087795,0.0008610000368207693,9.009583300212398e-05,0.004798257257789373
0.005112833809107542,0.006435591261833906,-0.00697306077927351,0.0008674343698658049,8.882560359779745e-05,0.004811153747141361
0.004988518077880144,0.006525472737848759,-0.006531677208840847,0.0008714030846022069,8.759069169173017e-05,0.004428085871040821
0.005093575920909643,0.006558325607329607,-0.006406891625374556,0.0009402514551766217,8.638951840111986e-05,0.004485540557652712
0.005446255207061768,0.006544791627675295,-0.006618288345634937,0.0009685166296549141,8.522099233232439e-05,0.004525226075202227
0.00511270621791482,0.006277596112340689,-0.00743833789601922,0.0009417914552614093,8.408360736211762e-05,0.004589491989463568
0.004931273404508829,0.006349179893732071,-0.006802847608923912,0.0008470233879052103,8.297617750940844e-05,0.004615409765392542
0.004839404486119747,0.006689285393804312,-0.006208146456629038,0.0008473093039356172,8.189749496523291e-05,0.0046520172618329525
0.004807856399565935,0.006479225587099791,-0.006007346790283918,0.000768819940276444,9.088969090953469e-05,0.004496963694691658
0.004807856399565935,0.006479225587099791,-0.006007346790283918,0.000768819940276444,9.088969090953469e-05,0.004496963694691658
0.004878073465079069,0.006302257068455219,-0.006831471808254719,0.0007044470985420048,9.007761400425807e-05,0.004135459195822477
0.00465004239231348,0.00682033272460103,-0.006204164121299982,0.0006990820984356105,8.897041698219255e-05,0.004257898312062025
0.004493094515055418,0.006265934091061354,-0.006479992531239986,0.0006724160630255938,8.788487320998684e-05,0.004044542089104652
0.005245113745331764,0.006460761185735464,-0.007505145389586687,0.0006913626566529274,8.579063432989642e-05,0.004323119763284922
0.00497170677408576,0.006858333013951778,-0.006622669752687216,0.0006518415757454932,8.478036761516705e-05,0.004434196278452873
0.004937802441418171,0.006266877055168152,-0.006262688431888819,0.0006787458551116288,8.379374048672616e-05,0.004373801406472921
0.005314613226801157,0.0062911249697208405,-0.006252388935536146,0.0006833538063801825,8.282976341433823e-05,0.0040874476544559
0.00490967184305191,0.006569931283593178,-0.007362681441009045,0.0006812638021074235,8.18877451820299e-05,0.003878273069858551
0.004954536445438862,0.006566310301423073,-0.006710366811603308,0.0006598855252377689,8.096695091808215e-05,0.004163004457950592
0.004954536445438862,0.006566310301423073,-0.006710366811603308,0.0006598855252377689,8.096695091808215e-05,0.004163004457950592
0.004866754170507193,0.006193707697093487,-0.006332179065793753,0.0006688349531032145,8.006653661141172e-05,0.004110235720872879
0.00511074298992753,0.005906865932047367,-0.006169244181364775,0.0006445881444960833,1.3284387705425615e-06,0.004071341827511787
0.00511074298992753,0.005906865932047367,-0.006169244181364775,0.0006445881444960833,1.3284387705425615e-06,0.004071341827511787
0.0052542309276759624,0.006144487764686346,-0.006702945567667484,0.0005983400624245405,8.673755758081825e-08,0.0039196009747684
0.004669652786105871,0.006867533084005117,-0.0067490036599338055,0.000623573549091816,5.6633426837038314e-09,0.003848120803013444
0.0050830901600420475,0.00698502641171217,-0.006355170160531998,0.0006119142635725439,5.208339280216023e-05,0.003820603247731924
0.0050407033413648605,0.006274347193539143,-0.0062125506810843945,0.0005972736398689449,6.523087358800694e-05,0.004313443321734667
0.005242941435426474,0.0063012572936713696,-0.006626851391047239,0.000553684716578573,6.519359158119187e-05,0.004135681316256523
0.005555863492190838,0.006479055155068636,-0.006709842476993799,0.0005457729566842318,6.432100781239569e-05,0.003846903331577778
0.005273545626550913,0.006301939953118563,-0.006755267735570669,0.0004981327801942825,6.341841799439862e-05,0.003750156844034791
0.004973702132701874,0.006459258496761322,-0.0061564939096570015,0.0004924333770759404,6.253733590710908e-05,0.003832403337582946
0.005079486407339573,0.006476148031651974,-0.006128295324742794,0.0004870524280704558,6.16801917203702e-05,0.0038919677026569843
0.005381676368415356,0.0066416203044354916,-0.006833700463175774,0.0005136425024829805,6.084620690671727e-05,0.003885636804625392
0.005558097269386053,0.006356469355523586,-0.0063790809363126755,0.0004831799597013742,6.0034453781554475e-05,0.0038796314038336277
0.005248278845101595,0.0064744106493890285,-0.006138367112725973,0.0005047136219218373,5.924405559198931e-05,0.004250521771609783
0.005025097168982029,0.006103275343775749,-0.006208098027855158,0.0004787368234246969,5.847422289662063e-05,0.004251895472407341
0.00516738323494792,0.006032484117895365,-0.006581147201359272,0.00048773735761642456,5.7724177167983726e-05,0.004100609105080366
0.005018743686378002,0.0061850640922784805,-0.006658585276454687,0.0004741403099615127,5.699306711903773e-05,0.003974890802055597
0.005310199689120054,0.006643396802246571,-0.0062737902626395226,0.0005111831123940647,5.628027793136425e-05,0.0037057003937661648
0.005511809606105089,0.006708741188049316,-0.006112577859312296,0.0005396976484917104,5.558510383707471e-05,0.003474245546385646
0.005230526905506849,0.005686458200216293,-0.006992108654230833,0.0005334041197784245,5.4245010687736794e-05,0.003405883675441146
0.004962607752531767,0.005749229807406664,-0.006659385748207569,0.0006603884976357222,5.3598931117448956e-05,0.003483641892671585
0.005060592666268349,0.006327480543404818,-0.006093035452067852,0.0006836820393800735,5.2968029194744304e-05,0.0036223765928298235
0.005466013681143522,0.006384958513081074,-0.006518140900880098,0.0006569107645191252,5.235182834439911e-05,0.004179470706731081
0.006070741452276707,0.005904895719140768,-0.006830158643424511,0.0006605388480238616,5.17497792316135e-05,0.004153043497353792
0.005575504153966904,0.006018316373229027,-0.006726460065692663,0.0006179065094329417,5.11614307470154e-05,0.0037281170953065157
0.005250637885183096,0.005664452910423279,-0.006195875816047192,0.0006230167928151786,5.0586324505275115e-05,0.003449072130024433
0.005250637885183096,0.005664452910423279,-0.006195875816047192,0.0006230167928151786,5.0586324505275115e-05,0.003449072130024433
0.0054624141193926334,0.006148441694676876,-0.006120480131357908,0.0005902445991523564,5.002396210329607e-05,0.0031816044356673956
0.005562374368309975,0.006329851690679789,-0.006258477456867695,0.0005858578369952738,1.271170094696572e-05,0.003139125183224678
0.0057175955735147,0.005489103961735964,-0.0067435819655656815,0.0005320743075571954,8.299832643388072e-07,0.0032080623786896467
0.00544540723785758,0.005878750700503588,-0.00661717914044857,0.0005650249077007174,5.41919789043277e-08,0.003308921819552779
0.005699143745005131,0.005470269825309515,-0.006098694168031216,0.0005798009224236012,3.538349169218691e-09,0.0033703960943967104
0.005407006945461035,0.006079497281461954,-0.005999991670250893,0.0005870534223504364,2.310289320961445e-10,0.003212720388546586
0.0056825606152415276,0.005984501447528601,-0.006225356366485357,0.0005758808110840619,1.5084537785536867e-11,0.0034286710433661938
0.005799985956400633,0.005591696593910456,-0.00688939867541194,0.0006683258106932044,9.849124554123234e-13,0.0036812874022871256
0.005686108488589525,0.005485005676746368,-0.006976026576012373,0.0007043638615868986,6.430775101881961e-14,0.0033955355174839497
0.005407825578004122,0.0060089873149991035,-0.006342146545648575,0.0007140376837924123,4.198836763713186e-15,0.0031912934500724077
0.005475896876305342,0.005964223761111498,-0.006195790134370327,0.0006634468445554376,2.7415401890055666e-16,0.003227828536182642
0.005317930597811937,0.00596176041290164,-0.006763082463294268,0.000681387959048152,1.79002992978496e-17,0.003178506391122937
0.005988152697682381,0.005988177843391895,-0.00703048100695014,0.0007010956760495901,1.1687615377843502e-18,0.0035052045714110136
0.005599630996584892,0.005727886687964201,-0.006159455515444279,0.0006698667421005666,7.631178651797538e-20,0.0032989955507218838
0.005782103631645441,0.005707792937755585,-0.006043021101504564,0.0006877893465571105,4.9826141042830106e-21,0.0030779566150158644
0.0055227563716471195,0.0056505873799324036,-0.006476578768342733,0.000622310908511281,3.2532908983417855e-22,0.003126614261418581
0.005838597193360329,0.0064416686072945595,-0.0071753524243831635,0.0006267637363635004,2.1241665483495237e-23,0.0032236860133707523
0.005903406534343958,0.00633656932041049,-0.007385063450783491,0.0005890766624361277,1.3869290951966275e-24,0.0031506114173680544
0.005738093517720699,0.005628976970911026,-0.0059370906092226505,0.0005964677548035979,9.055655422072323e-26,0.0030614137649536133
0.005988914053887129,0.00595724955201149,-0.006507073529064655,0.0005670544924214482,5.912696218348178e-27,0.0028285265434533358
0.0054074423387646675,0.005920888390392065,-0.007097712717950344,0.0005427717114798725,3.8605679810180186e-28,0.002707281382754445
0.005717531777918339,0.006076052784919739,-0.006448020227253437,0.0005308125400915742,1.6458207372529565e-30,0.0025082952342927456
0.005773799028247595,0.005559260956943035,-0.006710557732731104,0.0005542035214602947,1.0746033163833017e-31,0.002760168630629778
0.005700303241610527,0.0056474474258720875,-0.006402310915291309,0.0005181453307159245,7.016391332891859e-33,0.0029449400026351213
0.0060144043527543545,0.005670370999723673,-0.006779239978641272,0.000542961061000824,4.581201787226891e-34,0.002943282714113593
0.005938134156167507,0.006318377796560526,-0.006694205105304718,0.000599477207288146,2.991197478207822e-35,0.002729620086029172
0.005942691583186388,0.006398186087608337,-0.006542944815009832,0.0006639814237132668,1.9530382331290772e-36,0.0025445977225899696
0.005971822421997786,0.005540997255593538,-0.006208793725818396,0.0006423520389944315,1.2751943823775782e-37,0.0023179706186056137
0.005971822421997786,0.005540997255593538,-0.006208793725818396,0.0006423520389944315,1.2751943823775782e-37,0.0023179706186056137
0.0057527050375938416,0.00546672660857439,-0.006550499703735113,0.000660106772556901,8.326107697164945e-39,0.002279541688039899
0.005587829276919365,0.005707751028239727,-0.0068475245498120785,0.0006497124559246004,5.436351405332771e-40,0.002325561596080661
0.005564131308346987,0.006316448096185923,-0.00661615002900362,0.0006313101039268076,3.5494890101347616e-41,0.0023272759281098843
0.006173043046146631,0.006151292473077774,-0.006132329348474741,0.000703460187651217,2.3177476599932474e-42,0.0025091907009482384
0.006455107592046261,0.00541112432256341,-0.006405714899301529,0.0007343065226450562,1.5134023414708024e-43,0.002526180585846305
0.006040551234036684,0.00534628052264452,-0.007032371591776609,0.0007130311569198966,9.80908925027372e-45,0.002337503945454955
0.005766630172729492,0.00559089845046401,-0.0073271566070616245,0.0006836125976406038,0.0,0.0022160569205880165
0.0053353942930698395,0.005806799046695232,-0.006825981196016073,0.0006956488359719515,0.0,0.002106672851368785
0.0063662282191216946,0.006202364806085825,-0.00639883428812027,0.0007183345733210444,0.0,0.0022161283995956182
0.006192765664309263,0.006119241937994957,-0.006852615159004927,0.0006865756586194038,0.0,0.002207395853474736
0.0059094782918691635,0.005391293205320835,-0.007240124046802521,0.0007110043079592288,0.0,0.0023710227105766535
0.006097785197198391,0.006024554371833801,-0.0065829018130898476,0.000712017877958715,0.0,0.0023153945803642273
0.005836694035679102,0.0061314962804317474,-0.00628934521228075,0.0007068258128128946,0.0,0.002311289543285966
0.006498486734926701,0.00650000711902976,-0.0070852176286280155,0.0006823206203989685,0.0,0.0023676531855016947
0.006419062614440918,0.00569665152579546,-0.007719323970377445,0.0006803848082199693,0.0,0.002228262135758996
0.005996057763695717,0.00561421737074852,-0.006940519902855158,0.0006394167430698872,0.0,0.0021394321229308844
0.006204545032233,0.005991369020193815,-0.0063376049511134624,0.0006448700441978872,0.0,0.001961959060281515
0.006612698081880808,0.005674933083355427,-0.0064750416204333305,0.0005985337193123996,0.0,0.0018523738253861666
0.0064406851306557655,0.006401008926331997,-0.007367114070802927,0.0006177087780088186,0.0,0.0017424119869247079
0.006162343546748161,0.005824110470712185,-0.0064182099886238575,0.0005948091857135296,0.0,0.0017228849465027452
0.005910429637879133,0.005998608656227589,-0.006510539911687374,0.0005866579595021904,0.0,0.001796948490664363
0.006304697133600712,0.005607672035694122,-0.006746332161128521,0.0006044842884875834,0.0,0.0017396695911884308
0.00670801242813468,0.0058004665188491344,-0.007021140307188034,0.000635631091427058,0.0,0.0015900586731731892
0.006396511569619179,0.005938410758972168,-0.006445144768804312,0.0006189246196299791,0.0,0.0015911019872874022
0.006078030914068222,0.006029371637851,-0.007041933946311474,0.0006413674564100802,0.0,0.0015153911663219333
0.006180500611662865,0.0060762204229831696,-0.00666779326274991,0.0008022566908039153,0.0,0.0016179343219846487
0.006180500611662865,0.0060762204229831696,-0.00666779326274991,0.0008022566908039153,0.0,0.0016179343219846487
0.00605934439226985,0.005518805701285601,-0.007137519773095846,0.0008509811013936996,0.0,0.0016763258026912808
0.006646326277405024,0.005885228049010038,-0.007093624211847782,0.000828277668915689,0.0,0.0018814712530001998
0.006576536688953638,0.006208854261785746,-0.00694069592282176,0.0007910507265478373,0.0,0.0017894245684146881
0.006576536688953638,0.006208854261785746,-0.00694069592282176,0.0007910507265478373,0.0,0.0017894245684146881
0.005949594080448151,0.005663970485329628,-0.0074348654597997665,0.0008120349375531077,0.0,0.0016694915248081088
0.0063864304684102535,0.005824910011142492,-0.007109569851309061,0.0007881488418206573,0.0,0.0015260609798133373
0.006599706131964922,0.005915101617574692,-0.007429127581417561,0.0007419431349262595,0.0,0.0014477114891633391
0.006467951461672783,0.0058621615171432495,-0.007046946790069342,0.0007569835870526731,0.0,0.0013325279578566551
0.006199853029102087,0.005664510186761618,-0.008028234355151653,0.0007655936060473323,0.0,0.0012757356744259596
0.006482506170868874,0.005777992308139801,-0.00772772217169404,0.0007025990635156631,0.0,0.0012879881542176008
0.00717347813770175,0.006145602557808161,-0.006928318180143833,0.0006995172589085996,0.0,0.0012224310776218772
0.006883179768919945,0.006002282258123159,-0.006404195912182331,0.0007294798269867897,0.0,0.0012062254827469587
0.006494512781500816,0.005582180339843035,-0.006936966907233,0.0007501417421735823,0.0,0.0011455619242042303
0.006109996233135462,0.005581921897828579,-0.007546457462012768,0.0007597056101076305,0.0,0.0011539278784766793
0.0068616485223174095,0.006021411158144474,-0.007335154339671135,0.0008702531922608614,0.0,0.0011119857663288713
0.007067343220114708,0.005906186997890472,-0.007037590257823467,0.0008960609557107091,0.0,0.0010796524584293365
0.006780813913792372,0.005846908316016197,-0.006927108857780695,0.000898137514013797,0.0,0.001050187274813652
0.006527638528496027,0.006001117639243603,-0.007287618704140186,0.0008985477034002542,0.0,0.0010132472962141037
0.006398103665560484,0.00554666668176651,-0.00725065590813756,0.0009190594428218901,0.0,0.0009571918635629117
0.0070538329891860485,0.005809261463582516,-0.007590958382934332,0.0008555841050110757,0.0,0.0008874734630808234
0.006512403953820467,0.006218445021659136,-0.007429641205817461,0.0008570724749006331,0.0,0.000815469422377646
0.006328999530524015,0.006185893435031176,-0.0068259695544838905,0.000861875363625586,0.0,0.0007683209842070937
0.006851395592093468,0.005514358635991812,-0.00712731434032321,0.0009502951288595796,0.0,0.0007242748979479074
0.007082515396177769,0.005830863956362009,-0.007489184383302927,0.0009552594274282455,0.0,0.0007337777060456574
0.0067169927060604095,0.005724880378693342,-0.007509489078074694,0.0009484062320552766,0.0,0.0006684864638373256
0.006778739392757416,0.006124272011220455,-0.0070970249362289906,0.0008918017265386879,0.0,0.0006852324004285038
0.006778739392757416,0.006124272011220455,-0.0070970249362289906,0.0008918017265386879,0.0,0.0006852324004285038
0.0068942769430577755,0.005880929529666901,-0.006972065195441246,0.001027097925543785,0.0,0.0006304610287770629
0.007327296305447817,0.0056303720921278,-0.007495164405554533,0.0010533325839787722,0.0,0.0005799716454930604
0.007366765756160021,0.005820673890411854,-0.007515712641179562,0.0010512869339436293,0.0,0.0005367271951399744
0.006375642027705908,0.00590085843577981,-0.007097476162016392,0.0011382795637473464,0.0,0.000499467016197741
0.006280702073127031,0.006174165289849043,-0.007102110423147678,0.0011143859010189772,0.0,0.00046704988926649094
0.0072325291112065315,0.005792966578155756,-0.007614616770297289,0.0010784885380417109,0.0,0.00043858352000825107
0.0069804140366613865,0.00557358656078577,-0.007679903879761696,0.0010428138775750995,0.0,0.0004133909533265978
0.007181734777987003,0.0056678736582398415,-0.007356847636401653,0.0009637960465624928,0.0,0.00039093702798709273
0.006492169573903084,0.006241403520107269,-0.007531152572482824,0.0009610925335437059,0.0,0.0003707957803271711
0.006772882305085659,0.006409813184291124,-0.007028199732303619,0.001017377246171236,0.0,0.0003526307409629226
0.0069836885668337345,0.005998301785439253,-0.008090429939329624,0.0010913647711277008,7.288705546670826e-06,0.0003361614071764052
0.006818362977355719,0.005721409805119038,-0.007168958894908428,0.0011717883171513677,4.7590043550371774e-07,0.00032116289366967976
0.006655920762568712,0.005306254606693983,-0.007290054112672806,0.0011299579637125134,3.107289714421313e-08,0.00030744742252863944
0.0064036003313958645,0.005740243475884199,-0.00790619757026434,0.0010946334805339575,2.0288382085453804e-09,0.00029485326376743615
0.0071334317326545715,0.005906401202082634,-0.007918625138700008,0.0010913198348134756,1.324686332848657e-10,0.00028325256425887346
0.007305540610104799,0.006134318187832832,-0.007652008906006813,0.00115171167999506,8.649254923387417e-12,0.00027252855943515897
0.006907482165843248,0.005539273377507925,-0.0067957802675664425,0.001153796911239624,5.647345655349079e-13,0.00026258788420818746
0.00662994384765625,0.005848526954650879,-0.007016739808022976,0.0012900927104055882,3.6873133127564295e-14,0.0002533470105845481
0.007305816747248173,0.005610066931694746,-0.007632721681147814,0.0013091766741126776,2.407552027408762e-15,0.0002447343722451478
0.007148118689656258,0.005902001168578863,-0.007345390971750021,0.0012638592161238194,1.5719594777169929e-16,0.0002366882690694183
0.006965299136936665,0.00586874783039093,-0.006834960076957941,0.0014778850600123405,6.701509198126454e-19,0.00019527807307895273
0.00752958282828331,0.005741442088037729,-0.007742028217762709,0.0013409836683422327,4.375606433351081e-20,0.00018857198301702738
0.00776026863604784,0.0057506379671394825,-0.007796952500939369,0.001417886232957244,2.8569584452908065e-21,0.00018303653632756323
0.007089134305715561,0.005963387433439493,-0.008050194010138512,0.0013194017810747027,1.8653898476238351e-22,0.00017786544049158692
0.006953083444386721,0.006504969205707312,-0.006996865849941969,0.0012700987281277776,-0.00015666223771404475,0.00017321667110081762
0.007417381275445223,0.005905713886022568,-0.008183221332728863,0.001291286782361567,-0.00027580183814279735,6.30719296168536e-05
0.008092117495834827,0.005752471275627613,-0.007895847782492638,0.0012437362456694245,-0.00030735021573491395,5.433526894194074e-05
0.008092117495834827,0.005752471275627613,-0.007895847782492638,0.0012437362456694245,-0.00030735021573491395,5.433526894194074e-05
0.006656273268163204,0.006140009965747595,-0.007796845864504576,0.0013151636812835932,-0.0003111011756118387,5.080381379229948e-05
0.006656273268163204,0.006140009965747595,-0.007796845864504576,0.0013151636812835932,-0.0003111011756118387,5.080381379229948e-05
0.007186420261859894,0.006225080695003271,-0.007835855707526207,0.0012669956777244806,-0.0003171386488247663,2.6362169592175633e-05
0.0075608971528708935,0.005566447041928768,-0.00780406454578042,0.0012170739937573671,-0.0003408248885534704,1.2343805792625062e-05
0.007417118176817894,0.0058237528428435326,-0.007397785782814026,0.0011620731092989445,-0.0004664678417611867,8.059623155531881e-07
0.007146343123167753,0.005819271318614483,-0.0070648700930178165,0.0011062383418902755,-0.0006166503299027681,5.2623580160116035e-08
0.0071211582981050014,0.006263208109885454,-0.00811732280999422,0.0010809452505782247,-0.0006539238383993506,3.435943751739501e-09
0.0077356635592877865,0.006251995451748371,-0.008235789835453033,0.0010454368311911821,-0.0006564905634149909,2.243426000525517e-10
0.00762109225615859,0.005738041363656521,-0.007034073583781719,0.0010684933513402939,-0.0006381343118846416,1.4647968601955164e-11
0.007271795999258757,0.006188161671161652,-0.00714373541995883,0.0011092463973909616,-0.0008150226785801351,9.56407696095507e-13
0.008137437514960766,0.005845712963491678,-0.008195988833904266,0.001341097871772945,-0.0008258848101831973,6.244658924074026e-14
0.007971572689712048,0.006102515384554863,-0.007663334719836712,0.0015499385772272944,-0.0008360454230569303,4.0773159113859266e-15
0.007570719812065363,0.0061921789310872555,-0.007471790537238121,0.0014941900735720992,-0.0008438950753770769,-0.00077078677713871
0.00811633188277483,0.005992211867123842,-0.007151567842811346,0.0013769697397947311,-0.0007816124707460403,-0.0009369381004944444
0.007880041375756264,0.005915673449635506,-0.007545188069343567,0.0013857466401532292,-0.0007926380494609475,-0.0009228670969605446
0.007654055953025818,0.005604197271168232,-0.007873333059251308,0.0013553157914429903,-0.0008081137202680111,-0.0009348824969492853
0.007524368818849325,0.005600706674158573,-0.007534675300121307,0.001236241776496172,-0.0008293015998788178,-0.0012447197223082185
0.007524368818849325,0.005600706674158573,-0.007534675300121307,0.001236241776496172,-0.0008293015998788178,-0.0012447197223082185
0.008428224362432957,0.005433419719338417,-0.007235113997012377,0.0012785284779965878,-0.000770348880905658,-0.0016358662396669388
0.00786563754081726,0.0056730047799646854,-0.007127541117370129,0.001387626281939447,-0.0007845242507755756,-0.0017067333683371544
0.007628830149769783,0.00597819359973073,-0.007519412785768509,0.0015533206751570106,-0.000692127097863704,-0.0018305465346202254
0.00806043203920126,0.006030046846717596,-0.007605036720633507,0.0016808382933959365,-0.0007086123223416507,-0.0018376022344455123
0.007669989485293627,0.005896349437534809,-0.007148494012653828,0.0015890963841229677,-0.0006424728780984879,-0.0020406069234013557
0.00751157570630312,0.005828046705573797,-0.007043952587991953,0.0015944150509312749,-0.0006550790276378393,-0.002139721065759659
0.00818991381675005,0.00585594866424799,-0.007481045555323362,0.001535995164886117,-0.000609368144068867,-0.0022229815367609262
0.007994187995791435,0.006659306585788727,-0.007995419204235077,0.0014444806147366762,-0.0005562588921748102,-0.0024834079667925835
0.008182959631085396,0.006235873326659203,-0.007418845780193806,0.0014569626655429602,-0.0005443928530439734,-0.0024935882538557053
0.008182959631085396,0.006235873326659203,-0.007418845780193806,0.0014569626655429602,-0.0005443928530439734,-0.0024935882538557053
0.007676086388528347,0.00580831803381443,-0.007292420603334904,0.0014635295374318957,-0.0005334854940883815,-0.002415418392047286
0.008318574167788029,0.004930498078465462,-0.008335808292031288,0.0014130488270893693,-0.0005581402801908553,-0.002415938302874565
0.008352902717888355,0.004662588704377413,-0.007762008812278509,0.0015446051256731153,-0.0005216068821027875,-0.002510937163606286
0.007794313132762909,0.005212551914155483,-0.007327397353947163,0.0016693504294380546,-0.0005463097477331758,-0.0024676937609910965
0.008333536796271801,0.005260792560875416,-0.0073794773779809475,0.0017732166452333331,-0.0005116831744089723,-0.0026644791942089796
0.00842441525310278,0.005408362485468388,-0.008164789527654648,0.0016950720455497503,-0.0005799101199954748,-0.0030781689565628767
0.00810222327709198,0.004985458683222532,-0.00791849009692669,0.0018557206494733691,-0.0005284860380925238,-0.0030737000051885843
0.007668280508369207,0.004653568379580975,-0.007339035160839558,0.0017876701895147562,-0.0005553359515033662,-0.002835463499650359
0.008076587691903114,0.004783831536769867,-0.007054147310554981,0.0020333442371338606,-0.0005763164372183383,-0.002650181297212839
0.008485371246933937,0.00478914100676775,-0.007689169142395258,0.0018912525847554207,-0.0006037363200448453,-0.0026042961981147528
0.008399372920393944,0.005072922445833683,-0.007644926197826862,0.0019271373748779297,-0.0006713222246617079,-0.003252665512263775
0.00784364528954029,0.004995227325707674,-0.007594376336783171,0.0017627622000873089,-0.0007798119331710041,-0.003924142103642225
0.00839752797037363,0.004773998167365789,-0.007130077108740807,0.0016354401595890522,-0.000700181582942605,-0.004505634307861328
0.00881977565586567,0.00476542254909873,-0.007870853878557682,0.0015535404672846198,-0.0007167991134338081,-0.004647734109312296
0.008154372684657574,0.004719331860542297,-0.007261234801262617,0.0016696336679160595,-0.0006669082795269787,-0.004007868468761444
0.008519046008586884,0.004772970452904701,-0.0072884452529251575,0.001765483058989048,-0.0006878941203467548,-0.003914408385753632
0.008419550023972988,0.004923348780721426,-0.007688485085964203,0.0018903138116002083,-0.000680832308717072,-0.0038469673600047827
0.008429431356489658,0.004739983938634396,-0.00743865966796875,0.0018416724633425474,-0.0006528082303702831,-0.0038540393579751253
0.008787554688751698,0.004687430337071419,-0.007168269250541925,0.001865860540419817,-0.0006694035255350173,-0.004381283652037382
0.008805370889604092,0.004231213126331568,-0.007281999569386244,0.002054020995274186,-0.0006799272960051894,-0.004844276700168848
0.008401354774832726,0.004457948263734579,-0.007864388637244701,0.002035881392657757,-0.0007270329515449703,-0.004908923991024494
0.00817571859806776,0.004627510439604521,-0.007614636793732643,0.0021583714988082647,-0.0008053774945437908,-0.004357350058853626
0.008723525330424309,0.004743972793221474,-0.0075898924842476845,0.002118579810485244,-0.0007912481087259948,-0.004338831175118685
0.008723525330424309,0.004743972793221474,-0.0075898924842476845,0.002118579810485244,-0.0007912481087259948,-0.004338831175118685
0.008767151273787022,0.005042959935963154,-0.0068796295672655106,0.0022351236548274755,-0.0008025806746445596,-0.004272580146789551
0.00825141929090023,0.004786075092852116,-0.007348297629505396,0.002087523229420185,-0.0007671186467632651,-0.0048317383043468
0.008656112477183342,0.004427554085850716,-0.007824146188795567,0.0021277398336678743,-0.0008758640033192933,-0.005159453488886356
0.00877104140818119,0.004121173173189163,-0.007631612475961447,0.001995960483327508,-0.000885247893165797,-0.005187059752643108
0.00856616348028183,0.00430265674367547,-0.007362021133303642,0.002083763014525175,-0.0008620177395641804,-0.005263450089842081
0.00921336468309164,0.004978313110768795,-0.008157876320183277,0.0022761516738682985,-0.0007834737771190703,-0.004791679326444864
0.008491010405123234,0.005115416366606951,-0.0076132905669510365,0.002301969099789858,-0.0007908211555331945,-0.004659859463572502
0.008218483068048954,0.004778743255883455,-0.007320805452764034,0.0024626939557492733,-0.0007593112532049417,-0.004857589956372976
0.008232863619923592,0.004302587825804949,-0.008037831634283066,0.0025259475223720074,-0.0007809697999618948,-0.004923824220895767
0.008988228626549244,0.004321367014199495,-0.008075538091361523,0.002380450488999486,-0.0007964341784827411,-0.005241930019110441
0.009008437395095825,0.004611368756741285,-0.00757537642493844,0.002180899027734995,-0.0008082957938313484,-0.00556525494903326
0.009013359434902668,0.004748583305627108,-0.007060141768306494,0.0021661464124917984,-0.0010812054388225079,-0.0052066827192902565
0.008643079549074173,0.004658758640289307,-0.007121135480701923,0.0020861495286226273,-0.0011270161485299468,-0.005132315214723349
0.008700847625732422,0.004494753200560808,-0.008074991405010223,0.0020779783371835947,-0.0011150985956192017,-0.005672907456755638
0.008701283484697342,0.004368986934423447,-0.007825582288205624,0.002134733833372593,-0.0014057849766686559,-0.006128807086497545
0.00901123508810997,0.004492432344704866,-0.007425358984619379,0.002116769552230835,-0.001363726332783699,-0.00623365631327033
0.009175257757306099,0.004604334942996502,-0.00737321563065052,0.002255731960758567,-0.0014235263224691153,-0.005778640974313021
0.00917598232626915,0.004299268126487732,-0.0074073937721550465,0.002366764936596155,-0.0014061258407309651,-0.006351475138217211
0.009200752712786198,0.003999590408056974,-0.0075041125528514385,0.0025570171419531107,-0.0014562385622411966,-0.006745011080056429
0.009280231781303883,0.004225053358823061,-0.00807616114616394,0.002694814233109355,-0.0016482863575220108,-0.006367238238453865
0.00869468692690134,0.004622156731784344,-0.007965361699461937,0.0024633316788822412,-0.0016029654070734978,-0.0058467150665819645
0.00960150919854641,0.004328619223088026,-0.007638214621692896,0.002486713230609894,-0.001364641822874546,-0.0059179263189435005
0.009445465169847012,0.004351372830569744,-0.006828152108937502,0.0026746902149170637,-0.0011684377677738667,-0.006505955476313829
0.009163803420960903,0.0043077352456748486,-0.008180494420230389,0.0027324280235916376,-0.0009651215514168143,-0.006529245525598526
0.009471443481743336,0.0042261467315256596,-0.008562473580241203,0.0026082999538630247,-0.0009445191244594753,-0.007286298554390669
0.009385750629007816,0.004295696038752794,-0.007624903693795204,0.0025515237357467413,-0.0009143029456026852,-0.006832321174442768
0.008826619014143944,0.00491452356800437,-0.007082077674567699,0.0023291828110814095,-0.000779567810241133,-0.0065861716866493225
0.00926613062620163,0.004474278073757887,-0.007623330689966679,0.0024183669593185186,-0.0007323537720367312,-0.006657111924141645
0.00926613062620163,0.004474278073757887,-0.007623330689966679,0.0024183669593185186,-0.0007323537720367312,-0.006657111924141645
0.009835836477577686,0.004355818498879671,-0.00807988177984953,0.0023940836545079947,-0.0008081740816123784,-0.006837058812379837
0.009500294923782349,0.004254625644534826,-0.008263899944722652,0.002265358343720436,-0.0010546601843088865,-0.007196587510406971
0.009667825885117054,0.004058890976011753,-0.007832207717001438,0.0023139850236475468,-0.0012498259311541915,-0.0076357526704669
0.009711449965834618,0.003924638964235783,-0.007973830215632915,0.002118225209414959,-0.0012916530249640346,-0.007068837992846966
0.009254052303731441,0.00425581494346261,-0.007547212298959494,0.0021705585531890392,-0.001173530938103795,-0.0070770131424069405
0.010185382328927517,0.0045305946841835976,-0.007914887741208076,0.002444044454023242,-0.0011801354121416807,-0.007147492840886116
0.01000373624265194,0.00415812898427248,-0.009139063768088818,0.0026492830365896225,-0.0010478643234819174,-0.006919040344655514
0.009251776151359081,0.0044502983801066875,-0.008428736589848995,0.002847461961209774,-0.001018043141812086,-0.00704573281109333
0.010345220565795898,0.00453300541266799,-0.007741058245301247,0.0026584675069898367,-0.0010021771304309368,-0.007392633240669966
0.009951195679605007,0.004394365008920431,-0.00746692530810833,0.0023854973260313272,-0.0010133599862456322,-0.007669785059988499
0.009227791801095009,0.00407442357391119,-0.008761720731854439,0.0024450630880892277,-0.0010347217321395874,-0.007556943688541651
0.0094106150791049,0.003961700014770031,-0.00859804917126894,0.0024853870272636414,-0.001017719623632729,-0.00710874842479825
0.009772268123924732,0.004078759346157312,-0.008254933170974255,0.002438539871945977,-0.0010385406203567982,-0.007232409901916981
0.009547042660415173,0.00402616523206234,-0.007926711812615395,0.0026070941239595413,-0.001101351110264659,-0.008310075849294662
0.009595739655196667,0.003866360289976001,-0.008823665790259838,0.0029903745744377375,-0.0010831971885636449,-0.007818601094186306
0.0100455516949296,0.0037683090195059776,-0.00807267613708973,0.003237751079723239,-0.0010664158035069704,-0.00750114768743515
0.009955118410289288,0.0037308831233531237,-0.008114960975944996,0.0031545409001410007,-0.0012112895492464304,-0.007923766039311886
0.01025744341313839,0.0036515635438263416,-0.009095740504562855,0.003033309942111373,-0.0011866380227729678,-0.00871447566896677
0.009838292375206947,0.00421242555603385,-0.008444045670330524,0.003101978451013565,-0.001152437413111329,-0.008704036474227905
0.010082419961690903,0.003987527918070555,-0.008184078149497509,0.0030500616412609816,-0.0011913595953956246,-0.008799850940704346
0.010555104352533817,0.0035065729171037674,-0.008798666298389435,0.003022013930603862,-0.001142977038398385,-0.00834676530212164
0.009877258911728859,0.0034836530685424805,-0.008375774137675762,0.0032693350221961737,-0.0010497089242562652,-0.00911998562514782
0.010089825838804245,0.004173923283815384,-0.008258245885372162,0.003058177186176181,-0.0009566154330968857,-0.009630474261939526
0.010349538177251816,0.004042130429297686,-0.008984092622995377,0.0032482584938406944,-0.0008704076753929257,-0.009480702690780163
0.010039690881967545,0.003843406680971384,-0.008409417234361172,0.003336201887577772,-0.0008057103841565549,-0.008938683196902275
0.01012335903942585,0.003908844199031591,-0.008273317478597164,0.003262895392253995,-0.0007046369137242436,-0.009478671476244926
0.010498457588255405,0.004032155033200979,-0.008935186080634594,0.003420890774577856,-0.0006233892636373639,-0.009754367172718048
0.009537477977573872,0.0040456634014844894,-0.008804736658930779,0.0032250152435153723,-0.0006388712208718061,-0.009436401538550854
0.01023866143077612,0.003995502833276987,-0.008371210657060146,0.0028979405760765076,-0.0005898504168726504,-0.008996273390948772
0.010082627646625042,0.0039550065994262695,-0.00838992279022932,0.002926802961155772,-0.0005399559740908444,-0.008947694674134254
0.010082627646625042,0.0039550065994262695,-0.00838992279022932,0.002926802961155772,-0.0005399559740908444,-0.008947694674134254
0.009701821953058243,0.003911771811544895,-0.009055067785084248,0.003381644142791629,-0.0005633437540382147,-0.009960029274225235
0.01002524234354496,0.004237364511936903,-0.009043955244123936,0.0033084279857575893,-0.0005266434163786471,-0.009485036134719849
0.010625441558659077,0.004240415990352631,-0.008366787806153297,0.0034834123216569424,-0.0004212957283016294,-0.009390315972268581
0.009788981638848782,0.004129464738070965,-0.008483718149363995,0.0032466885168105364,-0.00041870190761983395,-0.009396271780133247
0.009854472242295742,0.004098278004676104,-0.008825896307826042,0.002966854488477111,-0.00045352705637924373,-0.009251398965716362
0.009897160343825817,0.004044228233397007,-0.00864906795322895,0.0030302044469863176,-0.0004857458989135921,-0.008905276656150818
0.010825006291270256,0.003993257414549589,-0.008968579582870007,0.0033291950821876526,-0.00048654453712515533,-0.009138252586126328
0.01010306365787983,0.003944836091250181,-0.008817113004624844,0.0036512978840619326,-0.0008683393243700266,-0.009054047055542469
0.009587710723280907,0.0043985117226839066,-0.008267470635473728,0.003758078208193183,-0.0008940527332015336,-0.0100543312728405
0.010390256531536579,0.004139953758567572,-0.008179771713912487,0.0037915785796940327,-0.0008962952415458858,-0.0094953877851367
0.009987229481339455,0.00388114876113832,-0.008855573832988739,0.0034460679162293673,-0.0009646555408835411,-0.009431399405002594
0.009768365882337093,0.003851967863738537,-0.008708133362233639,0.003540274454280734,-0.0010700349230319262,-0.009918234311044216
0.010053182952105999,0.00425975164398551,-0.008604454807937145,0.003344017080962658,-0.0010595940984785557,-0.010246028192341328
0.010150931775569916,0.004522939212620258,-0.008682826533913612,0.003434231737628579,-0.0010373488767072558,-0.010172277688980103
0.009694531559944153,0.004325500223785639,-0.008298264816403389,0.0038659744895994663,-0.0010574557818472385,-0.009852632880210876
0.010443615727126598,0.00395162170752883,-0.008480584248900414,0.003944931551814079,-0.0011026813881471753,-0.010307352058589458
0.009980547241866589,0.004213088192045689,-0.008901277557015419,0.0039545693434774876,-0.0010979402577504516,-0.010437238030135632
0.009933045133948326,0.004137265961617231,-0.008393514901399612,0.00396571634337306,-0.0010996622731909156,-0.01057142112404108
0.009955428540706635,0.004177912138402462,-0.008456958457827568,0.003983648493885994,-0.001088260323740542,-0.010436322540044785
0.009868600405752659,0.004110563546419144,-0.009063365869224072,0.003941832110285759,-0.0010613948106765747,-0.010539818555116653
0.010457021184265614,0.003949254285544157,-0.008907964453101158,0.0038692892994731665,-0.0010609683813527226,-0.010707942768931389
0.010279586538672447,0.0043669878505170345,-0.008444292470812798,0.0039001968689262867,-0.0011487918673083186,-0.011346491985023022
0.010005779564380646,0.00486560957506299,-0.008382778614759445,0.003964042291045189,-0.0011154289823025465,-0.011227048002183437
0.010294251143932343,0.004827774595469236,-0.008537547662854195,0.004393068142235279,-0.0010395244462415576,-0.010487884283065796
0.01065369974821806,0.004319696221500635,-0.008620191365480423,0.004222732502967119,-0.0010899276239797473,-0.010470036417245865
0.00994155090302229,0.00429762527346611,-0.00848257914185524,0.00398815143853426,-0.0009831169154495,-0.01085473969578743
0.010028963908553123,0.004237640183418989,-0.008977838791906834,0.0034949886612594128,-0.0009554738062433898,-0.011012941598892212
0.010028963908553123,0.004237640183418989,-0.008977838791906834,0.0034949886612594128,-0.0009554738062433898,-0.011012941598892212
0.010191223584115505,0.004377339035272598,-0.008539706468582153,0.0035918490029871464,-0.0009011816000565886,-0.011059175245463848
0.010203351266682148,0.004581966437399387,-0.007809813600033522,0.004082145169377327,-0.0008470364264212549,-0.010792627930641174
0.009882311336696148,0.004190837033092976,-0.008292612619698048,0.004324862267822027,-0.0007526858244091272,-0.011474139988422394
0.0102234510704875,0.004390319809317589,-0.008868889883160591,0.004098098259419203,-0.000758421840146184,-0.011631087400019169
0.00981422420591116,0.0044151414185762405,-0.00850156880915165,0.003864369820803404,-0.0006781502161175013,-0.012090031057596207
0.010362060740590096,0.0041373237036168575,-0.008127710781991482,0.0037635366898030043,-0.000696398492436856,-0.011898763477802277
0.00999993272125721,0.003817330813035369,-0.008670002222061157,0.004214927088469267,-0.0006760692340321839,-0.012062633410096169
0.010119304060935974,0.0037460250314325094,-0.008470847271382809,0.004132584668695927,-0.000654225645121187,-0.01233799196779728
0.01266622543334961,0.004287665244191885,-0.008290563710033894,0.0038884314708411694,-0.0006536226719617844,-0.01239449717104435
0.011993346735835075,0.004136827774345875,-0.008619895204901695,0.004011038690805435,-0.000674930983223021,-0.01225298922508955
0.011805661953985691,0.003961178008466959,-0.008839362300932407,0.0040033189579844475,-0.0007139623048715293,-0.011868891306221485
0.011787062510848045,0.003968053963035345,-0.008138921111822128,0.003964797127991915,-0.0007341711898334324,-0.012051570229232311
0.012115619145333767,0.0035357698798179626,-0.009168049320578575,0.00460988050326705,-0.0012202654033899307,-0.012374039739370346
0.011832810007035732,0.0034987530671060085,-0.008720477111637592,0.0044585769064724445,-0.0015442330623045564,-0.012716956436634064
0.012260312214493752,0.004176274873316288,-0.008132615126669407,0.0040457420982420444,-0.0016221237601712346,-0.012042614631354809
0.011998288333415985,0.004086674656718969,-0.00792932789772749,0.0038349581882357597,-0.0013865111395716667,-0.011964250355958939
0.012203685007989407,0.004289110656827688,-0.00883347075432539,0.003882054006680846,-0.0012592794373631477,-0.012082003057003021
0.01239329669624567,0.00424849521368742,-0.008257618173956871,0.003974504768848419,-0.0011015682248398662,-0.011979786679148674
0.01239329669624567,0.00424849521368742,-0.008257618173956871,0.003974504768848419,-0.0011015682248398662,-0.011979786679148674
0.01234674733132124,0.003987650852650404,-0.009200052358210087,0.004191765561699867,-0.0008266236400231719,-0.012036371976137161
0.01177405845373869,0.004187014419585466,-0.008597424253821373,0.003951880615204573,-0.0008330228738486767,-0.012129717506468296
0.012082679197192192,0.00422705477103591,-0.008140807040035725,0.003957033157348633,-0.000840973574668169,-0.012006270699203014
0.012082679197192192,0.00422705477103591,-0.008140807040035725,0.003957033157348633,-0.000840973574668169,-0.012006270699203014
0.0120307058095932,0.003936512861400843,-0.008707967586815357,0.004248091485351324,-0.001071038655936718,-0.012244462966918945
0.0120307058095932,0.003936512861400843,-0.008707967586815357,0.004248091485351324,-0.001071038655936718,-0.012244462966918945
0.012300768867135048,0.003909902647137642,-0.008407451212406158,0.004525418393313885,-0.001088421791791916,-0.01276267971843481
0.012423895299434662,0.004147037863731384,-0.00877696555107832,0.004749787971377373,-0.001223133411258459,-0.012675154022872448
0.01224066037684679,0.004561797250062227,-0.009294016286730766,0.004298405721783638,-0.0013764242175966501,-0.01304079033434391
0.010615330189466476,0.004128888249397278,-0.009274058043956757,0.004304611124098301,-0.0013551890151575208,-0.012817121110856533
0.012996402569115162,0.003845464438199997,-0.008233340457081795,0.0041724988259375095,-0.0015061987796798348,-0.012907920405268669
0.01294693537056446,0.004341083113104105,-0.008724421262741089,0.00426210043951869,-0.0015242628287523985,-0.012205507606267929
0.012181144207715988,0.004204207565635443,-0.008386836387217045,0.0046148416586220264,-0.001425785245373845,-0.01227843202650547
0.01250193826854229,0.004386915825307369,-0.008255859836935997,0.004885062109678984,-0.00147473334800452,-0.012690270319581032
0.012354975566267967,0.00415733503177762,-0.008344854228198528,0.004773969762027264,-0.001414929865859449,-0.01313132606446743
0.012352428399026394,0.004015371203422546,-0.008795750327408314,0.004569848533719778,-0.0014805285027250648,-0.012638780288398266
0.012065554969012737,0.004262320231646299,-0.008409547619521618,0.004301616922020912,-0.0014240676537156105,-0.01277781743556261
0.012476542964577675,0.00403124513104558,-0.00817921943962574,0.004401218146085739,-0.0013285771710798144,-0.013055732473731041
0.012987467460334301,0.0037446245551109314,-0.009031805209815502,0.004529510159045458,-0.0011564717860892415,-0.013980348594486713
0.012239070609211922,0.0036458722315728664,-0.008564289659261703,0.0044899675995111465,-0.0009725257405079901,-0.013696381822228432
0.012376833707094193,0.003734357189387083,-0.008709386922419071,0.004671503324061632,-0.0010064862435683608,-0.012831464409828186
0.012723478488624096,0.004209785256534815,-0.00874647032469511,0.004498588386923075,-0.0010477128671482205,-0.013158198446035385
0.012332431972026825,0.004094096831977367,-0.008190687745809555,0.004635381046682596,-0.0011917043011635542,-0.01337319053709507
0.012835614383220673,0.00392841175198555,-0.00809313915669918,0.004749832674860954,-0.0012029845966026187,-0.01374879665672779
0.012710779905319214,0.003840329125523567,-0.009384887292981148,0.004713672678917646,-0.0014421954983845353,-0.014208965003490448
0.012826995924115181,0.003361843526363373,-0.008662750944495201,0.00496270414441824,-0.00158411986194551,-0.014024843461811543
0.012760810554027557,0.0035043517127633095,-0.00852260272949934,0.005023963283747435,-0.001651896396651864,-0.013696877285838127
0.01250605657696724,0.004254908766597509,-0.00902722217142582,0.004697795957326889,-0.0017159259878098965,-0.013779586181044579
0.01250605657696724,0.004254908766597509,-0.00902722217142582,0.004697795957326889,-0.0017159259878098965,-0.013779586181044579
0.012815953232347965,0.0040934327989816666,-0.00903084222227335,0.004819640889763832,-0.0017304420471191406,-0.01377812959253788
0.012316103093326092,0.003941561095416546,-0.007574538700282574,0.004778105299919844,-0.0017501517431810498,-0.013369030319154263
0.012871515937149525,0.00429874612018466,-0.008672110736370087,0.00474538654088974,-0.0016204343410208821,-0.013736814260482788
0.012945395894348621,0.0043129208497703075,-0.009766736999154091,0.004830129444599152,-0.0013957289047539234,-0.014245917089283466
0.01303910743445158,0.0035660851281136274,-0.008712145499885082,0.0049154083244502544,-0.0012773904018104076,-0.01441747136414051
0.012940950691699982,0.003557943506166339,-0.008125071413815022,0.0049659921787679195,-0.0012978442246094346,-0.014478761702775955
0.012768365442752838,0.004083264619112015,-0.009701075963675976,0.004825172945857048,-0.0012496920535340905,-0.014471490867435932
0.01291375607252121,0.004254129249602556,-0.010610122233629227,0.004913842771202326,-0.0013275707606226206,-0.014472347684204578
0.012794723734259605,0.003999438602477312,-0.009823665954172611,0.004942517727613449,-0.0013119038194417953,-0.014839738607406616
0.013249080628156662,0.003846449078992009,-0.010548104532063007,0.005406814627349377,-0.001498726662248373,-0.014781770296394825
0.012962695211172104,0.0037948100361973047,-0.009750716388225555,0.006002470850944519,-0.0014510209439322352,-0.014991825446486473
0.013488818891346455,0.0032201374415308237,-0.010278323665261269,0.005513282027095556,-0.0013728832127526402,-0.014959638938307762
0.013046368956565857,0.0027738260105252266,-0.010416015982627869,0.005429016891866922,-0.001380078843794763,-0.014920022338628769
0.013330983929336071,0.00239941687323153,-0.010484620928764343,0.005047661252319813,-0.0013679867843165994,-0.01495144423097372
0.013378025032579899,0.002286117058247328,-0.010295598767697811,0.004916430916637182,-0.001318157883360982,-0.015008987858891487
0.013580190017819405,0.0025081487838178873,-0.010697404853999615,0.0054864417761564255,-0.0013881101040169597,-0.01537918671965599
0.013701620511710644,0.0031151645816862583,-0.010120750404894352,0.005456035025417805,-0.001320982351899147,-0.015538371168076992
0.0135652432218194,0.0031258019153028727,-0.010699396952986717,0.00532155204564333,-0.001283739460632205,-0.015748174861073494
0.013324808329343796,0.0026551992632448673,-0.010712633840739727,0.004718192853033543,-0.0014368004631251097,-0.015913551673293114
0.013880648650228977,0.0026375874876976013,-0.010695287957787514,0.004671917296946049,-0.001698993262834847,-0.01564890146255493
0.013577096164226532,0.002646423876285553,-0.01075663324445486,0.005071118474006653,-0.0016782641177996993,-0.015729520469903946
0.013885898515582085,0.0025233684573322535,-0.010365301743149757,0.004994824528694153,-0.0015142426127567887,-0.015739910304546356
0.013667520135641098,0.002780444221571088,-0.010976354591548443,0.004990637302398682,-0.0014096929226070642,-0.01608734019100666
0.014027071185410023,0.002536066574975848,-0.01041808258742094,0.005402337294071913,-0.001407120143994689,-0.01600373163819313
0.013700177893042564,0.002388801658526063,-0.010666485875844955,0.005205262452363968,-0.0013776335399597883,-0.01593247428536415
0.01423731166869402,0.002113260794430971,-0.011111543513834476,0.005717253312468529,-0.0014669563388451934,-0.015375918708741665
0.01423731166869402,0.002113260794430971,-0.011111543513834476,0.005717253312468529,-0.0014669563388451934,-0.015375918708741665
0.01357435155659914,0.0020382460206747055,-0.010371878743171692,0.0056566414423286915,-0.001428584335371852,-0.014852616004645824
0.014118622057139874,0.0021450952626764774,-0.010881886817514896,0.00563412019982934,-0.001573494402691722,-0.01530591119080782
0.013840132392942905,0.0024634909350425005,-0.01113474927842617,0.005434045568108559,-0.0015483431052416563,-0.015447242185473442
0.014441295526921749,0.002354665892198682,-0.0105232959613204,0.005877596326172352,-0.001460078521631658,-0.015981504693627357
0.014269059523940086,0.0025284055154770613,-0.01120912004262209,0.005911785643547773,-0.00152592733502388,-0.01596813090145588
0.014243819750845432,0.002281133783981204,-0.010580562055110931,0.0058595710434019566,-0.0014493350172415376,-0.015852469950914383
0.014104888774454594,0.002506270771846175,-0.010246915742754936,0.005491640418767929,-0.0015476440312340856,-0.01581750623881817
0.014933913946151733,0.0024608620442450047,-0.010746994987130165,0.005592266097664833,-0.0016067264368757606,-0.016182398423552513
0.014327162876725197,0.0023382892832159996,-0.010335439816117287,0.006035234779119492,-0.001678505796007812,-0.0159740187227726
0.014859159477055073,0.0023097400553524494,-0.010981658473610878,0.005298567470163107,-0.0017127685714513063,-0.01570858061313629
0.014139537699520588,0.0021758561488240957,-0.010294773615896702,0.006080848164856434,-0.0015909821959212422,-0.01608177460730076
0.014297490008175373,0.002315322868525982,-0.00985316839069128,0.0065576075576245785,-0.0016250854823738337,-0.01609540544450283
0.014159996062517166,0.0023226961493492126,-0.010490751825273037,0.0062155039049685,-0.0015585431829094887,-0.016346275806427002
0.01493318285793066,0.0022693949285894632,-0.009932504035532475,0.006014000624418259,-0.001639142632484436,-0.01620405726134777
0.01436804048717022,0.002365630818530917,-0.009765462949872017,0.006210539489984512,-0.0015062799211591482,-0.016460862010717392
0.015372884459793568,0.0024705298710614443,-0.011111294850707054,0.006184734869748354,-0.0014161572325974703,-0.01659778319299221
0.014746233820915222,0.002349934773519635,-0.010613616555929184,0.005778453778475523,-0.001364601426757872,-0.0166710764169693
0.014508858323097229,0.0026891136076301336,-0.010212351568043232,0.006022049579769373,-0.0015945209888741374,-0.01649308390915394
0.015071689151227474,0.0025701045524328947,-0.0099001694470644,0.0057789976708590984,-0.0015919733559712768,-0.017044439911842346
0.015065306797623634,0.0025802324526011944,-0.009550795890390873,0.005997494328767061,-0.0016564815305173397,-0.017112495377659798
0.015631889924407005,0.0022987450938671827,-0.010167072527110577,0.005616804119199514,-0.001743054948747158,-0.017471855506300926
0.015089974738657475,0.0023700972087681293,-0.010023362934589386,0.0055837263353168964,-0.0016183560946956277,-0.017422990873456
0.015089974738657475,0.0023700972087681293,-0.010023362934589386,0.0055837263353168964,-0.0016183560946956277,-0.017422990873456
0.015438109636306763,0.00229130988009274,-0.010297992266714573,0.005508709233254194,-0.0014138079714030027,-0.017409607768058777
0.014839124865829945,0.0022390142548829317,-0.010155969299376011,0.005796667188405991,-0.0012965003261342645,-0.017453495413064957
0.01497996598482132,0.002394516486674547,-0.009981379844248295,0.0061919474974274635,-0.0013581118546426296,-0.017401615157723427
0.015095287933945656,0.002434048568829894,-0.010107668116688728,0.006196920294314623,-0.0014388308627530932,-0.017464421689510345
0.014925451949238777,0.0022831440437585115,-0.010268238373100758,0.0058715129271149635,-0.0014441751409322023,-0.01759643852710724
0.015065008774399757,0.0022811582311987877,-0.009537240490317345,0.005516893696039915,-0.0015362657140940428,-0.017610525712370872
0.015386076644062996,0.0022442734334617853,-0.009800915606319904,0.005903942976146936,-0.0015092078829184175,-0.01804930344223976
0.015760201960802078,0.002563283545896411,-0.009998288936913013,0.0067779794335365295,-0.0015402642311528325,-0.018033728003501892
0.015305589884519577,0.0025410749949514866,-0.010556657798588276,0.006882009096443653,-0.00138552812859416,-0.017965687438845634
0.015513156540691853,0.0024508237838745117,-0.009526410140097141,0.0061045060865581036,-0.0014525458682328463,-0.017868198454380035
0.01558693964034319,0.002431750064715743,-0.010059842839837074,0.005721387453377247,-0.0016079721972346306,-0.017963627353310585
0.016035882756114006,0.0024015747476369143,-0.010189705528318882,0.00591311464086175,-0.001955935265868902,-0.018320249393582344
0.015076346695423126,0.002238471992313862,-0.009357955306768417,0.006770784966647625,-0.0018208425026386976,-0.018039025366306305
0.015955008566379547,0.002474632579833269,-0.00977965909987688,0.006542328745126724,-0.0018818501848727465,-0.01808803528547287
0.015832334756851196,0.0022286484017968178,-0.009665095247328281,0.006208247039467096,-0.001819702796638012,-0.01854274608194828
0.015933098271489143,0.0023319879546761513,-0.010081605054438114,0.0055334847420454025,-0.0017845438560470939,-0.018461601808667183
0.015923678874969482,0.002074694959446788,-0.009844007901847363,0.005988557357341051,-0.0016865987563505769,-0.018410367891192436
0.016047541052103043,0.002010362921282649,-0.009275318123400211,0.0070458874106407166,-0.0014599334681406617,-0.018988635390996933
0.015809189528226852,0.0021919531282037497,-0.010227149352431297,0.006320957560092211,-0.0015658301999792457,-0.018947333097457886
0.016401497647166252,0.0024526624474674463,-0.00986394751816988,0.0062150112353265285,-0.0017094762297347188,-0.018820976838469505
0.015958763659000397,0.002387169050052762,-0.0096844881772995,0.006382016930729151,-0.0018077045679092407,-0.020252760499715805
0.01641155406832695,0.00249790889210999,-0.009814472869038582,0.007041041273623705,-0.0019465641817077994,-0.019713561981916428
0.016245037317276,0.0023598363623023033,-0.009943733923137188,0.006648476235568523,-0.001914999564178288,-0.019744159653782845
0.016049601137638092,0.00228207278996706,-0.010022744536399841,0.006135348230600357,-0.0019470421830192208,-0.019113406538963318
0.01633409783244133,0.0023069586604833603,-0.010421506129205227,0.005945907905697823,-0.001854411093518138,-0.019227411597967148
0.01592252030968666,0.002403372200205922,-0.00946386530995369,0.0065508997067809105,-0.0018015498062595725,-0.0191306471824646
0.01592252030968666,0.002403372200205922,-0.00946386530995369,0.0065508997067809105,-0.0018015498062595725,-0.0191306471824646
0.01653379760682583,0.002271343255415559,-0.010536975227296352,0.006838005501776934,-0.0017039049416780472,-0.019077442586421967
0.016088135540485382,0.0022531633730977774,-0.010248837992548943,0.006660214625298977,-0.0018097679130733013,-0.019405238330364227
0.01648297905921936,0.002142608165740967,-0.009559606201946735,0.00578095018863678,-0.0017287775408476591,-0.019978102296590805
0.016498928889632225,0.0022605033591389656,-0.009943600744009018,0.006194792687892914,-0.0019682012498378754,-0.02000834420323372
0.01651783287525177,0.0021737650968134403,-0.010759674943983555,0.006710639223456383,-0.0018479605205357075,-0.019684888422489166
0.016619592905044556,0.0021277698688209057,-0.009883303195238113,0.007230253890156746,-0.0018474766984581947,-0.019642014056444168
0.016482926905155182,0.0019870700780302286,-0.010172266513109207,0.006579848006367683,-0.0017441505333408713,-0.020115850493311882
0.01691078394651413,0.0021690530702471733,-0.010136101394891739,0.006504180375486612,-0.0016913677100092173,-0.021334674209356308
0.016259735450148582,0.0022744929883629084,-0.010308477096259594,0.006961265578866005,-0.0017227084608748555,-0.02060864306986332
0.016486670821905136,0.0022417129948735237,-0.010175032541155815,0.006986032705754042,-0.002005961025133729,-0.020117536187171936
0.01683186925947666,0.0023777999449521303,-0.009127306751906872,0.006833207327872515,-0.0020339409820735455,-0.01988648623228073
0.016858898103237152,0.002142607234418392,-0.01043063122779131,0.006625592242926359,-0.0020307046361267567,-0.02024535834789276
0.01697407104074955,0.002250429941341281,-0.011668301187455654,0.0067792232148349285,-0.001985443290323019,-0.020716343075037003
0.01678108423948288,0.0022990868892520666,-0.010751639492809772,0.007334909401834011,-0.0019546491093933582,-0.02089861035346985
0.017227452248334885,0.002199384616687894,-0.01015238743275404,0.007203172892332077,-0.001969381468370557,-0.021069247275590897
0.016500456258654594,0.002342243678867817,-0.010870064608752728,0.007165058050304651,-0.002081985818222165,-0.02134079299867153
0.016855837777256966,0.0024979785084724426,-0.010462104342877865,0.007037071511149406,-0.0019585685804486275,-0.020990027114748955
0.0171970147639513,0.002337952610105276,-0.010638514533638954,0.007003766484558582,-0.002131687942892313,-0.020793767645955086
0.01807781308889389,0.0020736127626150846,-0.010739883407950401,0.006631775759160519,-0.0019441903568804264,-0.02108839713037014
0.017277326434850693,0.002107104752212763,-0.01133919321000576,0.006446775980293751,-0.001784528256393969,-0.021405460312962532
0.017447473481297493,0.002098632976412773,-0.011004932224750519,0.006810019724071026,-0.0016781938029453158,-0.021355699747800827
0.017090393230319023,0.002339116530492902,-0.010548388585448265,0.007141804788261652,-0.0017031700117513537,-0.02154967188835144
0.015176649205386639,0.002478883368894458,-0.01081550121307373,0.00697366101667285,-0.0017094704089686275,-0.021619612351059914
0.017930125817656517,0.0023648354690521955,-0.010723283514380455,0.007218463812023401,-0.001756110810674727,-0.021593542769551277
0.017930125817656517,0.0023648354690521955,-0.010723283514380455,0.007218463812023401,-0.001756110810674727,-0.021593542769551277
0.01826888881623745,0.002400055294856429,-0.01122352760285139,0.006922404281795025,-0.0018884808523580432,-0.021942665800452232
0.01761610433459282,0.0021488687489181757,-0.01101787481456995,0.00787065178155899,-0.001911860890686512,-0.022446202114224434
0.017309457063674927,0.0021959298755973577,-0.01072238851338625,0.007275380194187164,-0.00189730036072433,-0.02234826609492302
0.017321381717920303,0.0023815222084522247,-0.01139046810567379,0.006807439494878054,-0.0018961512250825763,-0.021914349868893623
0.01844021864235401,0.002295407000929117,-0.010718622244894505,0.00696558179333806,-0.002083230996504426,-0.0215622428804636
0.017481042072176933,0.0024407673627138138,-0.01094807405024767,0.007615397684276104,-0.0020803201477974653,-0.021368946880102158
0.01780138909816742,0.002291473327204585,-0.011795093305408955,0.007497240789234638,-0.002328435191884637,-0.02145858108997345
0.01827005110681057,0.002127693733200431,-0.01077765878289938,0.0067786043509840965,-0.002075771801173687,-0.022370830178260803
0.017972059547901154,0.0019227250013500452,-0.011676134541630745,0.006814572028815746,-0.001861716154962778,-0.022859400138258934
0.017940260469913483,0.0018953403923660517,-0.0113401273265481,0.007423732429742813,-0.0017771163256838918,-0.02213352918624878
0.017368275672197342,0.002019124571233988,-0.01081591285765171,0.00796753540635109,-0.0015788438031449914,-0.022135494276881218
0.01722198724746704,0.0022557873744517565,-0.011583646759390831,0.007322588935494423,-0.001605149358510971,-0.02311599813401699
0.018061993643641472,0.0023142455611377954,-0.010996252298355103,0.007327921222895384,-0.0014993994263932109,-0.023744555190205574
0.01822621375322342,0.002249195473268628,-0.011091751977801323,0.007898646406829357,-0.0015674947062507272,-0.02203637920320034
0.018398061394691467,0.0021016637329012156,-0.01152492593973875,0.008327520452439785,-0.0016211746260523796,-0.02158072032034397
0.01822618581354618,0.0020202132873237133,-0.011290854774415493,0.00789039395749569,-0.001988264499232173,-0.021812165156006813
0.01798097975552082,0.001980759669095278,-0.012009363621473312,0.007911118678748608,-0.00236820918507874,-0.02275915816426277
0.01826915144920349,0.001986915012821555,-0.011192182078957558,0.008225232362747192,-0.0023891900200396776,-0.02345087192952633
0.018472371622920036,0.002156708389520645,-0.011738096363842487,0.008042356930673122,-0.002166131278499961,-0.023596037179231644
0.017944317311048508,0.0024246233515441418,-0.01160356868058443,0.007868384011089802,-0.0020554803777486086,-0.02327752858400345
0.018397832289338112,0.0022828883957117796,-0.012255767360329628,0.008259878493845463,-0.0016802703030407429,-0.023168319836258888
0.018261132761836052,0.002091682283207774,-0.011726918630301952,0.0077527412213385105,-0.0015932073583826423,-0.02334134839475155
0.01872825063765049,0.001706800190731883,-0.01163669116795063,0.008185917511582375,-0.0016809517983347178,-0.023203769698739052
0.0185210183262825,0.0017083452548831701,-0.011838709935545921,0.008360681124031544,-0.0016550421714782715,-0.023170117288827896
0.018633155152201653,0.0016992645105347037,-0.011689972132444382,0.008269396610558033,-0.002283007837831974,-0.02319422736763954
0.018824046477675438,0.001953299157321453,-0.012456778436899185,0.007749862037599087,-0.002321696374565363,-0.023223532363772392
0.018800897523760796,0.002170075662434101,-0.011546705849468708,0.008172264322638512,-0.0022141095250844955,-0.023235803470015526
0.019075272604823112,0.0020983873400837183,-0.012203945778310299,0.00835679192095995,-0.0020488519221544266,-0.02353007160127163
0.019075272604823112,0.0020983873400837183,-0.012203945778310299,0.00835679192095995,-0.0020488519221544266,-0.02353007160127163
0.019314192235469818,0.0018118327716365457,-0.012026670388877392,0.00832050945609808,-0.001982642337679863,-0.02416265569627285
0.018971433863043785,0.0017974943621084094,-0.011824122630059719,0.008144303224980831,-0.0019707290921360254,-0.0238740723580122
0.019165504723787308,0.0016740357968956232,-0.01239646878093481,0.008317358791828156,-0.0019482303177937865,-0.023747500032186508
0.01895039714872837,0.0017383042722940445,-0.011931193992495537,0.008189590647816658,-0.0020451315212994814,-0.02381647378206253
0.019070494920015335,0.0019266457529738545,-0.012559319846332073,0.008132663555443287,-0.0020034187473356724,-0.02419114299118519
0.0191884133964777,0.00200065178796649,-0.012512781657278538,0.008184967562556267,-0.0022219428792595863,-0.023738199844956398
0.019454604014754295,0.0019368944922462106,-0.012179696001112461,0.008998501114547253,-0.0020590433850884438,-0.023660745471715927
0.01915094442665577,0.001940367859788239,-0.012555880472064018,0.008289149031043053,-0.002101566642522812,-0.02412993833422661
0.01937801018357277,0.001851349137723446,-0.012296040542423725,0.008042392320930958,-0.0019713023211807013,-0.024102961644530296
0.0197127778083086,0.0018640956841409206,-0.012585144490003586,0.00870047602802515,-0.0020583870355039835,-0.02430560812354088
0.019177304580807686,0.0016613374464213848,-0.01188262365758419,0.00848202034831047,-0.002287849085405469,-0.02436511404812336
0.019361145794391632,0.0015958797885105014,-0.012903253547847271,0.008001440204679966,-0.0022883103229105473,-0.02420688234269619
0.01970680058002472,0.0016429838724434376,-0.012949598021805286,0.00857038889080286,-0.0024538268335163593,-0.02446051314473152
0.01987260952591896,0.001851828070357442,-0.012703044340014458,0.00861387886106968,-0.0023472358006983995,-0.025066237896680832
0.01972314342856407,0.0018494880059733987,-0.01293608732521534,0.007982425391674042,-0.0023914193734526634,-0.025055069476366043
0.019925285130739212,0.001989819807931781,-0.012494400143623352,0.008208381943404675,-0.002226565731689334,-0.02505016326904297
0.019658174365758896,0.0019472644198685884,-0.01318311970680952,0.008889338932931423,-0.0021154461428523064,-0.025014061480760574
0.019848564639687538,0.001882409444078803,-0.01205561775714159,0.008952224627137184,-0.0018373627681285143,-0.025173675268888474
0.020494109019637108,0.0018633388681337237,-0.012843940407037735,0.008664637804031372,-0.0018223467050120234,-0.025536395609378815
0.019773924723267555,0.0016487380489706993,-0.012563533149659634,0.00874851644039154,-0.002028551185503602,-0.025322455912828445
0.018528878688812256,0.0014931494370102882,-0.012507528066635132,0.008501782082021236,-0.0021794228814542294,-0.025232508778572083
0.02079341933131218,0.0012422463623806834,-0.012395927682518959,0.008390466682612896,-0.0021045044995844364,-0.02518770471215248
0.02057221159338951,0.000987849198281765,-0.01284108031541109,0.008913973346352577,-0.0020206309854984283,-0.025718051940202713
0.020122384652495384,0.0008064677240327001,-0.012309376150369644,0.009038378484547138,-0.0019751181825995445,-0.02584783546626568
0.0205017551779747,0.0009066053899005055,-0.012773632071912289,0.008583317510783672,-0.0021219998598098755,-0.025900911539793015
0.0205017551779747,0.0009066053899005055,-0.012773632071912289,0.008583317510783672,-0.0021219998598098755,-0.025900911539793015
0.020436041057109833,0.0009340894175693393,-0.012264518067240715,0.008938307873904705,-0.002396944910287857,-0.02589230425655842
0.019959019497036934,0.0011480058310553432,-0.01226056832820177,0.008360141888260841,-0.0025031056720763445,-0.02589058130979538
0.019959019497036934,0.0011480058310553432,-0.01226056832820177,0.008360141888260841,-0.0025031056720763445,-0.02589058130979538
0.020041843876242638,0.00112142285797745,-0.01354976836591959,0.00885752122849226,-0.0022256963420659304,-0.02561151795089245
0.020041732117533684,0.001413922756910324,-0.012902370654046535,0.008734960108995438,-0.0019336319528520107,-0.025451844558119774
0.020986156538128853,0.0011881390819326043,-0.0119944978505373,0.008720499463379383,-0.001852307002991438,-0.02626352570950985
0.020390909165143967,0.0011341851204633713,-0.01257864199578762,0.008659569546580315,-0.0017713287379592657,-0.026483165100216866
0.01999053545296192,0.0009628068655729294,-0.012484836392104626,0.008701426908373833,-0.0017064455896615982,-0.02608216181397438
0.02057807706296444,0.000952517322730273,-0.013113833963871002,0.00841507501900196,-0.0018000382697209716,-0.025653380900621414
0.0217942763119936,0.0008467281004413962,-0.012736129574477673,0.008292822167277336,-0.0019023220520466566,-0.025765201076865196
0.02087869681417942,0.0006615387974306941,-0.013247223570942879,0.008643202483654022,-0.0020862151868641376,-0.026210296899080276
0.020384717732667923,0.0006893613026477396,-0.013118309900164604,0.00933870766311884,-0.0020893278997391462,-0.027090365067124367
0.020743176341056824,0.0007131865131668746,-0.012889518402516842,0.00923028402030468,-0.002173268236219883,-0.02690262347459793
0.020573224872350693,0.0007322026649489999,-0.012926075607538223,0.008968286216259003,-0.002025886671617627,-0.027320383116602898
0.020465794950723648,0.0008771151187829673,-0.012937139719724655,0.009414156898856163,-0.002139813732355833,-0.02791788801550865
0.020619401708245277,0.0008567100740037858,-0.013449499383568764,0.009377523325383663,-0.002234001411125064,-0.026895824819803238
0.021358495578169823,0.0007787634385749698,-0.012326166033744812,0.008833488449454308,-0.0022059681359678507,-0.025739556178450584
0.02135705202817917,0.0007896406459622085,-0.013324382714927197,0.009530303068459034,-0.0022661080583930016,-0.02619035355746746
0.021106872707605362,0.0007054698071442544,-0.013052062131464481,0.009148165583610535,-0.002162985038012266,-0.027422664687037468
0.02110564336180687,0.0007237292593345046,-0.013113650493323803,0.00881135556846857,-0.0022385709453374147,-0.02790016308426857
0.021558312699198723,0.0006062230095267296,-0.012725211679935455,0.009047016501426697,-0.002488852944225073,-0.02754521183669567
0.0211532823741436,0.000639936130028218,-0.013263341039419174,0.00893903337419033,-0.0024915579706430435,-0.027418259531259537
0.02103864960372448,0.0006648498238064349,-0.012781426310539246,0.00923667661845684,-0.002222954761236906,-0.027122586965560913
0.021179810166358948,0.0006609162082895637,-0.01302512176334858,0.009241648018360138,-0.0020882582757622004,-0.027619192376732826
0.02137601561844349,0.0006301527610048652,-0.012563329190015793,0.009355046786367893,-0.0019451024709269404,-0.02822662517428398
0.02099764160811901,0.0007576422649435699,-0.01317115779966116,0.009492221288383007,-0.0020602750591933727,-0.02844075858592987
0.02099764160811901,0.0007576422649435699,-0.01317115779966116,0.009492221288383007,-0.0020602750591933727,-0.02844075858592987
0.021000569686293602,0.0007809497765265405,-0.012739188969135284,0.009545166045427322,-0.002012434648349881,-0.028044234961271286
0.021238980814814568,0.0007608358864672482,-0.013097843155264854,0.00936681404709816,-0.0022177663631737232,-0.028331227600574493
0.021394267678260803,0.000710178748704493,-0.013120648451149464,0.009481823071837425,-0.0021677042823284864,-0.027957305312156677
0.020874561741948128,0.0006979834288358688,-0.013443665578961372,0.009340639226138592,-0.002094854600727558,-0.028714751824736595
0.021316349506378174,0.0006622299551963806,-0.013225817121565342,0.009008393622934818,-0.0023257751017808914,-0.029546646401286125
0.02159193716943264,0.000652683840598911,-0.013446294702589512,0.009859916754066944,-0.0021839397959411144,-0.028719009831547737
0.020203670486807823,0.0006863055750727654,-0.01289364229887724,0.00975851621478796,-0.002312778728082776,-0.028739040717482567
0.021759450435638428,0.0007105822442099452,-0.012899994850158691,0.009265420027077198,-0.002314330544322729,-0.027484793215990067
0.022114304825663567,0.0007225959561765194,-0.01354675367474556,0.009347934275865555,-0.002233072416856885,-0.028060156852006912
0.021624671295285225,0.000669374770950526,-0.012706499546766281,0.00963060837239027,-0.002264081733301282,-0.029136525467038155
0.021517008543014526,0.000799347588326782,-0.01313806138932705,0.009574417024850845,-0.00225763488560915,-0.028934452682733536
0.021470673382282257,0.0008157112752087414,-0.012848714366555214,0.009573698043823242,-0.0025723795406520367,-0.02972792461514473
0.021979067474603653,0.0008138890261761844,-0.013411483727395535,0.009367628023028374,-0.0026058796793222427,-0.02989829145371914
0.02142728678882122,0.0007320236181840301,-0.013234973885118961,0.009343037381768227,-0.0026462797541171312,-0.029160084202885628
0.021376797929406166,0.0007381825125776231,-0.013620494864881039,0.009474185295403004,-0.002697775838896632,-0.028243886306881905
0.022282341495156288,0.0006787635502405465,-0.013003694824874401,0.010072284378111362,-0.0026948784943670034,-0.028789576143026352
0.02256414294242859,0.0006449014763347805,-0.013547644019126892,0.009644447825849056,-0.002479585586115718,-0.03003660961985588
0.022166987881064415,0.000602606451138854,-0.013406545855104923,0.009706747718155384,-0.0026671397499740124,-0.029489465057849884
0.02138090878725052,0.0006290683522820473,-0.01366471778601408,0.010201132856309414,-0.0026889177970588207,-0.02951134741306305
0.022115672007203102,0.0005750719574280083,-0.013293270952999592,0.010807964950799942,-0.002559798303991556,-0.02922186441719532
0.022807886824011803,0.0006011791410855949,-0.013815646059811115,0.01040205080062151,-0.002580537460744381,-0.029490187764167786
0.02262122556567192,0.0006320389220491052,-0.013290033675730228,0.010051468387246132,-0.0023092373739928007,-0.029642978683114052
0.02199699357151985,0.0005894412752240896,-0.013856218196451664,0.010375973768532276,-0.0023518356028944254,-0.029454434290528297
0.02222660556435585,0.0006214299355633557,-0.01360384188592434,0.0102310786023736,-0.0022629089653491974,-0.030172942206263542
0.02222660556435585,0.0006214299355633557,-0.01360384188592434,0.0102310786023736,-0.0022629089653491974,-0.030172942206263542
0.023000676184892654,0.0005608312203548849,-0.014159992337226868,0.009828890673816204,-0.002180535113438964,-0.03038981929421425
0.022838512435555458,0.000591517542488873,-0.013583424501121044,0.010122512467205524,-0.00240237545222044,-0.030120594426989555
0.023310642689466476,0.0006097839795984328,-0.014294316992163658,0.009830553084611893,-0.002503887517377734,-0.029836716130375862
0.022687023505568504,0.0005700041656382382,-0.01386006735265255,0.010039598681032658,-0.0024369049351662397,-0.030537448823451996
0.022401947528123856,0.000528282078448683,-0.014406150206923485,0.010004688985645771,-0.002422188874334097,-0.03044082596898079
0.022437822073698044,0.0005437383078970015,-0.014296340756118298,0.009981712326407433,-0.002557499799877405,-0.0300289336591959
0.02318880334496498,0.000492209626827389,-0.015021822415292263,0.009952887892723083,-0.0025624879635870457,-0.03059074655175209
0.023605115711688995,0.00044375177822075784,-0.014064881950616837,0.010713271796703339,-0.0026227845810353756,-0.03104281984269619
0.02345891110599041,0.0004748924693558365,-0.014373731799423695,0.010330334305763245,-0.0022999774664640427,-0.031181475147604942
0.02342243492603302,0.00044462361256591976,-0.014181806705892086,0.010396650061011314,-0.0023302696645259857,-0.031110083684325218
0.023428751155734062,0.00041089922888204455,-0.014525549486279488,0.01036957185715437,-0.0023043318651616573,-0.03085070289671421
0.02372429147362709,0.0003818405675701797,-0.014309000223875046,0.01000458188354969,-0.0022950179409235716,-0.03161875903606415
0.02380429394543171,0.00039547865162603557,-0.014818955212831497,0.010368553921580315,-0.00258674961514771,-0.031656667590141296
0.0236058309674263,0.00039000148535706103,-0.014365965500473976,0.010257765650749207,-0.002548686694353819,-0.0319254994392395
0.022364530712366104,0.0003675037296488881,-0.013857086189091206,0.01063191331923008,-0.0023628605995327234,-0.03165922686457634
0.02432490885257721,0.00034724787110462785,-0.014415236189961433,0.010618634521961212,-0.0023289413657039404,-0.0318051278591156
0.02400236763060093,0.00032910535810515285,-0.01475658267736435,0.010848725214600563,-0.0021225924137979746,-0.03186677023768425
0.024206586182117462,0.0003127658274024725,-0.014029297046363354,0.010483399033546448,-0.0023330801632255316,-0.032242562621831894
0.0237937830388546,0.0003251353045925498,-0.014121992513537407,0.010525266639888287,-0.0029908621218055487,-0.03235260769724846
0.023689357563853264,0.0003111078403890133,-0.015299546532332897,0.010326229967176914,-0.0029853754676878452,-0.032495275139808655
0.024150678887963295,0.00027705589309334755,-0.014159942977130413,0.010792330838739872,-0.002965566935017705,-0.03180772811174393
0.024359678849577904,0.00025869239470921457,-0.01426067017018795,0.01087584625929594,-0.0027536009438335896,-0.03249010071158409
0.02502461150288582,0.00024459624546580017,-0.014292627573013306,0.010916152037680149,-0.002683834871277213,-0.03345993161201477
0.024843702092766762,0.00023198500275611877,-0.015261556021869183,0.011087476275861263,-0.002448255429044366,-0.03338906168937683
0.024342501536011696,0.00026292825350537896,-0.014110022224485874,0.010859527625143528,-0.0021814696956425905,-0.03268302604556084
0.024342501536011696,0.00026292825350537896,-0.014110022224485874,0.010859527625143528,-0.0021814696956425905,-0.03268302604556084
0.024646786972880363,0.0002523360017221421,-0.014622832648456097,0.011094816029071808,-0.00206053932197392,-0.03129766508936882
0.025045080110430717,0.00024109311925712973,-0.013981507159769535,0.011228188872337341,-0.001942437724210322,-0.0326300747692585
0.02478092908859253,0.00023078863159753382,-0.014662723988294601,0.011200311593711376,-0.0019925038795918226,-0.033403001725673676
0.02535911649465561,0.0002455300709698349,-0.014538470655679703,0.011379523202776909,-0.002305456204339862,-0.03310050442814827
0.025467535480856895,0.00024787982692942023,-0.01492299884557724,0.011433514766395092,-0.002763656899333,-0.03384815528988838
0.025347700342535973,0.0002386510604992509,-0.013821146450936794,0.011480451561510563,-0.003098138840869069,-0.03355187550187111
0.025814618915319443,0.0002299422340001911,-0.014404085464775562,0.011448890902101994,-0.0029210837092250586,-0.03226538375020027
0.025580404326319695,0.0002218452573288232,-0.014126966707408428,0.0110313156619668,-0.002749367617070675,-0.031735602766275406
0.02549542859196663,0.00021429902699310333,-0.014614572748541832,0.011234086006879807,-0.0026481428649276495,-0.03347867354750633
0.02602212317287922,0.0001525634725112468,-0.013861443847417831,0.011562902480363846,-0.002488909987732768,-0.03403986617922783
0.025852717459201813,0.00011647199426079169,-0.014393461868166924,0.011345941573381424,-0.002549725119024515,-0.03418092429637909
0.025915201753377914,0.00010906108218478039,-0.014193548820912838,0.011626309715211391,-0.002719304757192731,-0.03390250727534294
0.026160825043916702,0.00010282480798196048,-0.015091327019035816,0.01113929133862257,-0.0027257734909653664,-0.033578451722860336
0.026259662583470345,0.00014390274009201676,-0.014495359733700752,0.011127312667667866,-0.0028593908064067364,-0.033511653542518616
0.02756587602198124,0.00013839405437465757,-0.014842173084616661,0.011722630821168423,-0.002872023731470108,-0.034240689128637314
0.02749217301607132,0.0001316699490416795,-0.014271079562604427,0.011362052522599697,-0.002810488920658827,-0.033886950463056564
0.025155765935778618,0.00012575695291161537,-0.014998975209891796,0.011669772677123547,-0.002720981603488326,-0.03425604850053787
0.026508770883083344,-0.00010475033923285082,-0.014578482136130333,0.012027193792164326,-0.0029565910808742046,-0.034383270889520645
0.027345992624759674,-9.644534293329343e-05,-0.0144345099106431,0.011942313052713871,-0.003077112138271332,-0.033358506858348846
0.026632504537701607,-7.944698154460639e-05,-0.014886262826621532,0.011498822830617428,-0.002734902547672391,-0.03573686629533768
0.027020161971449852,-7.300035213120282e-05,-0.014311343431472778,0.012404749169945717,-0.0027417917735874653,-0.03563958778977394
0.027967587113380432,-6.752205081284046e-05,-0.014634450897574425,0.012182441540062428,-0.0025613736361265182,-0.03356645628809929
0.027351049706339836,-6.280880188569427e-05,-0.014489011839032173,0.011475159786641598,-0.0023904703557491302,-0.03381545841693878
0.026577817276120186,-5.871086614206433e-05,-0.014638830907642841,0.011502825655043125,-0.002643840154632926,-0.03519929200410843
0.026288986206054688,-5.511466952157207e-05,-0.013976860791444778,0.01117764599621296,-0.0029022882226854563,-0.03536837920546532
0.02755681984126568,-5.193405377212912e-05,-0.014516286551952362,0.012186935171484947,-0.0030032817739993334,-0.03639925271272659
0.02755681984126568,-5.193405377212912e-05,-0.014516286551952362,0.012186935171484947,-0.0030032817739993334,-0.03639925271272659
0.02753398008644581,-4.656000237446278e-05,-0.015044096857309341,0.012155200354754925,-0.0026282710023224354,-0.03460737690329552
0.027798667550086975,-4.426959640113637e-05,-0.015202905982732773,0.012575278989970684,-0.002493132371455431,-0.0346594974398613
0.02748022973537445,-4.219397669658065e-05,-0.015272462740540504,0.012010103091597557,-0.0024245758540928364,-0.035706061869859695
0.02737397514283657,-4.030431227874942e-05,-0.015179597772657871,0.012499725446105003,-0.0028008664958178997,-0.036448147147893906
0.027703983709216118,-3.8576748920604587e-05,-0.014766720123589039,0.012528397142887115,-0.0030486388131976128,-0.03625098615884781
0.027703983709216118,-3.8576748920604587e-05,-0.014766720123589039,0.012528397142887115,-0.0030486388131976128,-0.03625098615884781
0.027589935809373856,-3.699107764987275e-05,-0.015013407915830612,0.012596199288964272,-0.0030793778132647276,-0.036341309547424316
0.02761293202638626,-3.553056376404129e-05,-0.014647511765360832,0.012218753807246685,-0.002852729754522443,-0.03573892265558243
0.027708126232028008,-3.418115375097841e-05,-0.014968227595090866,0.01221748348325491,-0.0027329791337251663,-0.037161245942115784
0.02774999476969242,-3.293048212071881e-05,-0.015084519982337952,0.012613990344107151,-0.0025298825930804014,-0.0374956950545311
0.02779189683496952,-3.176806421834044e-05,-0.01541596557945013,0.012170017696917057,-0.0023420655634254217,-0.0368221178650856
0.027921956032514572,-3.0684928788105026e-05,-0.015131818130612373,0.012659663334488869,-0.0023058007936924696,-0.037068530917167664
0.027945300564169884,-2.967328873637598e-05,-0.015530375763773918,0.012504014186561108,-0.0024457010440528393,-0.03771812096238136
0.028354398906230927,-2.8726104574161582e-05,-0.014720496721565723,0.012942198663949966,-0.002514270367100835,-0.03751864656805992
0.028169875964522362,-2.783759373414796e-05,-0.01554345153272152,0.01232098788022995,-0.0030209310352802277,-0.03713309019804001
0.028097011148929596,-2.700244112929795e-05,-0.015288128517568111,0.01228643860667944,-0.003297504037618637,-0.037542760372161865
0.027599716559052467,-4.9350197514286265e-05,-0.01637307181954384,0.012409329414367676,-0.003272789064794779,-0.03842989355325699
0.02876398339867592,-6.764788122382015e-05,-0.01540204044431448,0.01182688120752573,-0.003076073480769992,-0.03778596222400665
0.02933059073984623,-9.610224515199661e-05,-0.015688952058553696,0.011459581553936005,-0.0027483536396175623,-0.038427289575338364
0.028014427050948143,-9.391581261297688e-05,-0.015811098739504814,0.011741038411855698,-0.0031418995931744576,-0.038737475872039795
0.027334073558449745,-9.153244900517166e-05,-0.015842564404010773,0.011978068388998508,-0.0031945735681802034,-0.038569070398807526
0.027789417654275894,-6.956434663152322e-05,-0.01571064628660679,0.011866798624396324,-0.0030414811335504055,-0.038361795246601105
0.02920999564230442,-6.536251021316275e-05,-0.015816114842891693,0.012706921435892582,-0.002787170698866248,-0.038282401859760284
0.02822933718562126,-8.475380309391767e-05,-0.015653133392333984,0.011809882707893848,-0.0027822167612612247,-0.038689061999320984
0.028727304190397263,-8.307893585879356e-05,-0.015147584490478039,0.01237493846565485,-0.0028963054064661264,-0.039091795682907104
0.029191600158810616,-0.00010794745321618393,-0.015888260677456856,0.01226259209215641,-0.0029740564059466124,-0.038671933114528656
0.029191600158810616,-0.00010794745321618393,-0.015888260677456856,0.01226259209215641,-0.0029740564059466124,-0.038671933114528656
0.02835974656045437,-0.00011561348219402134,-0.01578034833073616,0.012804634869098663,-0.0032215560786426067,-0.040370602160692215
0.02835974656045437,-0.00011561348219402134,-0.01578034833073616,0.012804634869098663,-0.0032215560786426067,-0.040370602160692215
0.0282108373939991,-0.00011271997937001288,-0.016159305348992348,0.012262859381735325,-0.003222609870135784,-0.040052011609077454
0.0288974829018116,-0.00010734263196354732,-0.015745576471090317,0.012824463658034801,-0.002863009460270405,-0.03940321505069733
0.029233969748020172,-0.00010484175436431542,-0.015926791355013847,0.013273371383547783,-0.002611532574519515,-0.03947378322482109
0.029233969748020172,-0.00010484175436431542,-0.015926791355013847,0.013273371383547783,-0.002611532574519515,-0.03947378322482109
0.02906569465994835,-0.00010245473094983026,-0.01576266624033451,0.013210197910666466,-0.0024986157659441233,-0.04128865897655487
0.028950583189725876,-0.00010017398017225787,-0.016438061371445656,0.013475512154400349,-0.0026602933648973703,-0.041526880115270615
0.028700219467282295,-0.000115295966679696,-0.016011906787753105,0.013330679386854172,-0.0031760071869939566,-0.03943353891372681
0.02879508212208748,-0.00011505442671477795,-0.016331566497683525,0.013770179823040962,-0.003157112281769514,-0.039170265197753906
0.02910594269633293,-0.00011268313392065465,-0.01593734882771969,0.01373134832829237,-0.0032923570834100246,-0.04012315720319748
0.029252415522933006,-0.00011038035881938413,-0.016059355810284615,0.013860780745744705,-0.0033036493696272373,-0.040465958416461945
0.029291654005646706,-0.00010816938447533175,-0.01602652668952942,0.013924920000135899,-0.0030424606520682573,-0.04030926525592804
0.029561202973127365,-0.00010604511044220999,-0.015888461843132973,0.014001752249896526,-0.002915425458922982,-0.03999565541744232
0.029727960005402565,-0.00011540828563738614,-0.016712551936507225,0.013478165492415428,-0.0027158549055457115,-0.0403423011302948
0.029736259952187538,-0.00011896440992131829,-0.016014469787478447,0.013074216432869434,-0.002756111091002822,-0.0405430942773819
0.028036994859576225,-0.00011683518823701888,-0.016261711716651917,0.013512692414224148,-0.0028073096182197332,-0.040836598724126816
0.029921961948275566,-0.00011265797365922481,-0.016431596130132675,0.013422227464616299,-0.002932376693934202,-0.040900059044361115
0.02961593307554722,-0.00011067870946135372,-0.016333842650055885,0.013016518205404282,-0.0032174859661608934,-0.0410485602915287
0.029627276584506035,-0.00010876794840442017,-0.016339754685759544,0.013626936823129654,-0.0032868783455342054,-0.041030533611774445
0.030056575313210487,-0.00012198815966257825,-0.01661047339439392,0.013034574687480927,-0.003309265011921525,-0.0429144911468029
0.02998656965792179,-0.00012015458923997357,-0.01617758721113205,0.013233556412160397,-0.0030583390034735203,-0.04209144040942192
0.03012247197329998,-0.00011818519124062732,-0.016943972557783127,0.012978707440197468,-0.00278939469717443,-0.04021575674414635
0.03047582507133484,-0.0001569608721183613,-0.01622505486011505,0.013754556886851788,-0.0027117340359836817,-0.040557947009801865
0.0305118840187788,-0.00017139599367510527,-0.016657879576086998,0.013683956116437912,-0.0027762427926063538,-0.042031411081552505
0.0305118840187788,-0.00017139599367510527,-0.016657879576086998,0.013683956116437912,-0.0027762427926063538,-0.042031411081552505
0.03036678396165371,-0.00015951305977068841,-0.01661476492881775,0.013506552204489708,-0.0027780558448284864,-0.04267850145697594
0.03036678396165371,-0.00015951305977068841,-0.01661476492881775,0.013506552204489708,-0.0027780558448284864,-0.04267850145697594
0.030660564079880714,-0.00017873811884783208,-0.01650477573275566,0.013564077205955982,-0.002819166285917163,-0.041907116770744324
0.030660564079880714,-0.00017873811884783208,-0.01650477573275566,0.013564077205955982,-0.002819166285917163,-0.041907116770744324
0.030614808201789856,-0.00019195758795831352,-0.016644222661852837,0.013309510424733162,-0.003322647651657462,-0.04276701807975769
0.030567320063710213,-0.00019545295799616724,-0.016477927565574646,0.013545085676014423,-0.0032610823400318623,-0.04316071420907974
0.030462978407740593,-0.0001896948233479634,-0.016931429505348206,0.013005378656089306,-0.0031398311257362366,-0.0428287498652935
0.03156936168670654,-0.00021009538613725454,-0.01720632053911686,0.013792498037219048,-0.0030041018035262823,-0.042937420308589935
0.03224433213472366,-0.0002044768480118364,-0.016901269555091858,0.013651958666741848,-0.0028197176288813353,-0.043264541774988174
0.031039509922266006,-0.00032691771048121154,-0.017103493213653564,0.014253484085202217,-0.0025514147710055113,-0.04364499822258949
0.030528880655765533,-0.0003638085909187794,-0.016234662383794785,0.01392962597310543,-0.002582968445494771,-0.04323862865567207
0.031465113162994385,-0.00033738004276528955,-0.01687890850007534,0.013978039845824242,-0.0028423205949366093,-0.04326242953538895
0.03154725953936577,-0.0003740144020412117,-0.01682920567691326,0.013480154797434807,-0.0031407710630446672,-0.043378014117479324
0.03173145279288292,-0.00035203146398998797,-0.01743096485733986,0.013809803873300552,-0.0031201443634927273,-0.043268609791994095
0.03217655420303345,-0.0003305127611383796,-0.01735561713576317,0.013713541440665722,-0.0030950845684856176,-0.04270457103848457
0.031416360288858414,-0.0003612165746744722,-0.016456469893455505,0.014461182989180088,-0.003148384392261505,-0.044065721333026886
0.030891574919223785,-0.0003756486694328487,-0.01743103750050068,0.013689318671822548,-0.003341073403134942,-0.04399072378873825
0.030625270679593086,-0.00037208388675935566,-0.017300516366958618,0.013936479575932026,-0.0033303238451480865,-0.04414328932762146
0.0319795198738575,-0.0004750225052703172,-0.017373835667967796,0.013782748952507973,-0.0029335860162973404,-0.04423355683684349
0.030529465526342392,-0.00048200873425230384,-0.016998272389173508,0.01329931989312172,-0.0028279435355216265,-0.043833356350660324
0.03236297518014908,-0.0004453361325431615,-0.017581628635525703,0.013429457321763039,-0.003065280383452773,-0.043534085154533386
0.032555583864450455,-0.00045620789751410484,-0.017272040247917175,0.014023044146597385,-0.003457625862210989,-0.04363597184419632
0.03181101754307747,-0.00044569704914465547,-0.01751578599214554,0.014337513595819473,-0.003502895822748542,-0.044237636029720306
0.031886026263237,-0.0004688925400841981,-0.018157605081796646,0.014498754404485226,-0.0033641464542597532,-0.04586963355541229
0.03238716721534729,-0.000543405651114881,-0.017608439549803734,0.014233884401619434,-0.0033561396412551403,-0.04472924396395683
0.03238716721534729,-0.000543405651114881,-0.017608439549803734,0.014233884401619434,-0.0033561396412551403,-0.04472924396395683
0.03203727677464485,-0.0006298752268776298,-0.017336949706077576,0.013935169205069542,-0.0031108048278838396,-0.04448339715600014
0.03203727677464485,-0.0006298752268776298,-0.017336949706077576,0.013935169205069542,-0.0031108048278838396,-0.04448339715600014
0.03281151130795479,-0.0006556662265211344,-0.01762918382883072,0.014397434890270233,-0.003226867411285639,-0.04474710300564766
0.03299073874950409,-0.0006338919047266245,-0.018472736701369286,0.014124985784292221,-0.0032839737832546234,-0.046916648745536804
0.03271975368261337,-0.001024704659357667,-0.01837327517569065,0.01466053631156683,-0.0031083018984645605,-0.04455770179629326
0.032099489122629166,-0.0009754985221661627,-0.018262993544340134,0.013748841360211372,-0.003004568163305521,-0.044269759207963943
0.03303438797593117,-0.0008829429280012846,-0.01874900609254837,0.014051368460059166,-0.0028478142339736223,-0.04516869783401489
0.03389088436961174,-0.0008807345875538886,-0.01786329783499241,0.014004598371684551,-0.0030748166609555483,-0.04558800533413887
0.032997313886880875,-0.0008685286156833172,-0.01784055121243,0.014551750384271145,-0.003352911677211523,-0.04600105807185173
0.03223522752523422,-0.0008807388949207962,-0.018001677468419075,0.013097202405333519,-0.0036644008941948414,-0.04601413384079933
0.033763714134693146,-0.0008835154585540295,-0.018016286194324493,0.01345907710492611,-0.004233361687511206,-0.045868925750255585
0.03327493369579315,-0.0008886586292646825,-0.018782880157232285,0.013156670145690441,-0.0039039747789502144,-0.046024519950151443
0.032891854643821716,-0.0011420013615861535,-0.018532179296016693,0.014397421851754189,-0.003267039777711034,-0.04649632051587105
0.03404807671904564,-0.0011460267705842853,-0.01803428865969181,0.01470088493078947,-0.002642342122271657,-0.04666782543063164
0.03429912403225899,-0.001119634136557579,-0.017659949138760567,0.014849423430860043,-0.0025294062215834856,-0.04562114551663399
0.03299597278237343,-0.0011771349236369133,-0.018832415342330933,0.015119600109755993,-0.0028354190289974213,-0.04615069553256035
0.03305816277861595,-0.0012480212608352304,-0.01940803788602352,0.01545228436589241,-0.0032670656219124794,-0.047669846564531326
0.03454139456152916,-0.001225402345880866,-0.019062360748648643,0.01514971163123846,-0.003071845741942525,-0.04885641857981682
0.033214468508958817,-0.0012712330790236592,-0.018967241048812866,0.015149204060435295,-0.002978453179821372,-0.04668788984417915
0.033214468508958817,-0.0012712330790236592,-0.018967241048812866,0.015149204060435295,-0.002978453179821372,-0.04668788984417915
0.03408804163336754,-0.001447912771254778,-0.017852991819381714,0.015257011167705059,-0.003084483789280057,-0.04879644513130188
0.03416278585791588,-0.0014002129901200533,-0.018857451155781746,0.015172590501606464,-0.003161614527925849,-0.04890962690114975
0.03403037041425705,-0.001503756269812584,-0.019376913085579872,0.014914746396243572,-0.0031844100449234247,-0.04648995026946068
0.03410162776708603,-0.0014372706646099687,-0.018799196928739548,0.014745195396244526,-0.0029786070808768272,-0.047555942088365555
0.03409993276000023,-0.001495818141847849,-0.019190769642591476,0.015592827461659908,-0.0028952283319085836,-0.048292774707078934
0.0342751070857048,-0.0015865589957684278,-0.01904795505106449,0.0153849758207798,-0.0027626799419522285,-0.04736638814210892
0.03454022854566574,-0.001652497798204422,-0.018655577674508095,0.015504973940551281,-0.002996480790898204,-0.04862409085035324
0.03454022854566574,-0.001652497798204422,-0.018655577674508095,0.015504973940551281,-0.002996480790898204,-0.04862409085035324
0.034580767154693604,-0.0019105486571788788,-0.019026828929781914,0.015140434727072716,-0.003315313020721078,-0.04911871999502182
0.03444208577275276,-0.0019161039963364601,-0.018544834107160568,0.0156397707760334,-0.003274744376540184,-0.049051228910684586
0.03444894030690193,-0.0020381612703204155,-0.018541628494858742,0.015226959250867367,-0.0034703300334513187,-0.04834491387009621
0.034401748329401016,-0.001996581442654133,-0.019031208008527756,0.015533694997429848,-0.003695024410262704,-0.04881639778614044
0.03335021808743477,-0.0019815945997834206,-0.018282374367117882,0.015032579191029072,-0.0038057335186749697,-0.048617683351039886
0.035350363701581955,-0.001948137884028256,-0.018478084355592728,0.015299268066883087,-0.0034270775504410267,-0.049129944294691086
0.03511364012956619,-0.0020604070741683245,-0.01932360604405403,0.014871710911393166,-0.0031362217850983143,-0.049029700458049774
0.03469055891036987,-0.002074433723464608,-0.01877541095018387,0.015279092825949192,-0.0030501054134219885,-0.04938792064785957
0.03536548838019371,-0.0023809012491256,-0.018754590302705765,0.015530855394899845,-0.002991156419739127,-0.048656292259693146
0.03534882515668869,-0.0026519291568547487,-0.019077301025390625,0.015780875459313393,-0.003156603081151843,-0.049962714314460754
