davideferrari95/blind_handover_controller/data/Test 132 - [2024-02-07 -- 17-05-48]/joint_states_data.csv
shoulder_pan_joint,shoulder_lift_joint,elbow_joint,wrist_1_joint,wrist_2_joint,wrist_3_joint
0.0024282096419483423,0.008430964313447475,-0.008868628181517124,0.001678956439718604,-0.0,0.002679217606782913
0.0024282096419483423,0.008430964313447475,-0.008868628181517124,0.001678956439718604,-0.0,0.002679217606782913
0.0022882309276610613,0.008731682784855366,-0.008255193009972572,0.0019478128524497151,-0.0,0.0030235922895371914
0.002141407923772931,0.008911454118788242,-0.008270635269582272,0.0022446836810559034,-0.0,0.002928420202806592
0.002049393253400922,0.008776283822953701,-0.008924898691475391,0.002234299434348941,-0.0,0.0030382040422409773
0.0020593316294252872,0.008968774229288101,-0.009011815302073956,0.00227541197091341,-0.0,0.0029740745667368174
0.0020593316294252872,0.008968774229288101,-0.009011815302073956,0.00227541197091341,-0.0,0.0029740745667368174
0.0022727586328983307,0.00888060312718153,-0.008832273073494434,0.001821433543227613,-0.0,0.0029451148584485054
0.0022727586328983307,0.00888060312718153,-0.008832273073494434,0.001821433543227613,-0.0,0.0029451148584485054
0.0022767928894609213,0.008510242216289043,-0.008761127479374409,0.0018062714952975512,-0.0,0.002851556520909071
0.0024455685634166002,0.008298377506434917,-0.00890000257641077,0.001846900093369186,-0.0,0.002601911313831806
0.0023493682965636253,0.008610503748059273,-0.009590917266905308,0.001858150353655219,-0.0,0.002487359568476677
0.0021984667982906103,0.008857819251716137,-0.009028342552483082,0.002129269763827324,-0.0,0.0026254134718328714
0.0023114325013011694,0.008099095895886421,-0.008158574812114239,0.0019542500376701355,-0.0,0.002749417908489704
0.0022279773838818073,0.008311036042869091,-0.00912724994122982,0.0018425622256472707,-0.0,0.0028192023746669292
0.002328430535271764,0.007664159871637821,-0.008507785387337208,0.0015501248417422175,-0.0,0.002861840883269906
0.00226587918587029,0.008015651255846024,-0.009031097404658794,0.0015082660829648376,-0.0,0.002968532033264637
0.0024240503553301096,0.008388322778046131,-0.009402913972735405,0.0014746071537956595,-0.0,0.0029512415640056133
0.0021591736003756523,0.008040830492973328,-0.009230946190655231,0.0015635425224900246,-0.0,0.002781590912491083
0.002180517418310046,0.007913886569440365,-0.00877723004668951,0.0016314800595864654,-0.0,0.002699831733480096
0.002055559540167451,0.008428841829299927,-0.009676755405962467,0.0017325272783637047,-0.0,0.0025896653532981873
0.0022109602577984333,0.008612506091594696,-0.0093558169901371,0.001647122553549707,-0.0,0.0024669712875038385
0.0022202320396900177,0.007792288903146982,-0.009226655587553978,0.0015273506287485361,-0.0,0.0024542652536183596
0.0021897389087826014,0.007844135165214539,-0.008787893690168858,0.001484015490859747,-0.0,0.0026132925413548946
0.0023870731238275766,0.008062888868153095,-0.009060140699148178,0.001387738506309688,-0.0,0.0026428864803165197
0.002300968859344721,0.00773742888122797,-0.008819649927318096,0.0013329744106158614,-0.0,0.002884533954784274
0.0022188504226505756,0.007271583657711744,-0.009506096132099628,0.0013496383326128125,-0.0,0.0028935770969837904
0.002271858509629965,0.00757236173376441,-0.009464042261242867,0.0014373240992426872,-0.0,0.0028217099606990814
0.002161539625376463,0.008768112398684025,-0.009503714740276337,0.0016889829421415925,-0.0,0.002675641793757677
0.0022007212974131107,0.008076733909547329,-0.008711396716535091,0.0018003981094807386,-0.0,0.0028015500865876675
0.0021289808209985495,0.007617430295795202,-0.009161639027297497,0.0022294914815574884,-0.0,0.002644792664796114
0.0023970624897629023,0.0076454561203718185,-0.008736830204725266,0.0020356245804578066,-0.0,0.0029316898435354233
0.0024977840948849916,0.007911060005426407,-0.008600865490734577,0.001851571025326848,-0.0,0.0030792115721851587
0.0023389465641230345,0.0077882674522697926,-0.009220953099429607,0.0016132094897329807,-0.0,0.002915531164035201
0.0022486986126750708,0.0072806659154593945,-0.008849259465932846,0.0014775481540709734,-0.0,0.002592545934021473
0.0022486986126750708,0.0072806659154593945,-0.008849259465932846,0.0014775481540709734,-0.0,0.002592545934021473
0.002155907452106476,0.0073378365486860275,-0.008351282216608524,0.0011490242322906852,-0.0,0.0020267688669264317
0.002390268724411726,0.007911739870905876,-0.008789467625319958,0.0011661764001473784,-0.0,0.001912335050292313
0.0024969654623419046,0.007426153402775526,-0.009309808723628521,0.0011636121198534966,-0.0,0.0021400039549916983
0.0024241001810878515,0.007174293510615826,-0.008636427111923695,0.0013169097946956754,-0.0,0.002660216763615608
0.0025066486559808254,0.007362451869994402,-0.008563023991882801,0.0014235925627872348,-0.0,0.0027720232028514147
0.0025754172820597887,0.008389931172132492,-0.009416814893484116,0.0014782565413042903,-0.0,0.0029947138391435146
0.002446336206048727,0.007916535250842571,-0.008662966080009937,0.0016765231266617775,-0.0,0.003145437454804778
0.002589578740298748,0.00674771424382925,-0.008300617337226868,0.0015625284286215901,-0.0,0.0031100669875741005
0.002732683438807726,0.007051547989249229,-0.008983704261481762,0.0015869177877902985,-0.0,0.0029812001157552004
0.002588782925158739,0.0074386028572916985,-0.009186076931655407,0.001470161834731698,-0.0,0.002950073452666402
0.002574568847194314,0.007272124290466309,-0.00900327879935503,0.001518532051704824,-0.0,0.00301699573174119
0.0025682549457997084,0.007255993317812681,-0.009014991112053394,0.001448731287382543,-0.0,0.00296731386333704
0.002790097612887621,0.008032851852476597,-0.008596288971602917,0.0015877623809501529,-0.0,0.002720586257055402
0.0029310034587979317,0.008176535367965698,-0.008446197025477886,0.0016551248263567686,-0.0,0.0026609739288687706
0.0029190692584961653,0.007129504345357418,-0.009119665250182152,0.0017705941572785378,-0.0,0.0026348214596509933
0.0026958605740219355,0.007517300546169281,-0.00877531711012125,0.0017888917354866862,-0.0,0.002654271200299263
0.002768478123471141,0.007563520222902298,-0.008474563248455524,0.0016430702526122332,-0.0,0.0028913230635225773
0.0028314567171037197,0.0073074703104794025,-0.00904687587171793,0.0017077159136533737,-0.0,0.003152012126520276
0.0028757599648088217,0.007263024803251028,-0.007615847047418356,0.001571999746374786,-0.0,0.0031040101312100887
0.002828140975907445,0.007924018427729607,-0.009457365609705448,0.0015705946134403348,-0.0,0.0029767805244773626
0.0029854781460016966,0.00787204597145319,-0.009576579555869102,0.0014596502296626568,-0.0,0.002859729342162609
0.002908305963501334,0.007606209721416235,-0.00845565740019083,0.0014737207675352693,-0.0,0.0029239743016660213
0.0032131162006407976,0.007718478329479694,-0.008277008309960365,0.0015311383176594973,-0.0,0.002832608763128519
0.0031343246810138226,0.007788324262946844,-0.008383631706237793,0.0014722225023433566,-0.0,0.002550617791712284
0.002901126630604267,0.007775648031383753,-0.008962085470557213,0.0015551019459962845,-0.0,0.0026562714483588934
0.003087054705247283,0.0075165340676903725,-0.008524687960743904,0.0014820958022028208,-0.0,0.00300235697068274
0.002963293343782425,0.0074480557814240456,-0.008404877968132496,0.0014252630062401295,-0.0,0.0031282445415854454
0.0030034673400223255,0.0074377767741680145,-0.009265630505979061,0.0014188399072736502,-0.0,0.003119580214843154
0.0032660181168466806,0.007747715804725885,-0.008682665415108204,0.0014948372263461351,-0.0,0.003197749610990286
0.003125131130218506,0.007347682490944862,-0.008127967827022076,0.0016072944272309542,-0.0,0.003010455286130309
0.003125131130218506,0.007347682490944862,-0.008127967827022076,0.0016072944272309542,-0.0,0.003010455286130309
0.003118254244327545,0.007420722395181656,-0.008263801224529743,0.0016934159211814404,-0.0,0.0030856532976031303
0.0028182591777294874,0.007563228718936443,-0.00876827072352171,0.0016844416968524456,-0.0,0.0030003751162439585
0.003219036152586341,0.007434085011482239,-0.007946199737489223,0.0015859701670706272,-0.0,0.002686829073354602
0.0030626414809376,0.007634968496859074,-0.009051647037267685,0.0014963684370741248,-0.0,0.002837976673617959
0.0032190359197556973,0.007581211160868406,-0.008606196381151676,0.0014494784409180284,-0.0,0.003241438651457429
0.0032116977963596582,0.007345571182668209,-0.008324416354298592,0.0014741587219759822,-0.0,0.0032408826518803835
0.0035123247653245926,0.0070054251700639725,-0.009071975946426392,0.0016081273788586259,-0.0,0.0034637078642845154
0.003309322986751795,0.007232601288706064,-0.008720634505152702,0.0015197148313745856,-0.0,0.0033450659830123186
0.0026198721025139093,0.007852672599256039,-0.008505737408995628,0.0016622793627902865,-0.0,0.0034347118344157934
0.0023222423624247313,0.00824361015111208,-0.008820123039186,0.0015141108306124806,-0.0,0.003131263656541705
0.002318608108907938,0.007926058024168015,-0.008882461115717888,0.0014099390245974064,-0.0,0.003137055551633239
0.0023793757427483797,0.006883947178721428,-0.00834526028484106,0.0013305700849741697,-0.0,0.0030888349283486605
0.0028940073680132627,0.0074047427624464035,-0.008072920143604279,0.0012693776516243815,-0.0,0.003199490951374173
0.0031991093419492245,0.008167783729732037,-0.008702992461621761,0.0012268431019037962,-0.0,0.0031056739389896393
0.003132918616756797,0.007792360614985228,-0.008985445834696293,0.0013195702340453863,-0.0,0.0029437122866511345
0.0029926421120762825,0.006950296461582184,-0.008649840019643307,0.0013694651424884796,-0.0,0.0029889359138906
0.0026868865825235844,0.008153948001563549,-0.008395442739129066,0.0014543996658176184,-0.0,0.002890676259994507
0.0027114441618323326,0.007846886292099953,-0.008698939345777035,0.001560612814500928,-0.0,0.002800988033413887
0.002763418247923255,0.007440849673002958,-0.008478200063109398,0.001662998809479177,-0.0,0.0028820333536714315
0.0027053921949118376,0.007484394125640392,-0.008295082487165928,0.001734078279696405,-0.0,0.003033897140994668
0.0027892212383449078,0.007658969610929489,-0.009500105865299702,0.001625726232305169,-0.0,0.0031596357002854347
0.0027892212383449078,0.007658969610929489,-0.009500105865299702,0.001625726232305169,-0.0,0.0031596357002854347
0.002789522986859083,0.008007633499801159,-0.008326070383191109,0.0015271453885361552,-0.0,0.0028611309826374054
0.002789522986859083,0.008007633499801159,-0.008326070383191109,0.0015271453885361552,-0.0,0.0028611309826374054
0.002619791077449918,0.007854344323277473,-0.009143601171672344,0.0015371235786005855,-0.0,0.0027739040087908506
0.0029095110949128866,0.007871689274907112,-0.009022505953907967,0.0016562346136197448,-0.0,0.0028628220316022635
0.0030122664757072926,0.007158733904361725,-0.00871456228196621,0.0015872271033003926,-0.0,0.0031986921094357967
0.0029079990927129984,0.007294349372386932,-0.008513239212334156,0.0017857733182609081,-0.0,0.003285675309598446
0.002900422317907214,0.007565207313746214,-0.008868583478033543,0.0016693350626155734,-0.0,0.0034430886153131723
0.0031345044262707233,0.007744943723082542,-0.008469663560390472,0.001519463025033474,-0.0,0.003368988400325179
0.0031345044262707233,0.007744943723082542,-0.008469663560390472,0.001519463025033474,-0.0,0.003368988400325179
0.0029332670383155346,0.00706853624433279,-0.008692565374076366,0.0012497632997110486,-0.0,0.0030893872026354074
0.002938409335911274,0.007565494626760483,-0.008182975463569164,0.0013278524857014418,-0.0,0.0031933942809700966
0.0029966554138809443,0.007948361337184906,-0.009089527651667595,0.0012886645272374153,-0.0,0.0031319644767791033
0.003156086662784219,0.00755666196346283,-0.008775763213634491,0.0014589523198083043,-0.0,0.003486340632662177
0.0034714671783149242,0.007585693616420031,-0.008610964752733707,0.0015378361567854881,-0.0,0.0037716934457421303
0.0032701692543923855,0.007785912603139877,-0.00935621652752161,0.0016867949161678553,-0.0,0.003472864395007491
0.003059848677366972,0.007465739268809557,-0.009141837246716022,0.0017271661199629307,-0.0,0.003496567253023386
0.00335444463416934,0.007275850977748632,-0.008929896168410778,0.001837509567849338,-0.0,0.003669118508696556
0.0030700936913490295,0.007393812295049429,-0.008621622808277607,0.001933491206727922,-0.0,0.00331052765250206
0.0032257733400911093,0.00823415257036686,-0.009191622957587242,0.002224139403551817,-0.0,0.003323007607832551
0.003314883913844824,0.007946602068841457,-0.009052380919456482,0.002096580807119608,-0.0,0.003341242205351591
0.0035804712679237127,0.007064922247081995,-0.008419401943683624,0.0021369196474552155,-0.0,0.0035899446811527014
0.0038179310504347086,0.007217292208224535,-0.009702164679765701,0.001939951442182064,-0.0,0.0037937152665108442
0.0034750946797430515,0.008190570399165154,-0.009125898592174053,0.0017817766638472676,-0.0,0.003811926580965519
0.0034823166206479073,0.007685687392950058,-0.00953616201877594,0.0017054470954462886,-0.0,0.0037844227626919746
0.0032534038182348013,0.00771234929561615,-0.008935719728469849,0.0015730350278317928,-0.0,0.0037709709722548723
0.0034737312234938145,0.007622735109180212,-0.008970864117145538,0.0016097290208563209,-0.0,0.003771552350372076
0.003714693244546652,0.007633538451045752,-0.008645161986351013,0.0016802455065771937,-0.0,0.0033628535456955433
0.003714693244546652,0.007633538451045752,-0.008645161986351013,0.0016802455065771937,-0.0,0.0033628535456955433
0.0034164017997682095,0.00754334544762969,-0.008668928407132626,0.0018102889880537987,-0.0,0.0034865152556449175
0.0033474883530288935,0.007097300142049789,-0.00916812103241682,0.0016544151585549116,-0.0,0.0037296470254659653
0.0034177901688963175,0.007120601832866669,-0.008874496445059776,0.0016341737937182188,-0.0,0.0038549285382032394
0.0036468380130827427,0.007743343245238066,-0.009186667390167713,0.0016155318589881063,-0.0,0.00388721632771194
0.0036692307330667973,0.00740266777575016,-0.009378226473927498,0.0016809902153909206,-0.0,0.003532256931066513
0.0035524326376616955,0.006931586656719446,-0.009430292062461376,0.0015974105335772038,-0.0,0.0035200887359678745
0.0036018933169543743,0.007286525797098875,-0.00906344410032034,0.0018294714391231537,-0.0,0.0036680474877357483
0.0035095657221972942,0.007991083897650242,-0.009144047275185585,0.001948073972016573,-0.0,0.003740173764526844
0.003576800459995866,0.0075081717222929,-0.00937812589108944,0.0021595200523734093,-0.0,0.0034638643264770508
0.0038129633758217096,0.006838653236627579,-0.00927691999822855,0.00213312404230237,-0.0,0.0033275720197707415
0.0040211486630141735,0.007607095409184694,-0.00949394702911377,0.0017381797078996897,-0.0,0.0037601571530103683
0.004339883103966713,0.0073264664970338345,-0.00968233309686184,0.0016288480255752802,-0.0,0.003926021046936512
0.0041071390733122826,0.007007276173681021,-0.009244123473763466,0.0015439889393746853,-0.0,0.004337653052061796
0.003981171641498804,0.0069848657585680485,-0.009650448337197304,0.0015652814181521535,-0.0,0.004129279870539904
0.004355113487690687,0.007368755992501974,-0.009292704984545708,0.0017038141377270222,-0.0,0.0038467184640467167
0.004301068838685751,0.007274103816598654,-0.008924625813961029,0.0016751590883359313,-0.0,0.003350683953613043
0.004498074762523174,0.007245372515171766,-0.009218588471412659,0.0017682393081486225,-0.0,0.003217716934159398
0.004636242985725403,0.007297116331756115,-0.008966418914496899,0.0016696188831701875,-0.0,0.0032432894222438335
0.004517800640314817,0.007508410140872002,-0.00856734998524189,0.0015896894037723541,-0.0,0.0037675993517041206
0.003764086402952671,0.007433426100760698,-0.009525873698294163,0.0016082137590274215,-0.0,0.003991692792624235
0.003938159439712763,0.0074441139586269855,-0.009317881427705288,0.0016215249197557569,-0.0,0.003945596050471067
0.003988103475421667,0.007100740447640419,-0.009148769080638885,0.0016841280739754438,-0.0,0.004294921178370714
0.004393786657601595,0.0076066479086875916,-0.010419963859021664,0.001725376583635807,-0.0,0.004203998018056154
0.004211714491248131,0.007589329965412617,-0.009018497541546822,0.002051021670922637,-0.0,0.003987037111073732
0.004332573153078556,0.0067908503115177155,-0.009113078005611897,0.001987920142710209,-0.0,0.003927661571651697
0.004238172899931669,0.006838248576968908,-0.009302221238613129,0.0022304856684058905,-0.0,0.003938200883567333
0.004436973482370377,0.007014378439635038,-0.009784778580069542,0.002093231538310647,-0.0,0.004219605587422848
0.004386289976537228,0.007184577640146017,-0.009035798721015453,0.0020516689401119947,-0.0,0.0045975586399436
0.00433932663872838,0.0070579275488853455,-0.009566466324031353,0.0019195250933989882,-0.0,0.004795027896761894
0.0043694814667105675,0.007091013714671135,-0.009496436454355717,0.0020291798282414675,-0.0,0.004820743575692177
0.0043694814667105675,0.007091013714671135,-0.009496436454355717,0.0020291798282414675,-0.0,0.004820743575692177
0.004533209837973118,0.0071325539611279964,-0.009102892130613327,0.0020994520746171474,-0.0,0.004094503354281187
0.004675128031522036,0.007651075255125761,-0.008710899390280247,0.002061019651591778,-0.0,0.0034468702506273985
0.004552904982119799,0.007384131662547588,-0.009425724856555462,0.002140652621164918,-0.0,0.003307703649625182
0.00489678792655468,0.007121440954506397,-0.009270216338336468,0.0018793371273204684,-0.0,0.0038006524555385113
0.004851714242249727,0.006961541716009378,-0.009139223955571651,0.0014330695848912,-0.0,0.003998792264610529
0.004899969324469566,0.007312758360058069,-0.00886022299528122,0.001459617167711258,-0.0,0.0039958832785487175
0.004854824393987656,0.007303454447537661,-0.009715242311358452,0.0020682290196418762,-0.0,0.004562457092106342
0.005060751456767321,0.007542508188635111,-0.009802098385989666,0.0026813324075192213,-0.0,0.004171110223978758
0.005060751456767321,0.007542508188635111,-0.009802098385989666,0.0026813324075192213,-0.0,0.004171110223978758
0.005195454228669405,0.006796194706112146,-0.008725273422896862,0.002304818481206894,-0.0,0.004141124896705151
0.004909012466669083,0.006602928042411804,-0.009553538635373116,0.0020644650794565678,-0.0,0.004434439353644848
0.004741691518574953,0.0069114104844629765,-0.009103752672672272,0.0019767729099839926,-0.0,0.004923603497445583
0.005126076750457287,0.007577876560389996,-0.00895331148058176,0.0019252757774665952,-0.0,0.005124955903738737
0.00503831822425127,0.007056491915136576,-0.009670627303421497,0.0019110154826194048,-0.0,0.004851912148296833
0.004965951666235924,0.006516072899103165,-0.009497303515672684,0.0019785373006016016,-0.0,0.004457343369722366
0.005711094010621309,0.0069118388928473,-0.008728984743356705,0.002059393562376499,-0.0,0.004038719926029444
0.005357083864510059,0.007296936120837927,-0.009058788418769836,0.002308543771505356,-0.0,0.004195444285869598
0.004864105023443699,0.006726174149662256,-0.00977785512804985,0.002139099407941103,-0.0,0.004595295991748571
0.005277496296912432,0.006723023951053619,-0.009104607626795769,0.0020836065523326397,-0.0,0.004864050541073084
0.005258891731500626,0.006768421735614538,-0.009453765116631985,0.001958864275366068,-0.0,0.005016820039600134
0.004824325442314148,0.00640491908416152,-0.009469601325690746,0.002016572281718254,-0.0,0.004843978676944971
0.005424113944172859,0.007093826774507761,-0.008799434639513493,0.0022636468056589365,-0.0,0.004686539527028799
0.005180042702704668,0.006657785270363092,-0.008850088343024254,0.0023899523075670004,-0.0,0.00452112453058362
0.005329245235770941,0.006703125312924385,-0.009398650377988815,0.0025625990238040686,-0.0,0.0044496613554656506
0.005580336321145296,0.006279770750552416,-0.008720533922314644,0.0022183586843311787,-0.0,0.0048036822117865086
0.00539404759183526,0.006566925439983606,-0.009558212012052536,0.002075709868222475,-0.0,0.005068964324891567
0.00539404759183526,0.006566925439983606,-0.009558212012052536,0.002075709868222475,-0.0,0.005068964324891567
0.0052168783731758595,0.006499113515019417,-0.009263481013476849,0.0019473506836220622,-0.0,0.004979749675840139
0.005337034352123737,0.0062199668027460575,-0.008893091231584549,0.002109072869643569,-0.0,0.004774254281073809
0.005551661364734173,0.006139594130218029,-0.008719475008547306,0.0024782761465758085,-0.0,0.00462766969576478
0.005257702898234129,0.006212267559021711,-0.009452651254832745,0.0024606797378510237,-0.0,0.004505121614784002
0.005494659300893545,0.006654833909124136,-0.00936484057456255,0.0026011313311755657,-0.0,0.004616770427674055
0.00566030154004693,0.006598681677132845,-0.00961069855839014,0.002765244571492076,-0.0,0.004991067573428154
0.005755881313234568,0.006360006984323263,-0.009013280272483826,0.002495712600648403,-0.0,0.0047445278614759445
0.005988983903080225,0.006415332667529583,-0.008547616191208363,0.002292841440066695,-0.0,0.00502009829506278
0.005911418702453375,0.006248412188142538,-0.009079434908926487,0.002167509403079748,-0.0,0.004968919791281223
0.006048946641385555,0.006117253098636866,-0.009290450252592564,0.00224432279355824,-0.0,0.00549332145601511
0.005603911820799112,0.006468649487942457,-0.009001368656754494,0.0024156824219971895,-0.0,0.005477406550198793
0.005941019859164953,0.0060674347914755344,-0.008907242678105831,0.00244924402795732,-0.0,0.004867716692388058
0.006308273412287235,0.006342850159853697,-0.009491880424320698,0.002921145409345627,-0.0,0.004757390823215246
0.005760909523814917,0.006745946127921343,-0.008945455774664879,0.002768211532384157,-0.0,0.005304800346493721
0.005884564947336912,0.005958413239568472,-0.008701646700501442,0.002586859045550227,-0.0,0.005719094071537256
0.0058499290607869625,0.006431883666664362,-0.009129958227276802,0.002418449381366372,-0.0,0.005262603983283043
0.006039186380803585,0.006220442242920399,-0.009170765988528728,0.002449812600389123,-0.0,0.0052196732722222805
0.005836778320372105,0.0065275984816253185,-0.009106224402785301,0.0024372038897126913,-0.0,0.00515859154984355
0.0061379303224384785,0.006539949681609869,-0.00940640177577734,0.002749261911958456,-0.0,0.005192718934267759
0.00640803761780262,0.0067971451207995415,-0.009152743965387344,0.0028792100492864847,-0.0,0.005488848779350519
0.006009393371641636,0.0068922326900064945,-0.008704039268195629,0.0028920031618326902,-0.0,0.0052065495401620865
0.005852163303643465,0.006418764125555754,-0.0098346546292305,0.0027061658911406994,-0.0,0.005635486915707588
0.005537273827940226,0.006633047480136156,-0.009081628173589706,0.002702884841710329,-0.0,0.0057214004918932915
0.005816435907036066,0.006679900921881199,-0.00860237330198288,0.00258454168215394,-0.0,0.0054218401201069355
0.006431886460632086,0.006530053447932005,-0.008684261702001095,0.0023800446651875973,-0.0,0.005399562418460846
0.005887881387025118,0.006095727905631065,-0.00939162913709879,0.0024583712220191956,-0.0,0.005475538782775402
0.005887881387025118,0.006095727905631065,-0.00939162913709879,0.0024583712220191956,-0.0,0.005475538782775402
0.005915495567023754,0.006466302555054426,-0.008955858647823334,0.002677417593076825,-0.0,0.00553071079775691
0.006301241926848888,0.006773920264095068,-0.008276953361928463,0.0027686513494700193,-0.0,0.005966498050838709
0.0062229749746620655,0.005962682887911797,-0.009043448604643345,0.002861031796783209,-0.0,0.00546452309936285
0.006239048205316067,0.005984851624816656,-0.009048471227288246,0.0026137016247957945,-0.0,0.005461227614432573
0.006253315135836601,0.00653474498540163,-0.009090389125049114,0.0026118557434529066,-0.0,0.005418996326625347
0.006035541649907827,0.00671881390735507,-0.009035146795213223,0.0027600438334047794,-0.0,0.005649690516293049
0.0068448688834905624,0.006122783292084932,-0.008658070117235184,0.003059603739529848,-0.0,0.0061921728774905205
0.006822486873716116,0.006333623081445694,-0.008781425654888153,0.003033748595044017,-0.0,0.0057515306398272514
0.00642014667391777,0.006226563826203346,-0.009467783384025097,0.002876513870432973,-0.0,0.005744857247918844
0.006078462116420269,0.006512963678687811,-0.009328551590442657,0.002900325693190098,-0.0,0.005860933102667332
0.006842982489615679,0.00659689586609602,-0.008886734023690224,0.0028584233950823545,-0.0,0.005533152259886265
0.006932835094630718,0.006121489685028791,-0.009216055274009705,0.002635193057358265,-0.0,0.005798993166536093
0.0067508709616959095,0.006119078490883112,-0.008929004892706871,0.0027609423268586397,-0.0,0.0057241893373429775
0.006572709418833256,0.006737668998539448,-0.009113742969930172,0.002999901073053479,-0.0,0.005961855873465538
0.00659101502969861,0.007012585643678904,-0.009706652723252773,0.0031023987103253603,-0.0,0.006408887915313244
0.00703100860118866,0.006051655393093824,-0.009494198486208916,0.003117628861218691,-0.0,0.0063970196060836315
0.006796159315854311,0.005967358127236366,-0.008934620767831802,0.002897568279877305,-0.0,0.006178162060678005
0.006479654461145401,0.006256801076233387,-0.010271310806274414,0.0029173470102250576,-0.0,0.0055412715300917625
0.00613640109077096,0.007220461964607239,-0.009432466700673103,0.0030737805645912886,-0.0,0.005819517653435469
0.006868163123726845,0.006475090514868498,-0.009342256002128124,0.00318124913610518,-0.0,0.005660955794155598
0.0070203873328864574,0.006177893374115229,-0.00987250730395317,0.003286068793386221,-0.0,0.006133433431386948
0.0067590451799333096,0.006051978096365929,-0.009378128685057163,0.003146131057292223,-0.0,0.006636308040469885
0.006489892024546862,0.0064951227977871895,-0.008949929848313332,0.0029351338744163513,-0.0,0.006251041311770678
0.006496737711131573,0.006717309355735779,-0.009553804993629456,0.0030905776657164097,-0.0,0.0063492306508123875
0.0072096362709999084,0.006144373677670956,-0.009418738074600697,0.0032856755424290895,-0.0,0.006292881444096565
0.0075906068086624146,0.005824190564453602,-0.009248925372958183,0.0035379864275455475,-0.0,0.006668637506663799
0.006798779591917992,0.006142987869679928,-0.00988829042762518,0.003655904671177268,-0.0,0.006433876231312752
0.007054717279970646,0.006946995854377747,-0.009901639074087143,0.0037442357279360294,-0.0,0.006353117525577545
0.007054717279970646,0.006946995854377747,-0.009901639074087143,0.0037442357279360294,-0.0,0.006353117525577545
0.007200347259640694,0.0070595513097941875,-0.009321829304099083,0.003456921549513936,-0.0,0.006339446175843477
0.0072773718275129795,0.006393372546881437,-0.009988445788621902,0.00345642794854939,-0.0,0.006374289281666279
0.007069611456245184,0.006294652819633484,-0.009864485822618008,0.0032386151142418385,-0.0,0.0066118123941123486
0.007340099662542343,0.006313800811767578,-0.009392774663865566,0.003364524571225047,-0.0,0.006636869627982378
0.007902956567704678,0.006575111765414476,-0.010081137530505657,0.0036032753996551037,-0.0,0.006757026072591543
0.00793310534209013,0.006531668361276388,-0.009781849570572376,0.0033071348443627357,-0.0,0.006541058421134949
0.006904935464262962,0.005976127460598946,-0.010175452567636967,0.0032714628614485264,-0.0,0.0068480391055345535
0.007014235481619835,0.006014296784996986,-0.010443809442222118,0.0032615121454000473,-0.0,0.006800782401114702
0.0072446162812411785,0.006675564218312502,-0.009640420787036419,0.0033833745401352644,-0.0,0.006700301077216864
0.007294292561709881,0.0065728588961064816,-0.010028370656073093,0.003409204538911581,-0.0,0.00659391563385725
0.006819276139140129,0.006208781618624926,-0.010255342349410057,0.0033930439967662096,-0.0,0.006598812527954578
0.007187137380242348,0.0061171031557023525,-0.010330049321055412,0.0035905414260923862,-0.0,0.006953640840947628
0.0074487533420324326,0.006396653596311808,-0.011403857730329037,0.0032683603931218386,-0.0,0.007247437257319689
0.007630369625985622,0.0064843702130019665,-0.010238377377390862,0.003326757811009884,-0.0,0.00688848365098238
0.007392335683107376,0.005989097058773041,-0.009850346483290195,0.0033283664379268885,-0.0,0.0069794789887964725
0.0076040467247366905,0.006106381304562092,-0.01071226131170988,0.0038412243593484163,-0.0,0.007117928471416235
0.0076172854751348495,0.005609463434666395,-0.009896782226860523,0.003943476360291243,-0.0,0.0069569931365549564
0.008165237493813038,0.006498026195913553,-0.009469996206462383,0.003838572185486555,-0.0,0.00710673863068223
0.007773742079734802,0.006303484085947275,-0.010708353482186794,0.0037658580113202333,-0.0,0.007647795137017965
0.00825353991240263,0.005987789947539568,-0.010138198733329773,0.003752663265913725,-0.0,0.007164939772337675
0.007790003903210163,0.005904966499656439,-0.010116681456565857,0.0037785263266414404,-0.0,0.0069223204627633095
0.007686404976993799,0.005762369837611914,-0.010228990577161312,0.0037430846132338047,-0.0,0.006713469512760639
0.007661852985620499,0.006265586707741022,-0.010536749847233295,0.0037118976470083,-0.0,0.006752034183591604
0.008120592683553696,0.0069527579471468925,-0.010140758007764816,0.003829582128673792,-0.0,0.007109821308404207
0.008120592683553696,0.0069527579471468925,-0.010140758007764816,0.003829582128673792,-0.0,0.007109821308404207
0.008204898796975613,0.006215776316821575,-0.008969978429377079,0.003849298693239689,-0.0,0.007352412212640047
0.007960978895425797,0.006494557484984398,-0.010879343375563622,0.00367439491674304,-0.0,0.007609265856444836
0.007960978895425797,0.006494557484984398,-0.010879343375563622,0.00367439491674304,-0.0,0.007609265856444836
0.00832389947026968,0.006891501601785421,-0.010224191471934319,0.0034960401244461536,-0.0,0.00715935742482543
0.008682282641530037,0.006494444329291582,-0.010199833661317825,0.0038616876117885113,-0.0,0.00711859529837966
0.00828435830771923,0.00626524118706584,-0.010327428579330444,0.004101299215108156,-0.0,0.0075251637026667595
0.008184736594557762,0.00595215056091547,-0.00938466191291809,0.004130029585212469,-0.0,0.008111859671771526
0.00854943972080946,0.006286651827394962,-0.009926834143698215,0.003999166656285524,-0.0,0.007292337249964476
0.008599071763455868,0.006219415459781885,-0.01016143150627613,0.0035497734788805246,-0.0,0.007164164446294308
0.008225002326071262,0.00591749232262373,-0.00952722504734993,0.0035165236331522465,-0.0,0.007499811705201864
0.008543597534298897,0.006220684386789799,-0.010428329929709435,0.0036657133605331182,-0.0,0.0086590014398098
0.007959794253110886,0.006413087248802185,-0.010017618536949158,0.004201298579573631,-0.0,0.008468742482364178
0.00872246827930212,0.0063236309215426445,-0.009789477102458477,0.0045533450320363045,-0.0,0.007194621954113245
0.008599904365837574,0.006313620135188103,-0.010649840347468853,0.00423200661316514,-0.0,0.007265670690685511
0.008802700787782669,0.006630782503634691,-0.010041776113212109,0.003993717022240162,-0.0,0.008102050982415676
0.008623223751783371,0.006212362088263035,-0.010465368628501892,0.00435669207945466,-0.0,0.00799466297030449
0.008682262152433395,0.00624650064855814,-0.011228177696466446,0.004347767680883408,-0.0,0.007715112064033747
0.009545896202325821,0.00648231478407979,-0.010229225270450115,0.004261573310941458,-0.0,0.008065804839134216
0.008701465092599392,0.006525311153382063,-0.010019862093031406,0.004047849215567112,-0.0,0.008243243210017681
0.009186744689941406,0.006036412436515093,-0.010497882962226868,0.004304773174226284,-0.0,0.007728884927928448
0.009007674641907215,0.006287146359682083,-0.009927480481564999,0.004113147035241127,-0.0,0.008004609495401382
0.008638606406748295,0.0067169638350605965,-0.011002364568412304,0.004394595045596361,-0.0,0.00830965954810381
0.008904382586479187,0.006592136342078447,-0.010320483706891537,0.004632602911442518,-0.0,0.008182043209671974
0.008564521558582783,0.006239568814635277,-0.009411627426743507,0.004629956092685461,-0.0,0.008084654808044434
0.008739933371543884,0.006552128586918116,-0.009987123310565948,0.004363051149994135,-0.0,0.00780881755053997
0.008892232552170753,0.006608458235859871,-0.010723278857767582,0.004351215902715921,-0.0,0.008120648562908173
0.009484555572271347,0.007137053180485964,-0.009895465336740017,0.0041683875024318695,-0.0,0.008278594352304935
0.009224305860698223,0.006460417527705431,-0.010395589284598827,0.004445085301995277,-0.0,0.008199179545044899
0.009224305860698223,0.006460417527705431,-0.010395589284598827,0.004445085301995277,-0.0,0.008199179545044899
0.00908548291772604,0.006358377635478973,-0.010132627561688423,0.004282190464437008,-0.0,0.00833977572619915
0.00908548291772604,0.006358377635478973,-0.010132627561688423,0.004282190464437008,-0.0,0.00833977572619915
0.009030568413436413,0.007127793040126562,-0.010396742261946201,0.004355916287750006,-0.0,0.008206748403608799
0.008879725821316242,0.0063952053897082806,-0.01065088715404272,0.004954103846102953,-0.0,0.008131072856485844
0.009670850820839405,0.006498762406408787,-0.010563540272414684,0.004593371879309416,-0.0,0.00837048888206482
0.009382626041769981,0.006568103097379208,-0.010215173475444317,0.004390896763652563,-0.0,0.008548491634428501
0.009796731173992157,0.006707210559397936,-0.01038152165710926,0.004475411027669907,-0.0,0.00885004922747612
0.009559613652527332,0.006378285586833954,-0.01085486076772213,0.004205323755741119,-0.0,0.008945157751441002
0.009280813857913017,0.006301522254943848,-0.010212114080786705,0.0044116005301475525,-0.0,0.008721121586859226
0.009745880961418152,0.007110273465514183,-0.01074688509106636,0.004569472279399633,-0.0,0.008708217181265354
0.009817687794566154,0.006698921322822571,-0.01059301570057869,0.004812184721231461,-0.0,0.008948217146098614
0.010476970113813877,0.006408976390957832,-0.010861092247068882,0.005202380940318108,-0.0,0.008890441618859768
0.010052860714495182,0.0060789757408201694,-0.011720431037247181,0.004961563739925623,-0.0,0.008868489414453506
0.009881529025733471,0.0063468278385698795,-0.010743471793830395,0.0045951665379107,-0.0,0.008775145746767521
0.01005738228559494,0.006010975688695908,-0.010430623777210712,0.004991530906409025,-0.0,0.008813844062387943
0.01016039215028286,0.0067091467790305614,-0.011082415468990803,0.005342013668268919,-0.0,0.00849717017263174
0.01061040349304676,0.0067938221618533134,-0.010302772745490074,0.005406471900641918,-0.0,0.008574754931032658
0.009944846853613853,0.006191381718963385,-0.010592200793325901,0.005413008853793144,-0.0,0.009007247164845467
0.010237112641334534,0.006433564703911543,-0.011001295410096645,0.005135213956236839,-0.0,0.008884625509381294
0.010350581258535385,0.006456719245761633,-0.010387836024165154,0.005137026775628328,-0.0,0.008964472450315952
0.009739411063492298,0.006273611914366484,-0.010568641126155853,0.004869766999036074,-0.0,0.009154347702860832
0.01049052644520998,0.0060698650777339935,-0.010266545228660107,0.004924393724650145,-0.0,0.008986723609268665
0.010203634388744831,0.00620283605530858,-0.010532462038099766,0.005356678273528814,-0.0,0.009217744693160057
0.010432958602905273,0.005778373684734106,-0.010978562757372856,0.005150173790752888,-0.0,0.009511522948741913
0.010443832725286484,0.0064244079403579235,-0.010918721556663513,0.004911414347589016,-0.0,0.009396867826581001
0.01013738103210926,0.006732148118317127,-0.010998737998306751,0.004706225357949734,-0.0,0.009134333580732346
0.010893999598920345,0.0057977247051894665,-0.011076204478740692,0.004992699716240168,-0.0,0.009078355506062508
0.010330496355891228,0.005927722435444593,-0.010830427519977093,0.00504291569814086,-0.0,0.009157204069197178
0.00995606929063797,0.005914310924708843,-0.011222299188375473,0.005377630237489939,-0.0,0.00907267164438963
0.00995606929063797,0.005914310924708843,-0.011222299188375473,0.005377630237489939,-0.0,0.00907267164438963
0.010688104666769505,0.006381437182426453,-0.011102190241217613,0.005699078552424908,-0.0,0.009610789828002453
0.010001818649470806,0.005893606226891279,-0.010969267226755619,0.0057441662065684795,-0.0,0.009531185030937195
0.010001818649470806,0.005893606226891279,-0.010969267226755619,0.0057441662065684795,-0.0,0.009531185030937195
0.01053694449365139,0.00574909895658493,-0.010639115236699581,0.005265907384455204,-0.0,0.009893091395497322
0.010565939359366894,0.005867327563464642,-0.010798565112054348,0.005290446802973747,-0.0,0.010336765088140965
0.01060475129634142,0.006195795256644487,-0.01053016260266304,0.005939122289419174,-0.0,0.009402110241353512
0.010409053415060043,0.005783401895314455,-0.010897359810769558,0.005686966702342033,-0.0,0.009096747264266014
0.010322852060198784,0.006052026525139809,-0.010525038465857506,0.005750165320932865,-0.0,0.009823060594499111
0.010701037012040615,0.005626128986477852,-0.010911872610449791,0.005591119639575481,-0.0,0.009321538731455803
0.010231772437691689,0.005968277808278799,-0.011404266580939293,0.005945801734924316,-0.0,0.009937502443790436
0.01062712911516428,0.00590537441894412,-0.01085930410772562,0.00614604726433754,-0.0,0.008998447097837925
0.01097668707370758,0.005751410964876413,-0.010840276256203651,0.0059435805305838585,-0.0,0.009408429265022278
0.010290744714438915,0.005498530808836222,-0.011142515577375889,0.006225723307579756,-0.0,0.010609314776957035
0.01045303512364626,0.005705840885639191,-0.01068822667002678,0.006016197614371777,-0.0,0.010484910570085049
0.010734531097114086,0.0065574366599321365,-0.011150776408612728,0.006367875263094902,-0.0,0.010126272216439247
0.009853743016719818,0.006788476835936308,-0.01132031250745058,0.0063570584170520306,-0.0,0.00994142796844244
0.010387305170297623,0.0062142121605575085,-0.011083711870014668,0.0056603834964334965,-0.0,0.010244891047477722
0.010437188670039177,0.006097051315009594,-0.011430646292865276,0.005357172340154648,-0.0,0.010039493441581726
0.010862800292670727,0.005841502919793129,-0.011136828921735287,0.0055721476674079895,-0.0,0.009854528121650219
0.011238344945013523,0.005959775298833847,-0.011012718081474304,0.006230842787772417,-0.0,0.009968379512429237
0.010387128219008446,0.006021486595273018,-0.011668408289551735,0.005771700758486986,-0.0,0.010811704210937023
0.01049009244889021,0.005655198357999325,-0.011028192937374115,0.005607379600405693,-0.0,0.010464111343026161
0.010396432131528854,0.006074856501072645,-0.011826320551335812,0.005407916381955147,-0.0,0.010016316547989845
0.010396432131528854,0.006074856501072645,-0.011826320551335812,0.005407916381955147,-0.0,0.010016316547989845
0.01042806264013052,0.00573629280552268,-0.011539312079548836,0.005643659271299839,-0.0,0.010254533030092716
0.010855603963136673,0.005900565534830093,-0.011478081345558167,0.006094571202993393,-0.0,0.010026714764535427
0.010850518941879272,0.006194069050252438,-0.011696765199303627,0.00692190695554018,-0.0,0.010509454645216465
0.010469304397702217,0.005872869864106178,-0.011460989713668823,0.00659151142463088,-0.00039731807191856205,0.010382076725363731
0.011130055412650108,0.005644988268613815,-0.011988596059381962,0.00612497515976429,-0.0004865426162723452,0.010008979588747025
0.013184393756091595,0.006147304549813271,-0.01160161942243576,0.006110738962888718,-0.0004914407036267221,0.010721074417233467
0.013096340931952,0.006050612777471542,-0.012522712349891663,0.006434527225792408,-0.00045795878395438194,0.010553683154284954
0.012706130743026733,0.005823935382068157,-0.011599427089095116,0.005999602377414703,-0.0004837164015043527,0.010581781156361103
0.01291207317262888,0.006076781079173088,-0.012073511257767677,0.00586867518723011,-0.0004567786818370223,0.010952581651508808
0.01306682638823986,0.005897964350879192,-0.011850101873278618,0.005635976791381836,-0.0005665996577590704,0.01110078301280737
0.01371061708778143,0.006358296610414982,-0.012383009307086468,0.005920655559748411,-0.0005224965861998498,0.011331327259540558
0.012996683828532696,0.006532696075737476,-0.012108494527637959,0.0061147804372012615,-0.0005500608822330832,0.010550906881690025
0.013381751254200935,0.006071966607123613,-0.011735989712178707,0.005936948582530022,-0.0005091926432214677,0.010387402959167957
0.01278721448034048,0.006252584513276815,-0.012273520231246948,0.005411496851593256,-0.0004659209225792438,0.010263740085065365
0.01324975024908781,0.006384581793099642,-0.01155349612236023,0.005733870435506105,-0.0004953406169079244,0.010153916664421558
0.013302971608936787,0.006226718425750732,-0.011892898008227348,0.006499394308775663,-0.0004632454947568476,0.010299857705831528
0.013241446577012539,0.006326495204120874,-0.011900955811142921,0.006734069436788559,-0.0004317625716794282,0.010836482979357243
0.013362172059714794,0.006271643098443747,-0.011882668361067772,0.006408157758414745,-0.0004539604706224054,0.011105051264166832
0.013408333994448185,0.005739043466746807,-0.012003655545413494,0.006002501118928194,-0.00043343781726434827,0.011304071173071861
0.01345913577824831,0.005876423325389624,-0.011840476654469967,0.006354216486215591,-0.00041048810817301273,0.01075639110058546
0.01345913577824831,0.005876423325389624,-0.011840476654469967,0.006354216486215591,-0.00041048810817301273,0.01075639110058546
0.013366463594138622,0.0063727968372404575,-0.011761065572500229,0.006578588858246803,-0.00035952008329331875,0.010970354080200195
0.013018891215324402,0.006278679706156254,-0.010576501488685608,0.0063563138246536255,-0.0003948467783629894,0.0110456682741642
0.013571236282587051,0.006042202934622765,-0.01230155024677515,0.006428809370845556,-0.00037170550785958767,0.01102477591484785
0.013169004581868649,0.005985179916024208,-0.011930007487535477,0.007068009581416845,-0.0003762005362659693,0.011275697499513626
0.013169004581868649,0.005985179916024208,-0.011930007487535477,0.007068009581416845,-0.0003762005362659693,0.011275697499513626
0.01372827123850584,0.006682185921818018,-0.012208890169858932,0.0070345220156013966,-0.0003794844669755548,0.011028662323951721
0.013485669158399105,0.005966510623693466,-0.012406970374286175,0.006170022767037153,-0.00035951894824393094,0.010826556012034416
0.01342519000172615,0.005799771752208471,-0.012334302067756653,0.005910469684749842,-0.0003402086440473795,0.011098015122115612
0.013339189812541008,0.005962205585092306,-0.01225933339446783,0.006392139010131359,-0.00036571704549714923,0.011023569852113724
0.013996482826769352,0.005980386398732662,-0.012005395255982876,0.0067132459953427315,-0.00035069967270828784,0.011371225118637085
0.012835788540542126,0.006220527924597263,-0.012769706547260284,0.006450192537158728,-0.00040226441342383623,0.011972439475357533
0.013142590411007404,0.006499784532934427,-0.011419985443353653,0.006473066750913858,-0.00037916534347459674,0.012518991716206074
0.013561137020587921,0.005838263314217329,-0.011629059910774231,0.00683773634955287,-0.00032505171839147806,0.010772607289254665
0.013692062348127365,0.006203722208738327,-0.011897308751940727,0.006640151608735323,-0.00035552142071537673,0.011156171560287476
0.01397817675024271,0.006158703472465277,-0.012739570811390877,0.00632063951343298,-0.00034026248613372445,0.011611985974013805
0.014015435241162777,0.006244415882974863,-0.01201161090284586,0.0065767718479037285,-0.0003465322661213577,0.011521108448505402
0.013528379611670971,0.006372190546244383,-0.012859559617936611,0.00670426432043314,-0.00035122729605063796,0.01192209031432867
0.01394703984260559,0.005904982797801495,-0.011752608232200146,0.007375743240118027,-0.00035745103377848864,0.011982143856585026
0.012927297502756119,0.006332069169729948,-0.012244987301528454,0.00674500921741128,-0.0003611742577049881,0.011535176075994968
0.013829518109560013,0.006137665361166,-0.012281280942261219,0.006400302052497864,-0.0003468583745416254,0.011598803102970123
0.013512502424418926,0.005888739600777626,-0.012240209616720676,0.006243087351322174,-0.0003859713615383953,0.011432291008532047
0.013860522769391537,0.006022398825734854,-0.01253978256136179,0.006948381196707487,-0.0004124073893763125,0.011885876767337322
0.013283404521644115,0.005602982826530933,-0.012065724469721317,0.007120494265109301,-0.000398672535084188,0.012133998796343803
0.013806373812258244,0.0063457973301410675,-0.012686803005635738,0.00678681256249547,-0.0004024005029350519,0.011853819712996483
0.013660863973200321,0.006117784883826971,-0.012374063953757286,0.006504214834421873,-0.00040428253123536706,0.011959281750023365
0.013977323658764362,0.005864400882273912,-0.012556575238704681,0.006821561139076948,-0.00038159979158081114,0.011683613061904907
0.013786655850708485,0.005901731085032225,-0.01254724245518446,0.00743353134021163,-0.00035990923061035573,0.011797775514423847
0.013858410529792309,0.005777055863291025,-0.012228081002831459,0.006486937403678894,-0.00034045998472720385,0.011532614007592201
0.013858410529792309,0.005777055863291025,-0.012228081002831459,0.006486937403678894,-0.00034045998472720385,0.011532614007592201
0.014236737042665482,0.006217780523002148,-0.012746117077767849,0.006459174212068319,-0.00032299800659529865,0.011480082757771015
0.014168872497975826,0.00598578155040741,-0.0119214141741395,0.006827406585216522,-0.00030724023235961795,0.011560244485735893
0.014212056063115597,0.005770168732851744,-0.012663156725466251,0.0074625941924750805,-0.00031339359702542424,0.01171592902392149
0.013883620500564575,0.006090493872761726,-0.012432598508894444,0.007266106549650431,-0.00031852227402850986,0.0119933495298028
0.013809233903884888,0.005642045754939318,-0.012822425924241543,0.006925535853952169,-0.0003062159812543541,0.012035037390887737
0.013698524795472622,0.006348339840769768,-0.01259698811918497,0.006756683345884085,-0.0002937990357168019,0.012167418375611305
0.014094799757003784,0.006204002071171999,-0.011859309859573841,0.007262059487402439,-0.00028228340670466423,0.01217589620500803
0.013938424177467823,0.005876467563211918,-0.012370327487587929,0.008109158836305141,-0.0002765814424492419,0.01221929956227541
0.014231464825570583,0.006051576230674982,-0.011964387260377407,0.007462900597602129,-0.0002653921255841851,0.012478805147111416
0.013958698138594627,0.00638454407453537,-0.012563942931592464,0.006943144835531712,-0.00023768682149238884,0.012158061377704144
0.013722204603254795,0.006602833978831768,-0.012658725492656231,0.006987517233937979,-0.00026485047419555485,0.012070047669112682
0.014293729327619076,0.006177258212119341,-0.012998444028198719,0.006808696314692497,-0.0002575702965259552,0.012289759702980518
0.01378503255546093,0.0061574759893119335,-0.012359737418591976,0.006586360279470682,-0.0002461757103446871,0.01245802454650402
0.014360564760863781,0.006491328123956919,-0.012450261041522026,0.006765306461602449,-0.00023546173179056495,0.012323650531470776
0.013887408189475536,0.006305240094661713,-0.01181415282189846,0.007225848268717527,-0.00025821244344115257,0.012251350097358227
0.014432798139750957,0.006382334511727095,-0.012690290808677673,0.0074524786323308945,-0.00025234054191969335,0.011931623332202435
0.01382534485310316,0.00630857702344656,-0.012175159528851509,0.006952760741114616,-0.00024290260626003146,0.012039395980536938
0.014161697588860989,0.006021610461175442,-0.012509147636592388,0.006560218054801226,-0.00025026508956216276,0.012216737493872643
0.013648306019604206,0.005461432971060276,-0.012631723657250404,0.006855210289359093,-0.0002566332696005702,0.012226395308971405
0.014147364534437656,0.004977462347596884,-0.01243146788328886,0.007287806831300259,-0.0002487649326212704,0.012416159734129906
0.013678253628313541,0.004877097439020872,-0.012821922078728676,0.007343752775341272,-0.00024122482864186168,0.01224356796592474
0.014274807646870613,0.00519489124417305,-0.012211672030389309,0.007187490351498127,-0.00029098294908180833,0.012541783042252064
0.013763892464339733,0.005064796656370163,-0.012838422320783138,0.007383882533758879,-0.00027732463786378503,0.01302146352827549
0.01417880691587925,0.0053175040520727634,-0.012149316258728504,0.008054204285144806,-0.0002614835393615067,0.012088975869119167
0.013925710693001747,0.005632925778627396,-0.013250766322016716,0.007176385726779699,-0.00028357532573863864,0.012177976779639721
0.014276234433054924,0.005693614948540926,-0.012341296300292015,0.006864761468023062,-0.00028027183725498617,0.012465173378586769
0.014276234433054924,0.005693614948540926,-0.012341296300292015,0.006864761468023062,-0.00028027183725498617,0.012465173378586769
0.013812877237796783,0.005630085244774818,-0.012173808179795742,0.007172555197030306,-0.00026714944397099316,0.012869231402873993
0.013946081511676311,0.00503078568726778,-0.012578338384628296,0.007508751004934311,-0.00028592636226676404,0.012995574623346329
0.01414613425731659,0.0054809097200632095,-0.01220959983766079,0.007611630018800497,-0.000282933033304289,0.013250119984149933
0.01449810154736042,0.005306985229253769,-0.012408715672791004,0.007140045054256916,-0.0002903466229327023,0.013081260025501251
0.014008255675435066,0.0049269250594079494,-0.012142861261963844,0.007413424085825682,-0.00029609710327349603,0.013623785227537155
0.014674580655992031,0.005235861986875534,-0.013225838541984558,0.007556168362498283,-0.00028551105060614645,0.013560998253524303
0.014716639183461666,0.0050300597213208675,-0.012977040372788906,0.007296942174434662,-0.00036230505793355405,0.013914292678236961
0.014970196411013603,0.00531110679730773,-0.013110085390508175,0.006863108836114407,-0.00034751658677123487,0.013502839021384716
0.014410125091671944,0.0055377851240336895,-0.012985154055058956,0.007282334845513105,-0.00038352992851287127,0.013010356575250626
0.014545060694217682,0.004820212721824646,-0.013308875262737274,0.0072045219130814075,-0.000393845810322091,0.013039246201515198
0.014531871303915977,0.00527381943538785,-0.012439095415174961,0.007292795926332474,-0.00041153666097670794,0.013322154060006142
0.014127595350146294,0.004872895777225494,-0.013521195389330387,0.007723360788077116,-0.0004009877739008516,0.013287761248648167
0.015023795887827873,0.004986234940588474,-0.013238813728094101,0.00782983098179102,-0.0004800204769708216,0.013427315279841423
0.01452559418976307,0.005355871748179197,-0.013559853658080101,0.007981774397194386,-0.0005181712913326919,0.01343247015029192
0.014726999215781689,0.005144457798451185,-0.013265409506857395,0.007680071052163839,-0.0005510605406016111,0.013362379744648933
0.01454703975468874,0.005328174214810133,-0.013894054107367992,0.008094651624560356,-0.000551386852748692,0.013124735094606876
0.014726483263075352,0.005216421093791723,-0.01337504293769598,0.008775868453085423,-0.0005418318905867636,0.013577423058450222
0.0140208275988698,0.004941241350024939,-0.012896397151052952,0.008071915246546268,-0.0005358576308935881,0.013245755806565285
0.014963088557124138,0.005214081145823002,-0.01314239576458931,0.008046542294323444,-0.0005283014033921063,0.01361839845776558
0.014690390788018703,0.005147032905369997,-0.013018067926168442,0.008320389315485954,-0.0004941084771417081,0.01364323403686285
0.015623199753463268,0.005002960097044706,-0.013636695221066475,0.008379434235394001,-0.0005232611438259482,0.013798113912343979
0.015070943161845207,0.005186904687434435,-0.013745622709393501,0.00786082074046135,-0.0004884356749244034,0.013613351620733738
0.01500663161277771,0.005407931283116341,-0.013926888816058636,0.008301363326609135,-0.0005064939614385366,0.013608437031507492
0.014874448999762535,0.0055681816302239895,-0.012924613431096077,0.00865711085498333,-0.0004813222913071513,0.013614734634757042
0.015515018254518509,0.005187449045479298,-0.013686574064195156,0.00838929321616888,-0.0004431041015777737,0.01315898634493351
0.014758754521608353,0.005004144739359617,-0.01305298786610365,0.008403998799622059,-0.00040955477743409574,0.013282815925776958
0.014758754521608353,0.005004144739359617,-0.01305298786610365,0.008403998799622059,-0.00040955477743409574,0.013282815925776958
0.015024492517113686,0.005202576518058777,-0.013495618477463722,0.00850093923509121,-0.0004354573611635715,0.013614190742373466
0.015152497217059135,0.005544114392250776,-0.013172280974686146,0.008183827623724937,-0.0004142849356867373,0.014001657254993916
0.01529982965439558,0.0055014509707689285,-0.013762500137090683,0.00766395591199398,-0.0003891690284945071,0.013868829235434532
0.015767473727464676,0.005270772613584995,-0.013536034151911736,0.00755813904106617,-0.0003920460003428161,0.014305338263511658
0.0136821698397398,0.0055284020490944386,-0.014090035110712051,0.007561979815363884,-0.0003941180184483528,0.013997814618051052
0.016660258173942566,0.005559002514928579,-0.014088021591305733,0.008010213263332844,-0.00037512005656026304,0.01486197579652071
0.016403235495090485,0.005747300572693348,-0.013928594999015331,0.008300649002194405,-0.00035872479202225804,0.013578521087765694
0.016397200524806976,0.0054688542149960995,-0.013590376824140549,0.008331671357154846,-0.00031229472369886935,0.01387106440961361
0.01642540656030178,0.005489639937877655,-0.013586213812232018,0.008161582984030247,-0.00029203001759015024,0.01431973371654749
0.016573872417211533,0.00549274729564786,-0.013422230258584023,0.008096996694803238,-0.00031461523030884564,0.014387679286301136
0.01668415404856205,0.005655463319271803,-0.013615017756819725,0.008364522829651833,-0.0003092172846663743,0.01488939393311739
0.017026793211698532,0.006133874878287315,-0.013437643647193909,0.008675457909703255,-0.00029324612114578485,0.014801395125687122
0.016760822385549545,0.005464449990540743,-0.013983831740915775,0.00844981987029314,-0.00030080575379543006,0.014804203063249588
0.017044270411133766,0.005645499564707279,-0.012977657839655876,0.008724262937903404,-0.00030710099963471293,0.014465151354670525
0.017074868083000183,0.005460246466100216,-0.013654299080371857,0.009005006402730942,-0.00029413087759166956,0.014948866330087185
0.01726207137107849,0.005937734618782997,-0.013205799274146557,0.008795902132987976,-0.0002810927398968488,0.014678959734737873
0.017283456400036812,0.005992537830024958,-0.01394262071698904,0.008461871184408665,-0.00026909069856628776,0.014562162570655346
0.0170168224722147,0.005723223090171814,-0.013232152909040451,0.008939912542700768,-0.0002924218133557588,0.014541052281856537
0.017460376024246216,0.0053995223715901375,-0.013722110539674759,0.008713788352906704,-0.0002831603051163256,0.01509190071374178
0.016943959519267082,0.005685032811015844,-0.01333787851035595,0.008353338576853275,-0.0002725855156313628,0.014682356268167496
0.01745247095823288,0.005654752254486084,-0.013988780789077282,0.009531847201287746,-0.0002946369058918208,0.014506060630083084
0.017574971541762352,0.005811838898807764,-0.013542776927351952,0.009211399592459202,-0.0002812776365317404,0.014622131362557411
0.01720448024570942,0.006104865111410618,-0.01338975876569748,0.008513747714459896,-0.0002650364185683429,0.01500586699694395
0.017347196117043495,0.005340273026376963,-0.013358221389353275,0.008742501959204674,-0.00029362327768467367,0.014937386848032475
0.017347196117043495,0.005340273026376963,-0.013358221389353275,0.008742501959204674,-0.00029362327768467367,0.014937386848032475
0.017308032140135765,0.005254955496639013,-0.013355995528399944,0.009171981364488602,-0.00028409904916770756,0.015015744604170322
0.0172339528799057,0.005631717853248119,-0.013537989929318428,0.009108555503189564,-0.00029224841273389757,0.01490242313593626
0.017758917063474655,0.006025718525052071,-0.013229957781732082,0.008506880141794682,-0.0002987970656249672,0.01493729930371046
0.017455164343118668,0.006182150449603796,-0.01360309962183237,0.009123262949287891,-0.00028653969638980925,0.014729602262377739
0.018093174323439598,0.005747176706790924,-0.013292684219777584,0.008978443220257759,-0.0002933017967734486,0.014642145484685898
0.01779869571328163,0.005395028740167618,-0.01391969807446003,0.008805178105831146,-0.0002989496279042214,0.015202024951577187
0.01787583902478218,0.005705665331333876,-0.01324150338768959,0.009180986322462559,-0.00035030944854952395,0.015015849843621254
0.01795545034110546,0.005791633389890194,-0.013852034695446491,0.009238098748028278,-0.00037985516246408224,0.015633074566721916
0.017597399652004242,0.0058768740855157375,-0.013353785499930382,0.009058562107384205,-0.00035384923103265464,0.015513049438595772
0.01820177584886551,0.005893091205507517,-0.0141069944947958,0.009175531566143036,-0.000360118254320696,0.01577470824122429
0.01834559626877308,0.005254082381725311,-0.013732296414673328,0.009118279442191124,-0.00036493680090643466,0.015330633148550987
0.018312469124794006,0.0057093980722129345,-0.013707165606319904,0.009216373786330223,-0.00032316663418896496,0.014708217233419418
0.01795259490609169,0.0065277349203825,-0.01406093779951334,0.009313368238508701,-0.00034888251684606075,0.016668524593114853
0.017886437475681305,0.005817434750497341,-0.01353069581091404,0.009102976880967617,-0.00033627075026743114,0.015308331698179245
0.018441062420606613,0.005372881423681974,-0.014026814140379429,0.009435237385332584,-0.0003195995232090354,0.015500984154641628
0.017972689121961594,0.005557000171393156,-0.013705489225685596,0.00935158971697092,-0.0003418199485167861,0.015546121634542942
0.01824842020869255,0.005972063168883324,-0.01370912604033947,0.009672596119344234,-0.00033124934998340905,0.015344461426138878
0.018356740474700928,0.006517770234495401,-0.013568656519055367,0.009949348866939545,-0.0003418816486373544,0.015489700250327587
0.01879369653761387,0.006191333290189505,-0.013733754865825176,0.010006280615925789,-0.0003405811730772257,0.01599443145096302
0.019024239853024483,0.006075319834053516,-0.013596114702522755,0.009740930050611496,-0.00031810387736186385,0.015831587836146355
0.019381508231163025,0.005513888783752918,-0.013259862549602985,0.010352320969104767,-0.00029718823498114944,0.016446225345134735
0.01848887838423252,0.005952821113169193,-0.013407968915998936,0.010044494643807411,-0.00027877461980096996,0.016330942511558533
0.018240075558423996,0.006041540764272213,-0.013492809608578682,0.009124070405960083,-0.00026250467635691166,0.01559637300670147
0.018548032268881798,0.005957374349236488,-0.014371803030371666,0.008976115845143795,-0.00024802962434478104,0.015638859942555428
0.01865214854478836,0.005887166131287813,-0.013624786399304867,0.009220720268785954,-0.00025799934519454837,0.015506019815802574
0.019248073920607567,0.005881790537387133,-0.014028744772076607,0.009074613451957703,-0.00026650153449736536,0.01539907231926918
0.01912863738834858,0.0061308941803872585,-0.013421252369880676,0.009201566688716412,-0.0002552896039560437,0.015750383958220482
0.018657345324754715,0.006375174503773451,-0.014524711295962334,0.010260938666760921,-0.00024384894641116261,0.016189688816666603
0.019473498687148094,0.0061297728680074215,-0.014184314757585526,0.009534026496112347,-0.0002670111134648323,0.016468869522213936
0.019473498687148094,0.0061297728680074215,-0.014184314757585526,0.009534026496112347,-0.0002670111134648323,0.016468869522213936
0.01933726854622364,0.00619910005480051,-0.014604865573346615,0.009489861316978931,-0.00026058833464048803,0.01681440696120262
0.01900387555360794,0.005720043089240789,-0.013762544840574265,0.009844973683357239,-0.0002505261218175292,0.01682775281369686
0.01960509456694126,0.005931940395385027,-0.014476114884018898,0.00953796599060297,-0.00024096206470858306,0.01646493934094906
0.01946656033396721,0.006315162871032953,-0.012442654930055141,0.009339253418147564,-0.00026083519333042204,0.016472218558192253
0.018732430413365364,0.00621831463649869,-0.015195478685200214,0.009147611446678638,-0.0002555269165895879,0.01614266261458397
0.0190864447504282,0.0053888713009655476,-0.014660606160759926,0.009855803102254868,-0.0002470177423674613,0.0165791604667902
0.019131500273942947,0.004998540971428156,-0.014722973108291626,0.009331634268164635,-0.00023883931862656027,0.016984330490231514
0.019466301426291466,0.005647268611937761,-0.0143971499055624,0.009601649828255177,-0.00023423301172442734,0.016878992319107056
0.01950627751648426,0.006029666867107153,-0.014677366241812706,0.009646653197705746,-0.0002128982450813055,0.016245216131210327
0.01938282884657383,0.005348194856196642,-0.014859973452985287,0.010008092038333416,-0.00023850263096392155,0.016669223085045815
0.019910193979740143,0.005313755478709936,-0.014409013092517853,0.010389151982963085,-0.00023303829948417842,0.016611620783805847
0.01984558440744877,0.005073577631264925,-0.014720026403665543,0.009643245488405228,-0.00025601446395739913,0.016459843143820763
0.019472070038318634,0.005135211627930403,-0.014453096315264702,0.009596492163836956,-0.00025029704556800425,0.016335289925336838
0.02001435123383999,0.00562594598159194,-0.014859708957374096,0.010141972452402115,-0.0002578686980996281,0.016537968069314957
0.02030150219798088,0.005209974944591522,-0.014811060391366482,0.00907131191343069,-0.0002641648461576551,0.017780663445591927
0.020023100078105927,0.0044804345816373825,-0.015234113670885563,0.009752037934958935,-0.00025580840883776546,0.016166098415851593
0.019711731001734734,0.005021368619054556,-0.014578285627067089,0.009659958072006702,-0.00039599620504304767,0.016362925991415977
0.02025352045893669,0.004960047081112862,-0.014564492739737034,0.009069696068763733,-0.00038396238232962787,0.01686476729810238
0.02002778835594654,0.005131849553436041,-0.014796006493270397,0.00941512268036604,-0.0004072085430379957,0.01703566312789917
0.020191548392176628,0.0055315252393484116,-0.014973017387092113,0.009297826327383518,-0.00039377203211188316,0.017110008746385574
0.020599862560629845,0.005148729309439659,-0.015045668929815292,0.009278791025280952,-0.00036798897781409323,0.016832632943987846
0.0204399973154068,0.004886766895651817,-0.015456216409802437,0.00985307153314352,-0.0003942009643651545,0.016816623508930206
0.020363420248031616,0.005096505396068096,-0.01520795188844204,0.010404102504253387,-0.0003773646894842386,0.016731349751353264
0.020336762070655823,0.004951494745910168,-0.015039226971566677,0.01024166215211153,-0.00040050476673059165,0.016873739659786224
0.020726779475808144,0.004750169347971678,-0.015478990972042084,0.010780534707009792,-0.00038513194886036217,0.0170382522046566
0.020726779475808144,0.004750169347971678,-0.015478990972042084,0.010780534707009792,-0.00038513194886036217,0.0170382522046566
0.02041539177298546,0.005075905472040176,-0.014475359581410885,0.010522378608584404,-0.00036763327079825103,0.01707722432911396
0.020453153178095818,0.004942591302096844,-0.015137504786252975,0.010611136443912983,-0.00042094060336239636,0.017203455790877342
0.020714590325951576,0.004752791952341795,-0.014683039858937263,0.010457545518875122,-0.000427926832344383,0.016936684027314186
0.020616374909877777,0.005166308488696814,-0.015152763575315475,0.010487827472388744,-0.0004286124894861132,0.017472567036747932
0.02052754908800125,0.005095325410366058,-0.014737993478775024,0.01038856990635395,-0.0003991823468822986,0.017640499398112297
0.0208758357912302,0.004866822622716427,-0.015403537079691887,0.010643336921930313,-0.00042945329914800823,0.017212361097335815
0.021050432696938515,0.005177851766347885,-0.014863952994346619,0.010685401037335396,-0.0004055629251524806,0.01767551153898239
0.02069086767733097,0.004980491939932108,-0.015372911468148232,0.010878713801503181,-0.0004319359140936285,0.017668412998318672
0.020701367408037186,0.005296234041452408,-0.014375400729477406,0.010758324526250362,-0.0004825378127861768,0.01736515201628208
0.02106153592467308,0.005563309881836176,-0.014954888261854649,0.009970184415578842,-0.0004992386093363166,0.01722659170627594
0.020518817007541656,0.005079197231680155,-0.0145009970292449,0.010625425726175308,-0.0005198354483582079,0.017144307494163513
0.020744841545820236,0.005479285027831793,-0.015213724225759506,0.009573062881827354,-0.0005257460870780051,0.017700983211398125
0.021750926971435547,0.0051429662853479385,-0.01517611462622881,0.009991548955440521,-0.00048749177949503064,0.01772150583565235
0.021351179108023643,0.0051244874484837055,-0.014791136607527733,0.010350063443183899,-0.000512713857460767,0.017794394865632057
0.020973311737179756,0.005067779216915369,-0.015285584144294262,0.009886275976896286,-0.0005928436294198036,0.017664335668087006
0.020600056275725365,0.004509506747126579,-0.015367485582828522,0.009363661520183086,-0.0006395335076376796,0.017871791496872902
0.020828329026699066,0.004473170265555382,-0.015233752317726612,0.010916143655776978,-0.0006441727746278048,0.0178369153290987
0.02202742174267769,0.004923035390675068,-0.015481089241802692,0.010419528931379318,-0.0006249532452784479,0.017820723354816437
0.021195603534579277,0.004991783760488033,-0.01516518834978342,0.01019883994013071,-0.0006414827657863498,0.017909733578562737
0.020767811685800552,0.004611096810549498,-0.015475265681743622,0.0102500906214118,-0.0007582537946291268,0.01936480402946472
0.021287349984049797,0.004838805180042982,-0.015177160501480103,0.010009032674133778,-0.0008184382459148765,0.017649026587605476
0.02112959884107113,0.004835689440369606,-0.01564929448068142,0.010335653088986874,-0.0008161634323187172,0.017274456098675728
0.02121179923415184,0.00485669169574976,-0.01500378642231226,0.009855774231255054,-0.0008253267733380198,0.01757769100368023
0.021671097725629807,0.004734296817332506,-0.015661701560020447,0.010487386956810951,-0.0007634066860191524,0.018048282712697983
0.021708417683839798,0.004820592701435089,-0.015001240186393261,0.010958218015730381,-0.0008268982055597007,0.01838715746998787
0.020607344806194305,0.004689292050898075,-0.015437421388924122,0.010228308849036694,-0.0008425528067164123,0.01859435625374317
0.02094503492116928,0.004402695223689079,-0.015348779037594795,0.010203571990132332,-0.0007443611975759268,0.018674688413739204
0.02094503492116928,0.004402695223689079,-0.015348779037594795,0.010203571990132332,-0.0007443611975759268,0.018674688413739204
0.02161605842411518,0.004573809448629618,-0.015580604784190655,0.010354301892220974,-0.0006550500402227044,0.018390661105513573
0.022030886262655258,0.004859308246523142,-0.015553787350654602,0.010669880546629429,-0.0006144029321148992,0.018078094348311424
0.022030886262655258,0.004859308246523142,-0.015553787350654602,0.010669880546629429,-0.0006144029321148992,0.018078094348311424
0.02177993394434452,0.004839617758989334,-0.015842292457818985,0.010757869109511375,-0.0006187161197885871,0.017819926142692566
0.021769750863313675,0.004662823397666216,-0.015472027473151684,0.011228436604142189,-0.0005483772838488221,0.018823986873030663
0.021769750863313675,0.004662823397666216,-0.015472027473151684,0.011228436604142189,-0.0005483772838488221,0.018823986873030663
0.021673008799552917,0.004889662843197584,-0.015325922518968582,0.010928868316113949,-0.00047306029591709375,0.018657827749848366
0.02194850705564022,0.00486067496240139,-0.016273189336061478,0.011282307095825672,-0.0004681024292949587,0.018549708649516106
0.022274678573012352,0.004739763215184212,-0.01584498956799507,0.01075658481568098,-0.00046491887769661844,0.018441034480929375
0.0221889466047287,0.004956311080604792,-0.015080522745847702,0.011183037422597408,-0.0004638482059817761,0.019068513065576553
0.021908368915319443,0.004711706656962633,-0.016104528680443764,0.011676517315208912,-0.00043302751146256924,0.018860094249248505
0.02188950963318348,0.0046376511454582214,-0.015634682029485703,0.01133766584098339,-0.0004052282019983977,0.01859636791050434
0.0224884245544672,0.00529808085411787,-0.01584728993475437,0.011559149250388145,-0.00042776187183335423,0.01864399015903473
0.02252008393406868,0.005214205011725426,-0.015851041302084923,0.010735947638750076,-0.0004098333592992276,0.01809130236506462
0.02211165241897106,0.004959131591022015,-0.015902703627943993,0.010861055925488472,-0.0003881510638166219,0.018187876790761948
0.022047564387321472,0.00528717041015625,-0.016296058893203735,0.011748936958611012,-0.00036831683246418834,0.01833963394165039
0.02268187515437603,0.0050597479566931725,-0.016325898468494415,0.0113786356523633,-0.00035038840724155307,0.018282264471054077
0.022665729746222496,0.0047964416444301605,-0.01671396568417549,0.011775121092796326,-0.00034387680352665484,0.019131114706397057
0.022253159433603287,0.005323321558535099,-0.016536829993128777,0.011509512551128864,-0.00030024320585653186,0.018773797899484634
0.022253159433603287,0.005323321558535099,-0.016536829993128777,0.011509512551128864,-0.00030024320585653186,0.018773797899484634
0.02257537841796875,0.0051577407866716385,-0.01644505374133587,0.011972825974225998,-0.00033012498170137405,0.018944714218378067
0.022961651906371117,0.005336976144462824,-0.016742628067731857,0.01140100508928299,-0.00031736682285554707,0.019095055758953094
0.022613845765590668,0.00520364660769701,-0.016882209107279778,0.011318013072013855,-0.00030015400261618197,0.018987631425261497
0.022366560995578766,0.00482805073261261,-0.016795314848423004,0.011235627345740795,-0.00032849956187419593,0.02048725262284279
0.022787008434534073,0.004870498552918434,-0.01711582951247692,0.011261047795414925,-0.0003481745661702007,0.019274091348052025
0.022787008434534073,0.004870498552918434,-0.01711582951247692,0.011261047795414925,-0.0003481745661702007,0.019274091348052025
0.02305840700864792,0.005307637620717287,-0.01661982387304306,0.011145254597067833,-0.0003281203971710056,0.019039489328861237
0.02282029017806053,0.005219415295869112,-0.017020074650645256,0.011368702165782452,-0.0004146516730543226,0.01897878758609295
0.02282029017806053,0.005219415295869112,-0.017020074650645256,0.011368702165782452,-0.0004146516730543226,0.01897878758609295
0.022922510281205177,0.0050592138431966305,-0.016816221177577972,0.011788311414420605,-0.00042409877642057836,0.01899489015340805
0.023143893107771873,0.004984678700566292,-0.017660129815340042,0.011901386082172394,-0.00042520891292952,0.019340872764587402
0.023335564881563187,0.005364458076655865,-0.016709377989172935,0.011965963989496231,-0.000444793637143448,0.019431928172707558
0.022750401869416237,0.005225448403507471,-0.016794387251138687,0.011502332054078579,-0.00042968877824023366,0.019091779366135597
0.0234446432441473,0.005326608195900917,-0.01633560284972191,0.012159869074821472,-0.0004031738208141178,0.019119419157505035
0.02357052080333233,0.005148001946508884,-0.016991091892123222,0.01120668277144432,-0.00040959130274131894,0.019720260053873062
0.02374332584440708,0.005263847298920155,-0.016610784456133842,0.012028769589960575,-0.0004988136934116483,0.019954940304160118
0.02410135604441166,0.005056007299572229,-0.017104366794228554,0.011375476606190205,-0.0005238663288764656,0.019834274426102638
0.0232253260910511,0.005395254120230675,-0.016631469130516052,0.011617586016654968,-0.000496795226354152,0.019443420693278313
0.02323870174586773,0.005253573879599571,-0.016822054982185364,0.011998088099062443,-0.0005217366269789636,0.019481759518384933
0.023724352940917015,0.004938333295285702,-0.017099421471357346,0.011595746502280235,-0.0004901294596493244,0.01950760930776596
0.023955775424838066,0.005235996562987566,-0.016855673864483833,0.012389522045850754,-0.0004868271353188902,0.01930137351155281
0.02358604222536087,0.005116570275276899,-0.017092781141400337,0.011489398777484894,-0.0004830792313441634,0.02016756311058998
0.024107132107019424,0.005232949275523424,-0.016309157013893127,0.011546955443918705,-0.00045488058822229505,0.02059883624315262
0.02462255395948887,0.005537262186408043,-0.017134161666035652,0.011678764596581459,-0.0005000224336981773,0.020287910476326942
0.024562004953622818,0.005574045702815056,-0.016917290166020393,0.011651610024273396,-0.0005341148353181779,0.020026760175824165
0.02361277863383293,0.005128402728587389,-0.016960352659225464,0.01244532223790884,-0.0004960675723850727,0.019374899566173553
0.023904860019683838,0.0050004213117063046,-0.017230316996574402,0.01207232940942049,-0.0005105583113618195,0.019555138424038887
0.024118097499012947,0.005683632101863623,-0.01661410555243492,0.012802409939467907,-0.00048823418910615146,0.019892064854502678
0.023997703567147255,0.005374636966735125,-0.017085617408156395,0.012665248475968838,-0.0005018332158215344,0.020508896559476852
0.02423758991062641,0.0061035556718707085,-0.016975311562418938,0.012608664110302925,-0.00048306031385436654,0.020691728219389915
0.024964960291981697,0.0054858350194990635,-0.017020555213093758,0.012659386731684208,-0.0005589626380242407,0.01982938125729561
0.02453925833106041,0.005008812062442303,-0.017058080062270164,0.012401054613292217,-0.0006007816991768777,0.020089823752641678
0.02453925833106041,0.005008812062442303,-0.017058080062270164,0.012401054613292217,-0.0006007816991768777,0.020089823752641678
0.02434166520833969,0.0051584504544734955,-0.016955381259322166,0.0125895906239748,-0.0005523496074602008,0.020473375916481018
0.024425845593214035,0.005419991910457611,-0.017410319298505783,0.012264992110431194,-0.0005794419557787478,0.02107006497681141
0.025048337876796722,0.005505446344614029,-0.017294108867645264,0.012773998081684113,-0.0006012543453834951,0.02053053490817547
0.025193702429533005,0.005541972815990448,-0.017373377457261086,0.012351949699223042,-0.0007307921187020838,0.020035000517964363
0.02441316470503807,0.00542500801384449,-0.01746234856545925,0.012622094713151455,-0.0007440046756528318,0.019947756081819534
0.02492554672062397,0.0050349668599665165,-0.016918718814849854,0.012582318857312202,-0.0007072744774632156,0.02052505873143673
0.02460736781358719,0.005457297433167696,-0.016980664804577827,0.012793337926268578,-0.000737444672267884,0.02074497938156128
0.02492665685713291,0.005387476179748774,-0.017561202868819237,0.01235378347337246,-0.0007470697164535522,0.021092867478728294
0.024927517399191856,0.005280582699924707,-0.01755102165043354,0.012493173591792583,-0.0007020457996986806,0.02140031009912491
0.02515815757215023,0.00490964250639081,-0.01705360971391201,0.012006053701043129,-0.0006694783223792911,0.02123069018125534
0.025125619024038315,0.0046353088691830635,-0.017309457063674927,0.012465825304389,-0.0006416935939341784,0.020918961614370346
0.023244718089699745,0.0049751028418540955,-0.016821714118123055,0.01253350917249918,-0.0006591228302568197,0.020538320764899254
0.02579214796423912,0.004897680599242449,-0.017236249521374702,0.012258517555892467,-0.0006069723167456686,0.020915810018777847
0.02556156925857067,0.004906667862087488,-0.017493093386292458,0.012582066468894482,-0.0006224935641512275,0.021187664940953255
0.02545175887644291,0.005392372142523527,-0.016971273347735405,0.012427419424057007,-0.0006061913445591927,0.02142203226685524
0.024966232478618622,0.004581744316965342,-0.017307797446846962,0.01297664176672697,-0.0005578436539508402,0.021253151819109917
0.02545064501464367,0.00449345912784338,-0.016946079209446907,0.01232798770070076,-0.0005833490286022425,0.021422671154141426
0.02542143128812313,0.004456019029021263,-0.017293399199843407,0.01290216762572527,-0.000580138002987951,0.021596502512693405
0.02606750652194023,0.004835071973502636,-0.01746418885886669,0.012908680364489555,-0.0005675411666743457,0.0217264574021101
0.02681705355644226,0.004815177526324987,-0.017267141491174698,0.013055175542831421,-0.0005924130091443658,0.02156016416847706
0.02643425203859806,0.00478936405852437,-0.017752330750226974,0.013440755195915699,-0.0006747079314664006,0.021566955372691154
0.02604881301522255,0.004402074962854385,-0.017209332436323166,0.013340843841433525,-0.0006255462649278343,0.021818188950419426
0.02604881301522255,0.004402074962854385,-0.017209332436323166,0.013340843841433525,-0.0006255462649278343,0.021818188950419426
0.025025643408298492,0.004343878477811813,-0.017468541860580444,0.013620161451399326,-0.0005516514065675437,0.022245138883590698
0.025964349508285522,0.004168774001300335,-0.017545124515891075,0.013323807157576084,-0.0005631984677165747,0.021887745708227158
0.0264451801776886,0.004373552743345499,-0.017478235065937042,0.013745538890361786,-0.0005298898322507739,0.021987497806549072
0.025905108079314232,0.004483603872358799,-0.018496781587600708,0.013611453585326672,-0.00048381061060354114,0.022413983941078186
0.02642052248120308,0.004814173094928265,-0.019091134890913963,0.013755043037235737,-0.0004983629914931953,0.022373341023921967
0.026959437876939774,0.0052786474116146564,-0.017813963815569878,0.01345937792211771,-0.000477406574646011,0.022068344056606293
0.027172308415174484,0.004863868933171034,-0.018097547814249992,0.013889414258301258,-0.0004914999008178711,0.022294899448752403
0.027221933007240295,0.0044102719984948635,-0.018209198489785194,0.013838686980307102,-0.00047402907512150705,0.022502556443214417
0.026426376774907112,0.004490835592150688,-0.018281416967511177,0.013260290957987309,-0.0004003708891104907,0.022723592817783356
0.027304306626319885,0.005021313671022654,-0.017643824219703674,0.013689005747437477,-0.00043108410318382084,0.022043081000447273
0.027828235179185867,0.00533398287370801,-0.018752599135041237,0.013754176907241344,-0.0004071957082487643,0.02246214635670185
0.027395149692893028,0.004593320190906525,-0.018758397549390793,0.014290512539446354,-0.0004098287899978459,0.022905439138412476
0.027625417336821556,0.004386034328490496,-0.017865881323814392,0.01374009344726801,-0.00041122426046058536,0.02323669008910656
0.027246933430433273,0.004571673460304737,-0.018423430621623993,0.013842379674315453,-0.00038774654967710376,0.02325187623500824
0.027368957176804543,0.004788866266608238,-0.01845632679760456,0.0135016655549407,-0.000403830548748374,0.022916218265891075
0.02732992358505726,0.004735851660370827,-0.01889769546687603,0.013856809586286545,-0.0003937794826924801,0.02300119400024414
0.025825966149568558,0.005259220488369465,-0.01886630803346634,0.014107916504144669,-0.0003741008404176682,0.023358125239610672
0.028085926547646523,0.0054620192386209965,-0.01799876056611538,0.014330520294606686,-0.00039975810796022415,0.023169878870248795
0.027685604989528656,0.004619192332029343,-0.018186911940574646,0.014365614391863346,-0.0003817895194515586,0.023057833313941956
0.02794245444238186,0.004352207761257887,-0.018473107367753983,0.014088278636336327,-0.00035287372884340584,0.02371620386838913
0.028000477701425552,0.004194261506199837,-0.0178384967148304,0.013793191872537136,-0.0003881043812725693,0.02309401147067547
0.02766166627407074,0.004802795127034187,-0.018786948174238205,0.01350882276892662,-0.0003954088024329394,0.022712547332048416
0.02774977497756481,0.004972065798938274,-0.01909838244318962,0.013709009625017643,-0.00042567343916743994,0.02332778088748455
0.02797101065516472,0.004755720030516386,-0.0184163898229599,0.013604318723082542,-0.0004277466214261949,0.023788684979081154
0.028318369761109352,0.004466200713068247,-0.018921205773949623,0.014329482801258564,-0.0005851032328791916,0.0236518457531929
0.028353476896882057,0.004379007034003735,-0.01898171380162239,0.014312474988400936,-0.0006356742233037949,0.022680873051285744
0.028435654938220978,0.004610258154571056,-0.018773362040519714,0.014459248632192612,-0.0006282490212470293,0.02280588634312153
0.028722403571009636,0.0046287220902740955,-0.0193107221275568,0.014131908304989338,-0.0006101882900111377,0.02391393668949604
0.028722403571009636,0.0046287220902740955,-0.0193107221275568,0.014131908304989338,-0.0006101882900111377,0.02391393668949604
0.028439857065677643,0.004445645026862621,-0.019018955528736115,0.014476665295660496,-0.0006329657626338303,0.024648068472743034
0.028321167454123497,0.00507579930126667,-0.018344342708587646,0.01387834083288908,-0.0007371930405497551,0.023607023060321808
0.02900228649377823,0.004809973295778036,-0.018830325454473495,0.014115432277321815,-0.0007447337848134339,0.023603608831763268
0.029104512184858322,0.004587911069393158,-0.0193108469247818,0.013751533813774586,-0.0007075758185237646,0.02512221969664097
0.0292977225035429,0.004331011790782213,-0.018874702975153923,0.013915755786001682,-0.0006290009478107095,0.024947676807641983
0.02885274589061737,0.004327879752963781,-0.019003169611096382,0.013578294776380062,-0.0006505759083665907,0.023820048198103905
0.02923623099923134,0.00442825723439455,-0.01879146322607994,0.014164889231324196,-0.0005947909667156637,0.02324177883565426
0.02936188504099846,0.004837374202907085,-0.01935945823788643,0.014414094388484955,-0.0005903690471313894,0.024491021409630775
0.02955283224582672,0.004512290004640818,-0.018957173451781273,0.013584235683083534,-0.0005420960369519889,0.02480069175362587
0.030001873150467873,0.004425460938364267,-0.0188179612159729,0.014305198565125465,-0.0005750084528699517,0.02453949861228466
0.030631711706519127,0.004496817942708731,-0.019299102947115898,0.014056923799216747,-0.0005890681059099734,0.024407561868429184
0.030030958354473114,0.0043591102585196495,-0.01903625763952732,0.014245358295738697,-0.0005956031964160502,0.024379225447773933
0.02831204980611801,0.004574190825223923,-0.01885501854121685,0.013574576936662197,-0.000716129841748625,0.024526601657271385
0.03025791421532631,0.005070800427347422,-0.019356921315193176,0.014020504429936409,-0.0008366566034965217,0.024549327790737152
0.030793987214565277,0.004868139047175646,-0.018968932330608368,0.01375747099518776,-0.0008200900047086179,0.024380367249250412
0.029841234907507896,0.004606672562658787,-0.019092796370387077,0.014232835732400417,-0.0007751283119432628,0.024852266535162926
0.03076295182108879,0.004460342228412628,-0.019429881125688553,0.013993505388498306,-0.0007785100024193525,0.024556919932365417
0.03168053552508354,0.0046803588047623634,-0.018782371655106544,0.014294425956904888,-0.0007212989148683846,0.02424195222556591
0.03130233660340309,0.004228600766509771,-0.01895233988761902,0.013930573128163815,-0.0008046880248002708,0.024854300543665886
0.02959451638162136,0.004473159089684486,-0.019334634765982628,0.014583462849259377,-0.0007612067856825888,0.02483663521707058
0.03003222681581974,0.004719980526715517,-0.018888194113969803,0.014552928507328033,-0.0007669965270906687,0.024827759712934494
0.03156520426273346,0.004728423897176981,-0.019119061529636383,0.015086120925843716,-0.0006954785203561187,0.02497968263924122
0.031335555016994476,0.004914514720439911,-0.0201879795640707,0.0149781359359622,-0.0006701495731249452,0.02493499033153057
0.030988480895757675,0.004835453350096941,-0.019817734137177467,0.01536644995212555,-0.0006486813072115183,0.02476440742611885
0.030891338363289833,0.004561414942145348,-0.01956814154982567,0.014669436030089855,-0.0006172317080199718,0.025322888046503067
0.030856015160679817,0.00504577299579978,-0.01947670429944992,0.01549313124269247,-0.0005629998631775379,0.025524450466036797
0.030964842066168785,0.005051750224083662,-0.01914910040795803,0.014472532086074352,-0.0005878438823856413,0.02511693723499775
0.030964842066168785,0.005051750224083662,-0.01914910040795803,0.014472532086074352,-0.0005878438823856413,0.02511693723499775
0.03080960363149643,0.004798985552042723,-0.01978345960378647,0.014733904972672462,-0.0005406881682574749,0.024569567292928696
0.030724884942173958,0.004698130767792463,-0.02035686932504177,0.014140395447611809,-0.0004921279614791274,0.024419933557510376
0.03127041831612587,0.00513329915702343,-0.02018013596534729,0.015067527070641518,-0.0005158393760211766,0.02509109117090702
0.03150128945708275,0.004984060302376747,-0.019053682684898376,0.015557829290628433,-0.0004849294782616198,0.025483958423137665
0.031769074499607086,0.004586146678775549,-0.020032787695527077,0.015366967767477036,-0.0005063978023827076,0.02549828588962555
0.03146444261074066,0.005040010437369347,-0.020700082182884216,0.01633310876786709,-0.0004802279581781477,0.02492511458694935
0.031946852803230286,0.004878962878137827,-0.020060457289218903,0.01615135557949543,-0.00046981769264675677,0.024481117725372314
0.03159809112548828,0.004683817736804485,-0.01985529437661171,0.015835462138056755,-0.0004434130387380719,0.02469909004867077
0.03061995841562748,0.004651056602597237,-0.02085311897099018,0.015428207814693451,-0.000464100856333971,0.0259128138422966
0.03239590674638748,0.004913166165351868,-0.01895516738295555,0.01525668241083622,-0.00046200715587474406,0.02550135925412178
0.03318409249186516,0.004605080001056194,-0.019787725061178207,0.015594149939715862,-0.00047601907863281667,0.025825561955571175
0.03192538022994995,0.004968924913555384,-0.020742127671837807,0.014874851331114769,-0.0004740511649288237,0.025871526449918747
0.03178371116518974,0.004784177523106337,-0.020242083817720413,0.015252110548317432,-0.0005989382043480873,0.02594776824116707
0.03265133127570152,0.004297249484807253,-0.019843704998493195,0.015137645415961742,-0.0006026432965882123,0.02488137222826481
0.03272920474410057,0.004424355924129486,-0.02004232071340084,0.01560908742249012,-0.0005858311196789145,0.025088338181376457
0.0324120931327343,0.004209909588098526,-0.019590646028518677,0.01553818304091692,-0.0005313223809935153,0.026064254343509674
0.0334683395922184,0.00433856388553977,-0.020064396783709526,0.015704920515418053,-0.0005429303855635226,0.026674969121813774
0.03315318748354912,0.004580026958137751,-0.02025294490158558,0.015670353546738625,-0.0005166433402337134,0.02651171199977398
0.03230380639433861,0.004594903904944658,-0.019732888787984848,0.015609358437359333,-0.0005421126261353493,0.026145270094275475
0.03205157816410065,0.004336108453571796,-0.019609330222010612,0.01582050696015358,-0.0005080628907307982,0.026186306029558182
0.033219918608665466,0.004498467780649662,-0.020048456266522408,0.01560004148632288,-0.0005080773844383657,0.026253946125507355
0.03336998075246811,0.004397370852530003,-0.019810723140835762,0.015942158177495003,-0.0004680437850765884,0.02645394764840603
0.03336998075246811,0.004397370852530003,-0.019810723140835762,0.015942158177495003,-0.0004680437850765884,0.02645394764840603
0.03315442427992821,0.004514453001320362,-0.02003144472837448,0.015649069100618362,-0.00046417798148468137,0.025749145075678825
0.03264036402106285,0.004674868192523718,-0.01977522298693657,0.015305975452065468,-0.0004949456779286265,0.02610044926404953
0.03319130837917328,0.004352961666882038,-0.019689109176397324,0.01569623500108719,-0.00046296435175463557,0.02623008005321026
0.033592551946640015,0.004034101497381926,-0.020349618047475815,0.0156365018337965,-0.000488850346300751,0.026550373062491417
0.033442288637161255,0.004394428804516792,-0.02026490867137909,0.016287563368678093,-0.0004626162990462035,0.026587439700961113
0.03327571600675583,0.004456647671759129,-0.019324490800499916,0.016394710168242455,-0.0005224989145062864,0.027145419269800186
0.03327571600675583,0.004456647671759129,-0.019324490800499916,0.016394710168242455,-0.0005224989145062864,0.027145419269800186
0.033259835094213486,0.004212973173707724,-0.020123528316617012,0.016330957412719727,-0.0005204995395615697,0.02640574239194393
0.03421218693256378,0.004403606057167053,-0.020517978817224503,0.016904786229133606,-0.0005126262549310923,0.02605324611067772
0.032822273671627045,0.004656102973967791,-0.02000628598034382,0.016463344916701317,-0.0005281413323245943,0.026731250807642937
0.03443348407745361,0.004695785231888294,-0.019947031512856483,0.016427187249064445,-0.0005038446979597211,0.027041221037507057
0.03449324890971184,0.00427153380587697,-0.02030370570719242,0.016009634360671043,-0.0005296994931995869,0.02730737067759037
0.03358075022697449,0.004638860933482647,-0.019857704639434814,0.016746653243899345,-0.0005651354440487921,0.02703678235411644
0.033812858164310455,0.004626438952982426,-0.019964536651968956,0.016313888132572174,-0.000597108737565577,0.02700228802859783
0.034497324377298355,0.004304899368435144,-0.019838159903883934,0.01693577691912651,-0.0005487768794409931,0.027120321989059448
0.034522827714681625,0.004461798816919327,-0.01981876790523529,0.016390172764658928,-0.0005759993800893426,0.027166467159986496
0.03481591120362282,0.004081365652382374,-0.020103178918361664,0.016568636521697044,-0.0005979864508844912,0.02712651528418064
0.03481774032115936,0.003837413154542446,-0.020028334110975266,0.016014710068702698,-0.000562642642762512,0.02724463865160942
0.03493146970868111,0.00410135742276907,-0.019451407715678215,0.016371915116906166,-0.0006377067766152322,0.027445167303085327
0.035160165280103683,0.004552261438220739,-0.020229101181030273,0.016635937616229057,-0.0006648368434980512,0.02739427611231804
0.03425762429833412,0.004183712415397167,-0.02060297690331936,0.016814058646559715,-0.0006777523085474968,0.02696548029780388
0.03431033715605736,0.004461664240807295,-0.01983543671667576,0.017170049250125885,-0.0006993256392888725,0.026978416368365288
0.03446242958307266,0.004656858742237091,-0.02023371122777462,0.016733625903725624,-0.0008439383236691356,0.02772851474583149
0.035501398146152496,0.00429146084934473,-0.020450687035918236,0.0164597537368536,-0.0008412619354203343,0.028072606772184372
0.03628525510430336,0.003987429663538933,-0.020266477018594742,0.016133135184645653,-0.0007864950457587838,0.028301019221544266
0.034302812069654465,0.00406314292922616,-0.019972367212176323,0.016451383009552956,-0.0007451946148648858,0.02689257450401783
0.033962130546569824,0.004121151752769947,-0.0200229249894619,0.016460541635751724,-0.0007102088420651853,0.026631638407707214
0.03532196208834648,0.004434887785464525,-0.020685594528913498,0.016906823962926865,-0.0007260246784426272,0.027503836899995804
0.035201095044612885,0.0041807605884969234,-0.020890872925519943,0.01660182513296604,-0.0007018132018856704,0.02776281349360943
0.03648734465241432,0.004453448578715324,-0.021249469369649887,0.01609174534678459,-0.0006214356399141252,0.027662232518196106
0.035261522978544235,0.004597900900989771,-0.020802954211831093,0.016755910590291023,-0.0006264600087888539,0.029082516208291054
0.03455665707588196,0.004288671538233757,-0.020172223448753357,0.016011174768209457,-0.0006299418746493757,0.028622416779398918
0.034505221992731094,0.004153163637965918,-0.020012421533465385,0.016358980908989906,-0.0006546844379045069,0.027241183444857597
0.03560345247387886,0.004053438547998667,-0.02054741606116295,0.016430025920271873,-0.0006377805257216096,0.027502186596393585
0.03560345247387886,0.004053438547998667,-0.02054741606116295,0.016430025920271873,-0.0006377805257216096,0.027502186596393585
0.035947900265455246,0.0038786607328802347,-0.02123953029513359,0.016811372712254524,-0.0006783157587051392,0.028222372755408287
0.03499680384993553,0.003856942756101489,-0.021221894770860672,0.01770276390016079,-0.0006912450771778822,0.028945857658982277
0.03611668571829796,0.004362026229500771,-0.020969675853848457,0.017756463959813118,-0.0006883625173941255,0.028702814131975174
0.03636228293180466,0.004582590889185667,-0.02158619649708271,0.018315335735678673,-0.0007327991188503802,0.02821320854127407
0.03588750213384628,0.004166727419942617,-0.02123068831861019,0.0183875635266304,-0.0006872886442579329,0.02846262790262699
0.03532862290740013,0.004016548860818148,-0.02123224548995495,0.018014386296272278,-0.0007339647272601724,0.028340358287096024
0.03606608882546425,0.00398683175444603,-0.02130213752388954,0.0179616529494524,-0.0006967445951886475,0.0282247606664896
0.03655781224370003,0.004339123610407114,-0.020943915471434593,0.017700763419270515,-0.0007091705338098109,0.028388280421495438
0.03625907003879547,0.004201050847768784,-0.02142172120511532,0.017872871831059456,-0.0007281328435055912,0.028780829161405563
0.03609153628349304,0.003990869037806988,-0.020757364109158516,0.017468295991420746,-0.0007653149077668786,0.028735794126987457
0.036227546632289886,0.004096790682524443,-0.02201906032860279,0.01780685782432556,-0.0007855808362364769,0.0290247593075037
0.03747643530368805,0.003978406079113483,-0.021845757961273193,0.01841069757938385,-0.0007141031674109399,0.02908993698656559
0.03680060803890228,0.003758674720302224,-0.021021924912929535,0.018086012452840805,-0.0007300835568457842,0.028923239558935165
0.035219110548496246,0.0037281305994838476,-0.021367233246564865,0.018692199140787125,-0.0007411365513689816,0.029020866379141808
0.03696513921022415,0.0038407156243920326,-0.02184898592531681,0.018640058115124702,-0.0007550303125753999,0.02950342558324337
0.03680885583162308,0.004247641656547785,-0.021279549226164818,0.01757834106683731,-0.0007794253178872168,0.02932305447757244
0.03676735237240791,0.004428856540471315,-0.02129792422056198,0.01723114587366581,-0.0007962554809637368,0.02960595116019249
0.03777962550520897,0.0042499881237745285,-0.021603910252451897,0.017063919454813004,-0.0008089111652225256,0.029469124972820282
0.03792181611061096,0.003991703502833843,-0.021605130285024643,0.01773369498550892,-0.0009155290899798274,0.02943655475974083
0.035758472979068756,0.0038765789940953255,-0.02114054560661316,0.017977721989154816,-0.0010089402785524726,0.029247600585222244
0.03706854581832886,0.004322587046772242,-0.021319255232810974,0.017641782760620117,-0.0009604220394976437,0.02954968996345997
0.03833179175853729,0.004117847885936499,-0.021495098248124123,0.018108706921339035,-0.0008891074103303254,0.030900534242391586
0.037188127636909485,0.0041385735385119915,-0.02200699970126152,0.01791493222117424,-0.0008861706010065973,0.030587922781705856
0.037531450390815735,0.004593394231051207,-0.02182476408779621,0.017782090231776237,-0.0008714742143638432,0.029112858697772026
0.037531450390815735,0.004593394231051207,-0.02182476408779621,0.017782090231776237,-0.0008714742143638432,0.029112858697772026
0.037685226649045944,0.0042714811861515045,-0.021716482937335968,0.018010325729846954,-0.0008821851806715131,0.028681589290499687
0.03771600127220154,0.004353092052042484,-0.021798891946673393,0.018099207431077957,-0.0008595132385380566,0.02962157130241394
0.03786448761820793,0.004262323956936598,-0.021568166092038155,0.01891767419874668,-0.0008350055431947112,0.029558811336755753
0.03804276883602142,0.004477925132960081,-0.02102268859744072,0.019381865859031677,-0.000792527396697551,0.029945682734251022
0.038093507289886475,0.0042334976606070995,-0.021312803030014038,0.018946342170238495,-0.0007904015365056694,0.03132135421037674
0.03803982958197594,0.0039068907499313354,-0.0213378444314003,0.018550755456089973,-0.0007503050146624446,0.0305433738976717
0.038324661552906036,0.003811929374933243,-0.0215438362210989,0.01832142286002636,-0.0007096675108186901,0.029809271916747093
0.038143135607242584,0.0040561240166425705,-0.021526530385017395,0.018004639074206352,-0.0007278473931364715,0.029125865548849106
0.03820003196597099,0.003947354853153229,-0.02165169268846512,0.018565397709608078,-0.0007455477607436478,0.030100373551249504
0.038349393755197525,0.0037769563496112823,-0.021817464381456375,0.01894894614815712,-0.0007306847837753594,0.031520068645477295
0.03717920929193497,0.004266733303666115,-0.022128470242023468,0.01881810463964939,-0.0007356270216405392,0.03089999221265316
0.03895296901464462,0.004218929912894964,-0.021151835098862648,0.019016092643141747,-0.0006998034077696502,0.030411984771490097
0.03865700587630272,0.004242436494678259,-0.021780934184789658,0.018284505233168602,-0.0007375027053058147,0.03035077452659607
0.03856411948800087,0.004318030085414648,-0.023013180121779442,0.01873841881752014,-0.0008033550693653524,0.03051753342151642
0.03928736597299576,0.004396520555019379,-0.022026395425200462,0.018540337681770325,-0.0007917777984403074,0.030779263004660606
0.03895707055926323,0.004261522088199854,-0.021823378279805183,0.018613215535879135,-0.0007455876329913735,0.030842524021863937
0.038941387087106705,0.004052569158375263,-0.02176702581346035,0.018801288679242134,-0.0007385713397525251,0.03081805631518364
0.039287019520998,0.004087664652615786,-0.022045353427529335,0.018822984769940376,-0.0007300564320757985,0.030875083059072495
0.03896380960941315,0.00401398167014122,-0.022035984322428703,0.018847106024622917,-0.0007025583181530237,0.030690239742398262
0.03858652710914612,0.0038721661549061537,-0.022052835673093796,0.019447583705186844,-0.000703466241247952,0.031175583600997925
0.04037711024284363,0.004382733255624771,-0.02195657603442669,0.018812719732522964,-0.0007250956841744483,0.031455960124731064
0.03988479822874069,0.004161420278251171,-0.022457106038928032,0.019153324887156487,-0.0007317876443266869,0.03133762255311012
0.03815336525440216,0.004341617226600647,-0.02308795228600502,0.018944526091217995,-0.0007490533171221614,0.03143507242202759
0.038930490612983704,0.004369378089904785,-0.023122452199459076,0.018183574080467224,-0.0008745241211727262,0.03158439323306084
0.03897638991475105,0.004581172950565815,-0.022111227735877037,0.018957754597067833,-0.0009220296633429825,0.03135541453957558
0.040042802691459656,0.004304928705096245,-0.022683605551719666,0.019497347995638847,-0.0009039635770022869,0.031552765518426895
0.04032604768872261,0.004165138117969036,-0.02228275127708912,0.019649190828204155,-0.0008733222493901849,0.031477250158786774
0.039134006947278976,0.004224023781716824,-0.02187814563512802,0.019828220829367638,-0.0008247975492849946,0.03142763674259186
0.03845956549048424,0.004392251372337341,-0.022130383178591728,0.020074810832738876,-0.0008346414542756975,0.03104422427713871
0.03973836079239845,0.004106350243091583,-0.023136280477046967,0.019832048565149307,-0.0008432533359155059,0.032203301787376404
0.03992090001702309,0.004512195009738207,-0.02317059598863125,0.02009325474500656,-0.0008347459370270371,0.03198110684752464
0.03990093618631363,0.004207601770758629,-0.023119155317544937,0.02019517682492733,-0.0007621536497026682,0.032918475568294525
0.039867792278528214,0.004376786760985851,-0.02255808562040329,0.02012096345424652,-0.0007716903928667307,0.033259499818086624
0.039801545441150665,0.004189081024378538,-0.022487258538603783,0.019953347742557526,-0.0007761245360597968,0.03203112632036209
0.039801545441150665,0.004189081024378538,-0.022487258538603783,0.019953347742557526,-0.0007761245360597968,0.03203112632036209
0.040074218064546585,0.004256247077137232,-0.022536685690283775,0.019794482737779617,-0.0007886856328696012,0.031164083629846573
0.03980107977986336,0.004239838104695082,-0.022817345336079597,0.01944257691502571,-0.0008031805627979338,0.03174629807472229
0.040083374828100204,0.0044197202660143375,-0.022935761138796806,0.01964559592306614,-0.0008283369825221598,0.03227030485868454
0.03990638256072998,0.004110690206289291,-0.022487062960863113,0.020769374445080757,-0.0008903220877982676,0.03242829069495201
0.040260471403598785,0.003929736092686653,-0.022674156352877617,0.020728440955281258,-0.0009966050274670124,0.03377218917012215
0.040573231875896454,0.00462060421705246,-0.02312094159424305,0.019777948036789894,-0.0009277903591282666,0.032439131289720535
0.03893851861357689,0.004480680450797081,-0.02308003418147564,0.020242715254426003,-0.0008700646576471627,0.03147069364786148
0.0402914360165596,0.004180375020951033,-0.022859906777739525,0.02008362114429474,-0.000843315850943327,0.032851073890924454
0.039911605417728424,0.0038891262374818325,-0.022460663691163063,0.02003985270857811,-0.0008459147065877914,0.03348305821418762
0.040850479155778885,0.004388438072055578,-0.022729182615876198,0.020119987428188324,-0.0007463164511136711,0.03315037116408348
0.040989458560943604,0.004647466354072094,-0.023333683609962463,0.020184101536870003,-0.0007361671305261552,0.03296983242034912
0.039381250739097595,0.004335704259574413,-0.023184500634670258,0.02000003308057785,-0.0006808931939303875,0.03283964842557907
0.04017927125096321,0.004408129956573248,-0.022871697321534157,0.02016282081604004,-0.0006915691774338484,0.032831594347953796
0.04110680893063545,0.004180201794952154,-0.022776542231440544,0.020435167476534843,-0.0006612017168663442,0.033495496958494186
0.041165001690387726,0.004243467003107071,-0.02286112681031227,0.02004842646420002,-0.0006729002925567329,0.033089134842157364
0.04056324437260628,0.004450028296560049,-0.022887855768203735,0.02005743980407715,-0.0006719999364577234,0.03283343091607094
0.04108460992574692,0.004191173706203699,-0.023158159106969833,0.020338842645287514,-0.0006939081358723342,0.03313760831952095
0.04116455838084221,0.004342630505561829,-0.022730926051735878,0.020146364346146584,-0.0006776099908165634,0.03385591506958008
0.0415416955947876,0.004285756498575211,-0.022411707788705826,0.01998612843453884,-0.0009516514255665243,0.03395140543580055
0.041423264890909195,0.004489457234740257,-0.022740600630640984,0.020267024636268616,-0.0009780236287042499,0.0337640643119812
0.04127191752195358,0.004707112908363342,-0.022885257378220558,0.02066883258521557,-0.0009780190885066986,0.03437582030892372
