davideferrari95/blind_handover_controller/data/Test 266 - [2024-02-08 -- 12-51-19]/joint_states_data.csv
shoulder_pan_joint,shoulder_lift_joint,elbow_joint,wrist_1_joint,wrist_2_joint,wrist_3_joint
0.003026258898898959,0.008610772900283337,-0.011059815064072609,0.0027743536047637463,-0.00023178342962637544,0.004266089294105768
0.0029786129016429186,0.007985392585396767,-0.011986801400780678,0.002672135829925537,-0.00022796104894950986,0.004553425591439009
0.002811310812830925,0.008187535218894482,-0.011538482271134853,0.0026783619541674852,-0.00022118716151453555,0.004683221690356731
0.002848773030564189,0.008658013306558132,-0.011773763224482536,0.0027598701417446136,-0.0002842374669853598,0.004387089982628822
0.002809363417327404,0.008034482598304749,-0.012223847210407257,0.0027504563331604004,-0.00027704794774763286,0.004002284724265337
0.002809363417327404,0.008034482598304749,-0.012223847210407257,0.0027504563331604004,-0.00027704794774763286,0.004002284724265337
0.003035105997696519,0.008292199112474918,-0.011487293988466263,0.002598363673314452,-0.0002616099372971803,0.0038135158829391003
0.0029279973823577166,0.008051264099776745,-0.011778307147324085,0.0026433602906763554,-0.00029331116820685565,0.0038446865510195494
0.0027478919364511967,0.008454502560198307,-0.011191231198608875,0.002568227704614401,-0.0002810465812217444,0.0035932890605181456
0.002508264733478427,0.008115588687360287,-0.012227728962898254,0.002286043018102646,-0.0002547246403992176,0.0036543041933327913
0.002583268331363797,0.00838016252964735,-0.011583389714360237,0.0022599727381020784,-0.00028101797215640545,0.003818789031356573
0.0025655117351561785,0.008120200596749783,-0.01201651245355606,0.0025204201228916645,-0.0002713734284043312,0.0039053105283528566
0.002811166923493147,0.007584030274301767,-0.011332104913890362,0.002555705839768052,-0.00026031924062408507,0.003922814037650824
0.0028257158119231462,0.007736519910395145,-0.011793974786996841,0.0024158547166734934,-0.0002499975962564349,0.003855943912640214
0.002874893369153142,0.008556761778891087,-0.011618247255682945,0.002526518190279603,-0.00027023680740967393,0.0038351151160895824
0.002786950906738639,0.008406545035541058,-0.01144497375935316,0.0026436657644808292,-0.0002644025662448257,0.003407919080927968
0.0028862780891358852,0.007901936769485474,-0.01172883901745081,0.0026815521996468306,-0.00025529321283102036,0.0035025973338633776
0.002821383997797966,0.00827575009316206,-0.011742745526134968,0.002804446266964078,-0.0002465670695528388,0.00326399109326303
0.0028428949881345034,0.008525343611836433,-0.012109404429793358,0.0027605744544416666,-0.0002384028339292854,0.0033552616368979216
0.0028545837849378586,0.008849355392158031,-0.011353683657944202,0.002687326865270734,-0.0002307612303411588,0.003566533559933305
0.0028047768864780664,0.008086529560387135,-0.011119881644845009,0.0025317904073745012,-0.00022359432477969676,0.0036630115937441587
0.0027804505079984665,0.008855978958308697,-0.011593894101679325,0.002680417848750949,-0.00023568584583699703,0.0035771564580500126
0.002791552571579814,0.009231898002326488,-0.01121059712022543,0.0027902626898139715,-0.00023023415997158736,0.00318058580160141
0.0029594541992992163,0.00829419307410717,-0.011301448568701744,0.002676123520359397,-0.00021943642059341073,0.0031651940662413836
0.0030587888322770596,0.008818369358778,-0.011441212147474289,0.0027729899156838655,-0.000209257603273727,0.003082132898271084
0.003177887061610818,0.008891631849110126,-0.011899947188794613,0.0027571197133511305,-0.00019995824550278485,0.003459363244473934
0.0034440564922988415,0.00837993249297142,-0.0116032175719738,0.0027958969585597515,-0.0001914493041113019,0.003678093198686838
0.003253584960475564,0.007371028419584036,-0.011012758128345013,0.0025569808203727007,-0.0002016036305576563,0.003733202116563916
0.003152470802888274,0.00912514328956604,-0.011329307220876217,0.002530866302549839,-0.00021049589850008488,0.0036853014025837183
0.0030105269979685545,0.008816935122013092,-0.011526537127792835,0.0027968252543359995,-0.0002036516962107271,0.0036143288016319275
0.0029964116401970387,0.008919467218220234,-0.010922056622803211,0.002805460710078478,-0.00019631822942756116,0.003597202245146036
0.0031240261159837246,0.0100064966827631,-0.01171349547803402,0.0028423035982996225,-0.00018943507166113704,0.0037244234699755907
0.0031240261159837246,0.0100064966827631,-0.01171349547803402,0.0028423035982996225,-0.00018943507166113704,0.0037244234699755907
0.003059712005779147,0.008911684155464172,-0.011861041188240051,0.0025734789669513702,-0.00018301440286450088,0.00337318261153996
0.0034656713251024485,0.008430706337094307,-0.011590613052248955,0.0024693813174962997,-0.00017701410979498178,0.003446840448305011
0.0032950537279248238,0.009032714180648327,-0.011567464098334312,0.0026347374077886343,-0.00017139520787168294,0.0035893444437533617
0.003538633231073618,0.00904131680727005,-0.01116954442113638,0.0031138593330979347,-0.00016612198669463396,0.0035897530615329742
0.0032238720450550318,0.008882371708750725,-0.011500208638608456,0.0030951830558478832,-0.00015649260603822768,0.0035273744724690914
0.003322771517559886,0.009440598078072071,-0.011490984819829464,0.002853994257748127,-0.00017572905926499516,0.003404388902708888
0.0034793191589415073,0.009006972424685955,-0.011521088890731335,0.0026052978355437517,-0.00017246021889150143,0.003482153406366706
0.0031936168670654297,0.009769762866199017,-0.010946208611130714,0.0024887570179998875,-0.0001679628767305985,0.0036556380800902843
0.0034703107085078955,0.009535525925457478,-0.011520106345415115,0.0024100516457110643,-0.00016360729932785034,0.003420767141506076
0.0032899940852075815,0.009248942136764526,-0.011099370196461678,0.0025458247400820255,-0.00015946610074024647,0.003494781907647848
0.003563089296221733,0.008951851166784763,-0.011314165778458118,0.0025656477082520723,-0.0001555293274577707,0.0036193993873894215
0.003375675529241562,0.009841949678957462,-0.011349625885486603,0.003063515294343233,-0.0001517819328000769,0.003728963900357485
0.003293647663667798,0.009001328609883785,-0.01116207055747509,0.0030196013394743204,-0.00014821108197793365,0.0038376536685973406
0.0032843537628650665,0.008954325690865517,-0.011747205629944801,0.0030314214527606964,-0.000144804289448075,0.0034209887962788343
0.003390852129086852,0.009212106466293335,-0.01153051108121872,0.0029415057506412268,-0.00014155072858557105,0.003368198173120618
0.0036045596934854984,0.009115489199757576,-0.011278963647782803,0.0028845963533967733,-0.00013844011118635535,0.003291927743703127
0.003730686381459236,0.008964304812252522,-0.01181045826524496,0.0027505315374583006,-0.0001354630949208513,0.0034980489872395992
0.0033868609461933374,0.009282546117901802,-0.011279738508164883,0.0028998993802815676,-0.00013261171989142895,0.0033890458289533854
0.0032520913518965244,0.00931607000529766,-0.01211030874401331,0.0033087311312556267,-0.00012987769150640815,0.0034873688127845526
0.003374226624146104,0.00907347071915865,-0.011883783154189587,0.003262905403971672,-0.00012725414126180112,0.0032485234551131725
0.003653906285762787,0.010096943937242031,-0.011694150045514107,0.0030917488038539886,-0.00012473466631490737,0.0033553873654454947
0.0037113281432539225,0.0095329899340868,-0.011942693963646889,0.003311786102131009,-0.00012231289292685688,0.003606203244999051
0.004238772206008434,0.009149858728051186,-0.011041411198675632,0.0031223304104059935,-0.0001199834150611423,0.003341486444696784
0.0041502430103719234,0.009602917358279228,-0.012322350405156612,0.003299447475001216,-0.00012601820344571024,0.0033677001483738422
0.003532559610903263,0.00924799032509327,-0.011889344081282616,0.00330171175301075,-0.00013153452891856432,0.003275977447628975
0.003522474318742752,0.008805847726762295,-0.01170094683766365,0.002882798667997122,-0.00012967624934390187,0.003240428399294615
0.003796720877289772,0.009047222323715687,-0.01193537563085556,0.0026790346018970013,-0.00012741472164634615,0.0033399013336747885
0.003796720877289772,0.009047222323715687,-0.01193537563085556,0.0026790346018970013,-0.00012741472164634615,0.0033399013336747885
0.003946075215935707,0.00933513417840004,-0.011741519905626774,0.002746809273958206,-0.00012520121526904404,0.0036404267884790897
0.003984519280493259,0.00890856608748436,-0.012151066213846207,0.0031038580927997828,-0.00012306137068662792,0.003788902424275875
0.004230779595673084,0.008614304475486279,-0.011996264569461346,0.0031334110535681248,-0.00012099347077310085,0.0034349607303738594
0.004231691360473633,0.009431900456547737,-0.012483510188758373,0.0030091404914855957,-0.00011899377568624914,0.00346795073710382
0.004026731010526419,0.00869225524365902,-0.011872222647070885,0.002801649970933795,-0.0001170591713162139,0.0031895413994789124
0.003978486638516188,0.008334017358720303,-0.011422673240303993,0.002873836550861597,-0.00011518642713781446,0.003371009137481451
0.003981510642915964,0.00881108921021223,-0.01209382712841034,0.0033246115781366825,-0.00011337263276800513,0.0035044816322624683
0.004176244139671326,0.008860277011990547,-0.01148199662566185,0.0031029838137328625,-0.0001099112632800825,0.003524038940668106
0.004102557431906462,0.008756672032177448,-0.011383898556232452,0.002950473688542843,-0.00010825865319930017,0.003702613292261958
0.0043703773990273476,0.008767785504460335,-0.01081384439021349,0.002875709906220436,-0.00010665492300176993,0.003934806678444147
0.004140518605709076,0.00832332856953144,-0.012160925194621086,0.0029401129577308893,-9.734580089570954e-05,0.004031984135508537
0.0035906280390918255,0.008362216874957085,-0.011516002006828785,0.003150761127471924,-8.814688044367358e-05,0.004016514867544174
0.003374553518369794,0.008804510347545147,-0.012175831012427807,0.0032052509486675262,-8.598611748311669e-05,0.003515232354402542
0.003217346966266632,0.009350156411528587,-0.011438556015491486,0.00341138057410717,-8.434324990957975e-05,0.003534473478794098
0.0034637253265827894,0.00840519368648529,-0.01096327230334282,0.0033167488873004913,-8.278948371298611e-05,0.003367258235812187
0.004266154486685991,0.008626311086118221,-0.011691654101014137,0.003198771271854639,-8.129370689857751e-05,0.0034649453591555357
0.004140677396208048,0.008322644978761673,-0.01143224723637104,0.003146872855722904,-7.98511755419895e-05,0.0035998267121613026
0.0034440832678228617,0.0081651471555233,-0.012085231021046638,0.0028287360910326242,-7.84589719842188e-05,0.0037050589453428984
0.0035136251244693995,0.008199075236916542,-0.011908940970897675,0.002718830481171608,-7.711440412094817e-05,0.0041554090566933155
0.00389624061062932,0.008461263962090015,-0.010738605633378029,0.0028459900058805943,-7.581513636978343e-05,0.004135994706302881
0.004085235763341188,0.008286874741315842,-0.011629121378064156,0.0032067217398434877,-7.455902232322842e-05,0.003704150440171361
0.004053108394145966,0.008357117883861065,-0.011730941012501717,0.003430504584684968,-7.334382826229557e-05,0.003409401513636112
0.0035069200675934553,0.008239895105361938,-0.011960853822529316,0.0032276157289743423,-7.216753874672577e-05,0.0030278884805738926
0.0034877867437899113,0.008759180083870888,-0.011504419147968292,0.0030761018861085176,-7.102848030626774e-05,0.0032796035520732403
0.004256481770426035,0.008857573382556438,-0.010469886474311352,0.0033154275733977556,-8.29821583465673e-05,0.0037713339552283287
0.004123199265450239,0.008025428280234337,-0.011329411529004574,0.0031232379842549562,-8.25651950435713e-05,0.0038957817014306784
0.003909397404640913,0.008434709161520004,-0.01132658589631319,0.0033120405860245228,-8.137658733176067e-05,0.00414903974160552
0.0038378052413463593,0.008879071101546288,-0.011117854155600071,0.003406929550692439,-8.017210348043591e-05,0.004084454849362373
0.0038378052413463593,0.008879071101546288,-0.011117854155600071,0.003406929550692439,-8.017210348043591e-05,0.004084454849362373
0.003943495452404022,0.008588296361267567,-0.01132414024323225,0.0034478351008147,-7.899947377154604e-05,0.003557336749508977
0.003991568926721811,0.008343925699591637,-0.010968302376568317,0.003670846577733755,-7.786039350321516e-05,0.0035165937151759863
0.0039694965817034245,0.008667695336043835,-0.011829758994281292,0.0035439219791442156,-7.675369852222502e-05,0.003567051375284791
0.0043810768984258175,0.008995475247502327,-0.011497920379042625,0.0035297509748488665,-7.567803550045937e-05,0.0034410092048346996
0.004180190619081259,0.008233638480305672,-0.011329655535519123,0.0032455571927130222,-7.463210204150528e-05,0.003590379375964403
0.0039150407537817955,0.008901824243366718,-0.01097167283296585,0.0032494734041392803,-7.262467261170968e-05,0.004425817169249058
0.003933093976229429,0.008356841281056404,-0.011454803869128227,0.003230711678043008,-7.166093564592302e-05,0.0042457119561731815
0.0043513779528439045,0.008573737926781178,-0.011289892718195915,0.0032119143288582563,-7.072238076943904e-05,0.004281467292457819
0.004175768233835697,0.008712979033589363,-0.01066586747765541,0.003450306598097086,-6.980814214330167e-05,0.0037644016556441784
0.003989103250205517,0.008518673479557037,-0.011270755901932716,0.003745523514226079,-6.891719385748729e-05,0.0035502498503774405
0.004202576819807291,0.009539653547108173,-0.011050140485167503,0.0034841292072087526,-7.791120151523501e-05,0.0032105057034641504
0.004000771325081587,0.00905836932361126,-0.011062277480959892,0.003454789752140641,-7.830568210920319e-05,0.0034267252776771784
0.004292518366128206,0.008962998166680336,-0.011557802557945251,0.0032204920426011086,-7.743226160528138e-05,0.00422099931165576
0.004210944287478924,0.008595278486609459,-0.010952000506222248,0.0033804485574364662,-7.649784674867988e-05,0.004470734857022762
0.0039883083663880825,0.007792665157467127,-0.011288350448012352,0.003711140714585781,-7.558049401268363e-05,0.004408278968185186
0.004186180420219898,0.007463555317372084,-0.010847484692931175,0.003440252970904112,-7.46844889363274e-05,0.004373179282993078
0.004212129395455122,0.007840464822947979,-0.010851418599486351,0.003534057643264532,-7.380952592939138e-05,0.004305969923734665
0.004347306210547686,0.007816910743713379,-0.011246681213378906,0.0036491143982857466,-7.295485556824133e-05,0.004023205954581499
0.004360286984592676,0.008096654899418354,-0.01078845001757145,0.003535584546625614,-7.211967749753967e-05,0.003535242285579443
0.004332561511546373,0.008293405175209045,-0.010531938634812832,0.003449674928560853,-7.632574124727398e-05,0.0035208191256970167
0.0041295625269412994,0.008021638728678226,-0.011276301927864552,0.0036114673130214214,-8.024050475796685e-05,0.0037025855854153633
0.00437214644625783,0.007873518392443657,-0.010352429002523422,0.0034938878379762173,-7.966389239300042e-05,0.0038963526021689177
0.004134730435907841,0.008335200138390064,-0.010974351316690445,0.003541938727721572,-1.0263045624014921e-05,0.004187987186014652
0.004404840059578419,0.007901627570390701,-0.011021451093256474,0.0036454920191317797,-6.701034749312385e-07,0.0043097916059195995
0.004404840059578419,0.007901627570390701,-0.011021451093256474,0.0036454920191317797,-6.701034749312385e-07,0.0043097916059195995
0.004288898315280676,0.007668341509997845,-0.010525742545723915,0.003502070205286145,-4.375296214220725e-08,0.004102545324712992
0.004491877742111683,0.007677908055484295,-0.011047020554542542,0.0034055972937494516,-2.8567557208702965e-09,0.003953420091420412
0.004103486891835928,0.008049014955759048,-0.010630854405462742,0.0032055277843028307,-1.8652573929855976e-10,0.0034558395855128765
0.003952535800635815,0.007440467830747366,-0.010821978561580181,0.0033765393309295177,-1.2178797033357558e-11,0.0035557050723582506
0.004257842432707548,0.007631998974829912,-0.011120421811938286,0.0036532506346702576,-7.951884593501712e-13,0.0033023529686033726
0.004514457657933235,0.0077351657673716545,-0.01042857300490141,0.003781277919188142,-5.192012455818712e-14,0.0035206086467951536
0.004652683157473803,0.008170793764293194,-0.010759523138403893,0.0034160620998591185,-7.711249782005325e-05,0.004262116272002459
0.004378615412861109,0.007460497785359621,-0.010421015322208405,0.0032789914403110743,-8.792398875812069e-05,0.004634987097233534
0.004241100512444973,0.008120149374008179,-0.011386237107217312,0.0034538223408162594,-8.629413787275553e-05,0.004255480598658323
0.004282967187464237,0.0076232533901929855,-0.011087563820183277,0.0036979569122195244,-8.467405859846622e-05,0.0038321383763104677
0.004824169911444187,0.007697657682001591,-0.011093027889728546,0.003915011882781982,-8.311049168696627e-05,0.003670693142339587
0.004459740128368139,0.007678388152271509,-0.011100863106548786,0.0039837053045630455,-8.16033425508067e-05,0.0037310689222067595
0.004579443484544754,0.008056115359067917,-0.010568884201347828,0.003598088165745139,-8.014990453375503e-05,0.00432493444532156
0.004685170948505402,0.007751386146992445,-0.011347224935889244,0.003033275716006756,-7.87472672527656e-05,0.0046362075954675674
0.004687155596911907,0.008116107434034348,-0.011308182962238789,0.003922854550182819,-7.739290595054626e-05,0.004386427346616983
0.004641521256417036,0.008485570549964905,-0.010762425139546394,0.004167295526713133,-7.608433224959299e-05,0.0044828979298472404
0.0047574532218277454,0.008092494681477547,-0.011045482009649277,0.004014059901237488,-7.481936336262152e-05,0.004249555058777332
0.004654158838093281,0.007839879021048546,-0.010772119276225567,0.003867153776809573,-7.359566370723769e-05,0.004023540299385786
0.005103683099150658,0.0078344801440835,-0.010864059440791607,0.003523936029523611,-8.316290040966123e-05,0.003527604043483734
0.004983041435480118,0.008691607974469662,-0.011163649149239063,0.00357200694270432,-8.52740413392894e-05,0.0035928431898355484
0.0046061500906944275,0.008520510047674179,-0.010746365413069725,0.0037193670868873596,-8.416848868364468e-05,0.004296019673347473
0.004531906917691231,0.007903083227574825,-0.011308256536722183,0.0038350094109773636,-8.28910997370258e-05,0.0050842720083892345
0.004915229976177216,0.007682024966925383,-0.01101972721517086,0.004157636314630508,-8.163883467204869e-05,0.004954118747264147
0.004959026351571083,0.007916610687971115,-0.010302177630364895,0.004289114847779274,-8.042303670663387e-05,0.004621210042387247
0.00483793206512928,0.00786823220551014,-0.011445863172411919,0.0036956246476620436,-7.924289820948616e-05,0.004409201443195343
0.005151721648871899,0.007772010285407305,-0.010821417905390263,0.0035259295254945755,-7.809681119397283e-05,0.0040877885185182095
0.005116543732583523,0.0076323202811181545,-0.010457705706357956,0.0037136031314730644,-7.6983509643469e-05,0.004190716426819563
0.005147573538124561,0.008221181109547615,-0.011000252328813076,0.0034367830958217382,-7.59014073992148e-05,0.004628168884664774
0.005147573538124561,0.008221181109547615,-0.011000252328813076,0.0034367830958217382,-7.59014073992148e-05,0.004628168884664774
0.004931360948830843,0.00814660545438528,-0.010873105376958847,0.0035722244065254927,-8.649827213957906e-05,0.004376316908746958
0.004861611407250166,0.0076264888048172,-0.011920456774532795,0.004208942875266075,-8.60765139805153e-05,0.004402919672429562
0.004806578624993563,0.008145207539200783,-0.011609980836510658,0.0041990140452980995,-8.496520604239777e-05,0.004185874480754137
0.005684203933924437,0.008428362198174,-0.011352437548339367,0.003943385556340218,-8.383779641008005e-05,0.004387820605188608
0.0052557275630533695,0.008034051395952702,-0.011355259455740452,0.0037679884117096663,-8.273701678263023e-05,0.0042530689388513565
0.004972497001290321,0.008199944160878658,-0.011149066500365734,0.0037164485547691584,-8.166452607838437e-05,0.004408033564686775
0.005087816622108221,0.007881592959165573,-0.011678976938128471,0.003368675010278821,-7.960085349623114e-05,0.004601264838129282
0.0052973125129938126,0.007590675260871649,-0.0106993792578578,0.0034937781747430563,-7.860766345402226e-05,0.00425980519503355
0.00519665889441967,0.007744950708001852,-0.011234364472329617,0.004017636179924011,-7.763894245726988e-05,0.004365366417914629
0.005434968508780003,0.008003441616892815,-0.010939057916402817,0.00429906090721488,-7.669381739106029e-05,0.004231633152812719
0.00548736285418272,0.007912113331258297,-0.01096213236451149,0.0040569910779595375,-7.577139331260696e-05,0.0042927502654492855
0.005284133367240429,0.008157182484865189,-0.011555041186511517,0.0035023996606469154,-7.487090624636039e-05,0.004509511403739452
0.0051846373826265335,0.007998446933925152,-0.010918691754341125,0.003486777190119028,-7.399157038889825e-05,0.0051246811635792255
0.005505954381078482,0.00811142660677433,-0.010878307744860649,0.0037181044463068247,-7.313266542041674e-05,0.0050260452553629875
0.005936112720519304,0.007750167511403561,-0.0112232631072402,0.0038477228954434395,-7.229342736536637e-05,0.004964889958500862
0.005231071729212999,0.007902782410383224,-0.011418206617236137,0.004331846721470356,-7.14733250788413e-05,0.004845085553824902
0.005029463674873114,0.008358740247786045,-0.011462990194559097,0.004540132358670235,-7.067158003337681e-05,0.004669929388910532
0.0056190514005720615,0.008344695903360844,-0.01079485472291708,0.004279989283531904,-6.988755922066048e-05,0.0046280426904559135
0.0053675174713134766,0.00800727866590023,-0.0114674624055624,0.00391914090141654,-9.002281331049744e-06,0.004737715236842632
0.005890056025236845,0.007835514843463898,-0.0116836316883564,0.003806730266660452,-5.877846547264198e-07,0.004668592941015959
0.005498542450368404,0.008716998621821404,-0.011192195117473602,0.003578166477382183,-3.837813622453723e-08,0.004617277532815933
0.005929645150899887,0.008541147224605083,-0.011748061515390873,0.0034465366043150425,-2.5058179975445682e-09,0.004428765270859003
0.005629544146358967,0.00801062025129795,-0.011101922951638699,0.0035904732067137957,-1.6361201282677484e-10,0.00473921000957489
0.005885065067559481,0.0077360449358820915,-0.011410500854253769,0.003986303228884935,-1.0682696047203954e-11,0.0049706450663506985
0.005885065067559481,0.0077360449358820915,-0.011410500854253769,0.003986303228884935,-1.0682696047203954e-11,0.0049706450663506985
0.00540940323844552,0.008110766299068928,-0.011271720752120018,0.0042573390528559685,-6.975036867529205e-13,0.004855350125581026
0.006075448822230101,0.007969992235302925,-0.011203521862626076,0.0045351628214120865,-4.5542010511075495e-14,0.00484161963686347
0.005872233305126429,0.007611179258674383,-0.011820202693343163,0.004018309526145458,-2.9735680301260555e-15,0.005028784740716219
0.005778270773589611,0.008311398327350616,-0.011061660014092922,0.003551219357177615,-1.9415273641423326e-16,0.0049337162636220455
0.006018177606165409,0.00835478212684393,-0.012112312950193882,0.0033207559026777744,-1.267678607847524e-17,0.004791333340108395
0.0056168814189732075,0.007823620922863483,-0.011427473276853561,0.003534435061737895,-8.27703545796526e-19,0.004730875138193369
0.006346794776618481,0.0074690948240458965,-0.010933375917375088,0.003649770049378276,-5.404312476929035e-20,0.004768965765833855
0.005866390652954578,0.008057672530412674,-0.011250725015997887,0.004005218856036663,-3.52862970852904e-21,0.004959665704518557
0.005558860022574663,0.007483332417905331,-0.010878810659050941,0.00430633407086134,-1.5043100990577942e-23,0.005310223903506994
0.005844418425112963,0.007340561132878065,-0.011451485566794872,0.004042794927954674,-9.82206966001382e-25,0.005027373321354389
0.006566495634615421,0.007721140049397945,-0.011022920720279217,0.003842449514195323,-6.413109440240347e-26,0.005036270245909691
0.006515504792332649,0.00760295195505023,-0.011450033634901047,0.004146083723753691,-4.1873021886763076e-27,0.005228802096098661
0.006181543227285147,0.008000345900654793,-0.011493712663650513,0.0041479929350316525,-2.734009223040802e-28,0.005077621899545193
0.006119341589510441,0.008269545622169971,-0.010810745880007744,0.004063159227371216,-1.785112567237825e-29,0.004974947776645422
0.005743413232266903,0.007897957228124142,-0.011464809067547321,0.0044111101888120174,-1.1655509851680039e-30,0.005167348776012659
0.006153877824544907,0.007412423379719257,-0.011608208529651165,0.004351972136646509,-7.610214491665609e-32,0.00519965123385191
0.00649135559797287,0.007757636718451977,-0.011568056419491768,0.004380535800009966,-4.9689262928891374e-33,0.005289578810334206
0.006101447623223066,0.007949410937726498,-0.011500652879476547,0.004219294060021639,-3.244354306364936e-34,0.005211124196648598
0.005830483976751566,0.007986591197550297,-0.010920546017587185,0.004279336892068386,-2.118331507734218e-35,0.005810452159494162
0.006184977479279041,0.00813659094274044,-0.011283524334430695,0.0040402282029390335,-1.3831191615082138e-36,0.005420458037406206
0.006179146934300661,0.007879468612372875,-0.010893312282860279,0.004371246322989464,-9.030779496699044e-38,0.005040609743446112
0.006226049270480871,0.007884669117629528,-0.01100467424839735,0.004638615529984236,-4.667625034926459e-05,0.005116002168506384
0.006261653266847134,0.007553755771368742,-0.011806678026914597,0.0046365754678845406,-6.198824848979712e-05,0.005067908670753241
0.005944620352238417,0.007505189161747694,-0.010986654087901115,0.004379539284855127,-6.217351619852707e-05,0.005391928367316723
0.006308186799287796,0.007814878597855568,-0.012036657892167568,0.004293472971767187,-6.139332981547341e-05,0.005613543093204498
0.006308186799287796,0.007814878597855568,-0.012036657892167568,0.004293472971767187,-6.139332981547341e-05,0.005613543093204498
0.007059064228087664,0.00785573199391365,-0.011134238913655281,0.004516859073191881,-5.976720785838552e-05,0.00569327175617218
0.0063733793795108795,0.007976870983839035,-0.01145851518958807,0.004645961802452803,-5.8983860071748495e-05,0.005296066869050264
0.0063733793795108795,0.007976870983839035,-0.01145851518958807,0.004645961802452803,-5.8983860071748495e-05,0.005296066869050264
0.006483652163296938,0.007045380771160126,-0.011038423515856266,0.0047435155138373375,-5.82207394472789e-05,0.005589430686086416
0.006478011608123779,0.008202900178730488,-0.011261990293860435,0.005103396717458963,-5.747705290559679e-05,0.005834269803017378
0.007171717472374439,0.007679842412471771,-0.011590234935283661,0.004639192949980497,-5.675218199030496e-05,0.006394193973392248
0.006686971988528967,0.007221565581858158,-0.011176644824445248,0.004559274762868881,-5.60454027436208e-05,0.005808774847537279
0.006304893642663956,0.007295726332813501,-0.012073582969605923,0.0045033348724246025,-5.535596210393123e-05,0.005093695130199194
0.006774304900318384,0.007366074249148369,-0.011184307746589184,0.004210102837532759,-5.468330709845759e-05,0.005043497309088707
0.007497599348425865,0.007218982093036175,-0.011463646776974201,0.003994245547801256,-5.402676833909936e-05,0.006125111598521471
0.006581077352166176,0.006926804315298796,-0.011767747811973095,0.004448189400136471,-6.188920087879524e-05,0.006516624242067337
0.006581077352166176,0.006926804315298796,-0.011767747811973095,0.004448189400136471,-6.188920087879524e-05,0.006516624242067337
0.007259540259838104,0.006833182182163,-0.012065042741596699,0.0043410020880401134,-6.181634671520442e-05,0.006422543432563543
0.007227183785289526,0.006794818677008152,-0.011715034022927284,0.0045130494982004166,-6.115777796367183e-05,0.006191541440784931
0.006842753849923611,0.006651870906352997,-0.01150211039930582,0.004656805191189051,-6.0475547797977924e-05,0.006197487004101276
0.006641060579568148,0.007317978423088789,-0.011242488399147987,0.00446847639977932,-5.9805977798532695e-05,0.006290155928581953
0.00669203232973814,0.006836004555225372,-0.011851673014461994,0.004537113010883331,-7.703700248384848e-06,0.006103206425905228
0.006909679155796766,0.006593648809939623,-0.011643771082162857,0.004661493469029665,-5.029966132497066e-07,0.00630065007135272
0.006565024144947529,0.006828926969319582,-0.011849001981317997,0.0046670930460095406,-3.284208816012324e-08,0.006626921705901623
0.006573303136974573,0.006954667624086142,-0.011668381281197071,0.004525800235569477,-2.144353583588554e-09,0.0060917045921087265
0.007370364386588335,0.007522335276007652,-0.011317793279886246,0.004634873475879431,-1.400109611582323e-10,0.0061120702885091305
0.007099230773746967,0.007023265585303307,-0.012168620713055134,0.0047250837087631226,-9.141715162641617e-12,0.006120634730905294
0.007463047280907631,0.006614099256694317,-0.011896545067429543,0.004828224889934063,-5.968887493643105e-13,0.00636265380308032
0.006852317601442337,0.006671291776001453,-0.01172866765409708,0.004920048173516989,-3.897256866183807e-14,0.006416431162506342
0.006462777499109507,0.007233555894345045,-0.011455771513283253,0.0048231398686766624,-2.5446299103617674e-15,0.006352137308567762
0.0070724524557590485,0.006907998118549585,-0.01105502713471651,0.004737459123134613,-1.6614614787864145e-16,0.006461756769567728
0.007402836810797453,0.006976073142141104,-0.012313229031860828,0.005137667991220951,-1.0848155269097125e-17,0.006362628657370806
0.007004593964666128,0.006982984486967325,-0.011948559433221817,0.004950101021677256,-7.083070037109149e-19,0.006432374939322472
0.007004593964666128,0.006982984486967325,-0.011948559433221817,0.004950101021677256,-7.083070037109149e-19,0.006432374939322472
0.006965484470129013,0.007346788886934519,-0.012081701308488846,0.00459867250174284,-4.6247380473329944e-20,0.006786607205867767
0.007176890969276428,0.006968923844397068,-0.012268096208572388,0.004549263045191765,-3.0196234319700027e-21,0.0065184347331523895
0.007247073110193014,0.00713279889896512,-0.011423690244555473,0.004622665233910084,-1.971598293370447e-22,0.006285741925239563
0.007235129363834858,0.006709340959787369,-0.012032709084451199,0.005015556234866381,-1.2873126867184044e-23,0.006458443123847246
0.007187813986092806,0.006415256764739752,-0.01178895402699709,0.004922117572277784,-8.405232086887096e-25,0.006789625156670809
0.007648857310414314,0.0070124403573572636,-0.011928832158446312,0.004841888323426247,-5.48801595447316e-26,0.006917233113199472
0.007746340241283178,0.006761261727660894,-0.012090079486370087,0.0047688973136246204,-3.583282409867861e-27,0.006824771873652935
0.007120081223547459,0.007140108849853277,-0.01175672747194767,0.004839904606342316,-2.3396274001613917e-28,0.007117224391549826
0.007543229032307863,0.007031005807220936,-0.01231965608894825,0.005236728582531214,-1.5276094142156215e-29,0.006669770460575819
0.00797502975910902,0.007723401300609112,-0.01225794292986393,0.0054486035369336605,-9.974197460512479e-31,0.006395845208317041
0.008009458892047405,0.006927654147148132,-0.012235932983458042,0.005006072111427784,-6.512437949847937e-32,0.006776193622499704
0.007077307906001806,0.006805901415646076,-0.011991696432232857,0.004540295340120792,-4.252156490189755e-33,0.006739254109561443
0.007397786248475313,0.0069128298200666904,-0.012351109646260738,0.00518666859716177,-1.8127613781562613e-35,0.006840395275503397
0.0073543693870306015,0.007429241668432951,-0.012087740935385227,0.005119695328176022,-3.0319726647576317e-05,0.006498551461845636
0.007258494850248098,0.006952307187020779,-0.012719669379293919,0.005119550507515669,-8.907097799237818e-05,0.006655918434262276
0.0070738354697823524,0.00646447017788887,-0.012305193580687046,0.004910815507173538,-9.114036947721615e-05,0.006505125667899847
0.007396032102406025,0.006604196969419718,-0.012657767161726952,0.00485175009816885,-8.957898535300046e-05,0.006382395513355732
0.007552879862487316,0.007109407801181078,-0.012262974865734577,0.005617466289550066,-8.784668170846999e-05,0.006581577472388744
0.007468216121196747,0.006824355106800795,-0.01283523440361023,0.005439693573862314,-8.616576087661088e-05,0.006928275339305401
0.007218445651233196,0.006563795730471611,-0.012291056104004383,0.0053885881789028645,-8.454678754787892e-05,0.006873027421534061
0.0073323859833180904,0.007104893680661917,-0.012007001787424088,0.005131925456225872,-8.29875934869051e-05,0.007102559320628643
0.007709112484008074,0.007546105422079563,-0.01315409317612648,0.004441260825842619,-8.14849408925511e-05,0.006867451127618551
0.008387827314436436,0.0074836076237261295,-0.012586438097059727,0.00418456643819809,-9.394702647114173e-05,0.007394593674689531
0.007963591255247593,0.006454463582485914,-0.012644455768167973,0.004228389356285334,-9.422758739674464e-05,0.006823703180998564
0.008404615335166454,0.006547693628817797,-0.012059630826115608,0.004808385390788317,-9.273482282878831e-05,0.007148953154683113
0.008052907884120941,0.007120263297110796,-0.012387124821543694,0.004914636258035898,-9.117712761508301e-05,0.007421153597533703
0.00759529136121273,0.006983471568673849,-0.012519458308815956,0.005176827311515808,-8.966371387941763e-05,0.0074767982587218285
0.007772059645503759,0.007124384865164757,-0.012233534827828407,0.005470385774970055,-8.81992164067924e-05,0.00701461685821414
0.007940111681818962,0.006502046249806881,-0.01301155798137188,0.005253511946648359,-8.678181620780379e-05,0.007101553492248058
0.008051691576838493,0.006680894643068314,-0.012310738675296307,0.005484709516167641,-8.540919225197285e-05,0.007347949780523777
0.008051691576838493,0.006680894643068314,-0.012310738675296307,0.005484709516167641,-8.540919225197285e-05,0.007347949780523777
0.008172237314283848,0.007219307124614716,-0.012706010602414608,0.005945918615907431,-8.407938003074378e-05,0.006956174969673157
0.00808028969913721,0.007119352463632822,-0.010913561098277569,0.006517636124044657,-8.154018723871559e-05,0.007508335635066032
0.008430887013673782,0.0070709302090108395,-0.013251983560621738,0.00609929021447897,-8.032719779293984e-05,0.0077190217562019825
0.008430887013673782,0.0070709302090108395,-0.013251983560621738,0.00609929021447897,-8.032719779293984e-05,0.0077190217562019825
0.007888054475188255,0.006882961373776197,-0.01258874498307705,0.006068042013794184,-7.914981688372791e-05,0.007587231229990721
0.008831745013594627,0.006964944303035736,-0.012523338198661804,0.006436740513890982,-7.800648745615035e-05,0.006929841358214617
0.008176308125257492,0.006689256988465786,-0.011719420552253723,0.0066005452536046505,-8.320976485265419e-05,0.007433025166392326
0.008165976032614708,0.0067529878579080105,-0.01264927163720131,0.005800028797239065,-8.802756201475859e-05,0.007361224386841059
0.00803577434271574,0.00702636269852519,-0.012322729453444481,0.005020995158702135,-8.71997035574168e-05,0.007939724251627922
0.008156560361385345,0.007417783141136169,-0.012001010589301586,0.004890868905931711,-8.603436435805634e-05,0.007778746075928211
0.00835234671831131,0.0068533881567418575,-0.01265028677880764,0.0050331237725913525,-8.487691229674965e-05,0.008068003691732883
0.007819448597729206,0.006414265837520361,-0.012134838849306107,0.005116800311952829,-8.374873868888244e-05,0.008089630864560604
0.008480039425194263,0.00639077415689826,-0.012113801203668118,0.005769785027951002,-8.265001088147983e-05,0.007932249456644058
0.008342009037733078,0.007004548795521259,-0.01214709971100092,0.005758113693445921,-8.053690544329584e-05,0.008282612077891827
0.008286704309284687,0.006770915351808071,-0.01192236877977848,0.006197428796440363,-7.952040323289111e-05,0.007858672179281712
0.0087666604667902,0.0066253491677343845,-0.012243703939020634,0.006072796881198883,-7.852919225115329e-05,0.007551857735961676
0.00867049302905798,0.0065345969051122665,-0.012637841515243053,0.006449890788644552,-7.756237027933821e-05,0.007648180238902569
0.00860733911395073,0.0067893946543335915,-0.011728918179869652,0.006413797382265329,-7.661907147848979e-05,0.00841792393475771
0.009282209910452366,0.006655180361121893,-0.012271723710000515,0.005658140406012535,-7.569847366539761e-05,0.00808315072208643
0.00880555622279644,0.006771610584110022,-0.011682882905006409,0.006294431164860725,-8.477929077344015e-05,0.0068124691024422646
0.008433841168880463,0.006735960021615028,-0.012178698554635048,0.006295181345194578,-8.443621482001618e-05,0.007177567575126886
0.009041253477334976,0.006828309502452612,-0.012472806498408318,0.006168241612613201,-8.349952986463904e-05,0.008192724548280239
0.008457341231405735,0.006610425189137459,-0.012328915297985077,0.006420773919671774,-8.254504064098e-05,0.008399580605328083
0.008784076198935509,0.0064859287813305855,-0.01272011362016201,0.005918372888118029,-8.16095998743549e-05,0.008145884610712528
0.008801346644759178,0.0064051151275634766,-0.011949678882956505,0.006103317253291607,-8.069502655416727e-05,0.008086755871772766
0.00919556338340044,0.007342490833252668,-0.01251746155321598,0.00657181441783905,-7.980062218848616e-05,0.008392863906919956
0.00916772335767746,0.006771840620785952,-0.012411612085998058,0.006216762121766806,-1.0279221896780655e-05,0.008510074578225613
0.008841677568852901,0.006445498671382666,-0.012470334768295288,0.0059099216014146805,-6.711596824970911e-07,0.008400371298193932
0.009325705468654633,0.006675099488347769,-0.013037699274718761,0.006120816804468632,-4.3821934525567485e-08,0.008603569120168686
0.009628278203308582,0.006678470876067877,-0.01262534037232399,0.006311171688139439,-8.092050848063082e-05,0.008839660324156284
0.009628278203308582,0.006678470876067877,-0.01262534037232399,0.006311171688139439,-8.092050848063082e-05,0.008839660324156284
0.00915808416903019,0.007194198202341795,-0.012965559959411621,0.006171004381030798,-9.304011473432183e-05,0.008373638615012169
0.008936139754951,0.00682165939360857,-0.012078475207090378,0.006281524430960417,-9.203795343637466e-05,0.008282397873699665
0.00939603615552187,0.006695328745990992,-0.012908989563584328,0.006424857769161463,-9.025087638292462e-05,0.008815688081085682
0.008886901661753654,0.0065568555146455765,-0.012019732967019081,0.006270183715969324,-0.0001016093956422992,0.008605578914284706
0.009453218430280685,0.007078610826283693,-0.012332144193351269,0.006046258378773928,-0.000103830847365316,0.00837565679103136
0.009149768389761448,0.007032008841633797,-0.0125960698351264,0.0059164962731301785,-0.00010213962377747521,0.008962579071521759
0.009418207220733166,0.006900194101035595,-0.01257358305156231,0.006084647495299578,-0.00010026093514170498,0.008447987027466297
0.009203190915286541,0.006435483228415251,-0.012692994438111782,0.005679537076503038,-9.843445150181651e-05,0.008098739199340343
0.009525689296424389,0.006612567231059074,-0.012133095413446426,0.005964471492916346,-9.667229460319504e-05,0.00815301202237606
0.009537233039736748,0.0069889468140900135,-0.012573426589369774,0.006160588003695011,-0.00010974866745527834,0.008740393444895744
0.009358030743896961,0.0068376376293599606,-0.012947012670338154,0.006149879191070795,-0.00010703127918532118,0.008287140168249607
0.009426932781934738,0.006476786453276873,-0.012698744423687458,0.006198779214173555,-0.00010524734534556046,0.008732324466109276
0.009859960526227951,0.006942416075617075,-0.012864889577031136,0.006534951739013195,-0.00010351814853493124,0.008567034266889095
0.00932026095688343,0.0066908723674714565,-0.012439695186913013,0.006699068937450647,-0.00010184473649132997,0.008271325379610062
0.00971587561070919,0.00671700993552804,-0.012117027305066586,0.006594519596546888,-0.00010727554035838693,0.008378338068723679
0.008933494798839092,0.006617170292884111,-0.012352341786026955,0.0061515760608017445,-0.00011227421782677993,0.008563603274524212
0.009328912012279034,0.006592778954654932,-0.01217662077397108,0.006840539630502462,-0.00011097932292614132,0.008347353897988796
0.009684222750365734,0.006743302568793297,-0.012774118222296238,0.007010824047029018,-0.00010932262375717983,0.008327401243150234
0.009509504772722721,0.006718222517520189,-0.012644341215491295,0.00684173172339797,-0.0001076894041034393,0.008812174201011658
0.009698023088276386,0.007106533274054527,-0.01300065591931343,0.006528703961521387,-0.0001061026196111925,0.008669814094901085
0.009430240839719772,0.0070778378285467625,-0.012599480338394642,0.006276581436395645,-0.00010456166637595743,0.008637700229883194
0.009046139195561409,0.0074109239503741264,-0.012437074445188046,0.006593494210392237,-0.00014676731370855123,0.008727597072720528
0.009501799009740353,0.0069306883960962296,-0.013187599368393421,0.006891795899719,-0.0001820886245695874,0.00879722647368908
0.009543427266180515,0.007188878953456879,-0.012643815018236637,0.006511974614113569,-0.00017759860202204436,0.008668467402458191
0.009394258260726929,0.007586903404444456,-0.013080849312245846,0.006130132358521223,-0.00017102406127378345,0.008601184003055096
0.010947970673441887,0.006908537819981575,-0.012221388518810272,0.00568242697045207,-0.00016477250028401613,0.009493929333984852
0.010197469964623451,0.00650755176320672,-0.012661421671509743,0.006402850151062012,-0.00015895195247139782,0.008907688781619072
0.009351762011647224,0.0067396387457847595,-0.012658131308853626,0.006559738889336586,-0.00015352826449088752,0.009079554118216038
0.009351762011647224,0.0067396387457847595,-0.012658131308853626,0.006559738889336586,-0.00015352826449088752,0.009079554118216038
0.010813090018928051,0.007391017396003008,-0.013585064560174942,0.006242596078664064,-0.00016499996127095073,0.009300566278398037
0.010813090018928051,0.007391017396003008,-0.013585064560174942,0.006242596078664064,-0.00016499996127095073,0.009300566278398037
0.009866921231150627,0.006839604116976261,-0.013163837604224682,0.0065444884821772575,-0.00016663905989844352,0.009196510538458824
0.009767094627022743,0.006356768310070038,-0.013206439092755318,0.006714862305670977,-0.0001620770344743505,0.009942569769918919
0.010220527648925781,0.006356371566653252,-0.012372630648314953,0.0073254904709756374,-0.00015738136426080018,0.009645352140069008
0.009792720898985863,0.006928315386176109,-0.013392188586294651,0.006764081306755543,-0.00017504986317362636,0.009270859882235527
0.010002176277339458,0.007108092773705721,-0.012911537662148476,0.00638040853664279,-0.000173280481249094,0.00956028513610363
0.009602800011634827,0.006762026343494654,-0.013274326920509338,0.00697030546143651,-0.00016444128414150327,0.00967012345790863
0.010328762233257294,0.006845325697213411,-0.013414965942502022,0.007185108959674835,-0.00018161885964218527,0.009968276135623455
0.010285341180860996,0.007092232350260019,-0.013509525917470455,0.006499855779111385,-0.0001785090280463919,0.009777856059372425
0.010138090699911118,0.00659498106688261,-0.013471245765686035,0.0065455655567348,-0.00017427935381419957,0.009520920924842358
0.010869361460208893,0.006756867282092571,-0.013435497879981995,0.006885227747261524,-0.0001701657602097839,0.01040866132825613
0.012230366468429565,0.006845361553132534,-0.013023601844906807,0.00682807806879282,-0.00021476148685906082,0.009666082449257374
0.012190934270620346,0.00675591267645359,-0.013658878393471241,0.006545342039316893,-0.00021173906861804426,0.009379205293953419
0.012010293081402779,0.006703740451484919,-0.013329342938959599,0.006185081787407398,-0.0002026640868280083,0.01062295213341713
0.011795422062277794,0.006409686524420977,-0.013798319734632969,0.006964788772165775,-0.00021292411838658154,0.01153075322508812
0.012279029004275799,0.006570880766957998,-0.01333959773182869,0.0072678374126553535,-0.00022183723922353238,0.00984114222228527
0.011957639828324318,0.006323492154479027,-0.013581349514424801,0.006580379791557789,-0.00021419176482595503,0.009951666928827763
0.012027028948068619,0.006983765866607428,-0.013053187169134617,0.0069305612705647945,-0.00020609145576599985,0.009942780248820782
0.012019472196698189,0.006709318142384291,-0.013959611766040325,0.006906687747687101,-0.00022936177265364677,0.010043838061392307
0.012329423800110817,0.006675667129456997,-0.013892469927668571,0.007179772015661001,-0.00022324583551380783,0.010403609834611416
0.012889071367681026,0.006749813910573721,-0.013763985596597195,0.007110765669494867,-0.0002308357070432976,0.009961259551346302
0.012091985903680325,0.006600162945687771,-0.013228406198322773,0.00699447188526392,-0.00023736922594252974,0.010497420094907284
0.0123941944912076,0.006787128746509552,-0.013750491663813591,0.006918398663401604,-0.00023068790324032307,0.010475009679794312
0.011994034983217716,0.006381286308169365,-0.013552463613450527,0.007323622703552246,-0.00022358329442795366,0.010586624965071678
0.012332773767411709,0.005959056317806244,-0.013659588061273098,0.0072520701214671135,-0.0002997709671035409,0.01022439543157816
0.012669268995523453,0.006299974862486124,-0.013723567128181458,0.007229785434901714,-0.0003065896453335881,0.010567615740001202
0.012021112255752087,0.006722348742187023,-0.013789388351142406,0.007443283684551716,-0.00028869579546153545,0.01092129573225975
0.012021112255752087,0.006722348742187023,-0.013789388351142406,0.007443283684551716,-0.00028869579546153545,0.01092129573225975
0.012508222833275795,0.006831087172031403,-0.013597911223769188,0.007497788872569799,-0.00027139289886690676,0.010725528933107853
0.0120891984552145,0.006759850773960352,-0.012997743673622608,0.007177535444498062,-0.0002559568383730948,0.01048026978969574
0.012445042841136456,0.006263925228267908,-0.012910294346511364,0.007188454736024141,-0.00024217732425313443,0.010453731752932072
0.012508188374340534,0.006584803108125925,-0.012521667405962944,0.007041854318231344,-0.0002726036764215678,0.01060020923614502
0.012336683459579945,0.006904302164912224,-0.013142661191523075,0.007195245008915663,-0.00026215711841359735,0.01073532272130251
0.012766269966959953,0.007180033251643181,-0.012937068939208984,0.007212440017610788,-0.000250190933002159,0.010133594274520874
0.012261956930160522,0.006292003206908703,-0.013347937725484371,0.007269817870110273,-0.00023912072356324643,0.010111690498888493
0.012342141009867191,0.0068364511243999004,-0.013018492609262466,0.0075009530410170555,-0.00025610372540540993,0.010476682335138321
0.012342141009867191,0.0068364511243999004,-0.013018492609262466,0.0075009530410170555,-0.00025610372540540993,0.010476682335138321
0.012489567510783672,0.005979739595204592,-0.013024208135902882,0.007857244461774826,-0.0002369896974414587,0.010751062072813511
0.012663410045206547,0.006246795877814293,-0.013426908291876316,0.007709461729973555,-0.00022839663142804056,0.010510404594242573
0.012848523445427418,0.006421814672648907,-0.013066028244793415,0.008025864139199257,-0.0002497615059837699,0.010770251974463463
0.012699892744421959,0.006535066291689873,-0.013539631851017475,0.007837114855647087,-0.0002432364854030311,0.010962571017444134
0.012585069052875042,0.006019356194883585,-0.013159150257706642,0.007427631411701441,-0.0002354085590923205,0.011192313395440578
0.01241062767803669,0.006106679793447256,-0.013497660867869854,0.007829159498214722,-0.00023647320631425828,0.01125392597168684
0.012966279871761799,0.006548591889441013,-0.01294888835400343,0.008278927765786648,-0.0002328331902390346,0.010768982581794262
0.012659231200814247,0.006323904264718294,-0.013909109868109226,0.0084257572889328,-0.00022191063908394426,0.010886858217418194
0.012565062381327152,0.006439546123147011,-0.013254204764962196,0.008036291226744652,-0.00021151374676264822,0.01068725436925888
0.012638900429010391,0.006341722793877125,-0.01365506649017334,0.007860059849917889,-0.00020201840379741043,0.010734791867434978
0.012757204473018646,0.005794767290353775,-0.013351444154977798,0.007674126885831356,-0.00019333725504111499,0.011248990893363953
0.012933730147778988,0.006352709140628576,-0.013574570417404175,0.007518611382693052,-0.0002127711195498705,0.01098254881799221
0.012331714853644371,0.006785607431083918,-0.013438201509416103,0.007479884661734104,-0.00021301070228219032,0.011116176843643188
0.012823477387428284,0.006419541779905558,-0.013740221038460732,0.007095862179994583,-0.00020546934683807194,0.011199955828487873
0.012916396372020245,0.006124136969447136,-0.013992306776344776,0.007808752357959747,-0.000197971923626028,0.010816538706421852
0.01332558412104845,0.0063317446038126945,-0.013758424669504166,0.008310442790389061,-0.00021452135115396231,0.010718178004026413
0.01332558412104845,0.0063317446038126945,-0.013758424669504166,0.008310442790389061,-0.00021452135115396231,0.010718178004026413
0.01307498849928379,0.006393019575625658,-0.01347131747752428,0.007685805205255747,-0.00021464916062541306,0.010757953859865665
0.01320124976336956,0.006922258995473385,-0.012998264282941818,0.0075111472979187965,-0.00022261914273258299,0.010856562294065952
0.012901588343083858,0.006584004499018192,-0.013480407185852528,0.007404640316963196,-0.0002292116841999814,0.010970300063490868
0.01345823798328638,0.006241406314074993,-0.012907248921692371,0.007879441604018211,-0.0002230056852567941,0.011082966811954975
0.013454698957502842,0.0061439829878509045,-0.013699409551918507,0.006992377806454897,-0.0002548708289396018,0.01116509921848774
0.013305199332535267,0.006362565793097019,-0.013347344473004341,0.007298594806343317,-0.00027601755573414266,0.011149892583489418
0.013588350266218185,0.006709314417093992,-0.013647010549902916,0.008059347979724407,-0.00026232932577840984,0.010870680212974548
0.013331716880202293,0.006364870350807905,-0.013298161327838898,0.007709562312811613,-0.00024802301777526736,0.011557686142623425
0.013628984801471233,0.0062633780762553215,-0.013028469868004322,0.008062314242124557,-0.0002676657459232956,0.012650541961193085
0.013628984801471233,0.0062633780762553215,-0.013028469868004322,0.008062314242124557,-0.0002676657459232956,0.012650541961193085
0.013337178155779839,0.006619678344577551,-0.013499604538083076,0.0081284549087286,-0.00024385715369135141,0.011003241874277592
0.013690359890460968,0.0062317210249602795,-0.013750745914876461,0.008463440462946892,-0.0002620501909404993,0.01126156747341156
0.013461518101394176,0.006485749501734972,-0.01375089306384325,0.008499115705490112,-0.0002602664171718061,0.011377069167792797
0.014398220926523209,0.006777447182685137,-0.013662372715771198,0.008096850477159023,-0.000250507437158376,0.011556076817214489
0.01405838131904602,0.006744083948433399,-0.013391677290201187,0.008110078983008862,-0.00024096386914607137,0.011659643612802029
0.014661656692624092,0.006309622433036566,-0.01344138290733099,0.008991830050945282,-0.00023208785569295287,0.011629493907094002
0.014153676107525826,0.0060591138899326324,-0.014090577140450478,0.008274956606328487,-0.00024749847943894565,0.012103220447897911
0.014637947082519531,0.00622051814571023,-0.013498620130121708,0.007819825783371925,-0.00024649599799886346,0.012180156074464321
0.01417787466198206,0.007261176593601704,-0.013967858627438545,0.007826101966202259,-0.00023880740627646446,0.012523726560175419
0.014784257858991623,0.0065745096653699875,-0.013303061947226524,0.008170904591679573,-0.0002313177683390677,0.012098421342670918
0.013936498202383518,0.006355161778628826,-0.014364995993673801,0.008591554127633572,-0.00025950983399525285,0.012173758819699287
0.014609694480895996,0.0063106766901910305,-0.013983515091240406,0.008035050705075264,-0.0002479270042385906,0.012475450523197651
0.014328490011394024,0.006267780903726816,-0.014317264780402184,0.008076561614871025,-0.00023514496569987386,0.012407109141349792
0.014878908172249794,0.0067959981970489025,-0.013738874346017838,0.008218059316277504,-0.00025645861751399934,0.012466756626963615
0.01505434513092041,0.006584087386727333,-0.01443844847381115,0.008272511884570122,-0.00025471553090028465,0.012425275519490242
0.015480407513678074,0.006318728905171156,-0.012596848420798779,0.008397083729505539,-0.00024388660676777363,0.012842850759625435
0.014740794897079468,0.005946937017142773,-0.015158900991082191,0.008568473160266876,-0.00023338766186498106,0.01240755058825016
0.014740794897079468,0.005946937017142773,-0.015158900991082191,0.008568473160266876,-0.00023338766186498106,0.01240755058825016
0.01525392197072506,0.006232497747987509,-0.014566926285624504,0.008678922429680824,-0.00022371909290086478,0.012417377904057503
0.015216435305774212,0.006463652942329645,-0.014637067914009094,0.008438603952527046,-0.00024818629026412964,0.012792444787919521
0.015363764017820358,0.006029595620930195,-0.015003721229732037,0.00885306391865015,-0.00024087177007459104,0.013041961006820202
0.014964085072278976,0.0061150589026510715,-0.015238072723150253,0.009106612764298916,-0.00023213679378386587,0.012869128957390785
0.015538576990365982,0.005879284348338842,-0.014444908127188683,0.008705073036253452,-0.0002537146501708776,0.012607019394636154
0.015554510988295078,0.005964898969978094,-0.014722147956490517,0.009420468471944332,-0.0002469568280503154,0.012973897159099579
0.015417160466313362,0.00660869013518095,-0.014560876414179802,0.009260286577045918,-0.0002804418036248535,0.013220684602856636
0.0155135253444314,0.005875673145055771,-0.015064633451402187,0.009401283226907253,-0.0003015698166564107,0.013185142539441586
0.01548550371080637,0.0058228191919624805,-0.014623288065195084,0.009260132908821106,-0.0002850728342309594,0.012959666550159454
0.01532001979649067,0.006384117994457483,-0.014806303195655346,0.009079929441213608,-0.0002904764551203698,0.01276292186230421
0.015909550711512566,0.0064755086787045,-0.014851310290396214,0.009403777308762074,-0.0002867342554964125,0.012603584676980972
0.01557823084294796,0.006246811244636774,-0.014853538945317268,0.010085862129926682,-0.00027299937210045755,0.01298465859144926
0.016263632103800774,0.005909918341785669,-0.014410371892154217,0.009603030979633331,-0.00025990561698563397,0.013058634474873543
0.01594138890504837,0.006135470699518919,-0.014954760670661926,0.008952632546424866,-0.00024796996149234474,0.013335381634533405
0.01603512279689312,0.0065132430754601955,-0.014579400420188904,0.00912511721253395,-0.0002563967718742788,0.013161360286176205
0.01599665731191635,0.006035662721842527,-0.014659392647445202,0.00910518504679203,-0.0002636396966408938,0.013624461367726326
0.01606576517224312,0.0052854642271995544,-0.015422445721924305,0.008906845934689045,-0.0002541775465942919,0.013547809794545174
0.016126271337270737,0.00499382009729743,-0.015116427093744278,0.009810374118387699,-0.00024439237313345075,0.013793310150504112
0.015841301530599594,0.004965634550899267,-0.014756175689399242,0.009150483645498753,-0.0002517288667149842,0.013811958953738213
0.01652979664504528,0.005450726952403784,-0.014849172905087471,0.009004203602671623,-0.0002580786240287125,0.013812072575092316
0.01594574563205242,0.005738057661801577,-0.014244374819099903,0.009584476239979267,-0.0002501170674804598,0.01412137784063816
0.016283372417092323,0.005451529752463102,-0.01500698272138834,0.009650693275034428,-0.00024178244348149747,0.013954540714621544
0.01640021987259388,0.005281060002744198,-0.01443374902009964,0.009401421993970871,-0.0002339302300242707,0.014091244898736477
0.016144702211022377,0.005523080937564373,-0.015165652148425579,0.009456118568778038,-0.00022656872170045972,0.014607531018555164
0.016322951763868332,0.005264767911285162,-0.014663498848676682,0.00979024451225996,-0.00022721437562722713,0.013496913947165012
0.016293497756123543,0.005135696846991777,-0.015436519868671894,0.009549584239721298,-0.00022354096290655434,0.013284650631248951
0.016293497756123543,0.005135696846991777,-0.015436519868671894,0.009549584239721298,-0.00022354096290655434,0.013284650631248951
0.01674661412835121,0.005619901232421398,-0.014425170607864857,0.009906397201120853,-0.00021343356638681144,0.013954726979136467
0.01666896604001522,0.005317171569913626,-0.015087592415511608,0.010000464506447315,-0.00020379823399707675,0.01417502760887146
0.016972288489341736,0.005212006624788046,-0.014573995023965836,0.009464984759688377,-0.00022875526337884367,0.014291760511696339
0.01639772579073906,0.004942990839481354,-0.015022440813481808,0.009510993026196957,-0.00022390465892385691,0.014117937535047531
0.01671561226248741,0.00531808752566576,-0.014313504099845886,0.009798189625144005,-0.00021527957869693637,0.014597333036363125
0.017082922160625458,0.005779034923762083,-0.015115471556782722,0.009379157796502113,-0.00023920759849715978,0.014626977033913136
0.016490347683429718,0.005234728567302227,-0.014681643806397915,0.009557442739605904,-0.00023247893841471523,0.014718965627253056
0.016941487789154053,0.005217319820076227,-0.015380531549453735,0.009404201060533524,-0.0002243362832814455,0.014544651843607426
0.01716989278793335,0.005099673289805651,-0.014737339690327644,0.008981678634881973,-0.00023953050549607724,0.01485203206539154
0.017944172024726868,0.005596178118139505,-0.014924592338502407,0.01008919719606638,-0.00023161110584624112,0.014311018399894238
0.01678111031651497,0.005563314538449049,-0.015110766515135765,0.00924552883952856,-0.0003096579748671502,0.014345143921673298
0.01722181960940361,0.005656227469444275,-0.014992299489676952,0.009920508600771427,-0.00031580249196849763,0.01434127613902092
0.017068471759557724,0.005196834448724985,-0.015302781946957111,0.01003698818385601,-0.0003404836170375347,0.014419295825064182
0.016800370067358017,0.005784640088677406,-0.015134281478822231,0.009456628933548927,-0.0003332141204737127,0.014893939718604088
0.016911664977669716,0.005434115882962942,-0.015021273866295815,0.010480147786438465,-0.0003146882518194616,0.015286510810256004
0.018018128350377083,0.005398231092840433,-0.015338890254497528,0.010341928340494633,-0.0003435508406255394,0.015060261823236942
0.01797812432050705,0.005330889485776424,-0.015111087821424007,0.009740031324326992,-0.00032863818341866136,0.014924820512533188
0.017412571236491203,0.005598039831966162,-0.015319553203880787,0.01010227482765913,-0.00031252767075784504,0.015103742480278015
0.017142118886113167,0.005366506054997444,-0.015150259248912334,0.010557809844613075,-0.0003346047888044268,0.015234648250043392
0.017864564433693886,0.005057130008935928,-0.01532852090895176,0.010516628623008728,-0.0003245689149480313,0.015337384305894375
0.017557278275489807,0.005151904653757811,-0.01446667592972517,0.010223690420389175,-0.0004132030007895082,0.015277977101504803
0.01790527254343033,0.0054695094004273415,-0.01536122802644968,0.010148066096007824,-0.0003927580255549401,0.014983083121478558
0.017806468531489372,0.005518040619790554,-0.014913089573383331,0.009880914352834225,-0.0004295709077268839,0.014813256449997425
0.01800909824669361,0.0055110580287873745,-0.015493888407945633,0.010399355553090572,-0.00040193204768002033,0.014706293120980263
0.01820809207856655,0.0055894809775054455,-0.014672629535198212,0.0107078542932868,-0.0003744075365830213,0.014991572126746178
0.017149485647678375,0.005604913458228111,-0.01530862133949995,0.010078484192490578,-0.00040057359728962183,0.015042274259030819
0.017149485647678375,0.005604913458228111,-0.01530862133949995,0.010078484192490578,-0.00040057359728962183,0.015042274259030819
0.017758695408701897,0.006111242342740297,-0.01460309512913227,0.010283361189067364,-0.00038302867324091494,0.015262778848409653
0.018068237230181694,0.005478274542838335,-0.015337011776864529,0.010365590453147888,-0.0004062279767822474,0.015200495719909668
0.018271496519446373,0.005293010268360376,-0.014939585700631142,0.010175063274800777,-0.00039028332685120404,0.01557274628430605
0.019119687378406525,0.005505674052983522,-0.015527026727795601,0.010917971841990948,-0.0004179134557489306,0.015375640243291855
0.0189098808914423,0.006105018779635429,-0.01586618460714817,0.010492381639778614,-0.0004251815553288907,0.01562674716114998
0.018384315073490143,0.005782717373222113,-0.015740882605314255,0.01027894951403141,-0.00044852125574834645,0.015548689290881157
0.018869459629058838,0.005775233265012503,-0.015719251707196236,0.01067906804382801,-0.00043074358836747706,0.015901869162917137
0.01864147186279297,0.005411708727478981,-0.015807637944817543,0.010412076488137245,-0.0004490053979679942,0.015835678204894066
0.01838250644505024,0.0058714356273412704,-0.015782911330461502,0.010448305867612362,-0.00043341226410120726,0.016044212505221367
0.01894298940896988,0.006125481333583593,-0.015977781265974045,0.010410270653665066,-0.0004344552580732852,0.01586000621318817
0.018767544999718666,0.006355844438076019,-0.015583137050271034,0.01027414109557867,-0.00041133389458991587,0.015099173411726952
0.018808918073773384,0.00560670206323266,-0.016386229544878006,0.010128715075552464,-0.00039141319575719535,0.015266555361449718
0.019138583913445473,0.0059346165508031845,-0.015652786940336227,0.009951119311153889,-0.00044223142322152853,0.01583823561668396
0.019379133358597755,0.0058806538581848145,-0.01581946201622486,0.010426141321659088,-0.0004079762729816139,0.015789682045578957
0.019385701045393944,0.006401656661182642,-0.01575138419866562,0.010572022758424282,-0.0003743842535186559,0.01612294465303421
0.0190581101924181,0.006412778049707413,-0.016376517713069916,0.009814812801778316,-0.0003963638737332076,0.01580180414021015
0.019351918250322342,0.005514150019735098,-0.016693683341145515,0.010452067479491234,-0.00038395076990127563,0.016187625005841255
0.01983591355383396,0.0054697212763130665,-0.016245098784565926,0.010024669580161572,-0.0003594162408262491,0.016363319009542465
0.01953864097595215,0.005839498247951269,-0.016705308109521866,0.009932763874530792,-0.0003370388294570148,0.01646018587052822
0.019550206139683723,0.006589064374566078,-0.016264988109469414,0.010742837563157082,-0.00034291946212761104,0.016232047230005264
0.01954667828977108,0.0061416164971888065,-0.016807634383440018,0.010993223637342453,-0.0003477863210719079,0.016153492033481598
0.01962321810424328,0.005738319829106331,-0.016151390969753265,0.010361665859818459,-0.00033104975591413677,0.016405317932367325
0.019709018990397453,0.005477315280586481,-0.016368219628930092,0.010663284920156002,-0.0003146260278299451,0.01624784618616104
0.020106295123696327,0.005730516742914915,-0.016907909885048866,0.010136966593563557,-0.0003312651242595166,0.016591746360063553
0.019962621852755547,0.006521568633615971,-0.016529029235243797,0.01075542438775301,-0.00032618650584481657,0.01663740910589695
0.020104603841900826,0.006785383448004723,-0.016870182007551193,0.011059938929975033,-0.0003126681549474597,0.016797536984086037
0.020560134202241898,0.005676704924553633,-0.016614418476819992,0.010778490453958511,-0.00029969349270686507,0.016965651884675026
0.020290525630116463,0.005373862572014332,-0.016896001994609833,0.011264205910265446,-0.00028810734511353076,0.01682543009519577
0.020170848816633224,0.005769831594079733,-0.01681344583630562,0.011132810264825821,-0.0002658398007042706,0.016819767653942108
0.020170848816633224,0.005769831594079733,-0.01681344583630562,0.011132810264825821,-0.0002658398007042706,0.016819767653942108
0.020473243668675423,0.006479362491518259,-0.016795333474874496,0.010856809094548225,-0.00025068133254535496,0.01682370714843273
0.020821556448936462,0.006055843085050583,-0.01684519276022911,0.011464391835033894,-0.0002724492223933339,0.01721346005797386
0.02034793421626091,0.0057258205488324165,-0.0164493378251791,0.011238547042012215,-0.00026981328846886754,0.017896875739097595
0.020522665232419968,0.005465833470225334,-0.017034664750099182,0.011200484819710255,-0.00025765469763427973,0.01732392981648445
0.021023964509367943,0.005725099239498377,-0.01669539324939251,0.010995058342814445,-0.0002814649196807295,0.01742548681795597
0.020950982347130775,0.006887455005198717,-0.01732160709798336,0.011497506871819496,-0.0002629724913276732,0.01662900671362877
0.02084272727370262,0.006172103341668844,-0.01702134869992733,0.011141826398670673,-0.00028370783547870815,0.017073171213269234
0.02016340382397175,0.0063081844709813595,-0.017108308151364326,0.011434739455580711,-0.0002770884893834591,0.017127277329564095
0.021280603483319283,0.0061026266776025295,-0.016649024561047554,0.011645366437733173,-0.0002670891408342868,0.017796628177165985
0.021549461409449577,0.0065546417608857155,-0.017257370054721832,0.01135294046252966,-0.00025755196111276746,0.018264371901750565
0.021435854956507683,0.006710960064083338,-0.01740613579750061,0.012276350520551205,-0.0002486576559022069,0.01762225292623043
0.02174942009150982,0.006619855295866728,-0.01676708459854126,0.01169061940163374,-0.0003192683798260987,0.017316535115242004
0.021842744201421738,0.006148086860775948,-0.017192961648106575,0.012086911126971245,-0.000303509586956352,0.017190326005220413
0.021479012444615364,0.006115735042840242,-0.016326267272233963,0.011823531240224838,-0.00028467708034440875,0.01789146102964878
0.020931534469127655,0.006850207690149546,-0.016829483211040497,0.011119483970105648,-0.0002677557058632374,0.018065376207232475
0.02142956852912903,0.006412764545530081,-0.01693316176533699,0.011632137931883335,-0.00029975944198668003,0.01771809160709381
0.021769460290670395,0.005963047035038471,-0.016725927591323853,0.011095285415649414,-0.00028689776081591845,0.017484620213508606
0.021633228287100792,0.006180300377309322,-0.01689486764371395,0.011085259728133678,-0.0002726098464336246,0.01722615957260132
0.02147775888442993,0.006419862620532513,-0.016752662137150764,0.01114835124462843,-0.00025951748830266297,0.01806977391242981
0.021807363256812096,0.006257231812924147,-0.017059268429875374,0.011425518430769444,-0.00026774374418891966,0.017622195184230804
0.0223954226821661,0.006213689688593149,-0.01688794419169426,0.011909421533346176,-0.00027483506710268557,0.01709338277578354
0.022536257281899452,0.006304955575615168,-0.01731039211153984,0.011656049638986588,-0.00026452128076925874,0.018004857003688812
0.02188260294497013,0.006142298690974712,-0.0176471546292305,0.011958315037190914,-0.0002807538548950106,0.018113043159246445
0.022427478805184364,0.006258227396756411,-0.01705336384475231,0.01218668557703495,-0.0002783557283692062,0.018070876598358154
0.02202603779733181,0.006787779275327921,-0.01715482398867607,0.011610906571149826,-0.00026918965158984065,0.01799662783741951
0.02202603779733181,0.006787779275327921,-0.01715482398867607,0.011610906571149826,-0.00026918965158984065,0.01799662783741951
0.021917803213000298,0.006137171760201454,-0.01675308495759964,0.012105350382626057,-0.0003015698748640716,0.017990076914429665
0.02191063016653061,0.006375440396368504,-0.01685621403157711,0.011980847455561161,-0.00032781672780402005,0.01827649585902691
0.022450126707553864,0.006590931676328182,-0.016908107325434685,0.01246757060289383,-0.0003216451732441783,0.01825479045510292
0.02261081337928772,0.0070737553760409355,-0.016417009755969048,0.01183998491615057,-0.00030438380781561136,0.018458206206560135
0.022278619930148125,0.006910189054906368,-0.017149562016129494,0.01137699093669653,-0.00032974599162116647,0.01853572390973568
0.022177185863256454,0.006257584318518639,-0.016849124804139137,0.012036372907459736,-0.0003187623806297779,0.018710950389504433
0.022557327523827553,0.0056088934652507305,-0.01709355227649212,0.011723711155354977,-0.00030376261565834284,0.01869567297399044
0.022704927250742912,0.005900654476135969,-0.016229353845119476,0.011919264681637287,-0.00031713175121694803,0.018744977191090584
0.022569751366972923,0.005457405000925064,-0.01682927832007408,0.011941575445234776,-0.00044365646317601204,0.01873541623353958
0.02215609885752201,0.005340798757970333,-0.016503777354955673,0.012295220047235489,-0.0004738848365377635,0.019227225333452225
0.022754888981580734,0.005487500224262476,-0.01734459027647972,0.011775887571275234,-0.0004534685576800257,0.019059699028730392
0.022668350487947464,0.005162874236702919,-0.01690622605383396,0.012474846094846725,-0.00045326148392632604,0.018852412700653076
0.0224455539137125,0.00539424316957593,-0.017057010903954506,0.012221085838973522,-0.0004518309433478862,0.01891878806054592
0.022646090015769005,0.005156031344085932,-0.017412150278687477,0.012884220108389854,-0.0004527937271632254,0.019241102039813995
0.022507529705762863,0.005261825863271952,-0.01679382100701332,0.012536502443253994,-0.00045158452121540904,0.01925630494952202
0.02324594371020794,0.005486400797963142,-0.017160246148705482,0.011919769458472729,-0.00042705642408691347,0.019082050770521164
0.023410508409142494,0.00507307518273592,-0.017092321068048477,0.012750023975968361,-0.0005000641685910523,0.019346870481967926
0.021601276472210884,0.004960327874869108,-0.01728050410747528,0.012083830311894417,-0.0005010583554394543,0.019495930522680283
0.023812497034668922,0.005401886999607086,-0.017738889902830124,0.012092165648937225,-0.0004953909083269536,0.01940787211060524
0.023984864354133606,0.005235781893134117,-0.017281826585531235,0.011597917415201664,-0.0004928149865008891,0.01950182393193245
0.023612385615706444,0.005429842509329319,-0.018142232671380043,0.011916265822947025,-0.0004883125075139105,0.019649410620331764
0.023404140025377274,0.005152062978595495,-0.017640842124819756,0.011899388395249844,-0.0005030223401263356,0.019425876438617706
0.02361590787768364,0.004865173250436783,-0.01776406541466713,0.011814616620540619,-0.00048488861648365855,0.01921902224421501
0.023524180054664612,0.005241411738097668,-0.017965346574783325,0.011987756937742233,-0.0005678118905052543,0.01955685205757618
0.02333155646920204,0.00529335206374526,-0.017275460064411163,0.011754758656024933,-0.0006076633580960333,0.019686048850417137
0.024313267320394516,0.0050716339610517025,-0.01785721629858017,0.011994904838502407,-0.0006195998867042363,0.01981637440621853
0.02458011545240879,0.005163691006600857,-0.017968187108635902,0.011888825334608555,-0.0005833351169712842,0.02001187391579151
0.02458011545240879,0.005163691006600857,-0.017968187108635902,0.011888825334608555,-0.0005833351169712842,0.02001187391579151
0.02492460235953331,0.005062187556177378,-0.018285194411873817,0.012131256982684135,-0.0006009992212057114,0.020164957270026207
0.024165570735931396,0.004714498296380043,-0.018245195969939232,0.012610355392098427,-0.0006609316915273666,0.020295806229114532
0.023328430950641632,0.004866125527769327,-0.017890216782689095,0.012546911835670471,-0.00075343664502725,0.01999807357788086
0.024100130423903465,0.005357495509088039,-0.018216900527477264,0.012804481200873852,-0.0006920460145920515,0.02026624232530594
0.02454046718776226,0.0051498934626579285,-0.01852697692811489,0.012582510709762573,-0.0007034591981209815,0.019932258874177933
0.024742597714066505,0.0046455697156488895,-0.018010031431913376,0.012542045675218105,-0.0006564584909938276,0.0206123199313879
0.024742597714066505,0.0046455697156488895,-0.018010031431913376,0.012542045675218105,-0.0006564584909938276,0.0206123199313879
0.025312086567282677,0.0046631768345832825,-0.01792164333164692,0.013029690831899643,-0.0006158417090773582,0.02076246775686741
0.024882538244128227,0.005123847629874945,-0.018495531752705574,0.012410296127200127,-0.0006405317108146846,0.021596919745206833
0.024679580703377724,0.005016264971345663,-0.01787741482257843,0.012768253684043884,-0.0006680363439954817,0.02039332687854767
0.024463264271616936,0.0047752512618899345,-0.0181804820895195,0.012330402620136738,-0.0006150167901068926,0.020025812089443207
0.024860840290784836,0.004854146391153336,-0.01871655322611332,0.013039898127317429,-0.0006300086970441043,0.02026902325451374
0.025563141331076622,0.004818430170416832,-0.01813012734055519,0.01310713216662407,-0.0005879929522052407,0.021264344453811646
0.02558659389615059,0.0049241469241678715,-0.018513694405555725,0.013632082380354404,-0.0006438890704885125,0.021631712093949318
0.0252939835190773,0.00529640493914485,-0.018535191193223,0.013446267694234848,-0.0005784064996987581,0.020655764266848564
0.025705402716994286,0.005415028892457485,-0.018130900338292122,0.013909663073718548,-0.0006085626664571464,0.019633013755083084
0.02555813267827034,0.004828932695090771,-0.01857021078467369,0.014132394455373287,-0.0005968578043393791,0.020250514149665833
0.02582770586013794,0.0044707125052809715,-0.018625697121024132,0.013933040201663971,-0.0005820062942802906,0.02143224887549877
0.025493619963526726,0.004883297253400087,-0.01828780584037304,0.014077133499085903,-0.0005351728177629411,0.022030018270015717
0.024497969076037407,0.0050469352863729,-0.018869975581765175,0.013890411704778671,-0.00054513307986781,0.021355530247092247
0.025906095281243324,0.004791938234120607,-0.018863815814256668,0.013982751406729221,-0.0005216822028160095,0.021422455087304115
0.026342002674937248,0.004770814441144466,-0.01811511255800724,0.013785743154585361,-0.0004874016158282757,0.021863365545868874
0.026286719366908073,0.004719728138297796,-0.01848546788096428,0.01357203908264637,-0.00045842633699066937,0.022579658776521683
0.026381630450487137,0.004622256383299828,-0.018533390015363693,0.013048570603132248,-0.0004244848096277565,0.022049134597182274
0.026355911046266556,0.0046222880482673645,-0.018657248467206955,0.013601589947938919,-0.0004258584522176534,0.021294230595231056
0.026441652327775955,0.004727544263005257,-0.01907128095626831,0.013295282609760761,-0.00042645042412914336,0.020962152630090714
0.02656381018459797,0.00466699106618762,-0.01819990575313568,0.013762684538960457,-0.0004588770680129528,0.021334879100322723
0.026607602834701538,0.004811850842088461,-0.018423903733491898,0.013646493665874004,-0.0004848861717619002,0.021939683705568314
0.026894940063357353,0.005165534559637308,-0.018876854330301285,0.014145782217383385,-0.0004629836475942284,0.022298209369182587
0.026894940063357353,0.005165534559637308,-0.018876854330301285,0.014145782217383385,-0.0004629836475942284,0.022298209369182587
0.026568375527858734,0.004905016627162695,-0.01844359003007412,0.013745732605457306,-0.0006362064741551876,0.02216969057917595
0.02672220952808857,0.004926308058202267,-0.018497075885534286,0.013865460641682148,-0.0006543728522956371,0.022108256816864014
0.027077415958046913,0.0046584950760006905,-0.01877482980489731,0.013599701225757599,-0.0006071255775168538,0.02164355292916298
0.026586167514324188,0.004842924419790506,-0.018299603834748268,0.013548801653087139,-0.0006139175966382027,0.021551335230469704
0.027112413197755814,0.005452471319586039,-0.018845176324248314,0.013608437031507492,-0.0005781534709967673,0.02172081358730793
0.027659336104989052,0.005109779536724091,-0.018986793234944344,0.013921181671321392,-0.0005961297429166734,0.022002747282385826
0.027463508769869804,0.004696914926171303,-0.01825791969895363,0.013910518027842045,-0.0005588153726421297,0.02234928123652935
0.027814585715532303,0.0046849120408296585,-0.01904424838721752,0.013615828938782215,-0.0005633190157823265,0.022603629156947136
0.028116518631577492,0.005259803496301174,-0.018492819741368294,0.013423928990960121,-0.0005466639413498342,0.022349145263433456
0.028383849188685417,0.005569192580878735,-0.01923360861837864,0.013797452673316002,-0.000574752630200237,0.02293676882982254
0.028057144954800606,0.005137319210916758,-0.019681042060256004,0.013711403124034405,-0.0005680964677594602,0.022896837443113327
0.028155602514743805,0.0049303313717246056,-0.019315268844366074,0.014330745674669743,-0.0005577968549914658,0.022675419226288795
0.028772227466106415,0.004831741098314524,-0.01956828311085701,0.014399582520127296,-0.0006463781464844942,0.022645993158221245
0.02951458841562271,0.004808090627193451,-0.01919548399746418,0.015116394497454166,-0.0006840178975835443,0.02264587953686714
0.029315905645489693,0.004973703064024448,-0.01865440607070923,0.015064258128404617,-0.0006699434597976506,0.02247849479317665
0.026805037632584572,0.005580103024840355,-0.019275838509202003,0.015108014456927776,-0.0006465191836468875,0.02249929867684841
0.028641415759921074,0.005231731105595827,-0.019727502018213272,0.014839856885373592,-0.0006614650483243167,0.023124661296606064
0.029428021982312202,0.00544913811609149,-0.01991257816553116,0.014698420651257038,-0.000614962715189904,0.023310011252760887
0.028853803873062134,0.005078943446278572,-0.01934904232621193,0.014736548066139221,-0.0006645834073424339,0.023082954809069633
0.028723590075969696,0.00483087869361043,-0.01917382702231407,0.015297509729862213,-0.0005937423557043076,0.0227308701723814
0.029652155935764313,0.004956972319632769,-0.019926486536860466,0.01526320818811655,-0.0006019604625180364,0.02284162864089012
0.03014659695327282,0.005317515693604946,-0.020557427778840065,0.015371528454124928,-0.0005626650527119637,0.023217175155878067
0.029726335778832436,0.005200516898185015,-0.019485987722873688,0.015471753664314747,-0.0005899328389205039,0.023688528686761856
0.028805097565054893,0.005276055075228214,-0.019022705033421516,0.014835376292467117,-0.0006112442351877689,0.02390776202082634
0.029342463240027428,0.0049811373464763165,-0.020321667194366455,0.014787843450903893,-0.0006159058539196849,0.023353835567831993
0.03025927022099495,0.004889673087745905,-0.01988402009010315,0.014041119255125523,-0.000666353793349117,0.02271963097155094
0.030043838545680046,0.005472169257700443,-0.018670769408345222,0.014431358315050602,-0.0006187910330481827,0.022213460877537727
0.030043838545680046,0.005472169257700443,-0.018670769408345222,0.014431358315050602,-0.0006187910330481827,0.022213460877537727
0.02973744459450245,0.005268324166536331,-0.019490085542201996,0.01454210001975298,-0.0006428576307371259,0.02315816842019558
0.029650915414094925,0.005937912501394749,-0.02033843658864498,0.014946685172617435,-0.0006609268602915108,0.024081630632281303
0.029419466853141785,0.005442188587039709,-0.01967623643577099,0.014732886105775833,-0.0007320880540646613,0.023700464516878128
0.029790790751576424,0.005064395256340504,-0.019677473232150078,0.015331507660448551,-0.0007258201949298382,0.02405988797545433
0.029936067759990692,0.005120973568409681,-0.019674692302942276,0.01510378997772932,-0.000739293813239783,0.024309517815709114
0.029466643929481506,0.005155256483703852,-0.01929512806236744,0.014810899272561073,-0.0006633696611970663,0.024126354604959488
0.029852326959371567,0.005718184635043144,-0.0195003729313612,0.013909868896007538,-0.0005915564834140241,0.024118753150105476
0.030166229233145714,0.005342524964362383,-0.019947387278079987,0.014703353866934776,-0.0005980869755148888,0.023708704859018326
0.02976396679878235,0.005315665155649185,-0.019407907500863075,0.015428495593369007,-0.0005831861053593457,0.023574000224471092
0.029787583276629448,0.005208529997617006,-0.019919022917747498,0.014913125894963741,-0.0005458827945403755,0.024448323994874954
0.029929812997579575,0.005841693840920925,-0.019717786461114883,0.01469154842197895,-0.000536890875082463,0.024419141933321953
0.030171658843755722,0.005652131047099829,-0.019554294645786285,0.014269542880356312,-0.0005269250250421464,0.024282528087496758
0.028805090114474297,0.005312871653586626,-0.019578896462917328,0.0150754414498806,-0.0005415159976109862,0.024077028036117554
0.030957035720348358,0.005323651246726513,-0.019893381744623184,0.014212400652468204,-0.0005155708058737218,0.02399531379342079
0.031834643334150314,0.005613300018012524,-0.019418517127633095,0.014676314778625965,-0.0005277761956676841,0.024140825495123863
0.03197303041815758,0.005325095262378454,-0.01980200596153736,0.01498926617205143,-0.0005062994314357638,0.024544529616832733
0.030267566442489624,0.00581896910443902,-0.01982712745666504,0.015551808290183544,-0.0004751161905005574,0.024762030690908432
0.03040822595357895,0.005329696461558342,-0.01929659955203533,0.015455696731805801,-0.0005484479479491711,0.024564875289797783
0.03165917843580246,0.005216658115386963,-0.020159214735031128,0.015740714967250824,-0.0004965165862813592,0.024890389293432236
0.031141994521021843,0.005431588739156723,-0.02027408964931965,0.015939004719257355,-0.0005246562650427222,0.024688640609383583
0.03090931661427021,0.005188148934394121,-0.019367864355444908,0.015958424657583237,-0.0004877163446508348,0.024852171540260315
0.03174036741256714,0.005332429893314838,-0.019538767635822296,0.016306860372424126,-0.0005026638391427696,0.024855557829141617
0.031608860939741135,0.0055052232928574085,-0.019927574321627617,0.016151094809174538,-0.00048125593457370996,0.024748994037508965
0.03091815486550331,0.005556616000831127,-0.01966508850455284,0.01644298993051052,-0.0005076417583040893,0.025243377313017845
0.03099927492439747,0.005263723898679018,-0.01969928853213787,0.01590990275144577,-0.0005458767991513014,0.024634864181280136
0.031717244535684586,0.005030956584960222,-0.019832419231534004,0.016377180814743042,-0.000583591521717608,0.025022312998771667
0.031735002994537354,0.005179109983146191,-0.019466163590550423,0.016360467299818993,-0.0006157716270536184,0.025120362639427185
0.031984906643629074,0.0050836531445384026,-0.01962311565876007,0.016249490901827812,-0.0006213390151970088,0.024927649646997452
0.031984906643629074,0.0050836531445384026,-0.01962311565876007,0.016249490901827812,-0.0006213390151970088,0.024927649646997452
0.03220181539654732,0.005248027388006449,-0.020022403448820114,0.015953844413161278,-0.0006067721988074481,0.025174815207719803
0.03211824223399162,0.005345580168068409,-0.02008131705224514,0.01535516232252121,-0.0007543922401964664,0.025278279557824135
0.03150084987282753,0.004926152992993593,-0.01951514557003975,0.01565779559314251,-0.0008053286583162844,0.025126392021775246
0.03166923299431801,0.005027324892580509,-0.01984691433608532,0.015227366238832474,-0.0007897014729678631,0.0248724352568388
0.03193255141377449,0.005274566821753979,-0.020354527980089188,0.015680374577641487,-0.0007495421450585127,0.025394953787326813
0.03209180757403374,0.005380714312195778,-0.01975291408598423,0.015398900955915451,-0.0007555707707069814,0.025404132902622223
0.032443393021821976,0.0057261004112660885,-0.019905539229512215,0.01600753515958786,-0.0006961787003092468,0.02529355324804783
0.03242449089884758,0.005103589501231909,-0.01987832598388195,0.015482494607567787,-0.0007000148762017488,0.025448236614465714
0.03160740062594414,0.005415646359324455,-0.020230572670698166,0.015559498220682144,-0.0006456943228840828,0.0254384595900774
0.0326831080019474,0.005564215127378702,-0.020253058522939682,0.015981927514076233,-0.000660222489386797,0.025419220328330994
0.032554470002651215,0.005732766352593899,-0.020237427204847336,0.01591014675796032,-0.0006713270558975637,0.02557333931326866
0.032160528004169464,0.005124114919453859,-0.020201966166496277,0.015956131741404533,-0.0006957293371669948,0.02594347670674324
0.03255476430058479,0.004477791953831911,-0.0208669975399971,0.016792695969343185,-0.0007534276228398085,0.026660291478037834
0.03291793912649155,0.0045295096933841705,-0.020465904846787453,0.016584953293204308,-0.0007742000161670148,0.02697165682911873
0.032935842871665955,0.004859546199440956,-0.019479801878333092,0.017046166583895683,-0.000788712059147656,0.02618470788002014
0.03305555880069733,0.0048949336633086205,-0.02007666975259781,0.016436012461781502,-0.0008830946171656251,0.025332670658826828
0.0334177128970623,0.0054799774661660194,-0.020261967554688454,0.016183894127607346,-0.0009856680408120155,0.025459997355937958
0.03277235105633736,0.005024472251534462,-0.019768981263041496,0.016182973980903625,-0.0009421846480108798,0.026502439752221107
0.03314857557415962,0.004459041636437178,-0.02050216682255268,0.016176344826817513,-0.0008745665545575321,0.026275774464011192
0.03341939300298691,0.004454559646546841,-0.020352983847260475,0.016686957329511642,-0.0008734674192965031,0.026177868247032166
0.033430296927690506,0.004649512469768524,-0.020174432545900345,0.016354255378246307,-0.0008282099151983857,0.027089813724160194
0.03326977416872978,0.004680106416344643,-0.02034800313413143,0.016726914793252945,-0.0007361375610344112,0.026701219379901886
0.03329753875732422,0.004754052497446537,-0.020873846486210823,0.01619095541536808,-0.0007522085797972977,0.025494348257780075
0.03359508141875267,0.004717657342553139,-0.020766815170645714,0.016415685415267944,-0.0006669796421192586,0.025886215269565582
0.034040648490190506,0.004538377281278372,-0.019603818655014038,0.016518060117959976,-0.0006857269327156246,0.02722262218594551
0.03393359109759331,0.004548400174826384,-0.020115531980991364,0.01645931787788868,-0.0006667164852842689,0.027818288654088974
0.03393359109759331,0.004548400174826384,-0.020115531980991364,0.01645931787788868,-0.0006667164852842689,0.027818288654088974
0.032669879496097565,0.004685377236455679,-0.02147040329873562,0.016911515966057777,-0.000649425492156297,0.027471259236335754
0.03415367752313614,0.004642315674573183,-0.01996123045682907,0.01637277379631996,-0.0006182774086482823,0.026581736281514168
0.0339292548596859,0.004798834677785635,-0.020151695236563683,0.01671164110302925,-0.0006481264717876911,0.026737218722701073
0.03414659947156906,0.004806202836334705,-0.02153945527970791,0.016551529988646507,-0.0006315795471891761,0.026809871196746826
0.03502361476421356,0.004862971603870392,-0.021071646362543106,0.01734882779419422,-0.0006126073421910405,0.02689957804977894
0.034394364804029465,0.004315786529332399,-0.020411374047398567,0.017820479348301888,-0.000619523401837796,0.02682475745677948
0.033917978405952454,0.004256715066730976,-0.02082759328186512,0.01759323664009571,-0.0005909441388212144,0.026604795828461647
0.03361319378018379,0.0041681635193526745,-0.020958513021469116,0.017752723768353462,-0.000645529362373054,0.026952384039759636
0.03482142835855484,0.004333493299782276,-0.02080930583178997,0.01691380888223648,-0.0006785549339838326,0.02694522775709629
0.03369670361280441,0.004610508214682341,-0.020894784480333328,0.01674325205385685,-0.0006967202643863857,0.02673448994755745
0.03525104001164436,0.004235132597386837,-0.02096308395266533,0.01686599850654602,-0.000657238531857729,0.027060793712735176
0.03460298106074333,0.004123112186789513,-0.020454611629247665,0.017863288521766663,-0.0006764047429896891,0.027368659153580666
0.03433285281062126,0.004077875055372715,-0.020721331238746643,0.017233513295650482,-0.0007427798700518906,0.02731824852526188
0.0347956158220768,0.004505287390202284,-0.020821738988161087,0.01750706508755684,-0.0007799490704201162,0.027656802907586098
0.03472379967570305,0.004556985571980476,-0.02107480727136135,0.017288465052843094,-0.0008014508639462292,0.027657702565193176
0.0352303683757782,0.004853225778788328,-0.020891603082418442,0.016416260972619057,-0.0010254101362079382,0.028352146968245506
0.03514065966010094,0.004864933900535107,-0.021009724587202072,0.017187118530273438,-0.0010256808018311858,0.028152145445346832
0.034771595150232315,0.004642491694539785,-0.020860567688941956,0.017320891842246056,-0.0009507351205684245,0.027840929105877876
0.03484406694769859,0.004638113081455231,-0.02059493586421013,0.01814102567732334,-0.0008798748604021966,0.02761542983353138
0.03505910933017731,0.004756246227771044,-0.02050752379000187,0.018121179193258286,-0.0008560775313526392,0.028167635202407837
0.03670482710003853,0.004368405323475599,-0.02143857814371586,0.01761915720999241,-0.0007872206624597311,0.02934471145272255
0.035876933485269547,0.004426706116646528,-0.02149977535009384,0.017989734187722206,-0.0007150404853746295,0.029272377490997314
0.03396080806851387,0.005025281570851803,-0.020891312509775162,0.017869746312499046,-0.0005986386677250266,0.028382735326886177
0.03557910397648811,0.004992804955691099,-0.021066397428512573,0.017923640087246895,-0.0006174104055389762,0.027242254465818405
0.03600802645087242,0.004307470750063658,-0.021361563354730606,0.018094822764396667,-0.0006102278712205589,0.02776847966015339
0.03591856732964516,0.004224526230245829,-0.02104972116649151,0.017985749989748,-0.0005941995768807828,0.028615783900022507
0.03636159002780914,0.004582670517265797,-0.020963845774531364,0.01831759884953499,-0.0006178128533065319,0.028005708009004593
0.03636159002780914,0.004582670517265797,-0.020963845774531364,0.01831759884953499,-0.0006178128533065319,0.028005708009004593
0.03652992844581604,0.004755834583193064,-0.02149949036538601,0.017948133870959282,-0.0006592695717699826,0.028380481526255608
0.03513901308178902,0.004896168131381273,-0.02141418121755123,0.017325738444924355,-0.0006502236938104033,0.029971769079566002
0.035722386091947556,0.0046065510250627995,-0.021357888355851173,0.01811140589416027,-0.0006790731567889452,0.029030190780758858
0.036791764199733734,0.004523213021457195,-0.021379884332418442,0.0186440609395504,-0.000683751713950187,0.02866394631564617
0.03681476414203644,0.00444789556786418,-0.021596699953079224,0.01875840127468109,-0.0006376706878654659,0.028135446831583977
0.0364605113863945,0.004502665717154741,-0.021494805812835693,0.018567927181720734,-0.0005803786916658282,0.028798967599868774
0.036170732229948044,0.00466354563832283,-0.02135010063648224,0.01806383952498436,-0.0006019756547175348,0.029887214303016663
0.03695087507367134,0.004403046332299709,-0.020999465137720108,0.018026040866971016,-0.0005618830909952521,0.02974805049598217
0.037110622972249985,0.004505720920860767,-0.02148290164768696,0.018446389585733414,-0.0005581318982876837,0.02939428761601448
0.03662186488509178,0.004991377238184214,-0.021765777841210365,0.01863815076649189,-0.0006054847035557032,0.029010869562625885
0.03675958514213562,0.004664240870624781,-0.021021518856287003,0.018575971946120262,-0.0005715654697269201,0.02877548336982727
0.037548311054706573,0.0050496915355324745,-0.021498505026102066,0.018315432593226433,-0.0005949525511823595,0.02931259199976921
0.03736533597111702,0.004866577219218016,-0.022510617971420288,0.01873038150370121,-0.0007342022727243602,0.029779046773910522
0.0375538095831871,0.004923629108816385,-0.02284802868962288,0.01840278133749962,-0.0007694437517784536,0.02958490327000618
0.038190361112356186,0.004840781446546316,-0.021600697189569473,0.017977064475417137,-0.0007432556594721973,0.02960469014942646
0.03726853057742119,0.004739684518426657,-0.022503437474370003,0.018479859456419945,-0.0007093727472238243,0.02979888953268528
0.03762010857462883,0.004647082649171352,-0.02226950414478779,0.018095726147294044,-0.0007073244778439403,0.029518302530050278
0.03865488991141319,0.004683795850723982,-0.022077707573771477,0.01788789965212345,-0.0006692323368042707,0.029723677784204483
0.037992212921381,0.0046041314490139484,-0.022307265549898148,0.018048474565148354,-0.0007411377155221999,0.0298580564558506
0.037787336856126785,0.004726664163172245,-0.02282402291893959,0.01769949495792389,-0.0007080218638293445,0.029934179037809372
0.038404736667871475,0.004695657640695572,-0.02294570580124855,0.017772406339645386,-0.0007196827791631222,0.030287139117717743
0.03826901316642761,0.004583106841892004,-0.02307051792740822,0.017823243513703346,-0.0007022020872682333,0.030235758051276207
0.03828999772667885,0.00447939895093441,-0.02269001305103302,0.0179133303463459,-0.0006775310030207038,0.030414482578635216
0.038700781762599945,0.004687527660280466,-0.02249641716480255,0.018387779593467712,-0.0007140847155824304,0.03044721856713295
0.038444481790065765,0.004724546801298857,-0.02222316525876522,0.018056346103549004,-0.000756670197006315,0.030560677871108055
0.03798991069197655,0.004659408237785101,-0.022971244528889656,0.018062036484479904,-0.0007757974090054631,0.03059004247188568
0.03822477161884308,0.004785825032740831,-0.02327655628323555,0.018313497304916382,-0.000789767422247678,0.029810652136802673
0.0396823026239872,0.0052364543080329895,-0.023051677271723747,0.018001412972807884,-0.0008497306262142956,0.030864756554365158
0.0391300693154335,0.004887192975729704,-0.022549405694007874,0.018263190984725952,-0.0008960603736341,0.03065982647240162
0.0391300693154335,0.004887192975729704,-0.022549405694007874,0.018263190984725952,-0.0008960603736341,0.03065982647240162
0.0381106473505497,0.004480225034058094,-0.022670982405543327,0.018566889688372612,-0.0008330499986186624,0.031487077474594116
0.03864286467432976,0.0042780009098351,-0.02266216278076172,0.01851443573832512,-0.0008376784971915185,0.03167145699262619
0.0385788157582283,0.004858136177062988,-0.02308575063943863,0.018786268308758736,-0.0007970358128659427,0.030361711978912354
0.039864297956228256,0.005115580279380083,-0.02283826470375061,0.018287293612957,-0.0007590116001665592,0.029779698699712753
0.03995288163423538,0.004472489934414625,-0.022534670308232307,0.018213344737887383,-0.0006892883102409542,0.03019019588828087
0.03821558877825737,0.004368421621620655,-0.022737881168723106,0.01886031962931156,-0.0006271412130445242,0.031605400145053864
0.03784915804862976,0.004538525361567736,-0.02308439277112484,0.019612809643149376,-0.0006059380830265582,0.03125660493969917
0.03969857841730118,0.004607105627655983,-0.022846095263957977,0.019008735194802284,-0.0005873023183085024,0.032309066504240036
0.03951215371489525,0.0044191572815179825,-0.0222333911806345,0.01932428404688835,-0.0006088278605602682,0.031901419162750244
0.03945809230208397,0.0044444710947573185,-0.022468362003564835,0.01821759343147278,-0.0005877641960978508,0.030498556792736053
0.039638519287109375,0.004327177535742521,-0.022942552343010902,0.01910703256726265,-0.0006524838390760124,0.030868757516145706
0.03961227834224701,0.0044386438094079494,-0.02284543402493,0.019338980317115784,-0.0007073426386341453,0.03203729912638664
0.03919161483645439,0.004607578739523888,-0.022562794387340546,0.01963435299694538,-0.0006399622070603073,0.0319439060986042
0.03980057314038277,0.0044138249941170216,-0.02232774719595909,0.019512202590703964,-0.0006551341502927244,0.03177512064576149
0.03930969163775444,0.004572581499814987,-0.022343192249536514,0.019124753773212433,-0.0006035072146914899,0.03155495971441269
0.03932148218154907,0.004561078269034624,-0.02278303913772106,0.019590778276324272,-0.0005894222995266318,0.031101252883672714
0.04048280417919159,0.0046373652294278145,-0.022455580532550812,0.020298151299357414,-0.0005767669063061476,0.031479429453611374
0.04025678709149361,0.004619885236024857,-0.022377721965312958,0.020015308633446693,-0.0005737874889746308,0.03200020641088486
0.038810037076473236,0.004670232068747282,-0.022510504350066185,0.019160544499754906,-0.0005414698389358819,0.031991176307201385
0.039737407118082047,0.004556982312351465,-0.02256380394101143,0.0194478090852499,-0.000575403100810945,0.0315995030105114
0.03935076296329498,0.0044617727398872375,-0.02264631912112236,0.019435470923781395,-0.0005253945710137486,0.031653281301259995
0.040744293481111526,0.00439259922131896,-0.023297810927033424,0.019298484548926353,-0.0005532560171559453,0.03200720623135567
0.04064873978495598,0.004591419827193022,-0.023112958297133446,0.019773969426751137,-0.0005485238507390022,0.032500654458999634
0.03903698921203613,0.0046949731186032295,-0.022977061569690704,0.020227927714586258,-0.0005400150548666716,0.032343994826078415
0.03919797018170357,0.004322662018239498,-0.022931676357984543,0.01975361816585064,-0.0005861633690074086,0.03356645628809929
0.04063507169485092,0.004163830541074276,-0.022318080067634583,0.01991763897240162,-0.0005447325529530644,0.03275194391608238
0.04080522060394287,0.0044956691563129425,-0.022696206346154213,0.01956082321703434,-0.0005587461055256426,0.032804183661937714
0.04080522060394287,0.0044956691563129425,-0.022696206346154213,0.01956082321703434,-0.0005587461055256426,0.032804183661937714
0.04024634137749672,0.004619105253368616,-0.023244163021445274,0.019136887043714523,-0.0005262191989459097,0.03287489339709282
0.040890004485845566,0.0042655630968511105,-0.02284851111471653,0.019451292231678963,-0.00048075977247208357,0.03353707492351532
0.040901169180870056,0.004290523938834667,-0.023269159719347954,0.019448040053248405,-0.00047485597315244377,0.03290298581123352
0.040901169180870056,0.004290523938834667,-0.023269159719347954,0.019448040053248405,-0.00047485597315244377,0.03290298581123352
0.04084764048457146,0.00408895593136549,-0.023195654153823853,0.020001109689474106,-0.0004971863818354905,0.03432497754693031
0.040864571928977966,0.003957344684749842,-0.02291462942957878,0.020246034488081932,-0.0005002564867027104,0.034108489751815796
0.041198521852493286,0.004343429114669561,-0.022763073444366455,0.0197343360632658,-0.0004769962397404015,0.032326266169548035
0.04112868756055832,0.004195049870759249,-0.022474074736237526,0.019121047109365463,-0.000513371778652072,0.0318545438349247
0.04113807901740074,0.0039329552091658115,-0.02276083268225193,0.019038697704672813,-0.0005417651846073568,0.033108897507190704
0.04140310361981392,0.004306427203118801,-0.022456850856542587,0.019156571477651596,-0.000560975109692663,0.033174067735672
0.04184163734316826,0.004130636807531118,-0.023148292675614357,0.019703904166817665,-0.0007765693007968366,0.03442653268575668
0.041670430451631546,0.004245243035256863,-0.022668937221169472,0.019764211028814316,-0.0007566240383312106,0.03333890065550804
0.04226449504494667,0.004063149448484182,-0.02273465320467949,0.019889581948518753,-0.0006673167808912694,0.03240230679512024
0.04228084906935692,0.0038822765927761793,-0.02230042591691017,0.02001507394015789,-0.000685801322106272,0.033360354602336884
0.04213745892047882,0.004081571940332651,-0.022458842024207115,0.019930072128772736,-0.0006238238420337439,0.03412040323019028
0.042430292814970016,0.004111649002879858,-0.02298027276992798,0.019673574715852737,-0.0006377968238666654,0.032751645892858505
0.042545340955257416,0.00438256561756134,-0.023307455703616142,0.01998244598507881,-0.0006038022693246603,0.03419181704521179
0.04249409958720207,0.004459404852241278,-0.022609293460845947,0.02012144774198532,-0.0006249434663914144,0.03434721380472183
0.042849455028772354,0.004243806004524231,-0.02256394550204277,0.020002301782369614,-0.0006295296479947865,0.033801667392253876
0.042517490684986115,0.003985895775258541,-0.02322903275489807,0.020453840494155884,-0.0006543712806887925,0.034178897738456726
0.042715176939964294,0.004301790148019791,-0.02320924773812294,0.020337333902716637,-0.0008445261628367007,0.03388627618551254
0.044450439512729645,0.004353377968072891,-0.023049991577863693,0.020187057554721832,-0.0010059911292046309,0.03412710130214691
0.04327183961868286,0.00424234988167882,-0.022824453189969063,0.02053818292915821,-0.0009616191382519901,0.03420313447713852
0.041524093598127365,0.004469163715839386,-0.022496119141578674,0.021025924012064934,-0.0008902477566152811,0.03415539860725403
0.0434255450963974,0.004243169911205769,-0.022639695554971695,0.02055002935230732,-0.0008871839963831007,0.03432546928524971
0.04341213405132294,0.003958297427743673,-0.02288835309445858,0.020165879279375076,-0.000796995242126286,0.034737829118967056
0.0439329631626606,0.003835404757410288,-0.022833889350295067,0.020540812984108925,-0.0007456866442225873,0.03454093635082245
0.0439329631626606,0.003835404757410288,-0.022833889350295067,0.020540812984108925,-0.0007456866442225873,0.03454093635082245
0.04410252347588539,0.004205058794468641,-0.022402683272957802,0.02090250700712204,-0.0006440315046347678,0.03490644693374634
0.04240957647562027,0.004276452586054802,-0.02253752388060093,0.020816907286643982,-0.0006678051431663334,0.03506645932793617
0.04452824220061302,0.004030092153698206,-0.023181915283203125,0.02118900790810585,-0.000686300394590944,0.035258129239082336
0.04410559684038162,0.004372141323983669,-0.023290062323212624,0.021223286166787148,-0.0007072300068102777,0.035095106810331345
0.04371283948421478,0.0041560702957212925,-0.023069949820637703,0.021097758784890175,-0.0007398214074783027,0.03507265821099281
0.04364994913339615,0.004096083343029022,-0.022649414837360382,0.021692484617233276,-0.0007274813251569867,0.03508828952908516
0.044114600867033005,0.003858131356537342,-0.022881224751472473,0.022461164742708206,-0.000692027504555881,0.0349138006567955
0.04432692751288414,0.0036736479960381985,-0.02314821630716324,0.022040139883756638,-0.0007119280635379255,0.03682748228311539
0.04372316226363182,0.0037092866841703653,-0.022935546934604645,0.021260643377900124,-0.0007247349130921066,0.037664663046598434
0.04402019828557968,0.0037586912512779236,-0.02342349663376808,0.02094106562435627,-0.0007432354032061994,0.03508599102497101
0.04624873027205467,0.0036991157103329897,-0.024090295657515526,0.02118668146431446,-0.0008219488081522286,0.03466898947954178
0.043145641684532166,0.003924261778593063,-0.02429933100938797,0.02211691066622734,-0.0008300708141177893,0.03606274724006653
0.0445694625377655,0.0037854325491935015,-0.023762516677379608,0.021605953574180603,-0.0007720744470134377,0.03734913840889931
