davideferrari95/blind_handover_controller/data/Test 295 - [2024-02-08 -- 14-01-46]/joint_states_data.csv
shoulder_pan_joint,shoulder_lift_joint,elbow_joint,wrist_1_joint,wrist_2_joint,wrist_3_joint
0.00856795348227024,0.010113394819200039,-0.012188540771603584,0.003674466395750642,0.00031451869290322065,0.0075598047114908695
0.00856795348227024,0.010113394819200039,-0.012188540771603584,0.003674466395750642,0.00031451869290322065,0.0075598047114908695
0.008381039835512638,0.010303189046680927,-0.011516164988279343,0.0037291753105819225,0.0003434373065829277,0.007673952728509903
0.00770898163318634,0.010521830059587955,-0.011952714994549751,0.003714625257998705,0.0003631801810115576,0.008570710197091103
0.00770898163318634,0.010521830059587955,-0.011952714994549751,0.003714625257998705,0.0003631801810115576,0.008570710197091103
0.008391106501221657,0.009854850359261036,-0.011581791564822197,0.0038184579461812973,0.0005102867726236582,0.008231979794800282
0.008391106501221657,0.009854850359261036,-0.011581791564822197,0.0038184579461812973,0.0005102867726236582,0.008231979794800282
0.0076355598866939545,0.009764921851456165,-0.011189503595232964,0.003693781327456236,0.0005202880711294711,0.007595457602292299
0.0076355598866939545,0.009764921851456165,-0.011189503595232964,0.003693781327456236,0.0005202880711294711,0.007595457602292299
0.008184406906366348,0.010205051861703396,-0.011587986722588539,0.003551006317138672,0.000477127090562135,0.008028695359826088
0.007835440337657928,0.010197137482464314,-0.011584688909351826,0.003582240315154195,0.000472517975140363,0.009262848645448685
0.007662256248295307,0.01102062501013279,-0.011768579483032227,0.003390673315152526,0.0004862739588133991,0.007984151132404804
0.007984516210854053,0.009547481313347816,-0.011041445657610893,0.0035424388479441404,0.00046901730820536613,0.008018504828214645
0.008219202980399132,0.009511705487966537,-0.011714225634932518,0.0033348817378282547,0.0004412094422150403,0.008000231347978115
0.007654855959117413,0.009607512503862381,-0.011261162348091602,0.0034987814724445343,0.0004555394407361746,0.008225290104746819
0.008095297031104565,0.009085883386433125,-0.010928007774055004,0.0036865430884063244,0.000427081307861954,0.008390515111386776
0.007863041944801807,0.0091173704713583,-0.01125845592468977,0.0037234125193208456,0.00039091226062737405,0.008704189211130142
0.007480021566152573,0.009601276367902756,-0.010927790775895119,0.0036395383067429066,0.00042653598939068615,0.008183041587471962
0.007416367530822754,0.00901836808770895,-0.011724807322025299,0.00365624506957829,0.00039933703374117613,0.007535798940807581
0.007970099337399006,0.008595055900514126,-0.011993974447250366,0.003424569731578231,0.0003720889217220247,0.007476248778402805
0.00786997377872467,0.009615682996809483,-0.010603392496705055,0.0032634600065648556,0.00039824991836212575,0.00802423432469368
0.007712255697697401,0.008800662122666836,-0.011858523823320866,0.003170335665345192,0.00038100432720966637,0.00869891420006752
0.008267929777503014,0.00854615680873394,-0.011252054013311863,0.0031505676452070475,0.0003596912429202348,0.008504193276166916
0.008663310669362545,0.008554419502615929,-0.011510340496897697,0.0030938417185097933,0.00038554059574380517,0.008072257041931152
0.007968062534928322,0.008419577032327652,-0.011722495779395103,0.0031743557192385197,0.0003687436692416668,0.007693669758737087
0.007823498919606209,0.008552220650017262,-0.011315518990159035,0.0029408580157905817,0.00035095761995762587,0.007947463542222977
0.007823498919606209,0.008552220650017262,-0.011315518990159035,0.0029408580157905817,0.00035095761995762587,0.007947463542222977
0.008245314471423626,0.008724027313292027,-0.01191269513219595,0.003428584896028042,0.00031978735933080316,0.007818617857992649
0.008245314471423626,0.008724027313292027,-0.01191269513219595,0.003428584896028042,0.00031978735933080316,0.007818617857992649
0.008273291401565075,0.008573805913329124,-0.011789031326770782,0.0033623836934566498,0.0003084948402829468,0.00774120120331645
0.007609075400978327,0.00835201796144247,-0.01130429096519947,0.0032503027468919754,0.000292239390546456,0.007968708872795105
0.008044359274208546,0.00859266147017479,-0.01109985914081335,0.003217473393306136,0.00027464283630251884,0.00822860561311245
0.00782637856900692,0.008441365323960781,-0.011434719897806644,0.003019652795046568,0.00024476926773786545,0.008061542175710201
0.007369654718786478,0.008489476516842842,-0.011407901532948017,0.0034653525799512863,0.00023213755048345774,0.008103590458631516
0.007893629372119904,0.008966835215687752,-0.011222937144339085,0.0038613188080489635,0.00022074623848311603,0.007846606895327568
0.00838908925652504,0.00919855386018753,-0.011770094744861126,0.003912060987204313,0.0002104215818690136,0.008161971345543861
0.00838908925652504,0.00919855386018753,-0.011770094744861126,0.003912060987204313,0.0002104215818690136,0.008161971345543861
0.007856206968426704,0.008150383830070496,-0.011817343533039093,0.0035688644275069237,0.00022067021927796304,0.008560342714190483
0.008168504573404789,0.008767013438045979,-0.01143586728721857,0.0035361098125576973,0.00022956378234084696,0.007847045548260212
0.007993469946086407,0.008532666601240635,-0.01129384059458971,0.003690412500873208,0.00022134797472972423,0.007791037205606699
0.007902352139353752,0.00864641647785902,-0.011136510409414768,0.0034131454303860664,0.00020464810950215906,0.008096938952803612
0.007414598483592272,0.008651034906506538,-0.011529372073709965,0.003119430970400572,0.00019717469695024192,0.00813183095306158
0.007878832519054413,0.008716664277017117,-0.01131077203899622,0.0032975520007312298,0.00019022810738533735,0.007760520093142986
0.008647396229207516,0.008335955440998077,-0.011670072562992573,0.0033455269876867533,0.00018375375657342374,0.008208372630178928
0.00778303062543273,0.008570317178964615,-0.011907648295164108,0.003246980719268322,0.00017770600970834494,0.008209582418203354
0.007912957109510899,0.008748115040361881,-0.0110565684735775,0.003272315952926874,0.0001720442669466138,0.007793090306222439
0.0081187654286623,0.008252912200987339,-0.011374587193131447,0.0035923169925808907,0.00018730755255091935,0.007776645943522453
0.0077829258516430855,0.008623858913779259,-0.011698378250002861,0.0034152711741626263,0.00018822257698047906,0.007941962219774723
0.007349221035838127,0.008937310427427292,-0.011857298202812672,0.0031419554725289345,0.0001831746194511652,0.008529537357389927
0.008379070088267326,0.008542999625205994,-0.011885537765920162,0.0030482818838208914,0.00017802597722038627,0.008153227157890797
0.007970685139298439,0.008305080235004425,-0.011764898896217346,0.0030880779959261417,0.00017313502030447125,0.0076812622137367725
0.008160285651683807,0.009151444770395756,-0.012677421793341637,0.0034421600867062807,0.00016850403335411102,0.007909005507826805
0.007765708491206169,0.008149943314492702,-0.01149145606905222,0.0033180140890181065,0.0001641142152948305,0.007588361855596304
0.007808788679540157,0.00812541227787733,-0.011197835206985474,0.0032434274908155203,0.00015994736168067902,0.007800329010933638
0.008207300677895546,0.008931200951337814,-0.011698744259774685,0.0029475658666342497,0.00015598713071085513,0.00832042470574379
0.008179638534784317,0.008639060892164707,-0.010969710536301136,0.0029155502561479807,0.00015221773355733603,0.008414814248681068
0.007719159126281738,0.007988517172634602,-0.011633236892521381,0.002895697019994259,0.00014862667012494057,0.007912274450063705
0.008207683451473713,0.0083492211997509,-0.01122233085334301,0.002852729056030512,0.00014520112017635256,0.007913345471024513
0.008236202411353588,0.008504320867359638,-0.010759726166725159,0.0026803873479366302,0.0001608510792721063,0.007971126586198807
0.007945488207042217,0.008245979435741901,-0.011779790744185448,0.002772357314825058,0.00015854323282837868,0.007968745194375515
0.008145240135490894,0.008191041648387909,-0.011083696968853474,0.0028679377865046263,0.00015520592569373548,0.00768995052203536
0.008484036661684513,0.008337797597050667,-0.011601828038692474,0.0029766790103167295,0.00015193612489383668,0.008074644021689892
0.008416260592639446,0.008656385354697704,-0.01035959180444479,0.0031515557784587145,0.00014879631635267287,0.008366049267351627
0.007729750592261553,0.008260060101747513,-0.011259416118264198,0.0032165036536753178,0.00014578360423911363,0.008330759592354298
0.007729750592261553,0.008260060101747513,-0.011259416118264198,0.0032165036536753178,0.00014578360423911363,0.008330759592354298
0.008044308982789516,0.007745334878563881,-0.011601522564888,0.0032634788658469915,0.0001428901741746813,0.008342333137989044
0.00799243152141571,0.008850661106407642,-0.010730906389653683,0.003374145133420825,0.00014010973973199725,0.008963417261838913
0.008669220842421055,0.007741404231637716,-0.011728896759450436,0.0035554494243115187,0.0001350474776700139,0.008429678156971931
0.008669220842421055,0.007741404231637716,-0.011728896759450436,0.0035554494243115187,0.0001350474776700139,0.008429678156971931
0.008120776154100895,0.008109012618660927,-0.011383317410945892,0.003470206633210182,0.00011370383435860276,0.009093147702515125
0.008212609216570854,0.008184694685041904,-0.011383362114429474,0.002990942681208253,0.00010975854092976078,0.008664832450449467
0.008929973468184471,0.00802887324243784,-0.010829080827534199,0.0028338844422250986,0.0001045768876792863,0.008623392321169376
0.008929973468184471,0.00802887324243784,-0.010829080827534199,0.0028338844422250986,0.0001045768876792863,0.008623392321169376
0.00827829074114561,0.008400050923228264,-0.011364655569195747,0.003109435550868511,9.993163257604465e-05,0.007158010266721249
0.009186899289488792,0.008269625715911388,-0.011641653254628181,0.0029177512042224407,9.77606323431246e-05,0.006990524940192699
0.008399893529713154,0.008198109455406666,-0.011180995963513851,0.0028944576624780893,9.568194946041331e-05,0.007970026694238186
0.008123026229441166,0.00830980483442545,-0.010775071568787098,0.003000065218657255,9.368972678203136e-05,0.008497891016304493
0.00792733021080494,0.00795907061547041,-0.011817405931651592,0.0031557390466332436,0.00010772678069770336,0.008210425265133381
0.009116480126976967,0.007680775132030249,-0.011214961297810078,0.0031476893927901983,0.00010777606803458184,0.007766112219542265
0.008473160676658154,0.008087947964668274,-0.011459385976195335,0.002993496600538492,0.00010580786329228431,0.007529041729867458
0.008229364641010761,0.008471975103020668,-0.011428025551140308,0.003104307921603322,0.00010378375736763701,0.008088159374892712
0.009241332300007343,0.007856800220906734,-0.01150489877909422,0.003189893439412117,0.00010182726691709831,0.008072415366768837
0.008410106413066387,0.008119173347949982,-0.011612906120717525,0.003200332634150982,9.994275023927912e-05,0.008192559704184532
0.008439837954938412,0.00803613755851984,-0.011083276942372322,0.0031394651159644127,9.812665666686371e-05,0.008394978009164333
0.007947688922286034,0.00787778664380312,-0.010923679918050766,0.0030959201976656914,9.637515904614702e-05,0.008464551530778408
0.008769170381128788,0.007542526815086603,-0.011090407148003578,0.003289336571469903,9.468539064982906e-05,0.00812854990363121
0.008649751543998718,0.007742447312921286,-0.010937568731606007,0.0032093855552375317,9.305378625867888e-05,0.008233504369854927
0.008226020261645317,0.008580094203352928,-0.01128077507019043,0.0031215022318065166,9.147736273007467e-05,0.008481989614665508
0.008775503374636173,0.007794511038810015,-0.011077054776251316,0.003096196101978421,8.99535370990634e-05,0.0084138298407197
0.008655785582959652,0.008061688393354416,-0.01073822658509016,0.003138432977721095,9.94268266367726e-05,0.007960363291203976
0.00852682814002037,0.0080177066847682,-0.011375049129128456,0.0030111155938357115,0.00010131402814295143,0.008137092925608158
0.008867505937814713,0.008372128941118717,-0.011012530885636806,0.0033790648449212313,9.993463027058169e-05,0.008212120272219181
0.008867505937814713,0.008372128941118717,-0.011012530885636806,0.0033790648449212313,9.993463027058169e-05,0.008212120272219181
0.008526409976184368,0.007897729054093361,-0.010810512118041515,0.003276029136031866,9.838884579949081e-05,0.008319870568811893
0.008619457483291626,0.008753281086683273,-0.010900149121880531,0.0031348683405667543,9.687685815151781e-05,0.008383220061659813
0.008830239996314049,0.008972101844847202,-0.010376231744885445,0.003152672201395035,9.54097558860667e-05,0.007983783259987831
0.008499694988131523,0.008842037059366703,-0.010660088621079922,0.0034507454838603735,9.3986360298004e-05,0.008103468455374241
0.009245852939784527,0.008582145906984806,-0.010898785665631294,0.003669008146971464,9.260483057005331e-05,0.007675897795706987
0.008665953762829304,0.008234894834458828,-0.010675636120140553,0.0035843541845679283,9.126337681664154e-05,0.007769208867102861
0.008376684971153736,0.008722159080207348,-0.011167931370437145,0.0033221980556845665,8.996017277240753e-05,0.008294236846268177
0.009381167590618134,0.008898338302969933,-0.010680963285267353,0.003171816933900118,8.869371959008276e-05,0.007983517833054066
0.00947197712957859,0.008174763061106205,-0.010412746109068394,0.003390306606888771,8.746240200707689e-05,0.008038702420890331
0.008631779812276363,0.008968230336904526,-0.010549500584602356,0.0033563056495040655,8.509956387570128e-05,0.008369341492652893
0.008885165676474571,0.008194584399461746,-0.011272341012954712,0.0034535969607532024,8.396536577492952e-05,0.008213172666728497
0.008941179141402245,0.008677651174366474,-0.01142808236181736,0.003699576249346137,8.286107913590968e-05,0.007803513202816248
0.00986289419233799,0.009005499072372913,-0.010185107588768005,0.0035052045714110136,8.17852996988222e-05,0.008187112398445606
0.008986079134047031,0.008409112691879272,-0.010415774770081043,0.0033963043242692947,8.073724166024476e-05,0.00835714116692543
0.008252182975411415,0.00836856383830309,-0.010688165202736855,0.0033692941069602966,7.971571903908625e-05,0.008185883983969688
0.008524343371391296,0.009039906784892082,-0.010328356176614761,0.0032946697901934385,7.871962588978931e-05,0.008434451185166836
0.00893145427107811,0.008171819150447845,-0.010667772963643074,0.0035655309911817312,7.774816185701638e-05,0.009049484506249428
0.009000423364341259,0.008402597159147263,-0.010414117947220802,0.0033767831046134233,7.680042472202331e-05,0.00818939134478569
0.008499311283230782,0.00928153283894062,-0.010485691949725151,0.003595927031710744,7.587542495457456e-05,0.007993136532604694
0.008846198208630085,0.008354893885552883,-0.011068722233176231,0.0035402521025389433,7.497249316656962e-05,0.008126756176352501
0.009312417358160019,0.007980535738170147,-0.010239318013191223,0.0034266544971615076,7.40908581065014e-05,0.00832056999206543
0.008650299161672592,0.008077709004282951,-0.010637178085744381,0.003570845816284418,7.322957389988005e-05,0.008455367758870125
0.008598853833973408,0.00898589938879013,-0.010882910341024399,0.0034251632168889046,7.238822581712157e-05,0.00828123651444912
0.00945750717073679,0.00812038965523243,-0.010090596973896027,0.0032975974027067423,8.045771392062306e-05,0.008286967873573303
0.008815504610538483,0.008022605441510677,-0.011013048700988293,0.003202010877430439,8.078398968791589e-05,0.008307762444019318
0.008907661773264408,0.008976979181170464,-0.010546340607106686,0.003173377364873886,7.99670597189106e-05,0.008383700624108315
0.009053208865225315,0.008592098020017147,-0.010078717954456806,0.0030029728077352047,2.0321778720244765e-05,0.008315276354551315
0.009134962223470211,0.0080880643799901,-0.011032244190573692,0.0028058686293661594,1.3268669363242225e-06,0.00829576887190342
0.009134962223470211,0.0080880643799901,-0.011032244190573692,0.0028058686293661594,1.3268669363242225e-06,0.00829576887190342
0.00856608897447586,0.007920965552330017,-0.010733533650636673,0.0028338341508060694,8.663492678806506e-08,0.008331156335771084
0.008993763476610184,0.008589760400354862,-0.010717105120420456,0.0030346624553203583,5.656641821616404e-09,0.008298652246594429
0.00908877607434988,0.0083401408046484,-0.01077810488641262,0.003059959737583995,3.6933828218010945e-10,0.008549731224775314
0.008659809827804565,0.00765165314078331,-0.010573646984994411,0.0031778172124177217,2.411515258315955e-11,0.008347523398697376
0.009459811262786388,0.008170713670551777,-0.010084169916808605,0.0032611044589430094,1.5745472417214024e-12,0.008240015245974064
0.009258786216378212,0.008081497624516487,-0.010832474566996098,0.003061051946133375,1.0280667918534381e-13,0.008396878838539124
0.009543088264763355,0.008136317133903503,-0.010820913128554821,0.0030386336147785187,6.712540865895988e-15,0.008346584625542164
0.009196391329169273,0.007883243262767792,-0.011258254759013653,0.002942596562206745,4.3828094611206227e-16,0.008268977515399456
0.009589849039912224,0.008450480177998543,-0.010951174423098564,0.0032598820980638266,2.861661438501496e-17,0.008271288126707077
0.009340536780655384,0.007658839225769043,-0.011042049154639244,0.003467270638793707,1.2199712038329542e-19,0.009547367691993713
0.008855007588863373,0.007670730818063021,-0.010269629769027233,0.0032664595637470484,7.965540888145384e-21,0.00840269960463047
0.009080133400857449,0.008566856384277344,-0.010777384974062443,0.003293488873168826,5.200928898556901e-22,0.008148202672600746
0.008756614290177822,0.008420506492257118,-0.01126119028776884,0.0030453489162027836,3.3958344667094945e-23,0.008452694863080978
0.009523170068860054,0.007904088124632835,-0.010857803747057915,0.002907554153352976,2.2172373440236302e-24,0.00857145432382822
0.00955910049378872,0.008323335088789463,-0.011713880114257336,0.003100581467151642,6.107692752266303e-05,0.008627471514046192
0.009558344259858131,0.007903769612312317,-0.011226063594222069,0.0032235526014119387,6.410892819985747e-05,0.008293742313981056
0.009256563149392605,0.007412786595523357,-0.010686765424907207,0.0032010450959205627,6.34597017779015e-05,0.008576636202633381
0.009545275941491127,0.007411018945276737,-0.011664608493447304,0.003127320669591427,6.259360816329718e-05,0.008968916721642017
0.00922349002212286,0.007618570700287819,-0.011086888611316681,0.003038952825590968,6.173604924697429e-05,0.009052200242877007
0.009323850274085999,0.00774803850799799,-0.011182006448507309,0.002981126308441162,6.090058377594687e-05,0.008568698540329933
0.00932689756155014,0.007454915903508663,-0.011146730743348598,0.0029369276016950607,6.008742639096454e-05,0.008461842313408852
0.009018298238515854,0.007562202867120504,-0.010609524324536324,0.0030683379154652357,5.929569306317717e-05,0.008780237287282944
0.009018298238515854,0.007562202867120504,-0.010609524324536324,0.0030683379154652357,5.929569306317717e-05,0.008780237287282944
0.009314542636275291,0.00796142965555191,-0.010983701795339584,0.003130851313471794,5.777318438049406e-05,0.009173551574349403
0.008997159078717232,0.007219614461064339,-0.010675022378563881,0.0030528896022588015,5.704083378077485e-05,0.009107358753681183
0.008955789729952812,0.007307871710509062,-0.010857841931283474,0.002975886920467019,5.632688771584071e-05,0.008613127283751965
0.009348802268505096,0.00776476738974452,-0.010607171803712845,0.0031760861165821552,5.563056765822694e-05,0.008707261644303799
0.009058160707354546,0.007186832372099161,-0.011120028793811798,0.0033132408279925585,5.495221193996258e-05,0.008780919946730137
0.009058160707354546,0.007186832372099161,-0.011120028793811798,0.0033132408279925585,5.495221193996258e-05,0.008780919946730137
0.008858302608132362,0.006849794182926416,-0.010718084871768951,0.003377957735210657,5.428838267107494e-05,0.008978425525128841
0.009220141917467117,0.006756277289241552,-0.011185341514647007,0.0032137210946530104,5.364121534512378e-05,0.00849747285246849
0.009325770661234856,0.006908412091434002,-0.011479019187390804,0.0035180472768843174,5.3009571274742484e-05,0.008408969268202782
0.008692488074302673,0.007567186374217272,-0.010604809038341045,0.0033105986658483744,5.239216989139095e-05,0.008746170438826084
0.009196897968649864,0.007330562919378281,-0.01062546856701374,0.0034980368800461292,6.079747618059628e-05,0.009175682440400124
0.009296651929616928,0.007053092587739229,-0.011418712325394154,0.0036461404524743557,6.135313014965504e-05,0.008800790645182133
0.008766582235693932,0.007334292400628328,-0.010466709733009338,0.003302215365692973,6.074334669392556e-05,0.008676751516759396
0.009281234815716743,0.007727120071649551,-0.010693657211959362,0.0030850444454699755,6.007287811371498e-05,0.00911512691527605
0.010178149677813053,0.007616062182933092,-0.011159171350300312,0.002954498864710331,3.0116116249701008e-05,0.009378106333315372
0.008780809119343758,0.007019903510808945,-0.010439726524055004,0.0032738051377236843,1.966367108252598e-06,0.009283886291086674
0.009594514966011047,0.00817148108035326,-0.01095879077911377,0.00405290350317955,8.38293168214932e-09,0.00910907331854105
0.009589012712240219,0.007963492535054684,-0.010562270879745483,0.003556639887392521,5.473455022553253e-10,0.009291493333876133
0.009504323825240135,0.00711296359077096,-0.011196167208254337,0.003542738500982523,3.5737753034670305e-11,0.00894926767796278
0.009432828985154629,0.0072713736444711685,-0.010503699071705341,0.003751231823116541,2.333419698782868e-12,0.009632427245378494
0.009026871994137764,0.008199373260140419,-0.01075863279402256,0.003859348129481077,1.5235562648725082e-13,0.008978627622127533
0.009110686369240284,0.007841303944587708,-0.010694971308112144,0.00384187581948936,9.947734503539321e-15,0.008567051962018013
0.009610173292458057,0.0075837234035134315,-0.010270466096699238,0.003800948616117239,6.495159812620302e-16,0.00903414934873581
0.009410740807652473,0.006933441385626793,-0.01075232494622469,0.0037758280523121357,4.240874929476078e-17,0.009110690094530582
0.00985115859657526,0.008038371801376343,-0.010850909166038036,0.003808597568422556,2.768988134497026e-18,0.0089868800714612
0.009347476996481419,0.007718540728092194,-0.011007210239768028,0.003495008684694767,1.8079513457630773e-19,0.009208230301737785
0.009505747817456722,0.007623106706887484,-0.011090981774032116,0.0033890593331307173,1.1804629898258902e-20,0.008779940195381641
0.009244343265891075,0.007729844190180302,-0.010719778947532177,0.0035053915344178677,7.707580494373531e-22,0.009190019220113754
0.00926526915282011,0.007829265668988228,-0.011149520985782146,0.0036398775409907103,5.032499017356546e-23,0.00929062720388174
0.00930641870945692,0.00759232509881258,-0.011079692281782627,0.003672588849440217,3.2858622472549373e-24,0.009266852401196957
0.009003576822578907,0.007333208806812763,-0.011023584753274918,0.0036122810561209917,2.145433202974344e-25,0.008936821483075619
0.009003576822578907,0.007333208806812763,-0.011023584753274918,0.0036122810561209917,2.145433202974344e-25,0.008936821483075619
0.009257183410227299,0.007236484903842211,-0.011647885665297508,0.0035480360966175795,1.4008146679911585e-26,0.008494077250361443
0.009340695105493069,0.007748246192932129,-0.01052861288189888,0.0036050460767000914,9.14631930605773e-28,0.008478054776787758
0.009246550500392914,0.00732945092022419,-0.010500011965632439,0.003494234988465905,5.971892877047452e-29,0.008901741355657578
0.009486251510679722,0.00700720539316535,-0.012081719934940338,0.0035969922319054604,3.899219333654977e-30,0.00926317647099495
0.009756612591445446,0.007286405190825462,-0.011426417157053947,0.0033583082258701324,2.545911290787758e-31,0.009490057826042175
0.009027904830873013,0.007733166683465242,-0.011580792255699635,0.0035429196432232857,1.662298299845269e-32,0.009046577848494053
0.009531870484352112,0.0076057487167418,-0.011579743586480618,0.0033183640334755182,1.0853621276115386e-33,0.009280078113079071
0.00963660515844822,0.007558820303529501,-0.010450598783791065,0.003533539129421115,7.086638737543755e-35,0.010064797475934029
0.009181083180010319,0.0071355802938342094,-0.011004208587110043,0.003682933747768402,4.6270686957491854e-36,0.009067941457033157
0.009524266235530376,0.00793839804828167,-0.010205011814832687,0.0034040610771626234,1.9725918734275517e-38,0.00960663054138422
0.009871485643088818,0.007055878639221191,-0.011170745827257633,0.0035363235510885715,1.2879614445302259e-39,0.009211541153490543
0.009897549636662006,0.007558476645499468,-0.01123255304992199,0.003426209557801485,8.409472344106092e-41,0.00866649392992258
0.00954666081815958,0.007763853762298822,-0.010874403640627861,0.0035658972337841988,5.490287383224633e-42,0.008802992291748524
0.009966030716896057,0.007383641786873341,-0.01100085023790598,0.003661947790533304,3.587324068671532e-43,0.009444656781852245
0.009297225624322891,0.007275005802512169,-0.010655305348336697,0.004030102398246527,2.382207389352189e-44,0.009416666813194752
0.009667245671153069,0.007500434760004282,-0.010731608606874943,0.00398311298340559,1.401298464324817e-45,0.009483424946665764
0.009417100809514523,0.007536676712334156,-0.010898904874920845,0.0037893387489020824,0.0,0.00955778919160366
0.009461299516260624,0.0073267612606287,-0.011257811449468136,0.0035438810009509325,0.0,0.009333018213510513
0.009951499290764332,0.007351950276643038,-0.011383278295397758,0.003508419031277299,0.0,0.009665219113230705
0.009618118405342102,0.007378752343356609,-0.010776631534099579,0.0036315859761089087,0.0,0.009842438623309135
0.009253430180251598,0.008162830024957657,-0.010307484306395054,0.003962501883506775,0.0,0.009796388447284698
0.009806077927350998,0.007600970566272736,-0.011286978609859943,0.003973870072513819,0.0,0.009545382112264633
0.009411366656422615,0.0072319707833230495,-0.011024593375623226,0.003854920854791999,0.0,0.009574639610946178
0.009759971871972084,0.007207071874290705,-0.01129149179905653,0.00378321367315948,0.0,0.009449727833271027
0.00972661841660738,0.007950403727591038,-0.010970587842166424,0.003868929808959365,0.0,0.009819936007261276
0.009540259838104248,0.00749403890222311,-0.010709671303629875,0.00440583098679781,0.0,0.009859117679297924
0.009540259838104248,0.00749403890222311,-0.010709671303629875,0.00440583098679781,0.0,0.009859117679297924
0.009306195192039013,0.006984074600040913,-0.010893977247178555,0.004374145995825529,0.0,0.008987526409327984
0.009969950653612614,0.007408739533275366,-0.010973646305501461,0.004445447586476803,0.0,0.009365773759782314
0.009513497352600098,0.007664924021810293,-0.01109377108514309,0.004294561687856913,0.0,0.009457342326641083
0.009513497352600098,0.007664924021810293,-0.01109377108514309,0.004294561687856913,0.0,0.009457342326641083
0.00944431684911251,0.00714732613414526,-0.010793610475957394,0.004066781606525183,0.0,0.00931927002966404
0.009682008996605873,0.007299365941435099,-0.011340375989675522,0.00394674576818943,0.0,0.009838947094976902
0.009413057938218117,0.007828331552445889,-0.010908432304859161,0.003931228071451187,0.0,0.009706702083349228
0.01041479967534542,0.00699964864179492,-0.01166059635579586,0.0041136424988508224,0.0,0.009727831929922104
0.009123962372541428,0.0074564553797245026,-0.010981661267578602,0.0039276541210711,0.0,0.00911771971732378
0.009594718925654888,0.007965686731040478,-0.010917934589087963,0.0038148409221321344,0.0,0.009036985225975513
0.009571511298418045,0.007127814926207066,-0.011036749929189682,0.0038627958856523037,0.0,0.009096699766814709
0.009603956714272499,0.0067824190482497215,-0.010447397828102112,0.0038873706944286823,0.0,0.009912097826600075
0.00976661778986454,0.006787165999412537,-0.011869184672832489,0.004235052037984133,0.0,0.009327284060418606
0.009755568578839302,0.007074772845953703,-0.01192870270460844,0.004076825454831123,0.0,0.009569689631462097
0.009003860875964165,0.00730840303003788,-0.011657150462269783,0.004209472797811031,0.0,0.009875117801129818
0.01026493962854147,0.006972977891564369,-0.011550664901733398,0.0042224423959851265,0.0,0.010325825773179531
0.009416349232196808,0.007028560619801283,-0.011167502962052822,0.00397582957521081,0.0,0.010118307545781136
0.00951415579766035,0.006974931340664625,-0.011430707760155201,0.004134004004299641,0.0,0.009628310799598694
0.009741011075675488,0.007590083871036768,-0.01140773668885231,0.004291662480682135,0.0,0.009557566605508327
0.009532419964671135,0.006981637328863144,-0.010902222245931625,0.00410176906734705,0.0,0.009780069813132286
0.00982476957142353,0.006825100630521774,-0.011827485635876656,0.004224915988743305,0.0,0.009872477501630783
0.009969620034098625,0.006787595804780722,-0.011778774671256542,0.004183800891041756,0.0,0.010374264791607857
0.008923912420868874,0.0072223348543047905,-0.011787713505327702,0.004211743827909231,0.0,0.010068121366202831
0.009588233195245266,0.007299992721527815,-0.011848674155771732,0.004145452752709389,0.0,0.00964096188545227
0.010951164178550243,0.007272400427609682,-0.011201130226254463,0.004071340896189213,0.0,0.010328348726034164
0.01004289835691452,0.007172992918640375,-0.012285648845136166,0.003922788891941309,0.0,0.010415632277727127
0.009368863888084888,0.0074748932383954525,-0.011641493998467922,0.0039286850951612,0.0,0.009731726720929146
0.010385286994278431,0.007308578118681908,-0.011905034072697163,0.0039979624561965466,0.0,0.00995212234556675
0.011094758287072182,0.007518701255321503,-0.011918999254703522,0.004801176954060793,0.0,0.010790216736495495
0.011094758287072182,0.007518701255321503,-0.011918999254703522,0.004801176954060793,0.0,0.010790216736495495
0.011164065450429916,0.007119608577340841,-0.011778823100030422,0.005208632908761501,0.0,0.010385151952505112
0.011449804529547691,0.007297640200704336,-0.0120281632989645,0.004519533831626177,0.0,0.0099951745942235
0.010510952211916447,0.007513083983212709,-0.011840174905955791,0.004090489353984594,0.0,0.010342756286263466
0.010831975378096104,0.007065082900226116,-0.012325650081038475,0.004398156423121691,0.0,0.010191947221755981
0.011018001474440098,0.007198875304311514,-0.01187096256762743,0.004612413235008717,0.0,0.010453373193740845
0.011111225001513958,0.007085129618644714,-0.012056241743266582,0.004429839085787535,0.0,0.01047869585454464
0.01096582505851984,0.0070783100090920925,-0.011671802960336208,0.004430158995091915,0.0,0.009748972952365875
0.010609714314341545,0.007331809028983116,-0.012862003408372402,0.004117588512599468,0.0,0.010003977455198765
0.010891921818256378,0.00777815468609333,-0.011767136864364147,0.004376885946840048,0.0,0.01032924186438322
0.010846015997231007,0.007451934274286032,-0.012243018485605717,0.004234969615936279,0.0,0.010800166055560112
0.01102741900831461,0.007210673298686743,-0.01202489621937275,0.004251711070537567,0.0,0.010287032462656498
0.011146827600896358,0.007011515088379383,-0.01105443760752678,0.004801673348993063,0.0,0.01006508618593216
0.010808874852955341,0.007484784349799156,-0.012021318078041077,0.004802796058356762,0.0,0.010626382194459438
0.012014235369861126,0.007203732617199421,-0.011926770210266113,0.004650820512324572,0.0,0.010678770951926708
0.011423706077039242,0.00700129009783268,-0.012320409528911114,0.004428865388035774,0.0,0.010167720727622509
0.011161239817738533,0.007265191059559584,-0.012187546119093895,0.004285442177206278,0.0,0.010420579463243484
0.011210158467292786,0.007619182579219341,-0.01184083055704832,0.004290500655770302,0.0,0.010839582420885563
0.010604447685182095,0.0075681149028241634,-0.011659841984510422,0.004919381346553564,0.0,0.01026737131178379
0.01102276798337698,0.007559394463896751,-0.011883244849741459,0.0049318596720695496,0.0,0.010548464022576809
0.011079623363912106,0.006969233974814415,-0.01188173983246088,0.004557225853204727,0.0,0.010376092977821827
0.010663241147994995,0.007692317012697458,-0.012794239446520805,0.0043373750522732735,0.0,0.010535962879657745
0.010861566290259361,0.00759076327085495,-0.01191775407642126,0.004056764766573906,0.0,0.010435802862048149
0.010940374806523323,0.0071755931712687016,-0.011619126424193382,0.004030470736324787,0.0,0.010220546275377274
0.010888678021728992,0.006923253182321787,-0.011153141036629677,0.004731202498078346,0.0,0.010611850768327713
0.010961787775158882,0.007234500255435705,-0.012005900032818317,0.005018255673348904,0.0,0.010248484089970589
0.010548985563218594,0.007209500297904015,-0.012044846080243587,0.004875273909419775,0.0,0.010437779128551483
0.010880841873586178,0.0072515434585511684,-0.011709826998412609,0.004482594318687916,0.0,0.010954656638205051
0.010880841873586178,0.0072515434585511684,-0.011709826998412609,0.004482594318687916,0.0,0.010954656638205051
0.01110817864537239,0.007544658612459898,-0.012248404324054718,0.004363514948636293,0.0,0.010438600555062294
0.010767566040158272,0.007744991686195135,-0.01118684746325016,0.004349749069660902,0.0,0.01035652868449688
0.011314467526972294,0.007211996242403984,-0.011860921047627926,0.004543021321296692,0.0,0.01101128663867712
0.01117685902863741,0.006735347211360931,-0.011668599210679531,0.004636123776435852,0.0,0.01062523853033781
0.011165358126163483,0.0070458366535604,-0.011445949785411358,0.005321004427969456,0.0,0.010295405052602291
0.011253099888563156,0.007337622344493866,-0.01146567240357399,0.0050872694700956345,0.0,0.010685354471206665
0.010861769318580627,0.007110504433512688,-0.011594071984291077,0.004583973903208971,0.0,0.010609928518533707
0.011678413487970829,0.006909106858074665,-0.012315700761973858,0.004465530626475811,0.0,0.011016562581062317
0.011920607648789883,0.0073254043236374855,-0.011657055467367172,0.004710064735263586,0.0,0.010453016497194767
0.011525370180606842,0.007632105611264706,-0.0117087597027421,0.0050404067151248455,0.0,0.010647532530128956
0.011251308023929596,0.0076301745139062405,-0.011168968863785267,0.005540189333260059,0.0,0.010910335928201675
0.011492036283016205,0.006849678233265877,-0.011826576665043831,0.005056518130004406,0.0,0.010823563672602177
0.01174877304583788,0.007247502449899912,-0.011613031849265099,0.004557422362267971,0.0,0.011306785978376865
0.011707465164363384,0.008111738599836826,-0.011956051923334599,0.004419377539306879,0.0,0.011487440206110477
0.011811516247689724,0.0071901981718838215,-0.012038473971188068,0.004579109139740467,0.0,0.011153629049658775
0.01161795575171709,0.0063778976909816265,-0.01239913422614336,0.00524356821551919,0.0,0.010656061582267284
0.011959867551922798,0.006999030709266663,-0.012178907170891762,0.005494371522217989,0.0,0.010568843223154545
0.01177732739597559,0.007354774046689272,-0.011510326527059078,0.005335826892405748,0.0,0.010899716056883335
0.011794903315603733,0.0068813348188996315,-0.012034279294312,0.004908060654997826,0.0,0.010709029622375965
0.011959273368120193,0.00659117242321372,-0.01186401303857565,0.00503723556175828,0.0,0.010160387493669987
0.011487999930977821,0.007187800947576761,-0.011340661905705929,0.00503605417907238,0.0,0.010737625882029533
0.011967547237873077,0.007735625375062227,-0.012039300985634327,0.005273633636534214,0.0,0.011077876202762127
0.012153476476669312,0.00661934120580554,-0.011591716669499874,0.005523756146430969,0.0,0.01106894388794899
0.012050991877913475,0.0065706330351531506,-0.012498192489147186,0.00542422104626894,0.0,0.011370415799319744
0.012173617258667946,0.006952304858714342,-0.01182689517736435,0.005070079583674669,0.0,0.01150826457887888
0.012184085324406624,0.007082379888743162,-0.011368222534656525,0.004826732911169529,0.0,0.012673418037593365
0.012184085324406624,0.007082379888743162,-0.011368222534656525,0.004826732911169529,0.0,0.012673418037593365
0.012475491501390934,0.006851368583738804,-0.011462136171758175,0.004911455325782299,0.0,0.010805252008140087
0.012068798765540123,0.006558915600180626,-0.01127905584871769,0.005156638100743294,0.0,0.010301405563950539
0.012592661194503307,0.0066666267812252045,-0.01212715171277523,0.005342527292668819,0.0,0.011166744865477085
0.01236881036311388,0.007169435732066631,-0.012011364102363586,0.0047361296601593494,0.0,0.01152432058006525
0.012269075959920883,0.006796105299144983,-0.011997539550065994,0.004622137639671564,0.0,0.01128940749913454
0.012552031315863132,0.006814844906330109,-0.012487615458667278,0.004998273216187954,0.0,0.011156443506479263
0.012291190214455128,0.006703261751681566,-0.01196278166025877,0.005221186205744743,0.0,0.011084282770752907
0.012383162043988705,0.00729532353579998,-0.01273287832736969,0.0057246508076786995,0.0,0.012003086507320404
0.012166578322649002,0.007633330766111612,-0.011625261977314949,0.005566740874201059,0.0,0.011517457664012909
0.012648176401853561,0.006793920416384935,-0.012181881815195084,0.005137978121638298,0.0,0.011367503553628922
0.0127456309273839,0.006441210862249136,-0.012711398303508759,0.004830461926758289,0.0,0.011486897245049477
0.013054662384092808,0.007297239266335964,-0.012259511277079582,0.0047001768834888935,6.765403668396175e-06,0.011836297810077667
0.012885479256510735,0.007024324033409357,-0.01170030701905489,0.005630583968013525,4.4173251012580295e-07,0.011948522180318832
0.012969216331839561,0.0067511131055653095,-0.01239599846303463,0.005908516235649586,2.8841977695037713e-08,0.01144140213727951
0.012564483098685741,0.007491070311516523,-0.01217080932110548,0.005903987679630518,1.8831749493131156e-09,0.011711821891367435
0.013247343711555004,0.00801306776702404,-0.01249572541564703,0.005331395659595728,1.2295785223326305e-10,0.012023819610476494
0.013005520217120647,0.006919860374182463,-0.012183524668216705,0.005210281815379858,8.028269889159834e-12,0.01227537915110588
0.013204666785895824,0.0065056923776865005,-0.012023113667964935,0.005792153999209404,5.241886026803588e-13,0.011461890302598476
0.013411332853138447,0.006846628617495298,-0.012807916849851608,0.00622520362958312,3.422576892037066e-14,0.011374527588486671
0.013480991125106812,0.007141720037907362,-0.011957389302551746,0.006085175089538097,2.234698225620814e-15,0.011824987828731537
0.013599836267530918,0.007401639129966497,-0.012685688212513924,0.005404820665717125,1.4590981608468697e-16,0.01197288278490305
0.013407472521066666,0.006870086770504713,-0.01242344081401825,0.005324555095285177,9.526868243802897e-18,0.01181522011756897
0.013791372068226337,0.007141129579395056,-0.012461534701287746,0.005695691332221031,6.2203640851985e-19,0.011681980453431606
0.013108605518937111,0.0067024207673966885,-0.012021154165267944,0.006146683357656002,4.061453576461098e-20,0.011885518208146095
0.01321952510625124,0.006982419174164534,-0.011800456792116165,0.005552051123231649,2.651838857958788e-21,0.011905087158083916
0.013034108094871044,0.007057664450258017,-0.012799641117453575,0.005726955831050873,1.7314613345387362e-22,0.011804689653217793
0.013701311312615871,0.006712591275572777,-0.012571343220770359,0.005427594296634197,1.1305205075767581e-23,0.012159101665019989
0.013610544614493847,0.006818375550210476,-0.012977052479982376,0.00585315702483058,7.381491298402988e-25,0.012077206745743752
0.01364760473370552,0.007440806832164526,-0.01261006947606802,0.0059848325327038765,4.819586376088197e-26,0.011938948184251785
0.01304177287966013,0.007021520286798477,-0.012711497023701668,0.005837464239448309,3.146845499240325e-27,0.011832081712782383
0.01367602963000536,0.007126437965780497,-0.012853490188717842,0.005565537139773369,2.054665120401155e-28,0.011831101961433887
0.013633406721055508,0.007620605640113354,-0.012514378875494003,0.005566954612731934,1.341549535260124e-29,0.011996552348136902
0.013633406721055508,0.007620605640113354,-0.012514378875494003,0.005566954612731934,1.341549535260124e-29,0.011996552348136902
0.013732848688960075,0.007014793809503317,-0.013529151678085327,0.005262624938040972,8.75935978396591e-31,0.011898640543222427
0.013607635162770748,0.007065000478178263,-0.01260729506611824,0.005824557039886713,5.719235520811372e-32,0.012009329162538052
0.013739285059273243,0.006968476809561253,-0.013307024724781513,0.005865056999027729,3.734252413658671e-33,0.012153279967606068
0.013961254619061947,0.006596613209694624,-0.012986429035663605,0.00600113719701767,2.4381998213935306e-34,0.012129289098083973
0.014019401744008064,0.006836538203060627,-0.013326323591172695,0.005675195250660181,1.5919701913072934e-35,0.012429202906787395
0.014046629890799522,0.007318197283893824,-0.01262738462537527,0.005856787785887718,1.0394426640741733e-36,0.011944178491830826
0.01399962604045868,0.006960792001336813,-0.012938283383846283,0.005748488940298557,6.786818048123898e-38,0.012380172498524189
0.014179293066263199,0.006508039776235819,-0.013010893948376179,0.0061902133747935295,4.431307916854333e-39,0.012605259194970131
0.014170628041028976,0.006556161679327488,-0.013086268678307533,0.006074442528188229,2.893331004214666e-40,0.012624962255358696
0.014101522043347359,0.007007591892033815,-0.013197837397456169,0.006000565830618143,1.233142648605839e-42,0.012603482231497765
0.014401227235794067,0.006887276656925678,-0.013216817751526833,0.006555977277457714,7.987401246651457e-44,0.012560966424643993
0.013979983516037464,0.007248927839100361,-0.01267844159156084,0.0067560430616140366,5.605193857299268e-45,0.013742977753281593
0.014469900168478489,0.007768149022012949,-0.013356341980397701,0.006181142292916775,0.0,0.012580850161612034
0.01421233918517828,0.007072751875966787,-0.012657025828957558,0.0058957175351679325,0.0,0.011925114318728447
0.01462955679744482,0.0067318035289645195,-0.0128532899543643,0.005522437393665314,0.0,0.012621093541383743
0.014297887682914734,0.006765992380678654,-0.013034136965870857,0.006311859004199505,0.0,0.012954479083418846
0.014592926949262619,0.007107281591743231,-0.013540379703044891,0.006560937967151403,0.0,0.012664467096328735
0.014468793757259846,0.006748607847839594,-0.013346156105399132,0.006316801067441702,0.0,0.012527006678283215
0.01472181174904108,0.006764717400074005,-0.013440078124403954,0.006256580352783203,0.0,0.012550518848001957
0.014582439325749874,0.006698191165924072,-0.01314383465796709,0.0065498570911586285,0.0,0.013075238093733788
0.014910000376403332,0.007627233397215605,-0.012555545195937157,0.00718946848064661,0.0,0.012985455803573132
0.014712653122842312,0.006984040141105652,-0.012988250702619553,0.007384879980236292,0.0,0.013026938773691654
0.014593848958611488,0.006790647283196449,-0.012809930369257927,0.006702404003590345,0.0,0.01267053559422493
0.014808695763349533,0.006665081717073917,-0.013423098251223564,0.006352470722049475,0.0,0.013351055793464184
0.014836321584880352,0.006974471732974052,-0.012833179906010628,0.0069354381412267685,0.0,0.013414304703474045
0.014928782358765602,0.0076592108234763145,-0.013429839164018631,0.007177052088081837,0.0,0.013130747713148594
0.014875466004014015,0.00711186695843935,-0.013073238544166088,0.007406254298985004,0.0,0.012890289537608624
0.01509506069123745,0.0066203526221215725,-0.013236713595688343,0.00694498885422945,0.0,0.01274240855127573
0.014975382946431637,0.006673334166407585,-0.012820468284189701,0.0066313836723566055,0.0,0.012971404008567333
0.01495764497667551,0.006958162412047386,-0.012475910596549511,0.007130560465157032,0.0,0.012811859138309956
0.01495764497667551,0.006958162412047386,-0.012475910596549511,0.007130560465157032,0.0,0.012811859138309956
0.014520843513309956,0.0071340338326990604,-0.013062657788395882,0.0072811320424079895,0.0,0.013103386387228966
0.015168456360697746,0.0069253528490662575,-0.012825767509639263,0.007139239460229874,0.0,0.013105778023600578
0.015128180384635925,0.006675281096249819,-0.01377910003066063,0.0067876530811190605,-0.0002147056657122448,0.01330751832574606
0.015299558639526367,0.007208910770714283,-0.012889379635453224,0.006957490928471088,-0.0002498987305443734,0.013010801747441292
0.014849393628537655,0.006733517628163099,-0.013475459069013596,0.007156189065426588,-0.00023966995649971068,0.013747953809797764
0.015298018231987953,0.0064527480863034725,-0.012903234921395779,0.0073915328830480576,-0.00026717278524301946,0.013745770789682865
0.015171527862548828,0.00658694701269269,-0.01347558107227087,0.007001293823122978,-0.00025973396259360015,0.013828808441758156
0.015401830896735191,0.0065595549531280994,-0.012920144945383072,0.007517955265939236,-0.0002866809372790158,0.013754350133240223
0.01598038338124752,0.006850867066532373,-0.013420229777693748,0.006692190188914537,-0.0002979748824145645,0.013406893238425255
0.01543447095900774,0.006599200889468193,-0.013228324241936207,0.006907884497195482,-0.000290467229206115,0.013257632963359356
0.015745755285024643,0.0066294255666434765,-0.013349052518606186,0.00736223254352808,-0.00045584680628962815,0.013337117619812489
0.015646008774638176,0.0070002516731619835,-0.012983821332454681,0.007099455688148737,-0.0005017152288928628,0.013212194666266441
0.015281587839126587,0.006892311852425337,-0.013501633889973164,0.007208541501313448,-0.00047872200957499444,0.013366005383431911
0.015463996678590775,0.006521744187921286,-0.01291602198034525,0.007042160257697105,-0.0004949340946041048,0.013128800317645073
0.016186269000172615,0.0063754841685295105,-0.013481348752975464,0.007459565065801144,-0.0005073884385637939,0.013384483754634857
0.015895819291472435,0.006773749366402626,-0.01300266943871975,0.007469880860298872,-0.0005031274631619453,0.013500836677849293
0.015485809184610844,0.007086548954248428,-0.013218116015195847,0.007399565074592829,-0.0005694973515346646,0.013936491683125496
0.01591820828616619,0.006835870910435915,-0.012737015262246132,0.007542571052908897,-0.0005881353281438351,0.013781691901385784
0.01566513255238533,0.007249013055115938,-0.013388917781412601,0.007821908220648766,-0.0006021406734362245,0.014104305766522884
0.01621670089662075,0.006585604976862669,-0.013514775782823563,0.007780209183692932,-0.0005631287931464612,0.01368818897753954
0.015709638595581055,0.006824743002653122,-0.013372734189033508,0.007651280611753464,-0.0005903961136937141,0.014010950922966003
0.01596519723534584,0.006852488499134779,-0.013218504376709461,0.00775197334587574,-0.0005445824936032295,0.013607379049062729
0.015986010432243347,0.006874036509543657,-0.012943639419972897,0.007835069671273232,-0.0005633379332721233,0.013682677410542965
0.015986010432243347,0.006874036509543657,-0.012943639419972897,0.007835069671273232,-0.0005633379332721233,0.013682677410542965
0.016196049749851227,0.005826087202876806,-0.013025968335568905,0.007744083181023598,-0.0005302632343955338,0.01372708659619093
0.016371123492717743,0.005311995279043913,-0.012729994021356106,0.007723312359303236,-0.0004943843232467771,0.014142005704343319
0.015357596799731255,0.005596817005425692,-0.01348847709596157,0.007587657310068607,-0.0004873259458690882,0.014071776531636715
0.015652824193239212,0.006236337125301361,-0.013154580257833004,0.007702927570790052,-0.0004872425924986601,0.013276437297463417
0.015313594602048397,0.00566554069519043,-0.013398805633187294,0.007698999717831612,-0.00048266962403431535,0.013879838399589062
0.01630132831633091,0.0058515011332929134,-0.012964279390871525,0.007595133036375046,-0.00048131096991710365,0.014355822466313839
0.016372088342905045,0.005908582359552383,-0.013724785298109055,0.007413145154714584,-0.0004776735440827906,0.014588876627385616
0.01630302518606186,0.006029837299138308,-0.0131877101957798,0.008278276771306992,-0.00047741428716108203,0.014498012140393257
0.016095655038952827,0.0052918377332389355,-0.013104257173836231,0.007739150896668434,-0.0005752587458118796,0.0144279720261693
0.016217878088355064,0.005341843701899052,-0.013018088415265083,0.006938109174370766,-0.0006085846689529717,0.014236082322895527
0.015976978465914726,0.005603590048849583,-0.013504543341696262,0.007477708160877228,-0.000638534955214709,0.014325309544801712
0.016124892979860306,0.00612902594730258,-0.012801112607121468,0.008007076568901539,-0.0006310882163234055,0.01451948843896389
0.016210254281759262,0.005925128236413002,-0.013342302292585373,0.007509472314268351,-0.0006147873937152326,0.014288658276200294
0.01687360554933548,0.005549123976379633,-0.012858601287007332,0.007181338965892792,-0.000572873861528933,0.014489569701254368
0.016772383823990822,0.005152316298335791,-0.0136747807264328,0.007962868548929691,-0.0006463201716542244,0.014556946232914925
0.016493702307343483,0.005867816507816315,-0.013682798482477665,0.008267142809927464,-0.0005740460474044085,0.014619650319218636
0.016564317047595978,0.005576076451689005,-0.014362647198140621,0.007769905496388674,-0.0006040030857548118,0.01442981231957674
0.016648441553115845,0.006396880839020014,-0.013554583303630352,0.007521863095462322,-0.0005487556336447597,0.014603364281356335
0.017228595912456512,0.006055126897990704,-0.013828202150762081,0.00814240612089634,-0.0005699954344891012,0.014777416363358498
0.017091333866119385,0.00581775838509202,-0.012673578225076199,0.008654794655740261,-0.000531605037394911,0.014674770645797253
0.016879435628652573,0.00574590265750885,-0.014095156453549862,0.007906259037554264,-0.0004907959373667836,0.014887099154293537
0.017255250364542007,0.005836162716150284,-0.014497983269393444,0.007719373796135187,-0.0005158070707693696,0.01509895920753479
0.017155824229121208,0.006176643073558807,-0.014224287122488022,0.008092147298157215,-0.0004849902761634439,0.014957128092646599
0.017485592514276505,0.006072562653571367,-0.01355750486254692,0.00828457623720169,-0.0004546103300526738,0.015046595595777035
0.017485592514276505,0.006072562653571367,-0.01355750486254692,0.00828457623720169,-0.0004546103300526738,0.015046595595777035
0.016954639926552773,0.005820426624268293,-0.014429137110710144,0.008026445284485817,-0.00041265017352998257,0.015370127744972706
0.017077893018722534,0.005512412171810865,-0.01425930205732584,0.008254768326878548,-0.0003773891949094832,0.015498739667236805
0.017297865822911263,0.005925712641328573,-0.014166752807796001,0.008294541388750076,-0.00034812605008482933,0.015906454995274544
0.017301494255661964,0.006213624961674213,-0.014147307723760605,0.007883792743086815,-0.0003544583742041141,0.015092771500349045
0.017336668446660042,0.006169118452817202,-0.013916670344769955,0.007663333788514137,-0.0003595653106458485,0.014959259890019894
0.01707797683775425,0.0059859356842935085,-0.013788526877760887,0.007999787107110023,-0.0003388721670489758,0.014567563310265541
0.017323698848485947,0.006195671856403351,-0.01364662405103445,0.008039317093789577,-0.0003649464051704854,0.014431224204599857
0.017578717321157455,0.005890659987926483,-0.014295701868832111,0.007822132669389248,-0.0003509088419377804,0.014596011489629745
0.017617322504520416,0.0063968561589717865,-0.014062735252082348,0.008263161405920982,-0.0003739258390851319,0.01488749124109745
0.018175892531871796,0.006573434919118881,-0.014046024531126022,0.008469723165035248,-0.00036084221210330725,0.014990877360105515
0.017914311960339546,0.006186600308865309,-0.013708061538636684,0.008993229828774929,-0.00044705113396048546,0.015693536028265953
0.0182111244648695,0.0065177795477211475,-0.014084932394325733,0.009137646295130253,-0.00042988898348994553,0.01497972384095192
0.018139058724045753,0.0064779240638017654,-0.01404484175145626,0.008584896102547646,-0.0003992898273281753,0.014839467592537403
0.018419818952679634,0.006247664336115122,-0.013245941139757633,0.00847840029746294,-0.0004253869119565934,0.015290657058358192
0.018461208790540695,0.006077463272958994,-0.01449568197131157,0.008335167542099953,-0.00040531865670345724,0.015399578027427197
0.01803395338356495,0.006087796296924353,-0.01420038752257824,0.00843055546283722,-0.00038125558057799935,0.015935439616441727
0.01844298280775547,0.006315683946013451,-0.014409126713871956,0.008320503868162632,-0.00035952223697677255,0.01600456051528454
0.018285637721419334,0.006683141924440861,-0.01385318860411644,0.00844244658946991,-0.00034010710078291595,0.01525221485644579
0.01811700314283371,0.006152704823762178,-0.014502388425171375,0.008340821601450443,-0.00035668755299411714,0.01515546627342701
0.018569370731711388,0.005859315395355225,-0.013335801661014557,0.008183716796338558,-0.0003500155871734023,0.015107067301869392
0.018499549478292465,0.006151086185127497,-0.01433359645307064,0.008246336132287979,-0.00033445045119151473,0.015301334671676159
0.017820678651332855,0.006372676696628332,-0.013688026927411556,0.00855824165046215,-0.0003196439938619733,0.015693552792072296
0.01931184157729149,0.006592191755771637,-0.014139189384877682,0.008800077252089977,-0.0003060564340557903,0.014878940768539906
0.018991166725754738,0.006430023815482855,-0.013783281669020653,0.008675463497638702,-0.0002935745578724891,0.014758842997252941
0.018773963674902916,0.006562901195138693,-0.014539852738380432,0.00880089495331049,-0.00028467527590692043,0.015676265582442284
0.018967902287840843,0.006314079277217388,-0.013883836567401886,0.009277892298996449,-0.000269439653493464,0.01582464575767517
0.01870977133512497,0.0067238337360322475,-0.014311244711279869,0.00887675303965807,-0.0002543241425883025,0.016096973791718483
0.018876826390624046,0.006389887072145939,-0.013694963417947292,0.008468685671687126,-0.00024072203086689115,0.015824152156710625
0.018876826390624046,0.006389887072145939,-0.013694963417947292,0.008468685671687126,-0.00024072203086689115,0.015824152156710625
0.018224893137812614,0.005978811532258987,-0.014202073216438293,0.00895968358963728,-0.00027105212211608887,0.015833385288715363
0.017702609300613403,0.0058823442086577415,-0.013822847977280617,0.008627312257885933,-0.00026073565823026,0.01582414284348488
0.018991904333233833,0.006235194858163595,-0.01446323562413454,0.008202072232961655,-0.0002691644767764956,0.015676164999604225
0.019314927980303764,0.00633042398840189,-0.014122202061116695,0.008222030475735664,-0.000276209699222818,0.016050193458795547
0.018993988633155823,0.00620065163820982,-0.01467033289372921,0.00869691651314497,-0.00026578735560178757,0.016361184418201447
0.018894368782639503,0.006279521621763706,-0.014016684144735336,0.009352447465062141,-0.00025510331033729017,0.016385076567530632
0.019083868712186813,0.0056849210523068905,-0.014427649788558483,0.008994180709123611,-0.0002755438326857984,0.016275187954306602
0.019086254760622978,0.0063935318030416965,-0.014288362115621567,0.009477081708610058,-0.00026940234238281846,0.01634507067501545
0.02011803910136223,0.006829546764492989,-0.014381158165633678,0.00896507315337658,-0.0003365418524481356,0.016477691009640694
0.0195429977029562,0.006255326792597771,-0.014075073413550854,0.008958050049841404,-0.0003366834716871381,0.01654905267059803
0.018727239221334457,0.00629004742950201,-0.014794531278312206,0.009001989848911762,-0.00037333753425627947,0.016659708693623543
0.019235268235206604,0.006028767675161362,-0.014774804003536701,0.008938628248870373,-0.0003721295506693423,0.016805067658424377
0.019014008343219757,0.006456734146922827,-0.014210904948413372,0.009113713167607784,-0.000363385071977973,0.01674923487007618
0.01920490525662899,0.006066085305064917,-0.014715531840920448,0.009607137180864811,-0.0003443515161052346,0.01693948172032833
0.019694799557328224,0.0058432710357010365,-0.014195668511092663,0.008911175653338432,-0.00036096168332733214,0.01682891510426998
0.019766610115766525,0.006096188444644213,-0.014985964633524418,0.009072746150195599,-0.00035400770138949156,0.016707606613636017
0.019684800878167152,0.006034639663994312,-0.014357474632561207,0.008997401222586632,-0.00033808714943006635,0.017048073932528496
0.01988806203007698,0.006239695940166712,-0.0149363549426198,0.008968750014901161,-0.0003244998515583575,0.016499239951372147
0.019303318113088608,0.0064321099780499935,-0.01442824024707079,0.009003885090351105,-0.0003863108577206731,0.01697976142168045
0.01978033408522606,0.006086128298193216,-0.014919650740921497,0.009169014170765877,-0.0003611728025134653,0.0171367097645998
0.020054524764418602,0.006253974046558142,-0.014161713421344757,0.009155466221272945,-0.0003924588963855058,0.017116351053118706
0.01954236626625061,0.006160609424114227,-0.01480073295533657,0.009397272020578384,-0.00037322554271668196,0.01686728559434414
0.019702520221471786,0.00583058875054121,-0.014347726479172707,0.009664338082075119,-0.0003924469347111881,0.01674959994852543
0.019922303035855293,0.005427447147667408,-0.015112210996448994,0.009586667641997337,-0.00038205308374017477,0.01695122942328453
0.020049402490258217,0.005564650520682335,-0.014206869527697563,0.009498094208538532,-0.0003610299027059227,0.017081009224057198
0.01959363929927349,0.0059992047026753426,-0.014787456952035427,0.009871989488601685,-0.0003869282081723213,0.017064882442355156
0.019675420597195625,0.005868654232472181,-0.014237375929951668,0.010082018561661243,-0.0003700047673191875,0.017130929976701736
0.01962064765393734,0.006310927215963602,-0.015145417302846909,0.010306665673851967,-0.00043645716505125165,0.01731092669069767
0.019872020930051804,0.005737324245274067,-0.014963625930249691,0.010103043168783188,-0.0004100223013665527,0.017353329807519913
0.019872020930051804,0.005737324245274067,-0.014963625930249691,0.010103043168783188,-0.0004100223013665527,0.017353329807519913
0.02016599290072918,0.005844183266162872,-0.015432733111083508,0.009677556343376637,-0.0003765550791285932,0.017186323180794716
0.020112419500947,0.005897442810237408,-0.014562069438397884,0.010064881294965744,-0.00040747737511992455,0.017423313111066818
0.020298657938838005,0.005979399662464857,-0.015323145315051079,0.010052350349724293,-0.000386474363040179,0.017334967851638794
0.02004745416343212,0.0059082601219415665,-0.015083537437021732,0.00974392518401146,-0.00040542971692048013,0.017150871455669403
0.018598299473524094,0.00561588816344738,-0.01551507692784071,0.010036739520728588,-0.0003939132147934288,0.017381299287080765
0.02126060612499714,0.005647625774145126,-0.015313868410885334,0.009988940320909023,-0.0004209830367472023,0.017601771280169487
0.02067408710718155,0.0054219369776546955,-0.015312684699892998,0.009884724393486977,-0.0004008224932476878,0.017644088715314865
0.020846817642450333,0.0057289740070700645,-0.01554792933166027,0.010183549486100674,-0.0004230238264426589,0.017571693286299706
0.020660260692238808,0.005756987724453211,-0.015561585314571857,0.010291029699146748,-0.0004250118799973279,0.017754212021827698
0.020464669913053513,0.005420911591500044,-0.015869827941060066,0.0104032838717103,-0.0003908239596057683,0.017992330715060234
0.020752111449837685,0.005358903203159571,-0.015381164848804474,0.009908138774335384,-0.0004265728348400444,0.017924584448337555
0.020673850551247597,0.00558240944519639,-0.01624411717057228,0.01041481178253889,-0.00044831912964582443,0.018162496387958527
0.021361883729696274,0.005731544923037291,-0.016181636601686478,0.010623577050864697,-0.000456230656709522,0.01904483698308468
0.0216065663844347,0.005673159379512072,-0.015940453857183456,0.01104208268225193,-0.00043553917203098536,0.017725855112075806
0.021763933822512627,0.006077024154365063,-0.016587354242801666,0.010228519327938557,-0.0005110029596835375,0.01796279102563858
0.021192342042922974,0.005512232426553965,-0.01657254435122013,0.010197771713137627,-0.0005366592085920274,0.018084920942783356
0.02026149071753025,0.005338269751518965,-0.015924308449029922,0.010394573211669922,-0.0005287301610223949,0.018636928871273994
0.021569015458226204,0.005624734330922365,-0.016412217170000076,0.010182845406234264,-0.0004842065100092441,0.01886831969022751
0.021512551233172417,0.005979586858302355,-0.01606113091111183,0.010795552283525467,-0.0005133123486302793,0.018438054248690605
0.021453583613038063,0.005788675509393215,-0.01692070998251438,0.010840540751814842,-0.0004787806828971952,0.017717989161610603
0.021105889230966568,0.005622936878353357,-0.016278373077511787,0.010784883052110672,-0.0005001435056328773,0.017607545480132103
0.021925978362560272,0.005824752151966095,-0.016650302335619926,0.010900908149778843,-0.0004746677877847105,0.01815786398947239
0.02189168520271778,0.005942001007497311,-0.01686040684580803,0.010551556944847107,-0.000517745444085449,0.018786421045660973
0.022210562601685524,0.006000247318297625,-0.016635429114103317,0.011020277626812458,-0.0005634593544527888,0.01892382837831974
0.022099263966083527,0.005366613157093525,-0.016947656869888306,0.011296698823571205,-0.000590238778386265,0.018635980784893036
0.022206762805581093,0.005910103674978018,-0.016059406101703644,0.010250551626086235,-0.0006068185321055353,0.01864713802933693
0.021566003561019897,0.0055000982247292995,-0.016497135162353516,0.01014977041631937,-0.0005788072594441473,0.018501240760087967
0.02182883955538273,0.005868134088814259,-0.01627117209136486,0.010919878259301186,-0.0007739139255136251,0.019638611003756523
0.02184133417904377,0.005877948831766844,-0.01683192513883114,0.010304119437932968,-0.0008021320682018995,0.019744262099266052
0.0225545484572649,0.006147959269583225,-0.017128264531493187,0.01024807058274746,-0.0008154895040206611,0.018541650846600533
0.022436831146478653,0.005615897476673126,-0.016505515202879906,0.009783443994820118,-0.0007287452463060617,0.018297281116247177
0.022436831146478653,0.005615897476673126,-0.016505515202879906,0.009783443994820118,-0.0007287452463060617,0.018297281116247177
0.02245483733713627,0.005898607429116964,-0.017189141362905502,0.009584484621882439,-0.0007400894537568092,0.018235748633742332
0.02249849960207939,0.005594288930296898,-0.016206471249461174,0.010799616575241089,-0.0006785985897295177,0.01826838217675686
0.022103682160377502,0.006073141936212778,-0.01634332910180092,0.010864651761949062,-0.0006538881571032107,0.018904313445091248
0.022496553137898445,0.006141506135463715,-0.016260158270597458,0.010489199310541153,-0.0005750475102104247,0.019412873312830925
0.02266545780003071,0.005895460955798626,-0.017022090032696724,0.010670718736946583,-0.0005100462585687637,0.01935889758169651
0.02256396785378456,0.006351000163704157,-0.016927827149629593,0.01013700570911169,-0.0005368558340705931,0.019415177404880524
0.02076715975999832,0.00595090864226222,-0.016507958993315697,0.0100063132122159,-0.0004979887162335217,0.019411196932196617
0.023413095623254776,0.00602752435952425,-0.0160224512219429,0.01028538215905428,-0.00048615856212563813,0.019184155389666557
0.02289060316979885,0.005324633792042732,-0.016885770484805107,0.010798081755638123,-0.0004552616737782955,0.019648227840662003
0.022967593744397163,0.00479564955458045,-0.016801146790385246,0.010823432356119156,-0.000481263647088781,0.01959199458360672
0.02278262935578823,0.0049688685685396194,-0.016664039343595505,0.01063747238367796,-0.0004550276498775929,0.0196533203125
0.022928303107619286,0.00503752613440156,-0.016749635338783264,0.011183337308466434,-0.00041605488513596356,0.020170049741864204
0.023195043206214905,0.005367682781070471,-0.016577808186411858,0.011202221736311913,-0.00044668553164228797,0.019489984959363937
0.02325020357966423,0.005434009712189436,-0.017036987468600273,0.011583467945456505,-0.00045482857967726886,0.019418789073824883
0.023159796372056007,0.005122710485011339,-0.016698068007826805,0.011906717903912067,-0.0004537047352641821,0.019476456567645073
0.023707760497927666,0.005302994977682829,-0.016814813017845154,0.011309890076518059,-0.00047763335169292986,0.019771844148635864
0.023493729531764984,0.005156638566404581,-0.017067423090338707,0.01173450704663992,-0.0004547530843410641,0.01975827105343342
0.02348218485713005,0.0055642081424593925,-0.016719115898013115,0.011670303530991077,-0.000600189610850066,0.019668126478791237
0.02365579456090927,0.005799193400889635,-0.017142506316304207,0.011688333004713058,-0.0006062207976356149,0.019814537838101387
0.023830289021134377,0.005155500955879688,-0.016389897093176842,0.011905084364116192,-0.000589097966440022,0.019903888925909996
0.023572076112031937,0.005268140695989132,-0.0167376808822155,0.011289962567389011,-0.0006106142536737025,0.019691606983542442
0.02397957444190979,0.005133664235472679,-0.01647872105240822,0.011501465924084187,-0.0005662854528054595,0.019685549661517143
0.024004634469747543,0.005959288217127323,-0.016351988539099693,0.011276104487478733,-0.0005746881943196058,0.01972377672791481
0.024061882868409157,0.005569844972342253,-0.016929563134908676,0.011279910802841187,-0.0005478677339851856,0.0198977068066597
0.024552594870328903,0.005232330411672592,-0.016824614256620407,0.011275848373770714,-0.0005662834155373275,0.019961314275860786
0.024412881582975388,0.0048138913698494434,-0.01699049584567547,0.010710631497204304,-0.0005726290983147919,0.019608143717050552
0.02421507053077221,0.005022826138883829,-0.016483644023537636,0.011024153791368008,-0.0005595939001068473,0.02001396007835865
0.02451140806078911,0.005538800731301308,-0.016710689291357994,0.011652576737105846,-0.000582932960242033,0.019791172817349434
0.02451140806078911,0.005538800731301308,-0.016710689291357994,0.011652576737105846,-0.000582932960242033,0.019791172817349434
0.024385966360569,0.005427391733974218,-0.016785433515906334,0.011225610971450806,-0.0006097355508245528,0.01935490407049656
0.024393057450652122,0.00584274809807539,-0.016521478071808815,0.01165035367012024,-0.0007677261019125581,0.01969434693455696
0.0249017421156168,0.005294527858495712,-0.01715764030814171,0.011300042271614075,-0.0008377357735298574,0.020232409238815308
0.02534504048526287,0.004911005962640047,-0.01648138090968132,0.011396583169698715,-0.0008334070444107056,0.02000231295824051
0.02578025311231613,0.005177890881896019,-0.017501628026366234,0.011393764987587929,-0.000813482329249382,0.019794808700680733
0.02576535753905773,0.005475352518260479,-0.01695280335843563,0.011011515744030476,-0.0007743326714262366,0.01968229189515114
0.023497791960835457,0.005508277099579573,-0.017302965745329857,0.012227816507220268,-0.0008517467067576945,0.019596366211771965
0.025775335729122162,0.005300937220454216,-0.016889650374650955,0.012332244776189327,-0.0008517337264493108,0.020218834280967712
0.025866422802209854,0.005112864077091217,-0.01714342273771763,0.012506281957030296,-0.0007634387002326548,0.02073131687939167
0.025503801181912422,0.005993860308080912,-0.016912413761019707,0.012142851948738098,-0.0007719314889982343,0.02025545760989189
0.025232192128896713,0.0059633092023432255,-0.017168452963232994,0.012537965551018715,-0.0007024817750789225,0.0206262469291687
0.02621678076684475,0.005730023607611656,-0.018037378787994385,0.012340708635747433,-0.000678404641803354,0.021287232637405396
0.026534777134656906,0.005064736120402813,-0.017115630209445953,0.012671739794313908,-0.0006034857360646129,0.02094949595630169
0.02559766359627247,0.0053316205739974976,-0.01764611154794693,0.012587197124958038,-0.0006316295475699008,0.020601853728294373
0.02513757161796093,0.005791804753243923,-0.017390551045536995,0.012621554546058178,-0.0005712407873943448,0.020529229193925858
0.024667277932167053,0.005667964927852154,-0.017335152253508568,0.012681772001087666,-0.0005799380014650524,0.020037546753883362
0.025657882913947105,0.005808849819004536,-0.017534317448735237,0.012256062589585781,-0.0005488399765454233,0.01988154649734497
0.02614957094192505,0.00517311180010438,-0.016915716230869293,0.012039044871926308,-0.0005409880541265011,0.020544787868857384
0.02624456025660038,0.005165080539882183,-0.017904575914144516,0.01215683575719595,-0.0005329078412614763,0.02139107696712017
0.026467708870768547,0.005127279553562403,-0.017852352932095528,0.011927361600100994,-0.0005004011327400804,0.021388398483395576
0.025874603539705276,0.005481909029185772,-0.017384503036737442,0.011836708523333073,-0.00047345785424113274,0.021336475387215614
0.02593039721250534,0.00586231192573905,-0.01777458004653454,0.012142273597419262,-0.0004927855916321278,0.021055344492197037
0.025840528309345245,0.00596010684967041,-0.016948891803622246,0.012161125428974628,-0.0004694307572208345,0.02084534801542759
0.025933070108294487,0.005266295745968819,-0.018121616914868355,0.011872716248035431,-0.0005000964738428593,0.020765887573361397
0.02583388052880764,0.004817608743906021,-0.018349267542362213,0.012616060674190521,-0.0005251072579994798,0.021204056218266487
0.02570863999426365,0.004817565903067589,-0.017620984464883804,0.012026778422296047,-0.0004970011068508029,0.021485688164830208
0.026091936975717545,0.005358541384339333,-0.018105389550328255,0.0120040662586689,-0.0006241375813260674,0.021822717040777206
0.026108520105481148,0.0061265877448022366,-0.01734965480864048,0.011771145276725292,-0.0006249734433367848,0.021732576191425323
0.026108520105481148,0.0061265877448022366,-0.01734965480864048,0.011771145276725292,-0.0006249734433367848,0.021732576191425323
0.02649049647152424,0.0055547007359564304,-0.01747620664536953,0.012055335566401482,-0.0006051498930901289,0.021805275231599808
0.026859011501073837,0.004872427321970463,-0.017578396946191788,0.012625960633158684,-0.0005470731994137168,0.021904397755861282
0.026489293202757835,0.004721520934253931,-0.017752761021256447,0.01209787093102932,-0.0004968825960531831,0.022004708647727966
0.026878416538238525,0.0051902467384934425,-0.01807158812880516,0.012500366196036339,-0.000510583515278995,0.022083541378378868
0.026846930384635925,0.0052663348615169525,-0.017804184928536415,0.012703170999884605,-0.00048821110976859927,0.02187894843518734
0.026092058047652245,0.005330246407538652,-0.01806705817580223,0.01303832046687603,-0.0004799257148988545,0.0220701415091753
0.027414236217737198,0.005128935445100069,-0.01711115427315235,0.012855364941060543,-0.000453366432338953,0.021150726824998856
0.027921311557292938,0.004993075039237738,-0.0178256556391716,0.013191736303269863,-0.000426724087446928,0.021494312211871147
0.027537206187844276,0.005375634413212538,-0.018124306574463844,0.012803447432816029,-0.00039162609027698636,0.02204875648021698
0.02711009979248047,0.005781062878668308,-0.017812177538871765,0.01322086714208126,-0.00035880476934835315,0.022315572947263718
0.02596261166036129,0.005663200281560421,-0.018059559166431427,0.012627880088984966,-0.0003321921394672245,0.022208841517567635
0.027085954323410988,0.0055617825128138065,-0.01760617084801197,0.013472087681293488,-0.0003668612043838948,0.022412555292248726
0.027764812111854553,0.005058966111391783,-0.01766766421496868,0.013210557401180267,-0.00034702790435403585,0.022335581481456757
0.027303917333483696,0.005587580148130655,-0.018110672011971474,0.013550030998885632,-0.0003527610970195383,0.022065673023462296
0.027501815930008888,0.005341774318367243,-0.0176272951066494,0.01302383467555046,-0.00035717003629542887,0.021949592977762222
0.028188079595565796,0.005501135718077421,-0.01806134544312954,0.013044167309999466,-0.00033951387740671635,0.021924495697021484
0.02793286181986332,0.005551400128751993,-0.018226275220513344,0.01296017225831747,-0.0003562103374861181,0.022401560097932816
0.02832750603556633,0.005407699383795261,-0.017719319090247154,0.012993128038942814,-0.00034957562456838787,0.022178780287504196
0.027646848931908607,0.005092708859592676,-0.017808223143219948,0.013051717542111874,-0.00038279680302366614,0.022064190357923508
0.02776658907532692,0.0051616644486784935,-0.017391126602888107,0.012823391705751419,-0.00039638637099415064,0.02203689143061638
0.028365332633256912,0.005615383852273226,-0.01788865588605404,0.01328331883996725,-0.00036713009467348456,0.022273212671279907
0.028372257947921753,0.005801433231681585,-0.018182482570409775,0.012977111153304577,-0.0003982248599641025,0.022363973781466484
0.028256742283701897,0.00555514357984066,-0.01741556078195572,0.013603893108665943,-0.0003783164720516652,0.022180290892720222
0.028393231332302094,0.005093092564493418,-0.018325282260775566,0.012880832888185978,-0.0003827016626019031,0.02194793149828911
0.028242621570825577,0.005269739776849747,-0.017718899995088577,0.013302654027938843,-0.000385661463951692,0.022260751575231552
0.028242621570825577,0.005269739776849747,-0.017718899995088577,0.013302654027938843,-0.000385661463951692,0.022260751575231552
0.028174612671136856,0.005433965474367142,-0.017801646143198013,0.013254725374281406,-0.0003904392651747912,0.022660737857222557
0.028477206826210022,0.005600898060947657,-0.01833026297390461,0.013167190365493298,-0.0003927023208234459,0.023228827863931656
0.02876581996679306,0.005089691840112209,-0.01789674162864685,0.012721976265311241,-0.000438428163761273,0.022982394322752953
0.02876581996679306,0.005089691840112209,-0.01789674162864685,0.012721976265311241,-0.000438428163761273,0.022982394322752953
0.02873716689646244,0.00524404551833868,-0.017823955044150352,0.0134989432990551,-0.0004753547837026417,0.022365013137459755
0.0289644543081522,0.005313421133905649,-0.01763913594186306,0.01304498128592968,-0.0004820210742764175,0.022492581978440285
0.029069222509860992,0.005669046193361282,-0.01832047663629055,0.013196449726819992,-0.00047880830243229866,0.022807521745562553
0.02952474169433117,0.005712295416742563,-0.0188938956707716,0.01281602680683136,-0.0005064018769189715,0.023362427949905396
0.029870934784412384,0.005032322835177183,-0.01894734799861908,0.012967786751687527,-0.000639017322100699,0.023332076147198677
0.029285268858075142,0.004883565474301577,-0.018552016466856003,0.01358198281377554,-0.0006713491748087108,0.024516403675079346
0.02887480892241001,0.005403213202953339,-0.018398422747850418,0.013179400935769081,-0.0006770153995603323,0.024080906063318253
0.02914419211447239,0.005247978959232569,-0.018732566386461258,0.013097988441586494,-0.0006320132524706423,0.023081175982952118
0.02964220941066742,0.005368557758629322,-0.018568020313978195,0.013358314521610737,-0.0006465506157837808,0.021753808483481407
0.029337193816900253,0.005486426874995232,-0.019211284816265106,0.013023752719163895,-0.0006021641893312335,0.02317311055958271
0.029433514922857285,0.005060112103819847,-0.01917756162583828,0.013305451720952988,-0.000617563258856535,0.023710310459136963
0.02955087646842003,0.005297805182635784,-0.017717450857162476,0.013143472373485565,-0.0006065202178433537,0.024100029841065407
0.02985156886279583,0.005102742929011583,-0.01895388960838318,0.013971234671771526,-0.000588399707339704,0.023703904822468758
0.029686838388442993,0.005051431246101856,-0.019611630588769913,0.01287504006177187,-0.0005333696608431637,0.023328399285674095
0.02992825396358967,0.00560119841247797,-0.018288038671016693,0.013223922811448574,-0.000560675747692585,0.023186994716525078
0.030063681304454803,0.004921115469187498,-0.01829589158296585,0.013054420240223408,-0.000555249338503927,0.02335514687001705
0.029896311461925507,0.005605946760624647,-0.01917584240436554,0.014199856668710709,-0.0005461302353069186,0.023215511813759804
0.030009254813194275,0.005326534155756235,-0.01895916648209095,0.01405508816242218,-0.0005710666882805526,0.02349076420068741
0.029828907921910286,0.004968980792909861,-0.018420107662677765,0.013247370719909668,-0.0005269655957818031,0.023324966430664062
0.029651788994669914,0.005165907554328442,-0.018847724422812462,0.014249507337808609,-0.0005543393781408668,0.023420309647917747
0.03010644018650055,0.005007165018469095,-0.018915323540568352,0.01477340329438448,-0.0005127734621055424,0.023653274402022362
0.03088385984301567,0.005161311477422714,-0.019604798406362534,0.01422559842467308,-0.0005262077320367098,0.023893233388662338
0.03055800497531891,0.004900085274130106,-0.01948448270559311,0.014604907482862473,-0.000536829000338912,0.023863105103373528
0.0286212470382452,0.004868191666901112,-0.018740732222795486,0.014342458918690681,-0.0005301876226440072,0.02395940013229847
0.029443778097629547,0.004844737704843283,-0.0188516303896904,0.01497653964906931,-0.0005459627718664706,0.02391616441309452
0.029443778097629547,0.004844737704843283,-0.0188516303896904,0.01497653964906931,-0.0005459627718664706,0.02391616441309452
0.03059190884232521,0.005128938239067793,-0.019187863916158676,0.01436182577162981,-0.0005309974076226354,0.023842696100473404
0.030061352998018265,0.004939903039485216,-0.01894141547381878,0.01484838780015707,-0.0005664188065566123,0.024237200617790222
0.030888784676790237,0.004723316989839077,-0.01885896921157837,0.013995401561260223,-0.0005596747505478561,0.024109425023198128
0.030754519626498222,0.004737342242151499,-0.01900666020810604,0.014262799173593521,-0.0005489133181981742,0.024398090317845345
0.030560875311493874,0.0052022445015609264,-0.018747705966234207,0.013861354440450668,-0.0005603615427389741,0.02430279739201069
0.030094578862190247,0.004740039352327585,-0.019376125186681747,0.014443212188780308,-0.0005359615897759795,0.024682054296135902
0.02990780770778656,0.00504467636346817,-0.01911495253443718,0.01407903153449297,-0.0006170355482026935,0.024436263367533684
0.031109120696783066,0.004771662876009941,-0.01926027610898018,0.014226025901734829,-0.0005891493638046086,0.024448677897453308
0.0302018653601408,0.005088518839329481,-0.01884949952363968,0.014759188517928123,-0.0006141599151305854,0.024201497435569763
0.03156266734004021,0.005358090624213219,-0.01875692792236805,0.01465332880616188,-0.0006034612306393683,0.024319402873516083
0.031163694337010384,0.005030987784266472,-0.01930367201566696,0.015423363074660301,-0.0005896920338273048,0.025478292256593704
0.030381664633750916,0.005422753281891346,-0.019078999757766724,0.01450288575142622,-0.000644229119643569,0.025660797953605652
0.031060710549354553,0.005197063088417053,-0.018961116671562195,0.014651739969849586,-0.0005786787951365113,0.02510593831539154
0.03110416978597641,0.004871250595897436,-0.01945004053413868,0.01443060114979744,-0.0006018653512001038,0.023950355127453804
0.030812183395028114,0.0053738863207399845,-0.019035372883081436,0.015278230421245098,-0.0005522583378478885,0.024069955572485924
0.031194088980555534,0.005086849443614483,-0.018760118633508682,0.015398981980979443,-0.0005016770446673036,0.02510799467563629
0.03142087534070015,0.004872800316661596,-0.0192103311419487,0.015690216794610023,-0.0005300791817717254,0.02499203197658062
0.03145380690693855,0.005493578501045704,-0.01875184290111065,0.014817219227552414,-0.0004931900184601545,0.024589430540800095
0.031692683696746826,0.0052859121933579445,-0.018841207027435303,0.015089391730725765,-0.0005056852824054658,0.025274338200688362
0.03133876621723175,0.004479310940951109,-0.019448935985565186,0.015178670175373554,-0.00048646508366800845,0.02629493549466133
0.03138338774442673,0.004455747082829475,-0.018879534676671028,0.015231462195515633,-0.0004638175305444747,0.025173626840114594
0.032421790063381195,0.005031989421695471,-0.01884942688047886,0.01521687675267458,-0.0004282559675630182,0.024792727082967758
0.031823884695768356,0.004985889419913292,-0.019475700333714485,0.015414868481457233,-0.0004642341809812933,0.02493954449892044
0.03053162805736065,0.004876537714153528,-0.019315795972943306,0.015546045266091824,-0.00048472153139300644,0.0248245932161808
0.031228598207235336,0.005093691870570183,-0.019155222922563553,0.015376395545899868,-0.00049792934441939,0.02600128762423992
0.03217250108718872,0.004503434058278799,-0.019455377012491226,0.015361901372671127,-0.0004985909909009933,0.026412349194288254
0.031839653849601746,0.004514425527304411,-0.019152740016579628,0.015430772677063942,-0.0007754669059067965,0.02587645687162876
0.03312679007649422,0.004601628519594669,-0.01963622309267521,0.015805749222636223,-0.0007474270532839,0.025358745828270912
0.03271687775850296,0.004721630364656448,-0.01986783742904663,0.015559632331132889,-0.0007630288600921631,0.02569720335304737
0.03284073993563652,0.005132990423589945,-0.01908063143491745,0.016141623258590698,-0.0007711127982474864,0.025499902665615082
0.03284073993563652,0.005132990423589945,-0.01908063143491745,0.016141623258590698,-0.0007711127982474864,0.025499902665615082
0.031096335500478745,0.0050426991656422615,-0.01913086324930191,0.01547869574278593,-0.0007928168051876128,0.025421997532248497
0.03196297958493233,0.0048127504996955395,-0.019714869558811188,0.015665631741285324,-0.0008551015635021031,0.02577919512987137
0.033038876950740814,0.005188870709389448,-0.019879121333360672,0.01511024683713913,-0.000771118444390595,0.025992369279265404
0.03222057223320007,0.004585971124470234,-0.019658856093883514,0.015263864770531654,-0.0007491871365346014,0.026086419820785522
0.03308821842074394,0.004975887946784496,-0.019871555268764496,0.015777913853526115,-0.0007252226932905614,0.026408648118376732
0.03284020349383354,0.005085293669253588,-0.019899236038327217,0.016156326979398727,-0.0007919250056147575,0.026888016611337662
0.033067867159843445,0.004775228910148144,-0.02057400532066822,0.015889983624219894,-0.0007498559425584972,0.026757661253213882
0.03281069174408913,0.004437311086803675,-0.020614782348275185,0.01574862375855446,-0.0007644102443009615,0.026848120614886284
0.03283771127462387,0.0049845315515995026,-0.019562799483537674,0.01511730533093214,-0.0007595554343424737,0.026770729571580887
0.03298845514655113,0.004682541359215975,-0.019878920167684555,0.0156608447432518,-0.0007073242450132966,0.026571527123451233
0.033426184207201004,0.004602121189236641,-0.020339932292699814,0.015471241436898708,-0.0007368242950178683,0.02653205581009388
0.03374779224395752,0.0049352338537573814,-0.020052416250109673,0.01630318909883499,-0.0007094890461303294,0.026812568306922913
0.03361952304840088,0.004952871706336737,-0.020516226068139076,0.01584448665380478,-0.0006760513060726225,0.026652837172150612
0.03378221020102501,0.004596675746142864,-0.020106803625822067,0.015765663236379623,-0.0006972705014050007,0.026953428983688354
0.034025490283966064,0.00409096572548151,-0.020082684233784676,0.015615389682352543,-0.0006769979372620583,0.027201000601053238
0.03355148062109947,0.0038894107565283775,-0.020087430253624916,0.01583683118224144,-0.0006550593534484506,0.027145886793732643
0.033099208027124405,0.004791275132447481,-0.02089761570096016,0.0157508235424757,-0.0006620428175665438,0.027309570461511612
0.034664351493120193,0.005157667677849531,-0.021123357117176056,0.015697840601205826,-0.000672748894430697,0.02670408971607685
0.034890495240688324,0.004492221865803003,-0.020284337922930717,0.016171209514141083,-0.0006718135555274785,0.027722232043743134
0.03410155326128006,0.004306707065552473,-0.02006000094115734,0.01623426377773285,-0.0006489045335911214,0.02746311016380787
0.03418846055865288,0.004059833008795977,-0.021863074973225594,0.016849925741553307,-0.0006637300248257816,0.027617603540420532
0.03446665033698082,0.004326592665165663,-0.019914697855710983,0.016643866896629333,-0.0006938694859854877,0.028558451682329178
0.034917622804641724,0.0046636080369353294,-0.01955622062087059,0.016813328489661217,-0.0006674984470009804,0.028528666123747826
0.0346967875957489,0.004221800714731216,-0.021108409389853477,0.01720566116273403,-0.0006939147133380175,0.027752146124839783
0.0346967875957489,0.004221800714731216,-0.021108409389853477,0.01720566116273403,-0.0006939147133380175,0.027752146124839783
0.034821316599845886,0.004457450937479734,-0.020960470661520958,0.017029663547873497,-0.0007103538373485208,0.027052143588662148
0.034487005323171616,0.004460766911506653,-0.020717857405543327,0.017415832728147507,-0.0006495543057098985,0.02705960161983967
0.03473517298698425,0.0042553795501589775,-0.020834602415561676,0.017216237261891365,-0.0006620381609536707,0.028091775253415108
0.03465602174401283,0.003964648582041264,-0.021048687398433685,0.01767445169389248,-0.0006153139984235168,0.027861760929226875
0.03499060869216919,0.004296719562262297,-0.02059856243431568,0.017612190917134285,-0.0006100393948145211,0.028213821351528168
0.035920560359954834,0.004587593488395214,-0.020254597067832947,0.016785411164164543,-0.0006056080455891788,0.028752753511071205
0.03506828844547272,0.004398500546813011,-0.020707430317997932,0.017033498734235764,-0.0006353228236548603,0.02840607427060604
0.03475729748606682,0.004508412908762693,-0.020992081612348557,0.01731579750776291,-0.0006356271915137768,0.027328288182616234
0.03465384244918823,0.004364004358649254,-0.021087074652314186,0.017091285437345505,-0.0007021796191111207,0.02786519192159176
0.03520755097270012,0.004425898194313049,-0.02087898552417755,0.016893502324819565,-0.0006991067202761769,0.02884180285036564
0.036460865288972855,0.004515797831118107,-0.02079814113676548,0.017534220591187477,-0.0007240662816911936,0.028608961030840874
0.03599423170089722,0.004665594547986984,-0.02040219120681286,0.016994858160614967,-0.0007236344972625375,0.028517892584204674
0.03432789817452431,0.004369089379906654,-0.020775625482201576,0.017020197585225105,-0.0006709442823193967,0.02841414138674736
0.03509548306465149,0.0044311354868113995,-0.021258972585201263,0.017146000638604164,-0.0006883001187816262,0.028250208124518394
0.03616422414779663,0.004640122875571251,-0.020966786891222,0.017199208959937096,-0.0006775035872124135,0.027797572314739227
0.035861946642398834,0.0045899986289441586,-0.02075486071407795,0.01729804463684559,-0.0006295339553616941,0.028233835473656654
0.03578203171491623,0.004296689294278622,-0.021306507289409637,0.01705050654709339,-0.0006575912120752037,0.028182251378893852
0.035942208021879196,0.004524047486484051,-0.021256692707538605,0.017492808401584625,-0.0006771686603315175,0.028197821229696274
0.03571765124797821,0.004654256161302328,-0.020643087103962898,0.01757240481674671,-0.0006872531375847757,0.028393972665071487
0.03606904670596123,0.004693574272096157,-0.020632311701774597,0.01734239235520363,-0.0008066268637776375,0.02878672070801258
0.03589852899312973,0.004715840797871351,-0.020974285900592804,0.017664160579442978,-0.000869220879394561,0.02915571630001068
0.035700589418411255,0.004625227767974138,-0.020904172211885452,0.017353320494294167,-0.0008679200545884669,0.029282094910740852
0.03547140955924988,0.0043505774810910225,-0.0209933090955019,0.01756693422794342,-0.0008790293941274285,0.027497362345457077
0.03567478060722351,0.0042847623117268085,-0.021666543558239937,0.017669951543211937,-0.0009425637545064092,0.029214026406407356
0.035985395312309265,0.004867637064307928,-0.021252192556858063,0.017409801483154297,-0.0009461731533519924,0.02956576831638813
0.03647245839238167,0.004968907684087753,-0.021188044920563698,0.017685027793049812,-0.0009398297988809645,0.02878349833190441
0.03603249415755272,0.0048050968907773495,-0.021160276606678963,0.017211416736245155,-0.0009345729486085474,0.02918160706758499
0.03518381714820862,0.004652565810829401,-0.02152390033006668,0.017868462949991226,-0.0008640334126539528,0.029409149661660194
0.03518381714820862,0.004652565810829401,-0.02152390033006668,0.017868462949991226,-0.0008640334126539528,0.029409149661660194
0.03611728549003601,0.004288853611797094,-0.020972739905118942,0.018074175342917442,-0.000944228726439178,0.029591849073767662
0.035076867789030075,0.004926041699945927,-0.020584113895893097,0.017375905066728592,-0.0009423726005479693,0.028912043198943138
0.035724010318517685,0.004663899075239897,-0.020686592906713486,0.018359987065196037,-0.0009528907248750329,0.02843743935227394
0.03737340494990349,0.0045778448693454266,-0.02155867964029312,0.017904900014400482,-0.0010404355125501752,0.030031239613890648
0.034258969128131866,0.00501219229772687,-0.0214534942060709,0.017822442576289177,-0.0009005065076053143,0.02984771691262722
0.036000918596982956,0.004448567982763052,-0.021137790754437447,0.018099525943398476,-0.0008864896954037249,0.028362033888697624
0.03694533556699753,0.004395020194351673,-0.021519778296351433,0.01833692006766796,-0.0008872377220541239,0.02895885892212391
0.036769744008779526,0.004536355845630169,-0.02224424108862877,0.018115784972906113,-0.0008175575057975948,0.03019515983760357
0.03603559359908104,0.004617148544639349,-0.021644704043865204,0.01753355748951435,-0.0007151822792366147,0.02999154105782509
0.03629046306014061,0.0046973517164587975,-0.021341951563954353,0.017719902098178864,-0.0007327728671953082,0.030223790556192398
0.03667900711297989,0.005147701594978571,-0.02235422283411026,0.01781103014945984,-0.0007524093380197883,0.03054944798350334
0.037034183740615845,0.004898730665445328,-0.02193303592503071,0.01801934279501438,-0.0007682411815039814,0.029906027019023895
0.03717022016644478,0.004848152864724398,-0.021771185100078583,0.01886475272476673,-0.00083825463661924,0.029327532276511192
0.03680519014596939,0.004628278315067291,-0.02183631621301174,0.018232183530926704,-0.0008879091474227607,0.029554400593042374
0.036660563200712204,0.0048797838389873505,-0.02235812321305275,0.01833626814186573,-0.0008921314729377627,0.030784856528043747
0.03708358854055405,0.004848984535783529,-0.022128218784928322,0.018191022798419,-0.0008931847405619919,0.030777418985962868
0.037415243685245514,0.004945725668221712,-0.021702714264392853,0.017534853890538216,-0.0009369614999741316,0.029838647693395615
0.037711843848228455,0.00492599094286561,-0.021211376413702965,0.017860116437077522,-0.0008977809338830411,0.031095825135707855
0.03766819089651108,0.004928932525217533,-0.02201589196920395,0.017727583646774292,-0.0008300598710775375,0.031061476096510887
0.038146067410707474,0.0044661047868430614,-0.0221327506005764,0.01767844706773758,-0.0008108242764137685,0.03054855391383171
0.038118038326501846,0.004584395792335272,-0.021866707131266594,0.018311701714992523,-0.0007420837064273655,0.030410194769501686
0.037722814828157425,0.004667498171329498,-0.021755684167146683,0.018519166857004166,-0.0007347685750573874,0.03056936524808407
0.037981029599905014,0.005078699439764023,-0.021988648921251297,0.019146353006362915,-0.0006861139554530382,0.03048255667090416
0.037981029599905014,0.005078699439764023,-0.021988648921251297,0.019146353006362915,-0.0006861139554530382,0.03048255667090416
0.03849772736430168,0.005031495820730925,-0.02233082987368107,0.020081911236047745,-0.0006195200840011239,0.030876297503709793
0.038220103830099106,0.004731346853077412,-0.02228977158665657,0.02018897794187069,-0.000625369546469301,0.031055929139256477
0.038186896592378616,0.004707327112555504,-0.021771766245365143,0.01989489048719406,-0.0006290078163146973,0.03112730197608471
0.038702890276908875,0.0047243209555745125,-0.022058194503188133,0.020221248269081116,-0.0006114967400208116,0.03137487173080444
0.03859160840511322,0.004849456716328859,-0.0228059533983469,0.019342385232448578,-0.0006288985023275018,0.03151186555624008
0.0391901358962059,0.005548415705561638,-0.021901506930589676,0.019068032503128052,-0.000783447758294642,0.031245755031704903
0.0391901358962059,0.005548415705561638,-0.021901506930589676,0.019068032503128052,-0.000783447758294642,0.031245755031704903
0.038657914847135544,0.004929411690682173,-0.021865395829081535,0.019599488005042076,-0.0008128028130158782,0.031236130744218826
0.04040956869721413,0.004961548838764429,-0.021997205913066864,0.019657893106341362,-0.0009481840534135699,0.031435783952474594
0.03980737552046776,0.004842658527195454,-0.02168859913945198,0.019423553720116615,-0.000990170519798994,0.031461965292692184
0.03744981065392494,0.004796147346496582,-0.021525317803025246,0.01883600279688835,-0.0009890722576528788,0.03184879571199417
0.03898033872246742,0.00508375559002161,-0.02204892598092556,0.019543716683983803,-0.0009691158775240183,0.030775006860494614
0.03937719017267227,0.004920886363834143,-0.02242453023791313,0.019517283886671066,-0.0008784908568486571,0.032035861164331436
0.0396028533577919,0.004700770135968924,-0.02202937938272953,0.019254714250564575,-0.0008376548066735268,0.033014796674251556
0.04068450257182121,0.004690004978328943,-0.02140762284398079,0.019594041630625725,-0.0008344631642103195,0.03332744166254997
0.039698317646980286,0.005082147661596537,-0.021782660856842995,0.01940564438700676,-0.0008264976204372942,0.03141961619257927
0.03852277621626854,0.004940824117511511,-0.02202349528670311,0.018972652032971382,-0.0008072825148701668,0.030624741688370705
0.04000047594308853,0.0054895575158298016,-0.021992437541484833,0.019227903336286545,-0.0007690321654081345,0.03218591958284378
0.04015926271677017,0.004997501149773598,-0.02157047763466835,0.019261149689555168,-0.0007422654307447374,0.03236730396747589
0.04051154851913452,0.004463591147214174,-0.022139640524983406,0.018669473007321358,-0.0006465421174652874,0.03271327540278435
0.039718128740787506,0.004521613009274006,-0.022219840437173843,0.01918284222483635,-0.0006704819388687611,0.03357011079788208
0.04003056138753891,0.004999985918402672,-0.022013843059539795,0.019376788288354874,-0.0006887807976454496,0.03290030360221863
0.04003056138753891,0.004999985918402672,-0.022013843059539795,0.019376788288354874,-0.0006887807976454496,0.03290030360221863
0.04012104496359825,0.00485288817435503,-0.022155866026878357,0.019356774166226387,-0.000757404777687043,0.0314759686589241
0.04010729119181633,0.004758029710501432,-0.02235104702413082,0.019062839448451996,-0.000799469300545752,0.033012308180332184
0.040219902992248535,0.00507104629650712,-0.022477131336927414,0.018893728032708168,-0.0008222416508942842,0.03297528624534607
0.040219902992248535,0.00507104629650712,-0.022477131336927414,0.018893728032708168,-0.0008222416508942842,0.03297528624534607
0.041740722954273224,0.004881864879280329,-0.022327318787574768,0.019517160952091217,-0.0008318863692693412,0.032900117337703705
0.03922658413648605,0.004964080173522234,-0.021386872977018356,0.019614849239587784,-0.0010042415233328938,0.032588765025138855
0.03887322545051575,0.004846365191042423,-0.022087302058935165,0.019170347601175308,-0.0010149386944249272,0.03157135844230652
0.0407787449657917,0.004928448237478733,-0.022993573918938637,0.019400764256715775,-0.0009334253263659775,0.03279022499918938
0.041490525007247925,0.0049283928237855434,-0.02192024514079094,0.019154852256178856,-0.000764238357078284,0.03368908166885376
0.04122631996870041,0.00477531598880887,-0.02241780050098896,0.01982339285314083,-0.0007718950510025024,0.03332176432013512
0.03955113887786865,0.004694323055446148,-0.02310968190431595,0.019897159188985825,-0.0007024085498414934,0.03306576609611511
0.04106247425079346,0.004649139475077391,-0.02281769923865795,0.019058499485254288,-0.0006021667504683137,0.03361688181757927
0.041228242218494415,0.005055891815572977,-0.022439690306782722,0.019160456955432892,-0.0005733935395255685,0.03330100327730179
0.0411502867937088,0.004876345861703157,-0.02185429260134697,0.019470224156975746,-0.0005582576850429177,0.03343541547656059
0.040715400129556656,0.004562913440167904,-0.022395728155970573,0.019990256056189537,-0.0005815350450575352,0.03318063169717789
0.04081731662154198,0.0048670643009245396,-0.022475972771644592,0.0205366350710392,-0.0005983987939544022,0.03344148397445679
0.04082386568188667,0.005024166777729988,-0.023176411166787148,0.02048632502555847,-0.0007507674163207412,0.03384791687130928
0.04077714681625366,0.004942967090755701,-0.0226296316832304,0.019575076177716255,-0.0008189165964722633,0.034132178872823715
0.04133157059550285,0.004640521015971899,-0.022204620763659477,0.018966585397720337,-0.0008992147049866617,0.03385039046406746
0.040743205696344376,0.004010105971246958,-0.022644098848104477,0.01974840834736824,-0.0010750548681244254,0.03389965742826462
0.041023824363946915,0.004148782696574926,-0.02301982045173645,0.020155547186732292,-0.0011928568128496408,0.034887176007032394
0.041257429867982864,0.004232786595821381,-0.022496933117508888,0.020501164719462395,-0.0011051767505705357,0.034250300377607346
0.04110387712717056,0.004491397179663181,-0.022270111367106438,0.02080535888671875,-0.001002039178274572,0.033978309482336044
0.04135797545313835,0.00439717760309577,-0.02273704670369625,0.020520078018307686,-0.0009745705174282193,0.03400963544845581
0.04126621410250664,0.004358578473329544,-0.02301718480885029,0.02001892402768135,-0.0008710689726285636,0.03451285511255264
0.04128333181142807,0.004045650362968445,-0.022912217304110527,0.020780494436621666,-0.0007424555951729417,0.0343288891017437
0.041686829179525375,0.004352222662419081,-0.0229045357555151,0.0204366035759449,-0.0007451644050888717,0.03572286292910576
0.041686829179525375,0.004352222662419081,-0.0229045357555151,0.0204366035759449,-0.0007451644050888717,0.03572286292910576
0.041931044310331345,0.004069271497428417,-0.022399533540010452,0.01934048719704151,-0.0007630603504367173,0.03489997237920761
0.04184826463460922,0.0038507268764078617,-0.022684378549456596,0.019424227997660637,-0.0007780726882629097,0.033898089081048965
0.04227650538086891,0.0037717712111771107,-0.022866733372211456,0.020019855350255966,-0.0008237105212174356,0.03346487134695053
0.042135078459978104,0.004130923189222813,-0.023018309846520424,0.020157629624009132,-0.0007879927288740873,0.034434910863637924
0.04229484125971794,0.004254250321537256,-0.022936325520277023,0.020551469177007675,-0.000801395857706666,0.035366419702768326
0.04289429262280464,0.003563500242307782,-0.023014890030026436,0.021177740767598152,-0.0008139745332300663,0.03503059595823288
0.04192317649722099,0.0035583721473813057,-0.023556914180517197,0.02102825418114662,-0.0008273359853774309,0.03507775068283081
0.04195886850357056,0.00417907303199172,-0.023642225190997124,0.020281502977013588,-0.0009447632473893464,0.03475840389728546
0.042349059134721756,0.004006906878203154,-0.023513203486800194,0.02103278413414955,-0.0009390568593516946,0.03497311472892761
0.044013239443302155,0.0034771659411489964,-0.023584401234984398,0.020482700318098068,-0.0008813841268420219,0.036138903349637985
0.042462121695280075,0.0035472046583890915,-0.023747621104121208,0.020118942484259605,-0.0009075342095457017,0.036020390689373016
0.04113020747900009,0.004264160990715027,-0.02342584729194641,0.020725155249238014,-0.0009175854502245784,0.03515418991446495
0.0424816831946373,0.004102766513824463,-0.02366323582828045,0.020819485187530518,-0.0009155750158242881,0.03445175290107727
0.04266543313860893,0.003907991107553244,-0.02397693693637848,0.020455384626984596,-0.000913499912712723,0.03531082719564438
0.044240567833185196,0.004255437757819891,-0.023635132238268852,0.020406421273946762,-0.0009365038713440299,0.03576163575053215
0.04339433088898659,0.004149342887103558,-0.02357424609363079,0.020244034007191658,-0.0009420497808605433,0.03497828170657158
0.04129531607031822,0.00407318165525794,-0.0238345917314291,0.019824428483843803,-0.0009363144636154175,0.034831881523132324
0.04334443807601929,0.003976968117058277,-0.024697022512555122,0.019839169457554817,-0.0009314821218140423,0.035187505185604095
0.043942034244537354,0.00386237190105021,-0.024586068466305733,0.020292889326810837,-0.0009486961644142866,0.035912562161684036
0.0429200604557991,0.004027029033750296,-0.02354038506746292,0.02043403498828411,-0.0010274217929691076,0.035448458045721054
0.04345833137631416,0.004031216260045767,-0.023192591965198517,0.020157743245363235,-0.0009492982644587755,0.035619501024484634
0.043020427227020264,0.00397514458745718,-0.02373526804149151,0.02023342065513134,-0.0009306545834988356,0.03563036769628525
0.04277220368385315,0.004282355308532715,-0.024456392973661423,0.020703986287117004,-0.0008957129321061075,0.035441163927316666
0.04355183616280556,0.003601792734116316,-0.02365088276565075,0.02069765515625477,-0.0009127951343543828,0.03671420365571976
0.04488411173224449,0.0034505967050790787,-0.02406160905957222,0.021032536402344704,-0.0009298602817580104,0.037511151283979416
0.04258422181010246,0.0035450735595077276,-0.025078823789954185,0.021782180294394493,-0.000943254039157182,0.036853592842817307
0.04258422181010246,0.0035450735595077276,-0.025078823789954185,0.021782180294394493,-0.000943254039157182,0.036853592842817307
0.04237653315067291,0.0042689465917646885,-0.024873141199350357,0.02226405031979084,-0.001196567784063518,0.03505902364850044
0.04320982098579407,0.004034163895994425,-0.02350332774221897,0.02168416976928711,-0.0011804186506196856,0.035492900758981705
0.044806547462940216,0.004370012786239386,-0.02339073456823826,0.021373800933361053,-0.0011477397056296468,0.03584690019488335
0.04426366835832596,0.0041129617020487785,-0.02426701784133911,0.021097594872117043,-0.0011293442221358418,0.03675803914666176
0.04304645210504532,0.004259164445102215,-0.023802394047379494,0.02081979624927044,-0.0010957007762044668,0.03792827948927879
0.04273489862680435,0.004273964092135429,-0.024638403207063675,0.020468702539801598,-0.001062734634615481,0.0372442901134491
