davideferrari95/blind_handover_controller/data/Test 113 - [2024-02-07 -- 16-27-22]/joint_states_data.csv
shoulder_pan_joint,shoulder_lift_joint,elbow_joint,wrist_1_joint,wrist_2_joint,wrist_3_joint
0.005494005978107452,-3.013077981561807e-11,-0.016074704006314278,0.017537884414196014,0.0,0.006034621968865395
0.005317924544215202,-4.042428826574185e-13,-0.016264494508504868,0.017164627090096474,0.0,0.005631814710795879
0.005311059299856424,-5.423433800173143e-15,-0.015315815806388855,0.01721113733947277,0.0,0.00626260694116354
0.005311059299856424,-5.423433800173143e-15,-0.015315815806388855,0.01721113733947277,0.0,0.00626260694116354
0.005148892290890217,-9.761989576632573e-19,-0.015395442955195904,0.017095699906349182,0.0,0.005826427135616541
0.00513508589938283,-1.3096954202530958e-20,-0.016408829018473625,0.017275772988796234,0.0,0.005475352518260479
0.00513508589938283,-1.3096954202530958e-20,-0.016408829018473625,0.017275772988796234,0.0,0.005475352518260479
0.0053673358634114265,-2.3574058967525994e-24,-0.016327794641256332,0.016595330089330673,0.0,0.0060644433833658695
0.0053673358634114265,-2.3574058967525994e-24,-0.016327794641256332,0.016595330089330673,0.0,0.0060644433833658695
0.005145369563251734,-4.24324689059036e-28,-0.0157662071287632,0.016116803511977196,0.0,0.005739828106015921
0.004963607992976904,-5.692857451088807e-30,-0.015980925410985947,0.016691744327545166,0.0,0.005316948052495718
0.004963607992976904,-5.692857451088807e-30,-0.015980925410985947,0.016691744327545166,0.0,0.005316948052495718
0.005946859251707792,-7.637694610851957e-32,-0.01533928606659174,0.016684792935848236,0.0,0.005230528302490711
0.005423585884273052,-0.00041132839396595955,-0.016222167760133743,0.016247190535068512,0.0,0.005586167331784964
0.005364060867577791,-0.0004197251982986927,-0.016696007922291756,0.01609739474952221,0.0,0.005846778862178326
0.005082431249320507,-0.0003895512199960649,-0.01616966538131237,0.01625392958521843,0.0,0.005626698490232229
0.0053617339581251144,-0.00042301981011405587,-0.01630609855055809,0.01611476205289364,0.0,0.00550609128549695
0.0051183211617171764,-0.0003971535770688206,-0.016211707144975662,0.016541367396712303,0.0,0.005573139525949955
0.005869951099157333,-0.00042477663373574615,-0.016003619879484177,0.01667942851781845,0.0,0.005350612103939056
0.00552471773698926,-0.00040500055183656514,-0.016629746183753014,0.016911059617996216,0.0,0.00561963627114892
0.005315052345395088,-0.0005174719844944775,-0.01594376005232334,0.017403285950422287,0.0,0.005423812661319971
0.005073715001344681,-0.0005578282871283591,-0.016441326588392258,0.016323449090123177,0.0,0.005833806470036507
0.005459005944430828,-0.0005809193244203925,-0.01615469716489315,0.016697371378540993,0.0,0.005532027687877417
0.005671831779181957,-0.000540332228410989,-0.016224371269345284,0.015970546752214432,0.0,0.005843169521540403
0.005483013577759266,-0.0005658777081407607,-0.016103830188512802,0.016658207401633263,0.0,0.005789697635918856
0.0056109922006726265,-0.0005325564998202026,-0.016161751002073288,0.01558686699718237,0.0,0.005492533557116985
0.005221320781856775,-0.0006404292653314769,-0.016524745151400566,0.015941493213176727,0.0,0.005173976067453623
0.005627389997243881,-0.0006614214507862926,-0.015713706612586975,0.016331322491168976,0.0,0.005085583310574293
0.005527476780116558,-0.0006000654539093375,-0.0158979594707489,0.016759902238845825,0.0,0.0053538307547569275
0.005629288032650948,-0.0006263587856665254,-0.015077942982316017,0.017017314210534096,0.0,0.0053948708809912205
0.005629288032650948,-0.0006263587856665254,-0.015077942982316017,0.017017314210534096,0.0,0.0053948708809912205
0.005672563798725605,-0.0006879541324451566,-0.015855783596634865,0.01723327301442623,0.0,0.005368076730519533
0.005293724127113819,-0.0007569290464743972,-0.01619221642613411,0.017087297514081,0.0,0.005566949490457773
0.005293724127113819,-0.0007569290464743972,-0.01619221642613411,0.017087297514081,0.0,0.005566949490457773
0.005444263108074665,-0.0007751572993583977,-0.0157904252409935,0.016960792243480682,0.0,0.005217448342591524
0.005411053542047739,-0.0007889055414125323,-0.015622117556631565,0.016827484592795372,0.0,0.005744028836488724
0.005519281607121229,-0.0011730219703167677,-0.016177626326680183,0.015833141282200813,0.0,0.005483530927449465
0.004833925049751997,-0.0011438906658440828,-0.016124766319990158,0.01591094397008419,0.0,0.005508865229785442
0.004833925049751997,-0.0011438906658440828,-0.016124766319990158,0.01591094397008419,0.0,0.005508865229785442
0.005682326387614012,-0.0011776256142184138,-0.015421964228153229,0.01613709330558777,0.0,0.005153954494744539
0.005499702878296375,-0.0012659276835620403,-0.01608426496386528,0.01637369394302368,0.0,0.0052631027065217495
0.005289256107062101,-0.0012039855355396867,-0.015454523265361786,0.016322311013936996,0.0,0.005546905100345612
0.005115261301398277,-0.0010905965464189649,-0.015697451308369637,0.0167012270539999,0.0,0.005633004941046238
0.005390049424022436,-0.0011318072210997343,-0.015724843367934227,0.015966134145855904,0.0,0.005144341848790646
0.0050548044964671135,-0.0011184547329321504,-0.015735965222120285,0.015466314740478992,0.0,0.005621913820505142
0.005119203124195337,-0.0013231368502601981,-0.01559763215482235,0.015956051647663116,0.0,0.005554238334298134
0.005032567773014307,-0.001403431175276637,-0.015620148740708828,0.01563899591565132,0.0,0.005716437008231878
0.005286648869514465,-0.0014374986058101058,-0.01521650142967701,0.016313379630446434,0.0,0.005194544792175293
0.005290764383971691,-0.0014807034749537706,-0.015610133297741413,0.01596294716000557,0.0,0.0054773930460214615
0.0051460787653923035,-0.0014088755706325173,-0.015157032757997513,0.016195135191082954,0.0,0.0052307299338281155
0.005516528617590666,-0.0014339016051962972,-0.015494179911911488,0.016249289736151695,0.0,0.005165931768715382
0.005379457492381334,-0.0013747643679380417,-0.015112555585801601,0.01609811745584011,0.0,0.005396056920289993
0.005490096285939217,-0.0013220129767432809,-0.015643645077943802,0.016618438065052032,0.0,0.005325221922248602
0.005205705761909485,-0.0014808827545493841,-0.014765883795917034,0.01603536494076252,0.0,0.005055754445493221
0.005824011750519276,-0.0015339014353230596,-0.015323255211114883,0.016553863883018494,0.0,0.0048124585300683975
0.005517964251339436,-0.0016570219304412603,-0.015042552724480629,0.016528518870472908,0.0,0.004788701422512531
0.005866479594260454,-0.001549636828713119,-0.015288056805729866,0.01655608043074608,0.0,0.0051406025886535645
0.005420701112598181,-0.001447902643121779,-0.015158734284341335,0.016675932332873344,0.0,0.005702837370336056
0.005420701112598181,-0.001447902643121779,-0.015158734284341335,0.016675932332873344,0.0,0.005702837370336056
0.005848221480846405,-0.001491315895691514,-0.015287951566278934,0.01612914726138115,0.0,0.00555720180273056
0.005156068596988916,-0.0017123118741437793,-0.01537644024938345,0.015955109149217606,0.0,0.005287581123411655
0.005730789620429277,-0.0017379297642037272,-0.01510823704302311,0.016438297927379608,0.0,0.0048737907782197
0.005798051133751869,-0.0015995692228898406,-0.015096268616616726,0.015953391790390015,0.0,0.005106976255774498
0.0056129987351596355,-0.0016322126612067223,-0.01560850441455841,0.01586967334151268,0.0,0.005294462200254202
0.00504723284393549,-0.001544277765788138,-0.015167685225605965,0.015655111521482468,0.0,0.005761332809925079
0.00504723284393549,-0.001544277765788138,-0.015167685225605965,0.015655111521482468,0.0,0.005761332809925079
0.005501995794475079,-0.0016002346528694034,-0.015629511326551437,0.0161147378385067,0.0,0.005491154734045267
0.00541426707059145,-0.0016463249921798706,-0.01483240444213152,0.016361858695745468,0.0,0.004919353872537613
0.005766408052295446,-0.0017391707515344024,-0.015279578976333141,0.015909185633063316,0.0,0.005041531287133694
0.005649164784699678,-0.0017566252499818802,-0.013299822807312012,0.01624724641442299,0.0,0.005077185109257698
0.005633646156638861,-0.0016029461985453963,-0.016200833022594452,0.015728095546364784,0.0,0.005416684318333864
0.0051740556955337524,-0.0016276284586638212,-0.015700548887252808,0.016346542164683342,0.0,0.005268604028970003
0.005882675759494305,-0.0017797757172957063,-0.015658266842365265,0.018125897273421288,0.0,0.0048701101914048195
0.005994496867060661,-0.0016722468426451087,-0.016143839806318283,0.016390420496463776,0.0,0.004736088216304779
0.005476795602589846,-0.0020260715391486883,-0.01589888148009777,0.015498227439820766,0.0,0.004832192789763212
0.0057360464707016945,-0.0018359868554398417,-0.015389337204396725,0.015962105244398117,0.0,0.005031627137213945
0.005430141463875771,-0.001797174452804029,-0.014804276637732983,0.015979262068867683,0.0,0.004942084196954966
0.005962560884654522,-0.0017969696782529354,-0.014553610235452652,0.016318446025252342,0.0,0.004868302494287491
0.005421550944447517,-0.001816367032006383,-0.015394586138427258,0.01580147072672844,0.0,0.004943269304931164
0.005797090940177441,-0.0018169538816437125,-0.01522554736584425,0.01597980409860611,0.0,0.004905184265226126
0.005365949589759111,-0.002152838744223118,-0.01565048284828663,0.015863774344325066,0.0,0.004864128772169352
0.005364937242120504,-0.0019838314037770033,-0.014889161102473736,0.01608370617032051,0.0,0.005217349622398615
0.005722390487790108,-0.0021810743492096663,-0.014765165746212006,0.01640506461262703,0.0,0.005284405779093504
0.006068262737244368,-0.0020468211732804775,-0.014692490920424461,0.01612209714949131,0.0,0.005126827396452427
0.005494615063071251,-0.0020166016183793545,-0.015462204813957214,0.0163095835596323,0.0,0.004756982903927565
0.005805213935673237,-0.001912402454763651,-0.014417625032365322,0.015551197342574596,0.0,0.0046331495977938175
0.005325947888195515,-0.002092810347676277,-0.015098456293344498,0.016193587332963943,0.0,0.004578144755214453
0.006062896456569433,-0.002188594313338399,-0.014655006118118763,0.01608884520828724,0.0,0.004995133727788925
0.005991211626678705,-0.002165550598874688,-0.01523930486291647,0.016138577833771706,0.0,0.005154374986886978
0.005991211626678705,-0.002165550598874688,-0.01523930486291647,0.016138577833771706,0.0,0.005154374986886978
0.005562553182244301,-0.0021345445420593023,-0.015396150760352612,0.015968099236488342,0.0,0.005683676805347204
0.005562553182244301,-0.0021345445420593023,-0.015396150760352612,0.015968099236488342,0.0,0.005683676805347204
0.0056563508696854115,-0.002101753605529666,-0.014870825223624706,0.01592090167105198,0.0,0.004806905053555965
0.0056563508696854115,-0.002101753605529666,-0.014870825223624706,0.01592090167105198,0.0,0.004806905053555965
0.006122154649347067,-0.0020610953215509653,-0.01471614558249712,0.01642206497490406,0.0,0.004719377029687166
0.005563342943787575,-0.0021938716527074575,-0.015125103294849396,0.015882255509495735,0.0,0.004683313891291618
0.005659476388245821,-0.0021279884967952967,-0.01550113596022129,0.01595623418688774,0.0,0.004892886616289616
0.005486285779625177,-0.0022116180043667555,-0.015017038211226463,0.015452314168214798,0.0,0.004954381845891476
0.00571342371404171,-0.0021157029550522566,-0.015299003571271896,0.01606057956814766,0.0,0.005197249818593264
0.005934159737080336,-0.002031129552051425,-0.01490764133632183,0.01599939540028572,0.0,0.005411687307059765
0.006000901106745005,-0.0018023477168753743,-0.01445626001805067,0.015950484201312065,0.0,0.00453082425519824
0.005349776707589626,-0.001797253149561584,-0.015054398216307163,0.01581919938325882,0.0,0.004359163343906403
0.005024592857807875,-0.0018782925326377153,-0.014873592182993889,0.015916241332888603,0.0,0.004526565782725811
0.005626652389764786,-0.0019329957431182265,-0.015337788499891758,0.015219655819237232,0.0,0.004828894045203924
0.005558545235544443,-0.00207351241260767,-0.014497766271233559,0.01599750481545925,0.0,0.004782932810485363
0.005923584569245577,-0.0020071545150130987,-0.014839301817119122,0.015471682883799076,0.0,0.004489826038479805
0.005666019394993782,-0.0019344354514032602,-0.014737933874130249,0.016185184940695763,0.0,0.004546959884464741
0.005652427673339844,-0.0018459174316376448,-0.015267676673829556,0.015894245356321335,0.0,0.00449187308549881
0.005240974947810173,-0.0018310099840164185,-0.014830777421593666,0.016024915501475334,0.0,0.004585882183164358
0.005745307542383671,-0.001832743058912456,-0.015002881176769733,0.015672417357563972,0.0,0.004615462850779295
0.005480688530951738,-0.001959586748853326,-0.014467085711658001,0.01573326252400875,0.0,0.004571443889290094
0.005695472937077284,-0.0020258568692952394,-0.015069878660142422,0.015618793666362762,0.0,0.0042811669409275055
0.005791432224214077,-0.002386318054050207,-0.01439045462757349,0.015794895589351654,0.0,0.004285055678337812
0.005820094142109156,-0.0020598433911800385,-0.014688044786453247,0.016051191836595535,0.0,0.004210892599076033
0.005723015870898962,-0.0016091548604890704,-0.014144889079034328,0.015736723318696022,0.0,0.004535533953458071
0.005750648677349091,-0.001314743421971798,-0.015046292915940285,0.016342442482709885,0.0,0.0046735722571611404
0.006165205966681242,-0.001111455145291984,-0.014497419819235802,0.0158234816044569,0.0,0.004655084572732449
0.005503436084836721,-0.0009626710671000183,-0.014982840977609158,0.016146667301654816,0.0,0.005018781870603561
0.00547777209430933,-0.0007438785978592932,-0.014903976581990719,0.015985727310180664,0.0,0.004967085085809231
0.00547777209430933,-0.0007438785978592932,-0.014903976581990719,0.015985727310180664,0.0,0.004967085085809231
0.005788218695670366,-0.000781665148679167,-0.014898588880896568,0.01711619272828102,0.0,0.004404331557452679
0.005636997055262327,-0.000808404351118952,-0.014523074962198734,0.01570024900138378,0.0,0.004273032769560814
0.005673571489751339,-0.0013738601701334119,-0.014837749302387238,0.015234719030559063,0.0,0.0041592782363295555
0.005462626460939646,-0.0013041099300608039,-0.014590590260922909,0.015713941305875778,0.0,0.0044337548315525055
0.005558570381253958,-0.0012347155716270208,-0.014968650415539742,0.015386187471449375,0.0,0.004597260616719723
0.005566193722188473,-0.001101132482290268,-0.014206081628799438,0.01592167839407921,0.0,0.004722023382782936
0.006473362445831299,-0.0008539835689589381,-0.014294346794486046,0.016163479536771774,0.0,0.0037710596807301044
0.005884150043129921,-0.0007762698223814368,-0.014945202507078648,0.015700703486800194,0.0,0.003632589941844344
0.005752162076532841,-0.0007874282309785485,-0.015304787084460258,0.016010621562600136,0.0,0.004118770826607943
0.005508096888661385,-0.0007919183699414134,-0.014822084456682205,0.016186585649847984,0.0,0.004913685843348503
0.0060779801569879055,-0.0007243194268085063,-0.015243152156472206,0.016069140285253525,0.0,0.005053327418863773
0.006698121316730976,-0.0007375372806563973,-0.01497555710375309,0.016184063628315926,0.0,0.004429702181369066
0.006820668466389179,-0.0007322101737372577,-0.014664187096059322,0.016004107892513275,0.0,0.00395725853741169
0.005878758151084185,-0.0007502356311306357,-0.01465168222784996,0.016257761046290398,0.0,0.003775958437472582
0.006389217916876078,-0.0007074117311276495,-0.014868292026221752,0.016133582219481468,0.0,0.004036841914057732
0.006681079976260662,-0.0008555968524888158,-0.014840387739241123,0.016470978036522865,1.3058528338660835e-06,0.0042045870795845985
0.006073678843677044,-0.00085471011698246,-0.01513416226953268,0.016139358282089233,8.526286165988495e-08,0.004326632712036371
0.0063796266913414,-0.0007513005984947085,-0.014939296059310436,0.016248837113380432,5.567055261224141e-09,0.004351596347987652
0.006397949066013098,-0.0007679074187763035,-0.015468361787497997,0.01636626571416855,3.634889056414181e-10,0.004285351373255253
0.006120172329246998,-0.0007494102464988828,-0.014828191138803959,0.016111906617879868,2.3733227189071116e-11,0.004495516885071993
0.006532974075525999,-0.0007062960066832602,-0.015658598393201828,0.016350235790014267,1.5496101580733668e-12,0.004301473032683134
0.00641661649569869,-0.0006724036647938192,-0.015043877996504307,0.015470982529222965,1.011784785728137e-13,0.004034651443362236
0.005641524214297533,-0.0007019288023002446,-0.015905477106571198,0.015871038660407066,6.606231878268469e-15,0.004182013217359781
0.005641524214297533,-0.0007019288023002446,-0.015905477106571198,0.015871038660407066,6.606231878268469e-15,0.004182013217359781
0.005854343995451927,-0.000716536189429462,-0.0152611518278718,0.015403163619339466,4.313396963977705e-16,0.0040465835481882095
0.006361711770296097,-0.00071424909401685,-0.016026491299271584,0.015746429562568665,2.816340212739716e-17,0.003844398772343993
0.0061418781988322735,-0.0006818754482083023,-0.01573757268488407,0.015490704216063023,1.8388686170245304e-18,0.004173634573817253
0.006514137145131826,-0.0009036398841999471,-0.01573634147644043,0.01566559076309204,1.200649815687364e-19,0.0043878755532205105
0.00590233039110899,-0.000936970638576895,-0.015551231801509857,0.015872519463300705,7.839385343414677e-21,0.004288459662348032
0.0061251018196344376,-0.0009421073482371867,-0.01537821814417839,0.015603006817400455,5.118558693406365e-22,0.003992660436779261
0.006794629152864218,-0.0010822823969647288,-0.015896856784820557,0.015067050233483315,3.342053085635147e-23,0.00405433215200901
0.007199849002063274,-0.0010579894296824932,-0.015379402786493301,0.014810986816883087,2.1821221869038484e-24,0.00422075716778636
0.006299425847828388,-0.0008845938136801124,-0.01535983756184578,0.015078404918313026,9.302729276852268e-27,0.003891336964443326
0.006386344321072102,-0.0007876878371462226,-0.01559271477162838,0.015348589979112148,6.074016636425422e-28,0.0038276594132184982
0.006616522092372179,-0.0007987862336449325,-0.01478420291095972,0.01525154896080494,3.965898714679947e-29,0.003804369131103158
0.00623676460236311,-0.0007003898499533534,-0.015601339749991894,0.01586584560573101,2.5894483571778075e-30,0.004009798169136047
0.006215627305209637,-0.0007208466995507479,-0.01512707769870758,0.015066885389387608,1.690724809533464e-31,0.003988876007497311
0.00622556870803237,-0.0007449747645296156,-0.015440230257809162,0.015037765726447105,1.1039224670941524e-32,0.0038087747525423765
0.007241500075906515,-0.0007614151109009981,-0.015164727345108986,0.014696593396365643,7.207824628685099e-34,0.00352407805621624
0.006548311561346054,-0.0010984285036101937,-0.015584971755743027,0.01572592742741108,4.7061940874924293e-35,0.0035146386362612247
0.006344223394989967,-0.0009713260224089026,-0.015917431563138962,0.015115233138203621,3.0728085267982486e-36,0.003943542949855328
0.00632466422393918,-0.000959010561928153,-0.015628516674041748,0.015956049785017967,2.00632465873598e-37,0.004206960555166006
0.006383727770298719,-0.000947717810049653,-0.015580244362354279,0.015364359132945538,1.309986633402944e-38,0.004365382716059685
0.006903507746756077,-0.0008414241019636393,-0.01491962093859911,0.015064379200339317,8.553273592515105e-40,0.004014292731881142
0.006672313436865807,-0.0007671888452023268,-0.015533064492046833,0.014936475083231926,5.584734899720126e-41,0.0035373172722756863
0.006695615127682686,-0.0007738917483948171,-0.01503072865307331,0.01499257143586874,3.646178604173174e-42,0.0033599056769162416
0.0066882548853755,-0.0007898707408457994,-0.015675771981477737,0.015962406992912292,2.382207389352189e-43,0.003568989224731922
0.007539455313235521,-0.0008104814332909882,-0.014802280813455582,0.014713188633322716,1.5414283107572988e-44,0.0038057269994169474
0.007539455313235521,-0.0008104814332909882,-0.014802280813455582,0.014713188633322716,1.5414283107572988e-44,0.0038057269994169474
0.006760626100003719,-0.0009562420309521258,-0.015011853538453579,0.014382618479430676,1.401298464324817e-45,0.004199620336294174
0.006481152959167957,-0.0009696725755929947,-0.014830726198852062,0.015091669745743275,0.0,0.004046385642141104
0.006729039829224348,-0.0009165392839349806,-0.015507319010794163,0.015756944194436073,0.0,0.003843463258817792
0.0070197805762290955,-0.0008364181267097592,-0.014419975690543652,0.01544774416834116,0.0,0.0037776161916553974
0.007321253418922424,-0.0008313661091960967,-0.014856911264359951,0.015356243588030338,0.0,0.0038278519641608
0.0074962046928703785,-0.0007555127958767116,-0.014594992622733116,0.01554353628307581,0.0,0.003919283859431744
0.006953808944672346,-0.0006840057903900743,-0.015003642998635769,0.015580750070512295,0.0,0.0036000674590468407
0.007450147066265345,-0.000708136532921344,-0.014477932825684547,0.014829481951892376,0.0,0.003402726724743843
0.007524446118623018,-0.0007481613429263234,-0.014916904270648956,0.014671479351818562,0.0,0.003623167984187603
0.006696352735161781,-0.0008956160163506866,-0.015106281265616417,0.015252295881509781,0.0,0.0035502384416759014
0.006696352735161781,-0.0008956160163506866,-0.015106281265616417,0.015252295881509781,0.0,0.0035502384416759014
0.007029424887150526,-0.0008759943302720785,-0.015026500448584557,0.015781600028276443,0.0,0.0033380668610334396
0.007072624750435352,-0.000804087903816253,-0.014686688780784607,0.015424748882651329,0.0,0.00328632490709424
0.0070446329191327095,-0.000811043253634125,-0.015138666145503521,0.015315091237425804,0.0,0.0033274304587394
0.007050843443721533,-0.0007323791505768895,-0.015319264493882656,0.01517881266772747,0.0,0.003212280571460724
0.007435579318553209,-0.0006918662111274898,-0.014755033887922764,0.015067785046994686,0.0,0.0032108179293572903
0.0074285599403083324,-0.0007164048729464412,-0.01523553766310215,0.01503342017531395,0.0,0.0033898302353918552
0.007469729520380497,-0.000737987516913563,-0.01524192001670599,0.014880727976560593,0.0,0.003400141140446067
0.00708157429471612,-0.0007550637237727642,-0.015331211499869823,0.01486376766115427,0.0,0.0032178317196667194
0.007502679247409105,-0.0009004310704767704,-0.014617469161748886,0.014516650699079037,0.0,0.0029348176904022694
0.007839413359761238,-0.0009273615432903171,-0.015194904990494251,0.015001974068582058,0.0,0.0027283455710858107
0.007351499516516924,-0.0009235910838469863,-0.01453831885010004,0.0146699920296669,0.0,0.0027364357374608517
0.007140521891415119,-0.0009172438294626772,-0.015062255784869194,0.01499959733337164,0.0,0.0032490415032953024
0.007577825337648392,-0.0008174272370524704,-0.01449483260512352,0.014726594090461731,-5.963013245491311e-05,0.003706912277266383
0.007577825337648392,-0.0008174272370524704,-0.01449483260512352,0.014726594090461731,-5.963013245491311e-05,0.003706912277266383
0.007602824829518795,-0.0008056532824411988,-0.015001089312136173,0.015022442676126957,-7.615111098857597e-05,0.0034211755264550447
0.007473574951291084,-0.0008070689509622753,-0.01450649555772543,0.01480453833937645,-7.600946992170066e-05,0.003115786239504814
0.007460353430360556,-0.0008192503591999412,-0.015079283155500889,0.015256121754646301,-7.482044748030603e-05,0.0026659362483769655
0.007509306073188782,-0.000828724994789809,-0.014686834998428822,0.014933056198060513,-7.360152085311711e-05,0.002533146645873785
0.007778003811836243,-0.0009173063444904983,-0.015457488596439362,0.015408551320433617,-7.241740968311206e-05,0.0027073989622294903
0.007426064927130938,-0.0009314191993325949,-0.01455509103834629,0.014934496954083443,-7.127055141609162e-05,0.002724584424868226
0.007407582830637693,-0.000926947221159935,-0.015007534995675087,0.015428504906594753,-7.015932351350784e-05,0.003113586688414216
0.007968303747475147,-0.0009234354947693646,-0.014136236160993576,0.015141183510422707,-6.908224168000743e-05,0.003053033724427223
0.00775191793218255,-0.0009368621394969523,-0.015226682648062706,0.01539334375411272,-6.803774158470333e-05,0.0028236727230250835
0.007385327015072107,-0.0008267025696113706,-0.014667772687971592,0.0149161908775568,-7.362756878137589e-05,0.0026142874266952276
0.007687669713050127,-0.0008449545130133629,-0.014916486106812954,0.015089645981788635,-7.807370275259018e-05,0.0027170765679329634
0.008071254938840866,-0.000851422781124711,-0.015023120678961277,0.015220963396131992,-7.698726403759792e-05,0.002740097464993596
0.007832279428839684,-0.0008714502328075469,-0.0149144995957613,0.015442496165633202,-7.590685709146783e-05,0.002866641152650118
0.007767294533550739,-0.0008798121125437319,-0.015018587931990623,0.015413173474371433,-7.485473906854168e-05,0.0029183346778154373
0.0077155171893537045,-0.000882596941664815,-0.015195801854133606,0.015127682127058506,-7.383125193882734e-05,0.003145571332424879
0.007801167666912079,-0.0008846753044053912,-0.0149315744638443,0.014576740562915802,-7.283541344804689e-05,0.0030541319865733385
0.007709245663136244,-0.0009244541870430112,-0.014999951235949993,0.014972762204706669,-7.186609582277015e-05,0.0027986865025013685
0.00777880335226655,-0.0009207918774336576,-0.014925616793334484,0.014487011358141899,-7.092224404914305e-05,0.0025675403885543346
0.008235384710133076,-0.0008009425946511328,-0.015384931117296219,0.014767349697649479,-7.866920350352302e-05,0.0026326377410441637
0.007721461355686188,-0.0008120745769701898,-0.01504067238420248,0.014515284448862076,-8.042888657655567e-05,0.0026348335668444633
0.008125540800392628,-0.0008191791130229831,-0.0151131646707654,0.015189501456916332,-7.959326467243955e-05,0.003221929771825671
0.007937251590192318,-0.0007927522528916597,-0.014943184331059456,0.016103442758321762,-7.86118907853961e-05,0.003352102590724826
0.007706646341830492,-0.0008183111203834414,-0.015548255294561386,0.01543935015797615,-7.764384645270184e-05,0.00286396243609488
0.0075792428106069565,-0.0008391390438191593,-0.014790770597755909,0.014103077352046967,-7.669861224712804e-05,0.0025679112877696753
0.0075792428106069565,-0.0008391390438191593,-0.014790770597755909,0.014103077352046967,-7.669861224712804e-05,0.0025679112877696753
0.007573207840323448,-0.0008464474813081324,-0.015050177462399006,0.014769700355827808,-7.577610085718334e-05,0.0022940807975828648
0.0076538571156561375,-0.001019712770357728,-0.014767548069357872,0.014547780156135559,-7.487551920348778e-05,0.0024172121193259954
0.008064206689596176,-0.0010075074387714267,-0.015321752987802029,0.01455207634717226,-7.39960596547462e-05,0.002418888034299016
0.007784773595631123,-0.0009749241871759295,-0.014457167126238346,0.014172933995723724,-7.313703099498525e-05,0.002691681496798992
0.007173898164182901,-0.0008572729420848191,-0.015535668469965458,0.015034144744277,-7.229773473227397e-05,0.002832298632711172
0.0077089001424610615,-0.0008608649368397892,-0.01483078021556139,0.014748545363545418,-7.906441896921024e-05,0.0026799775660037994
0.007733187638223171,-0.0007946952828206122,-0.015357102267444134,0.015301196835935116,-8.060082473093644e-05,0.0027389326132833958
0.00734140956774354,-0.0008984462474472821,-0.014609196223318577,0.014642213471233845,-7.986493437783793e-05,0.0029034053441137075
0.008042903617024422,-0.0009268331923522055,-0.015534807927906513,0.015257224440574646,-2.0296996808610857e-05,0.002902507083490491
0.007906867191195488,-0.0011695594293996692,-0.01485837996006012,0.015001432970166206,-1.3252488315629307e-06,0.0028328164480626583
0.007632622495293617,-0.0011503059649839997,-0.014888088218867779,0.015474486164748669,-8.652928329411225e-08,0.0026069192681461573
0.008103733882308006,-0.001111056306399405,-0.014511389657855034,0.015506778843700886,-5.649743783919803e-09,0.0024110651575028896
0.00775026623159647,-0.0009880427969619632,-0.014972374774515629,0.015151788480579853,-7.47855010558851e-05,0.00220692902803421
0.00793585367500782,-0.0008363975211977959,-0.014676892198622227,0.01532641239464283,-0.00010869506513699889,0.0022113376762717962
0.007550728041678667,-0.0008402855019085109,-0.014576064422726631,0.014734088443219662,-0.00010840871254913509,0.0025563633535057306
0.007816968485713005,-0.0008482617558911443,-0.014825617894530296,0.014569025486707687,-0.00010600713721942157,0.0025632723700255156
0.007673921529203653,-0.0008544122683815658,-0.014894365333020687,0.014875467866659164,-0.0001035769673762843,0.002383328042924404
0.00759021146222949,-0.0008606217452324927,-0.014647126197814941,0.01499972678720951,-0.0001012471184367314,0.0023380108177661896
0.007338759955018759,-0.000875511730555445,-0.014719397760927677,0.015021996572613716,-9.901917655952275e-05,0.002478804439306259
0.008162136189639568,-0.000879015598911792,-0.014586467295885086,0.015191735699772835,-9.68871681834571e-05,0.0024681075010448694
0.008525902405381203,-0.0007755786064080894,-0.014783551916480064,0.01510379184037447,-0.00010417395969852805,0.0025126307737082243
0.007790881209075451,-0.0006905805203132331,-0.014638853259384632,0.014313842169940472,-0.00011083530989708379,0.0023144311271607876
0.007776994723826647,-0.0006223213858902454,-0.01490361150354147,0.014666389673948288,-0.00010916929750237614,0.0022964596282690763
0.008123996667563915,-0.0005663518095389009,-0.014693913981318474,0.01477099396288395,-0.00010704278975026682,0.0022939422633498907
0.008503193035721779,-0.0005907356389798224,-0.015193542465567589,0.015289237722754478,-0.00010496446338947862,0.0022779307328164577
0.008519613184034824,-0.0005485511501319706,-0.014487413689494133,0.015087852254509926,-0.00010296316759195179,0.0024817821104079485
0.008519613184034824,-0.0005485511501319706,-0.014487413689494133,0.015087852254509926,-0.00010296316759195179,0.0024817821104079485
0.008052965626120567,-0.0005097452085465193,-0.014437263831496239,0.015383852645754814,-0.00010103669774252921,0.002627024659886956
0.008079412393271923,-0.0004331903182901442,-0.014279172755777836,0.014328842051327229,-9.918092837324366e-05,0.0024865157902240753
0.00811938289552927,-0.0004451577551662922,-0.014719772152602673,0.014978584833443165,-9.739210508996621e-05,0.002328541362658143
0.008267715573310852,-0.0004341459134593606,-0.014370297081768513,0.014112861827015877,-0.0001095237530535087,0.002181742340326309
0.008558322675526142,-0.00046636443585157394,-0.014926502481102943,0.014457211829721928,-0.00010953188757412136,0.002010689815506339
0.008512699045240879,-0.00043660704977810383,-0.014571784995496273,0.014583592303097248,-0.00010778288560686633,0.0019593231845647097
0.008345499634742737,-0.00044648267794400454,-0.014384640380740166,0.015433630906045437,-0.00010597792424960062,0.0021062688902020454
0.008345833979547024,-0.0004379887250252068,-0.014419661834836006,0.015259667299687862,-0.00010422519699204713,0.0021508776117116213
0.00826875027269125,-0.0004131071036681533,-0.014845320954918861,0.015468691475689411,-0.00010252894571749493,0.0023517755325883627
0.00824696198105812,-0.00039069177000783384,-0.014622996561229229,0.014974580146372318,-0.00010088709677802399,0.0023678008001297712
0.00819702073931694,-0.00042521170689724386,-0.014543352648615837,0.015086210332810879,-9.92969871731475e-05,0.0022226469591259956
0.008202364668250084,-0.0003797576646320522,-0.014828397892415524,0.015313107520341873,-0.00010977941565215588,0.0017245234921574593
0.007990000769495964,-0.00035019931965507567,-0.014261364005506039,0.015125760808587074,-0.00010834319255081937,0.0016641495749354362
0.007990000769495964,-0.00035019931965507567,-0.014261364005506039,0.015125760808587074,-0.00010834319255081937,0.0016641495749354362
0.00889680627733469,-0.0003636159817688167,-0.014452226459980011,0.014636910520493984,-0.00010519223724259064,0.0018324862467125058
0.008477077819406986,-0.0003778231330215931,-0.014853057451546192,0.015057961456477642,-0.00010367754293838516,0.001976295607164502
0.00866788998246193,-0.0003736090729944408,-0.01411394588649273,0.01504269428551197,-0.00010220589319942519,0.0018121821340173483
0.008684521540999413,-0.00035292169195599854,-0.014807846397161484,0.0150213073939085,-0.00010077533806907013,0.0017400729702785611
0.008461805991828442,-0.0003342021373100579,-0.01400474738329649,0.014741750434041023,-9.938432776834816e-05,0.001663060043938458
0.0087593337520957,-0.00036206183722242713,-0.014552772976458073,0.014555229805409908,-9.803115972317755e-05,0.0014963580761104822
0.008632704615592957,-0.00034529753611423075,-0.014232387766242027,0.01471597608178854,-9.671434236224741e-05,0.0014832194428890944
0.009134955704212189,-0.0003651461738627404,-0.014943716116249561,0.015146099962294102,-0.00011692617408698425,0.0014580339193344116
0.009397602640092373,-0.0003422961453907192,-0.014316360466182232,0.01426542829722166,-0.00012078099098289385,0.0017217210261151195
0.008278237655758858,-0.00035973265767097473,-0.015237354673445225,0.014415073208510876,-0.00011806872498709708,0.00175240368116647
0.008933654054999352,-0.00035627573379315436,-0.014365604147315025,0.014958827756345272,-0.00011507891758810729,0.0019074023002758622
0.00929652713239193,-0.00033447734313085675,-0.015317126177251339,0.014801452867686749,-0.00011221114982618019,0.001797109260223806
0.008814951404929161,-0.00031496939482167363,-0.014667307958006859,0.014916899614036083,-0.00010948124690912664,0.0018364397110417485
0.008871881291270256,-0.00034516994492150843,-0.014798810705542564,0.014608184807002544,-0.00010688075417419896,0.0018410366028547287
0.008928312920033932,-0.00032904394902288914,-0.014084267430007458,0.015014282427728176,-0.00010440092592034489,0.0017763038631528616
0.008667312562465668,-0.00031273398781195283,-0.014987262897193432,0.014629545621573925,-0.0001020336349029094,0.0016302395379170775
0.008667312562465668,-0.00031273398781195283,-0.014987262897193432,0.014629545621573925,-0.0001020336349029094,0.0016302395379170775
0.008891583420336246,-0.00033876675297506154,-0.01485152542591095,0.014794382266700268,-9.977130685001612e-05,0.0015455971006304026
0.009447119198739529,-0.00032510526943951845,-0.015145666897296906,0.014285405166447163,-0.00011208550131414086,0.0014792073052376509
0.008993375115096569,-0.000311080104438588,-0.014580942690372467,0.014481672085821629,-0.00011431263556005433,0.0014645522460341454
0.008856651373207569,-0.0002981964498758316,-0.014904349111020565,0.014269232749938965,-0.00011223710316698998,0.001395474886521697
0.009542089886963367,-0.0002863365225493908,-0.014202131889760494,0.014298275113105774,-0.00010997096251230687,0.0013422730844467878
0.009717295877635479,-0.0003037798742298037,-0.015474257990717888,0.013876605778932571,-0.00010777734132716432,0.0012691867304965854
0.008745121769607067,-0.00028836840647272766,-0.014822161756455898,0.01435606088489294,-0.00010566834680503234,0.0012119465973228216
0.00957532413303852,-0.0002556498220656067,-0.01459886971861124,0.014729084447026253,-0.00010168843436986208,0.001152376993559301
0.009822011925280094,-0.0002419058873783797,-0.014840301126241684,0.014282580465078354,-9.98089017230086e-05,0.0011336745228618383
0.009182189591228962,-0.00027359320665709674,-0.01481429859995842,0.014489318244159222,-9.799754479900002e-05,0.0011480076937004924
0.009260900318622589,-0.00026207847986370325,-0.015688614919781685,0.01399522926658392,-9.625076927477494e-05,0.0011149104684591293
0.008758696727454662,-0.0002499694237485528,-0.014541545882821083,0.014167259447276592,-0.000109278698801063,0.0011519661638885736
0.009725629352033138,-0.0002389093569945544,-0.014309694059193134,0.01412244327366352,-0.0001083589595509693,0.0010627415031194687
0.009649349376559258,-0.00025379841099493206,-0.014485920779407024,0.01450472790747881,-0.00010658830433385447,0.0010783858597278595
0.009189115837216377,-0.0002558923442848027,-0.014836465008556843,0.014228454791009426,-0.00010481893696123734,0.0010902252979576588
0.009208854287862778,-0.0002460639807395637,-0.015271715819835663,0.014530593529343605,-0.00010310376819688827,0.0010820759925991297
0.009368876926600933,-0.00023681613674852997,-0.0146579435095191,0.014897354878485203,-0.00010144356201635674,0.0013021451886743307
0.009463030844926834,-0.00022823658946435899,-0.014811323024332523,0.015150176361203194,-9.983604832086712e-05,0.00127684255130589
0.009719243273139,-0.00022025643556844443,-0.014549393206834793,0.014640006236732006,-9.82785495580174e-05,0.001249548513442278
0.010016905143857002,-0.00024198857136070728,-0.014626741409301758,0.014704928733408451,-9.676899935584515e-05,0.0013895476004108787
0.009318607859313488,-0.00023525443975813687,-0.014413283206522465,0.01463390327990055,-9.530511306365952e-05,0.001160931307822466
0.009318607859313488,-0.00023525443975813687,-0.014413283206522465,0.01463390327990055,-9.530511306365952e-05,0.001160931307822466
0.009589215740561485,-0.00022782570158597082,-0.014820554293692112,0.015565762296319008,-9.388482430949807e-05,0.001105559291318059
0.009909824468195438,-0.00023597190738655627,-0.014505316503345966,0.015356791205704212,-9.250626317225397e-05,0.0010466024978086352
0.00940778199583292,-0.00023168620828073472,-0.014674839563667774,0.015331492759287357,-9.116762521443889e-05,0.0009404379525221884
0.009293689392507076,-0.00022044147772248834,-0.01453152485191822,0.01463826559484005,-8.986714237835258e-05,0.0008294446161016822
0.010098891332745552,-0.00021014742378611118,-0.014735844917595387,0.01485902164131403,-8.860326488502324e-05,0.0008327321265824139
0.010267868638038635,-0.00020077019871678203,-0.014337770640850067,0.014062982052564621,-8.737443567952141e-05,0.0008690128452144563
0.009712466038763523,-0.00019219530804548413,-0.014710907824337482,0.014622119255363941,-8.617922139819711e-05,0.0009709206642583013
0.009809644892811775,-0.00020850758301094174,-0.014649799093604088,0.014327039010822773,-8.501623233314604e-05,0.0009377086535096169
0.010332192294299603,-0.00021231263235677034,-0.01471125241369009,0.014950799755752087,-9.278508514398709e-05,0.0009295226191170514
0.01001211442053318,-0.00020443578250706196,-0.014399957843124866,0.015290697105228901,-9.440678695682436e-05,0.0008013896294869483
0.010039452463388443,-0.00019697996322065592,-0.01450323686003685,0.015425323508679867,-9.336788934888318e-05,0.000782718590926379
0.009820881299674511,-0.0002141336735803634,-0.01456567831337452,0.015096371993422508,-9.102001786231995e-05,0.0007143176044337451
0.010070896707475185,-0.00020714070706162602,-0.014418447390198708,0.014501363970339298,-8.988376794150099e-05,0.0006687790155410767
0.009861819446086884,-0.000200547234271653,-0.014616377651691437,0.014630603604018688,-8.87755086296238e-05,0.0005888595478609204
0.010502325370907784,-0.0001943601673701778,-0.01438304502516985,0.014565144665539265,-8.769427222432569e-05,0.0005503416177816689
0.010069599375128746,-0.00018854343215934932,-0.014536225236952305,0.014745969325304031,-8.663901826366782e-05,0.0005805955734103918
0.009700815193355083,-0.00018306434503756464,-0.014182101003825665,0.014869066886603832,-8.560888818465173e-05,0.0006094085983932018
0.010495471768081188,-0.0002022851986112073,-0.014510555192828178,0.014523281715810299,-8.46029506647028e-05,0.0005973743391223252
0.01013972982764244,-0.00019771176448557526,-0.014643319882452488,0.014698032289743423,-8.362039079656824e-05,0.0008140708087012172
0.009602122940123081,-0.00019244042050559074,-0.014663415029644966,0.014822461642324924,-8.26604082249105e-05,0.0007931556319817901
0.010647821240127087,-0.00018743092368822545,-0.014217768795788288,0.01464251708239317,-8.172217349056154e-05,0.0007462117937393486
0.010165004059672356,-0.00016015535220503807,-0.014497175812721252,0.014697863720357418,-8.083776629064232e-05,0.0006590981502085924
0.009885245934128761,-0.00015589022950734943,-0.014509590342640877,0.014868187718093395,-8.245553908636793e-05,0.0005875226925127208
0.010844416916370392,-0.00015212180733215064,-0.014639654196798801,0.014708857983350754,-8.1170532212127e-05,0.0005298006581142545
0.010278620757162571,-0.00014853534230496734,-0.014382291585206985,0.014259302988648415,-7.974532491061836e-05,0.0004824120260309428
0.010323742404580116,-0.0001451138814445585,-0.01467938907444477,0.014248469844460487,-7.835758879082277e-05,0.000442812277469784
0.010260272771120071,-0.00014184668543748558,-0.014232042245566845,0.014563731849193573,-7.701651338720694e-05,0.00047261075815185905
0.009904755279421806,-0.00013872333511244506,-0.014330205507576466,0.01395150925964117,-7.572059257654473e-05,0.00044346239883452654
0.010578304529190063,-0.00013573454634752125,-0.014019850641489029,0.013946834951639175,-7.446751260431483e-05,0.0004145351122133434
0.009995047003030777,-0.00013287171896081418,-0.014193628914654255,0.01439976692199707,-7.325526530621573e-05,0.00038894559838809073
0.009883436374366283,-0.00013012735871598125,-0.014121321961283684,0.014464913867413998,-7.208184979390353e-05,0.0004115842457395047
0.009899617172777653,-0.00012749398592859507,-0.014532750472426414,0.014650474302470684,-8.419319055974483e-05,0.00039517797995358706
0.009899617172777653,-0.00012749398592859507,-0.014532750472426414,0.014650474302470684,-8.419319055974483e-05,0.00039517797995358706
0.01054015476256609,-0.00012496502313297242,-0.014284121803939342,0.014586549252271652,-8.375167089980096e-05,0.0003749938914552331
0.009792964905500412,-0.00012253440218046308,-0.014231313951313496,0.014675411395728588,-8.252812403952703e-05,0.0003564487269613892
0.009828482754528522,-0.00012019663699902594,-0.013940542005002499,0.014971330761909485,-9.134952415479347e-05,0.00033963273745030165
0.01036931574344635,-0.00011794640886364505,-0.013949481770396233,0.015101323835551739,-9.320375829702243e-05,0.0003243294486310333
0.010266197845339775,-0.00011577887926250696,-0.014387560077011585,0.01482249516993761,-9.205129754263908e-05,0.0003103473281953484
0.009872826747596264,-0.00012970900570508093,-0.014131237752735615,0.014568938873708248,-9.07391295186244e-05,0.0002989080094266683
0.010610824450850487,-0.00012762480764649808,-0.014115692116320133,0.014347963035106659,-0.00010056203609565273,0.0002225361531600356
0.01016311440616846,-0.000123258083476685,-0.014705133624374866,0.01430942490696907,-9.94005094980821e-05,0.0001987389987334609
0.011243179440498352,-0.00012118359882151708,-0.014584866352379322,0.014391634613275528,-9.805338777368888e-05,0.00019031479314435273
0.010040937922894955,-0.00011917769734282047,-0.014387047849595547,0.014254613779485226,-9.67449668678455e-05,0.0001825899089453742
0.010000527836382389,-0.00011723710485966876,-0.014221583493053913,0.014357057400047779,-0.0001985271373996511,0.00017546908929944038
0.010190869681537151,-0.00011535875091794878,-0.014511359855532646,0.01447935402393341,-0.00019677251111716032,0.0001688828197075054
0.01064379047602415,-0.00011353967420291156,-0.01401309110224247,0.014580165036022663,-0.0001889614068204537,0.00016277276154141873
0.010042461566627026,-0.000111777066194918,-0.01425448339432478,0.014559129253029823,-0.00021518001449294388,0.00015709010767750442
0.009816499426960945,-0.00011006831482518464,-0.014322063885629177,0.0143562201410532,-0.00020905509882140905,0.000151790605741553
0.010070700198411942,-0.00010841105540748686,-0.014785745181143284,0.014501135796308517,-0.0002014011115534231,0.0001468368573114276
0.010262309573590755,-0.00010680292325560004,-0.015452786348760128,0.014425237663090229,-0.00019416766008362174,0.00014219667355064303
0.010684868320822716,-0.00010524179378990084,-0.014912163838744164,0.014623863622546196,-0.000202735755010508,0.00013784042675979435
0.010022361762821674,-0.0001037256806739606,-0.014926988631486893,0.01481974683701992,-0.0002102901053149253,0.00013374358240980655
0.010176055133342743,-0.00010225265577901155,-0.014701029285788536,0.014609086327254772,-0.00020440244406927377,0.00012988303205929697
0.009980534203350544,-0.00010082083463203162,-0.015054804272949696,0.014563022181391716,-0.00019803761097136885,0.00012623926158994436
0.009745066985487938,-9.942855103872716e-05,-0.014961890876293182,0.014140703715384007,-0.00021758742514066398,0.0001227943430421874
0.010441546328365803,-9.80742261162959e-05,-0.014907880686223507,0.014078494161367416,-0.00021282410307321697,0.00011953216016991064
0.01025401335209608,-9.675628098193556e-05,-0.014609375037252903,0.014249462634325027,-0.0002068191533908248,0.00011643918696790934
0.01025401335209608,-9.675628098193556e-05,-0.014609375037252903,0.014249462634325027,-0.0002068191533908248,0.00011643918696790934
0.010219127871096134,-9.422390576219186e-05,-0.014973140321671963,0.014417259022593498,-0.000284783513052389,0.00011070966866100207
0.010219127871096134,-9.422390576219186e-05,-0.014973140321671963,0.014417259022593498,-0.000284783513052389,0.00011070966866100207
0.010058306157588959,-9.300678357249126e-05,-0.015245527029037476,0.014624718576669693,-0.00026862596860155463,9.743058035383001e-05
0.010803727433085442,-9.182067879009992e-05,-0.014698656275868416,0.014807632192969322,-0.00025353970704600215,8.5131534433458e-05
0.012060550041496754,-9.066450729733333e-05,-0.01560327596962452,0.014828285202383995,-0.0002847071154974401,8.252691623056307e-05
0.01209709420800209,-8.953707583714277e-05,-0.015035033226013184,0.015174543485045433,-0.00027321319794282317,8.063560380833223e-05
0.012051570229232311,-8.843727846397087e-05,-0.014879942871630192,0.014688720926642418,-0.00026023370446637273,7.88661782280542e-05
0.011545895598828793,-8.736422751098871e-05,-0.01458344329148531,0.014879932627081871,-0.0002482779964338988,7.717531843809411e-05
0.01200449001044035,-8.63168970681727e-05,-0.015349803492426872,0.014728482812643051,-0.0002665863139554858,7.555547199444845e-05
0.011895439587533474,-8.52943558129482e-05,-0.014656119979918003,0.014829516410827637,-0.0002645858039613813,7.400235335808247e-05
0.011593063361942768,-8.429577428614721e-05,-0.015459130518138409,0.014545556157827377,-0.0002544970193412155,5.6761207815725356e-05
0.01179900299757719,-7.208751776488498e-05,-0.015880689024925232,0.014660751447081566,-0.0002646789653226733,5.2288000006228685e-05
0.012243394739925861,-7.125631236704066e-05,-0.013852839358150959,0.014588525518774986,-0.000259158608969301,-2.7170031899004243e-05
0.011916080489754677,-7.045920210657641e-05,-0.014192971400916576,0.01422511599957943,-0.000250406184932217,-5.11964171892032e-05
0.011665254831314087,-6.967988883843645e-05,-0.014640860259532928,0.014696870930492878,-0.0002420057717245072,-5.135474566486664e-05
0.01215703971683979,-2.739312549238093e-06,-0.015617744997143745,0.014602988958358765,-0.0002341363433515653,-5.003303522244096e-05
0.011981505900621414,-3.675137350001023e-08,-0.01453159935772419,0.015314959920942783,-0.00022676133085042238,-4.868656469625421e-05
0.011998645961284637,-4.930665875590989e-10,-0.014440319500863552,0.014472984708845615,-0.00023574770602863282,-6.951762770768255e-05
0.011925086379051208,-6.615117741776144e-12,-0.014395594596862793,0.01499972678720951,-0.00022929528495296836,-8.629496733192354e-05
0.012392972595989704,-8.875024196455805e-14,-0.014612016268074512,0.013977679423987865,-0.00021852139616385102,-8.966827590484172e-05
0.012249300256371498,-1.1906976132405379e-15,-0.014496520161628723,0.014263814315199852,-0.00020842129015363753,-0.00010691768693504855
0.011736881919205189,-1.597472871094456e-17,-0.014870892278850079,0.01382895465940237,-0.00019919466285500675,-0.00010702631698222831
0.01246231235563755,-2.1432137226384428e-19,-0.014518466778099537,0.014477195218205452,-0.00022629732848145068,-0.0003842119185719639
0.011796439066529274,-2.8753947178692223e-21,-0.015071675181388855,0.014171503484249115,-0.0002194190601585433,-0.0004626148147508502
0.012130441144108772,-3.857709055728414e-23,-0.01472875289618969,0.015097728930413723,-0.00021099580044392496,-0.0005348889390006661
0.01225378829985857,-5.175608423818656e-25,-0.014641478657722473,0.014641216024756432,-0.00020306985243223608,-0.0005334144225344062
0.01205368060618639,-6.943739347401985e-27,-0.01444405596703291,0.015524635091423988,-0.00022611740860156715,-0.0009158458560705185
0.012828531675040722,-2.1877020117244683e-05,-0.014951004646718502,0.014806623570621014,-0.00022019630705472082,-0.0009335960494354367
0.012828531675040722,-2.1877020117244683e-05,-0.014951004646718502,0.014806623570621014,-0.00022019630705472082,-0.0009335960494354367
0.01161840371787548,-2.0884728655801155e-05,-0.015012205578386784,0.015175553038716316,-0.0002128842897946015,-0.0008056522929109633
0.012189577333629131,-2.063539250229951e-05,-0.014852882362902164,0.015024579130113125,-0.00022770962095819414,-0.0008016441133804619
0.0121468435972929,-2.040138679149095e-05,-0.01482037827372551,0.015417223796248436,-0.00022740359418094158,-0.0007230565533973277
0.011963545344769955,-2.017274164245464e-05,-0.014437445439398289,0.014851227402687073,-0.0002208767837146297,-0.000729078717995435
0.012022322975099087,-1.9949182387790643e-05,-0.014710407704114914,0.015014070086181164,-0.0002143305173376575,-0.0006629907293245196
0.012193456292152405,-2.297953642482753e-06,-0.014703348278999329,0.0144905811175704,-0.00023905572015792131,-0.0006611443241126835
0.012225309386849403,-3.0829980346425145e-08,-0.014876564964652061,0.01470430102199316,-0.0002554279926698655,-0.0007810079259797931
0.011530031450092793,-4.136236075868993e-10,-0.014749160036444664,0.013749495148658752,-0.00024355939240194857,-0.0015524360351264477
0.013099674135446548,-5.549288892986448e-12,-0.014757546596229076,0.01443207822740078,-0.0002311708958586678,-0.0016938683111220598
0.01273324340581894,-7.445079437933683e-14,-0.014619676396250725,0.01359285693615675,-0.0002608376380521804,-0.0016223540296778083
0.012412195093929768,-1.3400880134369459e-17,-0.014355062507092953,0.014257218688726425,-0.00024034878879319876,-0.0013627129374071956
0.012705356813967228,-1.797898904122056e-19,-0.014870276674628258,0.014491246081888676,-0.00026585269370116293,-0.0012908121570944786
0.012458338402211666,-2.4121109708380885e-21,-0.01490894053131342,0.013680418953299522,-0.0002573230885900557,-0.0011609457433223724
0.012403360567986965,-3.2361545044521056e-23,-0.014844445511698723,0.014080087654292583,-0.00024736992781981826,-0.0012658038176596165
0.012752814218401909,-4.3417144077469715e-25,-0.014371161349117756,0.013739129528403282,-0.00025468115927651525,-0.001938119065016508
0.013249989598989487,-5.8249639464055174e-27,-0.01423533447086811,0.014620780013501644,-0.0002609982038848102,-0.001850620610639453
0.012966115958988667,-7.814932602187584e-29,-0.014160729944705963,0.014438170939683914,-0.0002528481127228588,-0.0018375267973169684
0.012697361409664154,-1.0484729703402289e-30,-0.014775349758565426,0.01492063608020544,-0.0002443328558001667,-0.0017676078714430332
0.01275859959423542,-1.4066601638256875e-32,-0.014750990085303783,0.014649372547864914,-0.00023636258265469223,-0.0015344221610575914
0.012965062633156776,-1.8872138211225797e-34,-0.01468256302177906,0.014799939468502998,-0.00029398221522569656,-0.0013470158446580172
0.012786543928086758,-2.5319379911896563e-36,-0.014466802589595318,0.01435401663184166,-0.00028044014470651746,-0.0014713512500748038
0.01314858254045248,-3.3969181556763113e-38,-0.014366811141371727,0.01468222588300705,-0.00026427683769725263,-0.002267272211611271
0.0126754529774189,-4.557400956569673e-40,-0.014002992771565914,0.014463183470070362,-0.0002496299857739359,-0.0032327112276107073
0.013172640465199947,-6.113865199849177e-42,-0.014258161187171936,0.014506966806948185,-0.00028054844005964696,-0.0033205572981387377
0.013137922622263432,-8.267660939516421e-44,-0.01466328278183937,0.014551594853401184,-0.0002694196591619402,-0.002881244756281376
0.013683331198990345,-1.401298464324817e-45,-0.014913931488990784,0.014462772756814957,-0.0002776940818876028,-0.0025089439004659653
0.013000492937862873,-0.0,-0.014529041945934296,0.014231428503990173,-0.0002845707058440894,-0.002145694103091955
0.01307709887623787,0.0,-0.0150038106366992,0.014570646919310093,-0.0002734852896537632,-0.002097434364259243
0.013509117998182774,0.0,-0.014362477697432041,0.014645147137343884,-0.00028986603138037026,-0.002678336575627327
0.013185140676796436,0.0,-0.014365294948220253,0.01495249941945076,-0.00028703315183520317,-0.0031730402261018753
0.013374204747378826,0.0,-0.014794014394283295,0.014348062686622143,-0.00027657634927891195,-0.003012097207829356
0.013374204747378826,0.0,-0.014794014394283295,0.014348062686622143,-0.00027657634927891195,-0.003012097207829356
0.013401971198618412,0.0,-0.014739390462636948,0.01397149357944727,-0.00030705469544045627,-0.002845850307494402
0.014011319726705551,0.0,-0.014464767649769783,0.013832500204443932,-0.0003243898681830615,-0.0025481348857283592
0.01332067046314478,0.0,-0.014844072982668877,0.014367509633302689,-0.0003049809893127531,-0.002217576839029789
0.013826715759932995,0.0,-0.014320092275738716,0.014113101176917553,-0.00031356551335193217,-0.0022157542407512665
0.013537988066673279,0.0,-0.014669103547930717,0.014326611533761024,-0.0003205347165931016,-0.0024860913399606943
0.01400804240256548,0.0,-0.014548035338521004,0.014705980196595192,-0.0003041508316528052,-0.0028318881522864103
0.013723498210310936,0.0,-0.01522199809551239,0.015090474858880043,-0.00028803147142753005,-0.003381436923518777
0.013771146535873413,0.0,-0.014310508966445923,0.015194892883300781,-0.00029568615718744695,-0.003310101106762886
0.014261307194828987,0.0,-0.014523867517709732,0.014905418269336224,-0.000289577292278409,-0.0032120095565915108
0.014261307194828987,0.0,-0.014523867517709732,0.014905418269336224,-0.000289577292278409,-0.0032120095565915108
0.01428568921983242,0.0,-0.014739993959665298,0.014216991141438484,-0.0003005878534168005,-0.0037981963250786066
0.01415072102099657,0.0,-0.014949989505112171,0.01390397921204567,-0.0002907506423071027,-0.0035725655034184456
0.014458149671554565,0.0,-0.014600582420825958,0.013415447436273098,-0.00028044270584359765,-0.0035127599257975817
0.014065379276871681,0.0,-0.01561786886304617,0.013588626869022846,-0.00031639300868846476,-0.0032303098123520613
0.01426376961171627,0.0,-0.01397379208356142,0.01337873563170433,-0.0002990100474562496,-0.0030383190605789423
0.01430976390838623,0.0,-0.014873666688799858,0.01366918720304966,-0.0002805938711389899,-0.0032931878231465816
0.014486493542790413,0.0,-0.014365981332957745,0.013417168520390987,-0.00028985319659113884,-0.0036253444850444794
0.014504597522318363,0.0,-0.014824899844825268,0.0137676652520895,-0.0002976101532112807,-0.004179032519459724
0.014850015752017498,0.0,-0.014778153970837593,0.01355703268200159,-0.0002835331251844764,-0.004087601322680712
0.01451488770544529,0.0,-0.01544328685849905,0.0144454725086689,-0.0002694802242331207,-0.003763181157410145
0.014891315251588821,0.0,-0.014568798243999481,0.014309151098132133,-0.00028825478511862457,-0.0033303487580269575
0.014601039700210094,0.0,-0.014625143259763718,0.01563161052763462,-0.0002851305762305856,-0.0033854276407510042
0.01481371745467186,0.0,-0.014494997449219227,0.015508193522691727,-0.00027340344968251884,-0.003434001700952649
0.01480893325060606,0.0,-0.01497800275683403,0.014993522316217422,-0.0002945168816950172,-0.003765866858884692
0.015229694545269012,0.0,-0.014866184443235397,0.01393778994679451,-0.00028722218121401966,-0.00407979404553771
0.015113604255020618,0.0,-0.015277416445314884,0.014345839619636536,-0.00033802760299295187,-0.003933760803192854
0.015113604255020618,0.0,-0.015277416445314884,0.014345839619636536,-0.00033802760299295187,-0.003933760803192854
0.015186748467385769,0.0,-0.014695309102535248,0.013896126300096512,-0.00032323761843144894,-0.0038610820192843676
0.014760353602468967,0.0,-0.014397328719496727,0.014682444743812084,-0.00030214624712243676,-0.004245517309755087
0.015516134910285473,0.0,-0.014250027947127819,0.014797606505453587,-0.00028316210955381393,-0.004528289660811424
0.014905942603945732,0.0,-0.014994991943240166,0.014570343308150768,-0.0002663942868821323,-0.004214270506054163
0.014904142357409,0.00019248071475885808,-0.01528769452124834,0.01445682905614376,-0.00025149964494630694,-0.0039079696871340275
0.014989673160016537,0.00018923392053693533,-0.014644601382315159,0.015288667753338814,-0.00028253442724235356,-0.003874977584928274
0.015664424747228622,0.00018165972142014652,-0.014995822682976723,0.01460964884608984,-0.00027123160543851554,-0.0038943500258028507
0.015206323005259037,0.00017461125389672816,-0.014847495593130589,0.014574580825865269,-0.0002584367466624826,-0.004287400282919407
0.015353717841207981,0.00019773776875808835,-0.014846784994006157,0.014152932912111282,-0.00024664157535880804,-0.0047571551986038685
0.014866342768073082,0.00018768403970170766,-0.015126369893550873,0.014244424179196358,-0.0002586356131359935,-0.0045091318897902966
0.014866342768073082,0.00018768403970170766,-0.015126369893550873,0.014244424179196358,-0.0002586356131359935,-0.0045091318897902966
0.01545253861695528,0.00020459409279283136,-0.015022357925772667,0.014182553626596928,-0.0002432701294310391,-0.004040089901536703
0.015953149646520615,0.00019828762742690742,-0.01430184580385685,0.014489524066448212,-0.00023424267419613898,-0.004456020426005125
0.015864020213484764,0.0001922386873047799,-0.014828769490122795,0.01432198379188776,-0.00022584515681955963,-0.004673646297305822
0.016153132542967796,0.00021212114370428026,-0.014420060440897942,0.014389448799192905,-0.0002332911390112713,-0.005030639003962278
0.015535951592028141,0.00020704971393570304,-0.015282790176570415,0.01397333201020956,-0.0002398016513325274,-0.004973502829670906
0.016044996678829193,0.00020206788030918688,-0.014744265004992485,0.014057397842407227,-0.00023297494044527411,-0.004394100047647953
0.015743456780910492,0.00030369337764568627,-0.01519680954515934,0.01337922178208828,-0.0002257311571156606,-0.004280644468963146
0.015861431136727333,0.00028594580362550914,-0.0143333924934268,0.01405126042664051,-0.00021887244656682014,-0.0046411980874836445
0.01590685360133648,0.00032043346436694264,-0.014788441359996796,0.014258994720876217,-0.0002089107729261741,-0.004767574369907379
0.015988953411579132,0.00030442990828305483,-0.014272288419306278,0.01448036078363657,-0.000199537054868415,-0.0049341097474098206
0.01644509844481945,0.0003305248392280191,-0.014861753210425377,0.013892348855733871,-0.00021929142531007528,-0.004942044150084257
0.01595919020473957,0.0003191273135598749,-0.014524518512189388,0.014432668685913086,-0.00021927633497398347,-0.004973005037754774
0.01625269092619419,0.00030380807584151626,-0.014873072504997253,0.01408393308520317,-0.00022851573885418475,-0.004881010856479406
0.01605355553328991,0.0003306529251858592,-0.014200087636709213,0.014597619883716106,-0.00023607633193023503,-0.00442891800776124
0.016527296975255013,0.0003166587557643652,-0.014853411354124546,0.014226113446056843,-0.0002445634745527059,-0.0044345976784825325
0.015925277024507523,0.0004282050649635494,-0.013982610777020454,0.014932963997125626,-0.0002510589547455311,-0.0048926398158073425
0.015925277024507523,0.0004282050649635494,-0.013982610777020454,0.014932963997125626,-0.0002510589547455311,-0.0048926398158073425
0.01646549627184868,0.0004059338243678212,-0.014911552891135216,0.014585516415536404,-0.00024372799089178443,-0.005087135825306177
0.016396166756749153,0.00037253781920298934,-0.014297361485660076,0.015075837261974812,-0.000455274450359866,-0.004668792709708214
0.016334734857082367,0.0003440495056565851,-0.014845222234725952,0.014386681839823723,-0.0005013281479477882,-0.004367523826658726
0.016872238367795944,0.000382606202038005,-0.014292124658823013,0.01497036125510931,-0.00046881759772077203,-0.004895714111626148
0.01651187613606453,0.0003970987454522401,-0.014831144362688065,0.014745024964213371,-0.00048484321450814605,-0.004909065086394548
0.016628270968794823,0.00039150926750153303,-0.014232520945370197,0.014727715402841568,-0.00046544132055714726,-0.004800713155418634
0.016436472535133362,0.0004193600616417825,-0.014656838960945606,0.014112626202404499,-0.00048801812226884067,-0.004979211371392012
0.0165738295763731,0.00047821112093515694,-0.014096608385443687,0.014631071127951145,-0.0005540261045098305,-0.004883964546024799
0.01681274175643921,0.0005295118317008018,-0.015670491382479668,0.014525056816637516,-0.0005719577893614769,-0.004740177188068628
0.016652900725603104,0.0005646393401548266,-0.01556149311363697,0.014635423198342323,-0.0005873428308404982,-0.004684707149863243
0.01696067862212658,0.0005429966258816421,-0.01554110273718834,0.014519845135509968,-0.000550675205886364,-0.005072355270385742
0.01713607646524906,0.0008112369105219841,-0.015410161577165127,0.014965689741075039,-0.0005335182067938149,-0.005623821169137955
0.017369113862514496,0.0008449118467979133,-0.01585870422422886,0.015010274015367031,-0.0005446840659715235,-0.005516454577445984
0.01692385785281658,0.0008244974887929857,-0.015842881053686142,0.014968952164053917,-0.0005213530384935439,-0.005534915719181299
0.017576487734913826,0.0007626129663549364,-0.016109252348542213,0.014924774877727032,-0.0005201122839935124,-0.00568724749609828
0.01705361343920231,0.0007438853499479592,-0.015301947481930256,0.015252913348376751,-0.000497900415211916,-0.005604290869086981
0.01711735874414444,0.000701574725098908,-0.015970837324857712,0.015224658884108067,-0.0004503355885390192,-0.005581491626799107
0.017502455040812492,0.0006937666330486536,-0.01584591343998909,0.01462461706250906,-0.0004799956805072725,-0.00553989177569747
0.01717309281229973,0.0007195526850409806,-0.016084346920251846,0.014292166568338871,-0.000449597166152671,-0.005198874045163393
0.01753101497888565,0.0007438588072545826,-0.014966024085879326,0.015964191406965256,-0.0004664584994316101,-0.005801343824714422
0.01728842966258526,0.000760390073992312,-0.015517055056989193,0.014600741676986217,-0.0004490317078307271,-0.00588081032037735
0.017492195591330528,0.0009574591531418264,-0.01589658483862877,0.014358233660459518,-0.0004201091069262475,-0.006225083954632282
0.017864184454083443,0.0009573590359650552,-0.016313008964061737,0.014338348060846329,-0.0004462476645130664,-0.00593184120953083
0.017375171184539795,0.0009486937779001892,-0.016082990914583206,0.0144670270383358,-0.00042341402149759233,-0.005799502599984407
0.0178262647241354,0.0009422126458957791,-0.015190876089036465,0.015033343806862831,-0.00043430342338979244,-0.006100545637309551
0.01766391098499298,0.0010491370921954513,-0.01595749892294407,0.015622819773852825,-0.00040763302240520716,-0.006141535006463528
0.017694827169179916,0.00107668770942837,-0.015649886801838875,0.015114369802176952,-0.0004391003749333322,-0.0064033400267362595
0.017694827169179916,0.00107668770942837,-0.015649886801838875,0.015114369802176952,-0.0004391003749333322,-0.0064033400267362595
0.017600327730178833,0.0010735132964327931,-0.016194766387343407,0.014822372235357761,-0.00044774700654670596,-0.00646347226575017
0.017772821709513664,0.0014017070643603802,-0.015390291810035706,0.01457018218934536,-0.0004471361171454191,-0.006116615608334541
0.01782628893852234,0.0014707980444654822,-0.015855008736252785,0.015222232788801193,-0.00041939804214052856,-0.0062577021308243275
0.018090562894940376,0.001437232829630375,-0.015513966791331768,0.014840135350823402,-0.0004347024951130152,-0.006483068689703941
0.017831623554229736,0.0014748286921530962,-0.01567932963371277,0.01499636098742485,-0.0004221369163133204,-0.006262889131903648
0.018440451472997665,0.0014042931143194437,-0.015064112842082977,0.014374719932675362,-0.00046152540016919374,-0.006202053744345903
0.018140478059649467,0.0012716976925730705,-0.015496601350605488,0.015074576251208782,-0.00047285036998800933,-0.005707977805286646
0.017646316438913345,0.0013767830096185207,-0.01598176918923855,0.014669079333543777,-0.0005057331873103976,-0.0059532648883759975
0.01790502667427063,0.0013437983579933643,-0.015280991792678833,0.01516709104180336,-0.0004718549025710672,-0.006602817680686712
0.018795929849147797,0.0017126942984759808,-0.015837131068110466,0.014731154777109623,-0.00043453191756270826,-0.006927333772182465
0.01859152689576149,0.001915006316266954,-0.015605900436639786,0.015024603344500065,-0.0004514214815571904,-0.007329094689339399
0.018005209043622017,0.0018218153854832053,-0.014896105043590069,0.015327950939536095,-0.00040827502380125225,-0.006784473545849323
0.01889202371239662,0.0018978699808940291,-0.015142564661800861,0.014584125019609928,-0.0004344505141489208,-0.006853974889963865
0.018368547782301903,0.001736413687467575,-0.014914920553565025,0.014717403799295425,-0.0004128581495024264,-0.007077611517161131
0.018661219626665115,0.0019035926088690758,-0.015763817355036736,0.014556318521499634,-0.0004277593398001045,-0.006947851274162531
0.019061345607042313,0.0017883304972201586,-0.014787661843001842,0.014669103547930717,-0.0004034930607303977,-0.006783061660826206
0.018605714663863182,0.0020805338863283396,-0.01505664549767971,0.014796623028814793,-0.00037111452547833323,-0.007475073914974928
0.01823350042104721,0.0020877027418464422,-0.014975550584495068,0.014914723113179207,-0.0003428727213758975,-0.007223336957395077
0.01844578981399536,0.0020860000513494015,-0.015377887524664402,0.014700178988277912,-0.00034950554254464805,-0.006985818035900593
0.018518459051847458,0.002305953297764063,-0.015323449857532978,0.014548400416970253,-0.0003548683598637581,-0.007160726003348827
0.018779171630740166,0.002180685056373477,-0.015659812837839127,0.014438784681260586,-0.0003347201272845268,-0.007489440962672234
0.019467366859316826,0.0022107178810983896,-0.01571057178080082,0.014128366485238075,-0.00034087637322954834,-0.00817421916872263
0.0191132090985775,0.00209878315217793,-0.015434883534908295,0.014291300438344479,-0.0003457843267824501,-0.007887344807386398
0.019266817718744278,0.002237450797110796,-0.01565699465572834,0.014937889762222767,-0.0003292534383945167,-0.007593309041112661
0.019203677773475647,0.0022077136673033237,-0.015111955814063549,0.014807472936809063,-0.0003517061413731426,-0.00750590767711401
0.01896100863814354,0.002393177943304181,-0.015670137479901314,0.01513669267296791,-0.00034038539160974324,-0.008147084154188633
0.01891489326953888,0.0024188063107430935,-0.015252051874995232,0.015100372955203056,-0.00036031706258654594,-0.008047487586736679
0.01891489326953888,0.0024188063107430935,-0.015252051874995232,0.015100372955203056,-0.00036031706258654594,-0.008047487586736679
0.01940934732556343,0.0023672296665608883,-0.015311290509998798,0.014864501543343067,-0.0003462565946392715,-0.008148822002112865
0.01940934732556343,0.0023672296665608883,-0.015311290509998798,0.014864501543343067,-0.0003462565946392715,-0.008148822002112865
0.019615013152360916,0.0023945625871419907,-0.015731291845440865,0.01502216700464487,-0.00035180762642994523,-0.008750113658607006
0.019693341106176376,0.0022456315346062183,-0.014956249855458736,0.01534242369234562,-0.00033201099722646177,-0.008598456159234047
0.019802553579211235,0.002462203148752451,-0.015428798273205757,0.015398547053337097,-0.0003579907934181392,-0.007616425398737192
0.02001131884753704,0.002858697669580579,-0.015295606106519699,0.015464173629879951,-0.000344581319950521,-0.008012624457478523
0.020056232810020447,0.002952700713649392,-0.015582507476210594,0.015138490125536919,-0.00032708904473111033,-0.007634533569216728
0.019821731373667717,0.0029709055088460445,-0.015175540931522846,0.015436418354511261,-0.00031096499878913164,-0.008077116683125496
0.01979619823396206,0.0027673854492604733,-0.015252308920025826,0.01471331249922514,-0.0002963356382679194,-0.007679905742406845
0.020404217764735222,0.002690481022000313,-0.015574716031551361,0.015000227838754654,-0.00031804581522010267,-0.0079190107062459
0.020126253366470337,0.0025250446051359177,-0.015310610644519329,0.014511704444885254,-0.0003091887047048658,-0.007999321445822716
0.020510034635663033,0.0030254200100898743,-0.014997529797255993,0.014958660118281841,-0.00028502746135927737,-0.00819322932511568
0.020615383982658386,0.002973932772874832,-0.015719657763838768,0.015360100194811821,-0.000274388468824327,-0.008309784345328808
0.020146213471889496,0.002790366066619754,-0.015786511823534966,0.015087490901350975,-0.00028524413937702775,-0.007957639172673225
0.020344382151961327,0.00298102805390954,-0.015818139538168907,0.015425738878548145,-0.0002699755132198334,-0.00834112148731947
0.020777016878128052,0.00329765141941607,-0.015064054168760777,0.015121717005968094,-0.0002923630818258971,-0.008084236644208431
0.02134581096470356,0.003621739335358143,-0.015818357467651367,0.015031436458230019,-0.00028850624221377075,-0.007965289987623692
0.020549226552248,0.003321877447888255,-0.015553999692201614,0.014799845404922962,-0.00027460113051347435,-0.008165289647877216
0.020673559978604317,0.0034025381319224834,-0.0158616304397583,0.01459562685340643,-0.0002990776556544006,-0.008008018136024475
0.020646730437874794,0.0031927742529660463,-0.015291066840291023,0.014544623903930187,-0.000290458498056978,-0.00797779019922018
0.020944468677043915,0.0029437553603202105,-0.015779642388224602,0.01440318301320076,-0.0003073139232583344,-0.008151328191161156
0.02086508646607399,0.003000870579853654,-0.01628335937857628,0.014433309435844421,-0.0003036072012037039,-0.008414559066295624
0.02108149230480194,0.0033011899795383215,-0.015877041965723038,0.014868502505123615,-0.00041284397593699396,-0.008471074514091015
0.021363994106650352,0.0032469925936311483,-0.016565566882491112,0.01480178814381361,-0.00041462318040430546,-0.00811181403696537
0.021209683269262314,0.003603251650929451,-0.01549577247351408,0.014645449817180634,-0.0004529986472334713,-0.008292656391859055
0.02103937789797783,0.0038394443690776825,-0.0160222128033638,0.014635139144957066,-0.00047406399971805513,-0.008334282785654068
0.021051380783319473,0.003792792558670044,-0.015782026574015617,0.014668322168290615,-0.0005041016265749931,-0.008377124555408955
0.021382251754403114,0.0036915454547852278,-0.016011539846658707,0.014936234802007675,-0.00048606644850224257,-0.008757581003010273
0.020678620785474777,0.003731679869815707,-0.015653733164072037,0.014894193038344383,-0.0006314378115348518,-0.008486922830343246
0.02188136801123619,0.0033785193227231503,-0.01609227992594242,0.015240860171616077,-0.0006052204989828169,-0.008362628519535065
0.022043433040380478,0.003589931409806013,-0.016274701803922653,0.015077128075063229,-0.0006362238782458007,-0.008232692256569862
0.022065743803977966,0.0037638493813574314,-0.015942828729748726,0.015256189741194248,-0.0005751256248913705,-0.00872561801224947
0.022065743803977966,0.0037638493813574314,-0.015942828729748726,0.015256189741194248,-0.0005751256248913705,-0.00872561801224947
0.02167351357638836,0.0038740215823054314,-0.016120390966534615,0.014991775155067444,-0.0006005192408338189,-0.008929547853767872
0.021994827315211296,0.0038885087706148624,-0.015355447307229042,0.015651138499379158,-0.0006211588624864817,-0.009266087785363197
0.021504001691937447,0.0042269364930689335,-0.01652282103896141,0.01529137697070837,-0.0005858026561327279,-0.008988405577838421
0.021075492724776268,0.0042218915186822414,-0.01630936749279499,0.015986450016498566,-0.0005982244038023055,-0.009193130768835545
0.021622246131300926,0.003758846316486597,-0.016690123826265335,0.015822578221559525,-0.0006247885758057237,-0.008822844363749027
0.022401781752705574,0.003951563034206629,-0.016205519437789917,0.015704534947872162,-0.0006410310161300004,-0.008789247833192348
0.022111425176262856,0.004189087077975273,-0.015749981626868248,0.014553536660969257,-0.0006019596476107836,-0.008997470140457153
0.022210225462913513,0.003995566163212061,-0.01589049957692623,0.014441142790019512,-0.0007004225044511259,-0.009542830288410187
0.022805221378803253,0.004382758866995573,-0.016762584447860718,0.015130404382944107,-0.0007376610301434994,-0.00931225810199976
0.022175349295139313,0.0042517832480371,-0.015465294942259789,0.014864346012473106,-0.0006764506106264889,-0.009331888519227505
0.02232041209936142,0.004147874657064676,-0.016012996435165405,0.015346420928835869,-0.0006959721795283258,-0.009016921743750572
0.021851209923624992,0.004096049349755049,-0.016209622845053673,0.015387010760605335,-0.0006322530098259449,-0.009038637392222881
0.02177678979933262,0.003925568424165249,-0.016613610088825226,0.01513530220836401,-0.0006350299227051437,-0.009166708216071129
0.022115498781204224,0.0043308851309120655,-0.016571832820773125,0.01523762010037899,-0.0006006138864904642,-0.009034363552927971
0.02254636026918888,0.004719520453363657,-0.016119342297315598,0.015387088060379028,-0.0005554624949581921,-0.009068925864994526
0.022911114618182182,0.004889757372438908,-0.01683994010090828,0.015759935602545738,-0.000527447962667793,-0.009331133216619492
0.022485770285129547,0.004515789449214935,-0.015635434538125992,0.015366137959063053,-0.0004781971510965377,-0.00930718518793583
0.02245337888598442,0.004258820321410894,-0.016296962276101112,0.015192728489637375,-0.0004959087818861008,-0.00946700107306242
0.022566355764865875,0.004210863262414932,-0.016455739736557007,0.014636275358498096,-0.0004720661963801831,-0.00975855067372322
0.022591151297092438,0.004500879906117916,-0.016715198755264282,0.015498439781367779,-0.0004352644900791347,-0.008645405061542988
0.022495970129966736,0.004545043688267469,-0.016564441844820976,0.014546253718435764,-0.000460804789327085,-0.008424503728747368
0.022695904597640038,0.0048066116869449615,-0.01636934094130993,0.014950129203498363,-0.0004367477959021926,-0.008508153259754181
0.022320270538330078,0.004581290762871504,-0.016927961260080338,0.01470361277461052,-0.00043729765457101166,-0.009257281199097633
0.022875363007187843,0.004525192081928253,-0.016002066433429718,0.015608100220561028,-0.0004368961090222001,-0.009526748210191727
0.02276596426963806,0.004924288019537926,-0.01668678969144821,0.015566947869956493,-0.000443857628852129,-0.009094888344407082
0.02240745536983013,0.004504000302404165,-0.016630033031105995,0.016075238585472107,-0.00043283632840029895,-0.009627729654312134
0.02240745536983013,0.004504000302404165,-0.016630033031105995,0.016075238585472107,-0.00043283632840029895,-0.009627729654312134
0.02250094525516033,0.0045518772676587105,-0.01680033467710018,0.015890883281826973,-0.0004651159979403019,-0.009146824479103088
0.022585999220609665,0.0042196460999548435,-0.016740914434194565,0.015889056026935577,-0.00043689628364518285,-0.0090986592695117
0.02258974500000477,0.0041944719851017,-0.01650879718363285,0.015450583770871162,-0.00046297229710035026,-0.008796898648142815
0.022910259664058685,0.0029443134553730488,-0.017100851982831955,0.015209339559078217,-0.00043869527871720493,-0.009028877131640911
0.02292446605861187,0.0019142412347719073,-0.016315091401338577,0.015769638121128082,-0.0004651744675356895,-0.009038364514708519
0.022720035165548325,0.0014110092306509614,-0.016800137236714363,0.01571493223309517,-0.00060871965251863,-0.009185326285660267
0.02383420057594776,0.0014148306800052524,-0.01657537929713726,0.01653333380818367,-0.0006555871805176139,-0.009111193008720875
0.023153003305196762,0.0012402738211676478,-0.016649888828396797,0.016374807804822922,-0.0006269842851907015,-0.009315675124526024
0.02279115840792656,0.0030806774739176035,-0.016342854127287865,0.01583385467529297,-0.0006473680259659886,-0.009489503689110279
0.02296655997633934,0.003327909391373396,-0.01689041219651699,0.015504589304327965,-0.0006039739237166941,-0.009317838586866856
0.023090116679668427,0.002523319562897086,-0.016560694202780724,0.01567368023097515,-0.0006579514592885971,-0.009556678123772144
0.023663854226469994,0.0020221348386257887,-0.016706502065062523,0.015634438022971153,-0.0005821107188239694,-0.00939316675066948
0.02436075173318386,0.0018088361248373985,-0.017262959852814674,0.015341697260737419,-0.0005158575368113816,-0.0096628712490201
0.023513486608862877,0.0014152140356600285,-0.01700017601251602,0.014862931333482265,-0.0004627553862519562,-0.009364676661789417
0.02386770211160183,0.0014739815378561616,-0.017361227422952652,0.01538714300841093,-0.0004918038030155003,-0.009733995422720909
0.022740378975868225,0.001920822192914784,-0.01634124666452408,0.01515989936888218,-0.00045971767394803464,-0.010321241803467274
0.0238441601395607,0.0024551365058869123,-0.01714395545423031,0.015032638795673847,-0.0004242153954692185,-0.009962624870240688
0.024052828550338745,0.0023971383925527334,-0.017435269430279732,0.014820108190178871,-0.00039333244785666466,-0.009640410542488098
0.023768896237015724,0.0021538669243454933,-0.017311343923211098,0.015147645957767963,-0.000366613530786708,-0.00930749624967575
0.02347150631248951,0.0018564908532425761,-0.017669716849923134,0.0146743543446064,-0.00039651826955378056,-0.009489698335528374
0.023526940494775772,0.0016911427956074476,-0.016827140003442764,0.015319975093007088,-0.0003762963751796633,-0.009776663966476917
0.024414416402578354,0.0016740434803068638,-0.01748143509030342,0.014702241867780685,-0.0003992051351815462,-0.009827491827309132
0.024554723873734474,0.0016087532276287675,-0.01733829639852047,0.015342687256634235,-0.0003839334240183234,-0.010346462018787861
0.024907909333705902,0.0022472566924989223,-0.016984734684228897,0.01511694397777319,-0.0003648659330792725,-0.011951636523008347
0.02420969307422638,0.0025393154937773943,-0.017456751316785812,0.015249255113303661,-0.00034728727769106627,-0.010256188921630383
0.024117955937981606,0.0024243087973445654,-0.01672906056046486,0.015293446369469166,-0.00028809066861867905,-0.00984114594757557
0.024071693420410156,0.002334659919142723,-0.0171637162566185,0.015604554675519466,-0.00026572527713142335,-0.010022204369306564
0.02493278495967388,0.002459712326526642,-0.01760532334446907,0.015481799840927124,-0.0002939256955869496,-0.010345411486923695
0.02487167902290821,0.002377680968493223,-0.017472224310040474,0.015561077743768692,-0.0002843529509846121,-0.010337265208363533
0.02493463084101677,0.0025865742936730385,-0.017665203660726547,0.015790240839123726,-0.00030952622182667255,-0.01059440802782774
0.02493463084101677,0.0025865742936730385,-0.017665203660726547,0.015790240839123726,-0.00030952622182667255,-0.01059440802782774
0.025051187723875046,0.002907052868977189,-0.01660347171127796,0.01554068736732006,-0.0003211161820217967,-0.010223520919680595
0.02511012926697731,0.002841272624209523,-0.016945071518421173,0.01568654552102089,-0.00032637728145346045,-0.010421075858175755
0.02471757121384144,0.0027964403852820396,-0.016793640330433846,0.015410111285746098,-0.0005555307725444436,-0.010813531465828419
0.023934489116072655,0.0024758519139140844,-0.01751207746565342,0.015065930783748627,-0.0005667820805683732,-0.010210600681602955
0.025585217401385307,0.002625137334689498,-0.017057431861758232,0.01586299203336239,-0.0005764071829617023,-0.010401868261396885
0.025738030672073364,0.0028169858269393444,-0.016565002501010895,0.015602068975567818,-0.000545815157238394,-0.01034684106707573
0.02564617618918419,0.003173691686242819,-0.017051484435796738,0.01572319306433201,-0.0005562161095440388,-0.010434194467961788
0.025676045566797256,0.003107928903773427,-0.017587024718523026,0.014974930323660374,-0.000531584199052304,-0.010667085647583008
0.025874417275190353,0.0027866889722645283,-0.017852939665317535,0.015146308578550816,-0.0005726362578570843,-0.010762853547930717
0.025798242539167404,0.00273752398788929,-0.017414655536413193,0.014924186281859875,-0.0006093598785810173,-0.01081579178571701
0.0257756095379591,0.003131809178739786,-0.017107607796788216,0.01535002514719963,-0.000604085682425648,-0.011119311675429344
0.025958465412259102,0.0031544400844722986,-0.016903679817914963,0.015002812258899212,-0.0005888433079235256,-0.01125236228108406
0.02613513544201851,0.003010840155184269,-0.017770899459719658,0.014951652847230434,-0.0006127299857325852,-0.0110800014808774
0.02598094381392002,0.0032551700714975595,-0.017477503046393394,0.014668051153421402,-0.0005739304469898343,-0.011028409004211426
0.026329170912504196,0.0031706311274319887,-0.01670895144343376,0.01501097809523344,-0.0006707127904519439,-0.01114458404481411
0.026529312133789062,0.0028622844256460667,-0.01758989877998829,0.015055271796882153,-0.0007041485514491796,-0.011059449054300785
0.026622649282217026,0.002718599047511816,-0.017878878861665726,0.01507163979113102,-0.0007064381497912109,-0.011144888587296009
0.02665991336107254,0.0029103755950927734,-0.0176228079944849,0.01558102946728468,-0.0006566678639501333,-0.011189146898686886
0.026967808604240417,0.003245291765779257,-0.017577603459358215,0.01503696572035551,-0.000637093442492187,-0.010431361384689808
0.027047034353017807,0.0031837536953389645,-0.01681658811867237,0.015328997746109962,-0.0006194719462655485,-0.010640121065080166
0.027270281687378883,0.003489918075501919,-0.017551492899656296,0.015117593109607697,-0.0006223295931704342,-0.010795099660754204
0.027006641030311584,0.003285798477008939,-0.017616793513298035,0.015421915799379349,-0.0005646463250741363,-0.011071613058447838
0.02699233777821064,0.003448497038334608,-0.017401758581399918,0.014796702191233635,-0.0005959714180789888,-0.010921858251094818
0.02699233777821064,0.003448497038334608,-0.017401758581399918,0.014796702191233635,-0.0005959714180789888,-0.010921858251094818
0.02752796746790409,0.003215132048353553,-0.01740245521068573,0.015034389682114124,-0.0006140754558146,-0.010999142192304134
0.02752796746790409,0.003215132048353553,-0.01740245521068573,0.015034389682114124,-0.0006140754558146,-0.010999142192304134
0.027543462812900543,0.003329634666442871,-0.017318883910775185,0.015721267089247704,-0.0005995589890517294,-0.011024326086044312
0.028308570384979248,0.0037561487406492233,-0.017248880118131638,0.015769517049193382,-0.0007200898253358901,-0.010838283225893974
0.02889041230082512,0.003858804702758789,-0.017583703622221947,0.016098324209451675,-0.000742104952223599,-0.011123833246529102
0.027945149689912796,0.003489710856229067,-0.01698911562561989,0.016022371128201485,-0.0007591138128191233,-0.011124147102236748
0.026319807395339012,0.003594330046325922,-0.017671292647719383,0.015997765585780144,-0.0008268349920399487,-0.011695479042828083
0.028324203565716743,0.003711555153131485,-0.01761036552488804,0.015565603971481323,-0.000921433384064585,-0.011476859450340271
0.02868446707725525,0.004168604500591755,-0.016892708837985992,0.015673048794269562,-0.0008893926860764623,-0.011293553747236729
0.028121164068579674,0.004134816583245993,-0.017403068020939827,0.01573876105248928,-0.0008319580228999257,-0.011212719604372978
0.028712399303913116,0.003548906883224845,-0.01733858324587345,0.016455234959721565,-0.000788790755905211,-0.01121935062110424
0.029201965779066086,0.0035193096846342087,-0.017716139554977417,0.016255155205726624,-0.0007517502526752651,-0.011681539937853813
0.028984446078538895,0.004102026112377644,-0.017355136573314667,0.016121482476592064,-0.0007031224085949361,-0.011411499232053757
0.028256528079509735,0.004211616236716509,-0.01685439795255661,0.01643972657620907,-0.0006894464022479951,-0.011295913718640804
0.02778034843504429,0.004289957694709301,-0.017555536702275276,0.01609264500439167,-0.0006597858155146241,-0.01145950984209776
0.028842810541391373,0.003960471134632826,-0.01698445715010166,0.01544435415416956,-0.0005910549079999328,-0.011147905141115189
0.029277684167027473,0.0037005378399044275,-0.017113838344812393,0.014706254005432129,-0.0005328744882717729,-0.01176450029015541
0.029277684167027473,0.0037005378399044275,-0.017113838344812393,0.014706254005432129,-0.0005328744882717729,-0.01176450029015541
0.029316706582903862,0.0036725515965372324,-0.017414065077900887,0.015292859636247158,-0.0005599975702352822,-0.011479228734970093
0.028931571170687675,0.004254993051290512,-0.016766583546996117,0.015355030074715614,-0.0005187481292523444,-0.0113384909927845
0.029183970764279366,0.004071871284395456,-0.01729871891438961,0.016056522727012634,-0.00047954844194464386,-0.011892212554812431
0.0289327222853899,0.0042999181896448135,-0.016913514584302902,0.015335717238485813,-0.0005005990969948471,-0.01207274105399847
0.029407551512122154,0.004281968809664249,-0.017250344157218933,0.015543080866336823,-0.00047505463589914143,-0.011861022561788559
0.029153697192668915,0.004025173839181662,-0.017510125413537025,0.015466651879251003,-0.0004460974596440792,-0.011211449280381203
0.02932761050760746,0.004329022020101547,-0.017469916492700577,0.01540314219892025,-0.00037188539863564074,-0.011704038828611374
0.02932761050760746,0.004329022020101547,-0.017469916492700577,0.01540314219892025,-0.00037188539863564074,-0.011704038828611374
0.028924614191055298,0.004404621664434671,-0.016647787764668465,0.015964532271027565,-0.00040270728641189635,-0.012129522860050201
0.0289132222533226,0.004180761985480785,-0.017089923843741417,0.01608784683048725,-0.000382260448532179,-0.012038740329444408
0.029428035020828247,0.003703151363879442,-0.016941696405410767,0.015987079590559006,-0.0004180911637376994,-0.011915592476725578
0.029551317915320396,0.003830437548458576,-0.017732109874486923,0.015109789557754993,-0.00041902437806129456,-0.012020021677017212
0.029351677745580673,0.004373762756586075,-0.01695709489285946,0.015306204557418823,-0.0005614729016087949,-0.011565614491701126
0.028606947511434555,0.004210449755191803,-0.017560850828886032,0.015033041127026081,-0.000598024926148355,-0.011618421413004398
0.03005545772612095,0.004436228424310684,-0.01696569286286831,0.015534400939941406,-0.0006293976330198348,-0.011677631177008152
0.030621645972132683,0.004105987027287483,-0.016954734921455383,0.015252846293151379,-0.0005928329192101955,-0.01173191238194704
0.030724501237273216,0.003805216634646058,-0.017849817872047424,0.015841694548726082,-0.0006000401917845011,-0.011804020963609219
0.029199475422501564,0.004249749705195427,-0.017069295048713684,0.015450796112418175,-0.0005701896734535694,-0.011768262833356857
0.029168374836444855,0.004417641554027796,-0.01802954636514187,0.01555586140602827,-0.00066020229132846,-0.012210860848426819
0.029880840331315994,0.004371062386780977,-0.017866909503936768,0.01569048874080181,-0.0006968342349864542,-0.012220902368426323
0.030548281967639923,0.004386554472148418,-0.01689901389181614,0.015090316534042358,-0.0006305762799456716,-0.012384320609271526
0.030269315466284752,0.004480592906475067,-0.017438869923353195,0.01580808311700821,-0.0006464712205342948,-0.012709550559520721
0.030768344178795815,0.004311430733650923,-0.017448529601097107,0.016139481216669083,-0.0005962737486697733,-0.012260758318006992
0.03056378848850727,0.004482157062739134,-0.017984796315431595,0.015898574143648148,-0.0006124748033471406,-0.012711862102150917
0.030610810965299606,0.004508470185101032,-0.017962617799639702,0.015529684722423553,-0.0005728857358917594,-0.012571302242577076
0.030610810965299606,0.004508470185101032,-0.017962617799639702,0.015529684722423553,-0.0005728857358917594,-0.012571302242577076
0.02943694218993187,0.0046853614039719105,-0.017548222094774246,0.015756454318761826,-0.0005788871785625815,-0.012868975289165974
0.02962588705122471,0.004293717443943024,-0.018094567582011223,0.015308184549212456,-0.0005213491967879236,-0.012642307206988335
0.03009297512471676,0.004532721824944019,-0.017118187621235847,0.01563716121017933,-0.0005360367358662188,-0.012777683325111866
0.030234016478061676,0.004727514926344156,-0.017480090260505676,0.015256453305482864,-0.0005067361635155976,-0.012985427863895893
0.030188607051968575,0.004355927929282188,-0.017672434449195862,0.01539225410670042,-0.0005312247085385025,-0.013043584302067757
0.03013158030807972,0.004314331337809563,-0.017271339893341064,0.015192235819995403,-0.0004983431426808238,-0.013046386651694775
0.030034039169549942,0.004040275234729052,-0.018434925004839897,0.015429075807332993,-0.0005237435689195991,-0.012979023158550262
0.029803797602653503,0.0037114473525434732,-0.01750056818127632,0.015627799555659294,-0.0005642921896651387,-0.013159763999283314
0.030188867822289467,0.0036263950169086456,-0.01734914816915989,0.01597151905298233,-0.0005761110805906355,-0.013352571986615658
0.030577272176742554,0.004248384386301041,-0.01785719208419323,0.01650969497859478,-0.0005629801889881492,-0.013348612003028393
0.03048229217529297,0.004078959114849567,-0.017311125993728638,0.015668077394366264,-0.000586149631999433,-0.013310465030372143
0.030604584142565727,0.0043037221767008305,-0.017722362652420998,0.015213537029922009,-0.0005768092814832926,-0.0134901013225317
0.03120080567896366,0.004086205270141363,-0.017332226037979126,0.015589306131005287,-0.0007729036151431501,-0.013114427216351032
0.02955440990626812,0.003875887719914317,-0.01784626394510269,0.015362522564828396,-0.0008003386901691556,-0.012961877509951591
0.03132988139986992,0.003763284534215927,-0.017480358481407166,0.01593826152384281,-0.0008132068905979395,-0.013280634768307209
0.031049836426973343,0.004275364335626364,-0.017613712698221207,0.015916451811790466,-0.0007759103900752962,-0.013348143547773361
0.03079024702310562,0.004108684603124857,-0.018169943243265152,0.01599724590778351,-0.0008504005381837487,-0.013313139788806438
0.030445754528045654,0.0041202581487596035,-0.01834731735289097,0.015944257378578186,-0.0008700486505404115,-0.013589016161859035
0.030955802649259567,0.0039112563244998455,-0.019195590168237686,0.015250894241034985,-0.0008752637659199536,-0.01339021511375904
0.03112730011343956,0.003811393864452839,-0.018513744696974754,0.01594756357371807,-0.0008500891271978617,-0.013515201397240162
0.031137051060795784,0.004357938189059496,-0.018392913043498993,0.015990957617759705,-0.0008053597994148731,-0.013453290797770023
0.03140740841627121,0.004208739381283522,-0.018981466069817543,0.016670359298586845,-0.0007896382012404501,-0.013638831675052643
0.03134452551603317,0.00392770953476429,-0.018671318888664246,0.016380827873945236,-0.0007610257598571479,-0.013491715304553509
0.03185998275876045,0.003806596389040351,-0.01883741281926632,0.016175949946045876,-0.0007192177581600845,-0.013669941574335098
0.03187906742095947,0.004344178829342127,-0.01925564743578434,0.015800774097442627,-0.0007293193484656513,-0.013559455052018166
0.031941164284944534,0.004206848330795765,-0.018708856776356697,0.015929581597447395,-0.0007466307724826038,-0.013537874445319176
0.03172159567475319,0.003953993320465088,-0.018594548106193542,0.015424400568008423,-0.0006872062222100794,-0.013483679853379726
0.03172159567475319,0.003953993320465088,-0.018594548106193542,0.015424400568008423,-0.0006872062222100794,-0.013483679853379726
0.031653568148612976,0.004326515831053257,-0.01953117549419403,0.015193358063697815,-0.0006972248083911836,-0.013726937584578991
0.03158726543188095,0.004196908324956894,-0.018706053495407104,0.015330879017710686,-0.0006745971040800214,-0.013561001978814602
0.031964413821697235,0.00416172482073307,-0.018514959141612053,0.01534731313586235,-0.000646618427708745,-0.013700964860618114
0.032709330320358276,0.003938259556889534,-0.01883641816675663,0.016128400340676308,-0.0006636777543462813,-0.013518175110220909
0.03237675130367279,0.0038374685682356358,-0.018605079501867294,0.015447121113538742,-0.0006107674562372267,-0.013350274413824081
0.031193727627396584,0.0044164094142615795,-0.01892222836613655,0.01565965823829174,-0.0006157629541121423,-0.01345045305788517
0.03220208361744881,0.004621113184839487,-0.019186927005648613,0.01542465016245842,-0.0005838797078467906,-0.013639022596180439
0.03282755985856056,0.0044800168834626675,-0.01893291063606739,0.01574728637933731,-0.0005289898253977299,-0.013847081921994686
0.03352756425738335,0.004141149111092091,-0.019038520753383636,0.015716394409537315,-0.0005621888558380306,-0.013925481587648392
0.032154783606529236,0.00393635081127286,-0.018289150670170784,0.015641462057828903,-0.0005940081318840384,-0.013791296631097794
0.031759586185216904,0.004157388117164373,-0.01881384663283825,0.015651829540729523,-0.000620611070189625,-0.013907228596508503
0.031658947467803955,0.004552904516458511,-0.019080955535173416,0.015885062515735626,-0.0008056556107476354,-0.013656113296747208
0.033027034252882004,0.004598178900778294,-0.018606780096888542,0.015607361681759357,-0.0008473042980767787,-0.013544568791985512
0.03349033743143082,0.004363654181361198,-0.018860498443245888,0.01602025330066681,-0.0008562206639908254,-0.013208582997322083
0.03219364210963249,0.004520554561167955,-0.018967732787132263,0.0158257856965065,-0.000760842056479305,-0.014222890138626099
0.033820413053035736,0.004149912390857935,-0.01868790201842785,0.01624918542802334,-0.0007500193896703422,-0.014188652858138084
0.03317857161164284,0.004103819839656353,-0.01920650340616703,0.015852274373173714,-0.0006989056128077209,-0.014544581063091755
0.032577089965343475,0.004066679626703262,-0.01938747800886631,0.0160351675003767,-0.0006680825026705861,-0.01428274903446436
0.03297644481062889,0.004505911376327276,-0.01889350824058056,0.016053341329097748,-0.0005884215934202075,-0.014070361852645874
0.03382521867752075,0.004700581543147564,-0.01955881156027317,0.016556065529584885,-0.0005965952877886593,-0.013599275611341
0.0333397313952446,0.00497853010892868,-0.019351229071617126,0.01620311103761196,-0.0005581253790296614,-0.013962595723569393
0.03339064121246338,0.004517517983913422,-0.01912880688905716,0.015595989301800728,-0.0005690431571565568,-0.014149321243166924
0.03360847383737564,0.004286728799343109,-0.019315315410494804,0.01575489714741707,-0.000539469241630286,-0.014397850260138512
0.03341202810406685,0.003991481848061085,-0.019470006227493286,0.015699654817581177,-0.0004980452358722687,-0.014486957341432571
0.03341202810406685,0.003991481848061085,-0.019470006227493286,0.015699654817581177,-0.0004980452358722687,-0.014486957341432571
0.03346950188279152,0.004356298595666885,-0.019078804180026054,0.01628316007554531,-0.0005185339250601828,-0.014671205542981625
0.033463846892118454,0.004611076321452856,-0.019413059577345848,0.015939833596348763,-0.0004909280687570572,-0.014159997925162315
0.03512069955468178,0.004361532162874937,-0.01937408559024334,0.016307855024933815,-0.0004639261169359088,-0.014037658460438251
0.03468949720263481,0.00451118778437376,-0.018539346754550934,0.016146192327141762,-0.0004236645472701639,-0.013712238520383835
0.03277872875332832,0.004551657475531101,-0.019869979470968246,0.015997422859072685,-0.0004593206977006048,-0.014169519767165184
0.03324824571609497,0.004465371835976839,-0.020146116614341736,0.01621411368250847,-0.0004891650169156492,-0.014472899958491325
0.03449549153447151,0.004185979720205069,-0.019532592967152596,0.015645353123545647,-0.0004940164508298039,-0.014643488451838493
0.0351933129131794,0.004571522120386362,-0.019716966897249222,0.01553317066282034,-0.0006651964504271746,-0.014570584520697594
0.03465424105525017,0.004756305832415819,-0.01886950060725212,0.01616067998111248,-0.0007116323686204851,-0.013975709676742554
0.034010469913482666,0.00433191517367959,-0.01975395157933235,0.01569470763206482,-0.0007211597403511405,-0.014248088002204895
0.033255986869335175,0.004332689568400383,-0.019874336197972298,0.015688592568039894,-0.0007154982886277139,-0.014268770813941956
0.035144608467817307,0.004072807263582945,-0.01960342563688755,0.015541897155344486,-0.0006899347063153982,-0.014597062952816486
0.0354311428964138,0.004227922763675451,-0.02030996046960354,0.016138605773448944,-0.0007672840729355812,-0.014425065368413925
0.03458032384514809,0.0040682111866772175,-0.020093059167265892,0.016232814639806747,-0.0007737388368695974,-0.014455023221671581
0.03508252277970314,0.003952632658183575,-0.01949322037398815,0.015730801969766617,-0.0007039184565655887,-0.014108244329690933
0.03485538437962532,0.004413474351167679,-0.0193598885089159,0.01604459062218666,-0.0007208212628029287,-0.014551321975886822
0.035180795937776566,0.0047331987880170345,-0.020090913400053978,0.015591946430504322,-0.0007395242573693395,-0.014403024688363075
0.034992486238479614,0.0045374920591712,-0.021207449957728386,0.015683120116591454,-0.0007837283192202449,-0.014903717674314976
0.03443301469087601,0.004233351908624172,-0.019338231533765793,0.015340272337198257,-0.0007751293596811593,-0.014736475422978401
0.03474320098757744,0.0038915572222322226,-0.019717110320925713,0.01587643101811409,-0.0007604726706631482,-0.014936331659555435
0.035181924700737,0.003729782532900572,-0.020103057846426964,0.01596059650182724,-0.000774653977714479,-0.015021325089037418
0.03569291904568672,0.003797538112848997,-0.0196896530687809,0.016323916614055634,-0.0007427133386954665,-0.015044686384499073
0.03569291904568672,0.003797538112848997,-0.0196896530687809,0.016323916614055634,-0.0007427133386954665,-0.015044686384499073
0.03540570288896561,0.004245274234563112,-0.020181355997920036,0.01644475944340229,-0.0007629034807905555,-0.014917489141225815
0.035028330981731415,0.004513582214713097,-0.020248891785740852,0.016347644850611687,-0.0007807929650880396,-0.01498138066381216
0.035339437425136566,0.0043452028185129166,-0.02001984603703022,0.016388654708862305,-0.0007519208593294024,-0.014874259941279888
0.0353882722556591,0.004471109714359045,-0.020454034209251404,0.01596854068338871,-0.0007166553987190127,-0.014981025829911232
0.035392843186855316,0.004128065891563892,-0.02059658244252205,0.01643180288374424,-0.0007319911383092403,-0.014854369685053825
0.036169931292533875,0.003966033458709717,-0.019939495250582695,0.01602800376713276,-0.0006696487544104457,-0.015112990513443947
0.03574996441602707,0.003934973385185003,-0.019710905849933624,0.016426658257842064,-0.0006629223353229463,-0.014842970296740532
0.035618219524621964,0.003990930039435625,-0.020410671830177307,0.0164183396846056,-0.0006430106004700065,-0.014995443634688854
0.03572249785065651,0.004162382800132036,-0.0204219538718462,0.016289571300148964,-0.0006694389740005136,-0.014982971362769604
0.03570413216948509,0.004778607282787561,-0.020492803305387497,0.01548004150390625,-0.0006719214143231511,-0.015247410163283348
0.035951126366853714,0.004749839194118977,-0.020631544291973114,0.015165439806878567,-0.0007438925094902515,-0.015510589815676212
0.03611486777663231,0.004503434058278799,-0.019827336072921753,0.015763046219944954,-0.0007942550582811236,-0.01485178992152214
0.0357845276594162,0.004065904300659895,-0.0204921904951334,0.01622571423649788,-0.0008099608821794391,-0.014626210555434227
0.0356886088848114,0.0041585457511246204,-0.020605821162462234,0.015789935365319252,-0.0008205476333387196,-0.014979677274823189
0.03611379861831665,0.00474805710837245,-0.02005544677376747,0.015785155817866325,-0.000938902550842613,-0.015052825212478638
0.03739013895392418,0.00482969731092453,-0.02013123594224453,0.015280034393072128,-0.000978250289335847,-0.014769422821700573
0.03661441430449486,0.004912737291306257,-0.020656971260905266,0.015362158417701721,-0.0009689910220913589,-0.01467630174010992
0.03503033518791199,0.0043855514377355576,-0.021077878773212433,0.015339603647589684,-0.0009597550379112363,-0.01453362125903368
0.03570401296019554,0.00434503611177206,-0.020398501306772232,0.01549812126904726,-0.0009420125279575586,-0.014941517263650894
0.03634139522910118,0.004510857164859772,-0.020396247506141663,0.015670334920287132,-0.0009256948251277208,-0.015440745279192924
0.036701906472444534,0.0045492034405469894,-0.0203248243778944,0.015805622562766075,-0.000853376870509237,-0.015070353634655476
0.037905726581811905,0.004888088442385197,-0.020236775279045105,0.015961403027176857,-0.0008550746715627611,-0.015217453241348267
0.03750234469771385,0.004982027690857649,-0.020526116713881493,0.015683872625231743,-0.0008115454111248255,-0.015434883534908295
0.03558115288615227,0.005112804006785154,-0.020843930542469025,0.016547907143831253,-0.0007713530794717371,-0.0158042274415493
0.036358848214149475,0.004992728587239981,-0.020882224664092064,0.016820164397358894,-0.0007156012579798698,-0.01586516760289669
0.037391576915979385,0.004615405574440956,-0.019969481974840164,0.01723889820277691,-0.0006820179405622184,-0.01568242907524109
0.03738057240843773,0.004866547416895628,-0.020972510799765587,0.017130659893155098,-0.0006523587508127093,-0.015675334259867668
0.03731457144021988,0.004880026448518038,-0.021562345325946808,0.016173969954252243,-0.0006319035892374814,-0.015587586909532547
0.03735179826617241,0.005360715556889772,-0.020962486043572426,0.016168823465704918,-0.0006126787047833204,-0.015426291152834892
0.03735179826617241,0.005360715556889772,-0.020962486043572426,0.016168823465704918,-0.0006126787047833204,-0.015426291152834892
