davideferrari95/blind_handover_controller/data/Test 129 - [2024-02-07 -- 17-03-16]/joint_states_data.csv
shoulder_pan_joint,shoulder_lift_joint,elbow_joint,wrist_1_joint,wrist_2_joint,wrist_3_joint
0.0047792186960577965,0.009400472044944763,-0.009152639657258987,-0.0018618351314216852,-0.0,0.004641803912818432
0.0047792186960577965,0.009400472044944763,-0.009152639657258987,-0.0018618351314216852,-0.0,0.004641803912818432
0.005014732480049133,0.009296532720327377,-0.009166362695395947,-0.0018829295877367258,-0.0,0.0048691085539758205
0.004809526726603508,0.009752290323376656,-0.009056895971298218,-0.0019502369686961174,-0.0,0.0047487737610936165
0.005127048119902611,0.009114190004765987,-0.009411221370100975,-0.0019843322224915028,-0.0,0.0047716717235744
0.004807595629245043,0.009928688406944275,-0.009890680201351643,-0.0019562686793506145,-0.0,0.004697742406278849
0.004807595629245043,0.009928688406944275,-0.009890680201351643,-0.0019562686793506145,-0.0,0.004697742406278849
0.004759364761412144,0.009703912772238255,-0.009175308048725128,-0.0018776720389723778,-0.0,0.0045921639539301395
0.00477974908426404,0.009647134691476822,-0.009645391255617142,-0.0017567961476743221,-0.0,0.004266796167939901
0.0049469955265522,0.009664817713201046,-0.00898246094584465,-0.0016833366826176643,-0.0,0.004473131615668535
0.005017254501581192,0.009430866688489914,-0.009578680619597435,-0.0017435800982639194,-0.0,0.004542213398963213
0.00510726822540164,0.009220085106790066,-0.009262827225029469,-0.0020792754366993904,-0.0,0.004675654694437981
0.004867929499596357,0.009491637349128723,-0.009485271759331226,-0.002083664061501622,-0.0,0.004709202330559492
0.005081502720713615,0.009085014462471008,-0.00896244216710329,-0.002072443487122655,-0.0,0.004549763165414333
0.004986095707863569,0.009043378755450249,-0.009631060063838959,-0.001898340997286141,-0.0,0.004580074455589056
0.005197407212108374,0.009773523546755314,-0.009304655715823174,-0.0017326601082459092,-0.0,0.004625256638973951
0.0050100176595151424,0.009274840354919434,-0.009367290884256363,-0.001500878599472344,-0.0,0.005312630441039801
0.005473891273140907,0.009908643551170826,-0.00923142209649086,-0.0013914024457335472,-0.0,0.005028454586863518
0.0050965892150998116,0.009514639154076576,-0.009665903635323048,-0.001303292578086257,-0.0,0.004196872003376484
0.0049170539714396,0.009387972764670849,-0.008662832900881767,-0.0012859192211180925,-0.0,0.003969146870076656
0.004967537242919207,0.009296968579292297,-0.009392702020704746,-0.0013224045978859067,-0.0,0.003909559920430183
0.004843590781092644,0.009750320576131344,-0.00904991663992405,-0.0016258045798167586,-0.0,0.004026649985462427
0.004595603793859482,0.01012532040476799,-0.008816428482532501,-0.0017438451759517193,-0.0,0.004844104405492544
0.005069078877568245,0.00919873733073473,-0.009209693409502506,-0.001900328672491014,-0.0,0.005072384141385555
0.0048710498958826065,0.009597613476216793,-0.009397539310157299,-0.0017731285188347101,-0.0,0.00476163811981678
0.004800754599273205,0.009643927216529846,-0.00881282053887844,-0.0016140227671712637,-0.0,0.004870970267802477
0.0045013874769210815,0.009384633041918278,-0.008719242177903652,-0.001466522109694779,-0.0,0.004831312224268913
0.004359026439487934,0.010060026310384274,-0.009557980112731457,-0.0013905786909162998,-0.0,0.004563141148537397
0.004923162050545216,0.00953475572168827,-0.008999655954539776,-0.0013240103144198656,-0.0,0.004389232490211725
0.005106658209115267,0.009336452931165695,-0.008501364849507809,-0.0013519652420654893,-0.0,0.004614907316863537
0.004782197065651417,0.009718446061015129,-0.00965122040361166,-0.0012957592261955142,-0.0,0.004980321507900953
0.004871684592217207,0.009641233831644058,-0.009049586951732635,-0.0014008519938215613,-0.0,0.005318950861692429
0.004447712562978268,0.009583973325788975,-0.009295067749917507,-0.0015197626780718565,-0.0,0.004767986945807934
0.004580366890877485,0.009801940992474556,-0.009041030891239643,-0.0016736073885113,-0.0,0.004629585891962051
0.004721654113382101,0.009110343642532825,-0.008801880292594433,-0.0016244900180026889,-0.0,0.004395597148686647
0.005089122336357832,0.009703041054308414,-0.008964864537119865,-0.001462751068174839,-0.0,0.004908528178930283
0.005089122336357832,0.009703041054308414,-0.008964864537119865,-0.001462751068174839,-0.0,0.004908528178930283
0.004821351729333401,0.009765500202775002,-0.00973953865468502,-0.0014789580600336194,-0.0,0.005066243931651115
0.0047303163446486,0.009394194930791855,-0.009530448354780674,-0.0014165887841954827,-0.0,0.0050075179897248745
0.005093148443847895,0.009747584350407124,-0.008951382711529732,-0.0015044743195176125,-0.0,0.004999781493097544
0.004497908521443605,0.009904619306325912,-0.009331909939646721,-0.0015748401638120413,-0.0,0.004409754183143377
0.004488774575293064,0.01049330085515976,-0.009013816714286804,-0.0017891913885250688,-0.0,0.004035031422972679
0.004654895048588514,0.009573668241500854,-0.009108315221965313,-0.0019167549908161163,-0.0,0.0043843281455338
0.005064220167696476,0.009578689932823181,-0.009160949848592281,-0.00192099844571203,-0.0,0.004576353821903467
0.005024981219321489,0.009392407722771168,-0.00911770947277546,-0.001798194251023233,-0.0,0.004740891046822071
0.004412158392369747,0.009636448696255684,-0.008759956806898117,-0.001651862170547247,-0.0,0.005051253363490105
0.004350682254880667,0.01004884298890829,-0.01028777938336134,-0.0015162868658080697,-0.0,0.0050189378671348095
0.004591772332787514,0.00953661184757948,-0.009242932312190533,-0.0013963202945888042,-0.0,0.004616571590304375
0.005226850509643555,0.00948736909776926,-0.0094214528799057,-0.0013826577924191952,-0.0,0.00442090630531311
0.004998762626200914,0.010344434529542923,-0.009849418886005878,-0.0013364163460209966,-0.0,0.004756179638206959
0.00486732879653573,0.009996737353503704,-0.009334534406661987,-0.001396077685058117,-0.0,0.005091341212391853
0.004905458074063063,0.009950925596058369,-0.00884301122277975,-0.0015289816074073315,-0.0,0.005006933119148016
0.004846261814236641,0.010041221976280212,-0.0096965366974473,-0.0014984826557338238,-0.0,0.004851072560995817
0.005086750257760286,0.009576961398124695,-0.00997214112430811,-0.001452778815291822,-0.0,0.0046493615955114365
0.005377219058573246,0.010756776668131351,-0.009490731172263622,-0.001509589608758688,-0.0,0.004321943502873182
0.005142668727785349,0.01112290658056736,-0.009648483246564865,-0.0014946124283596873,-0.0,0.004458935000002384
0.004748771898448467,0.009955018758773804,-0.009976943023502827,-0.0013251083437353373,-0.0,0.004508771933615208
0.005174678284674883,0.010195007547736168,-0.0089908167719841,-0.0012378335231915116,-0.0,0.004813316743820906
0.005174678284674883,0.010195007547736168,-0.0089908167719841,-0.0012378335231915116,-0.0,0.004813316743820906
0.005006859079003334,0.009415611624717712,-0.009562613442540169,-0.0011627653148025274,-0.0,0.004691328853368759
0.005122467875480652,0.010054649785161018,-0.01120966300368309,-0.0011928671738132834,-0.0,0.004555211402475834
0.004850634839385748,0.009915610775351524,-0.010119027458131313,-0.0011889669112861156,-0.0,0.004229527898132801
0.005219804588705301,0.010458854958415031,-0.009075283072888851,-0.001426801667548716,-0.0,0.004459452349692583
0.005219804588705301,0.010458854958415031,-0.009075283072888851,-0.001426801667548716,-0.0,0.004459452349692583
0.004735469818115234,0.010212695226073265,-0.009337577037513256,-0.0014286633813753724,-0.0,0.004742765333503485
0.005065480712801218,0.009510072879493237,-0.00955957267433405,-0.0013482538051903248,-0.0,0.004683337174355984
0.00548618845641613,0.010027134791016579,-0.008839895948767662,-0.001364996423944831,-0.0,0.004668323323130608
0.005343563389033079,0.010295835323631763,-0.009041933342814445,-0.0013308298075571656,-0.0,0.004666322376579046
0.005328856874257326,0.010154753923416138,-0.009889808483421803,-0.0012570163235068321,-0.0,0.00462676165625453
0.00512807909399271,0.010939384810626507,-0.009260255843400955,-0.001175595447421074,-0.0,0.004655943717807531
0.0048674545250833035,0.01025070808827877,-0.009164412505924702,-0.0011279203463345766,-0.0,0.004975931253284216
0.004824140574783087,0.010499530471861362,-0.009471259079873562,-0.0010881017660722136,-0.0,0.004990682937204838
0.004863624460995197,0.010581059381365776,-0.008830755949020386,-0.001059741247445345,-0.0,0.004893374163657427
0.00523751275613904,0.010313600301742554,-0.008435675874352455,-0.0009999136673286557,-0.0,0.00514108594506979
0.005538065452128649,0.010478527285158634,-0.009649631567299366,-0.0009858694393187761,-0.0,0.005005297251045704
0.005343613680452108,0.010290004312992096,-0.009512283839285374,-0.0009725186973810196,-0.0,0.00448483694344759
0.004792289342731237,0.010716892778873444,-0.009681819938123226,-0.0009625881793908775,-0.0,0.004944406915456057
0.004903330933302641,0.010413005016744137,-0.009721534326672554,-0.0009607275133021176,-0.0,0.005047364626079798
0.005645111668854952,0.010353564284741879,-0.009231292642652988,-0.0009658574126660824,-0.0,0.004904231056571007
0.0048730638809502125,0.009936204180121422,-0.008662824518978596,-0.0009566355147399008,-0.0,0.005053809843957424
0.005103535950183868,0.010529285296797752,-0.008700462058186531,-0.0009031375520862639,-0.0,0.004833613988012075
0.0054820203222334385,0.010264689102768898,-0.009823882952332497,-0.0008487137965857983,-0.0,0.0048391250893473625
0.005027120001614094,0.0098884841427207,-0.009460743516683578,-0.0008007299620658159,-0.0,0.004811246879398823
0.005271153058856726,0.01056526880711317,-0.009411687962710857,-0.0006967267254367471,-0.0,0.005134139209985733
0.005245232488960028,0.00999959371984005,-0.009565073996782303,-0.0007159723318181932,-0.0,0.004910824354737997
0.0050543309189379215,0.010097265243530273,-0.00938454270362854,-0.0006385516608133912,-0.0,0.0047968183644115925
0.005036915186792612,0.009749739430844784,-0.009571782313287258,-0.0006652893498539925,-0.0,0.005194594152271748
0.005248005967587233,0.010576270520687103,-0.009006532840430737,-0.000627098313998431,-0.0,0.005063215270638466
0.005020967684686184,0.010086105205118656,-0.00886845588684082,-0.0005937977111898363,-0.0,0.004940326325595379
0.004897474776953459,0.0098623838275671,-0.010049604810774326,-0.0005409898003563285,-0.0,0.005055407993495464
0.004897474776953459,0.0098623838275671,-0.010049604810774326,-0.0005409898003563285,-0.0,0.005055407993495464
0.00541008822619915,0.010110224597156048,-0.009581883437931538,-0.0005991036887280643,-0.0,0.004909499082714319
0.00541008822619915,0.010110224597156048,-0.009581883437931538,-0.0005991036887280643,-0.0,0.004909499082714319
0.00512299407273531,0.009650557301938534,-0.009770140051841736,-0.0006150671397335827,-0.0,0.005023767240345478
0.005380065180361271,0.01025399100035429,-0.009372151456773281,-0.0005861171521246433,-0.0,0.005029589869081974
0.005187717266380787,0.01001806277781725,-0.008690976537764072,-0.0007175231003202498,-0.0,0.0051657576113939285
0.005425619427114725,0.009690659120678902,-0.009800001047551632,-0.0007233180804178119,-0.0,0.005204461514949799
0.005576888099312782,0.009851465933024883,-0.009043277241289616,-0.0006631791475228965,-0.0,0.0049127559177577496
0.005505451466888189,0.010265267454087734,-0.00955140683799982,-0.0005922159762121737,-0.0,0.0048653543926775455
0.0055108824744820595,0.00910922884941101,-0.009941797703504562,-0.0006162255886010826,-0.0,0.005137843079864979
0.00503072515130043,0.010003243573009968,-0.009555798023939133,-0.0005661842878907919,-0.0,0.005129500292241573
0.005430038087069988,0.00969312060624361,-0.008960924111306667,-0.0005838092183694243,-0.0,0.005391872953623533
0.005383008625358343,0.009151135571300983,-0.009657999500632286,-0.0005480785621330142,-0.0,0.0050818962045013905
0.005800602026283741,0.009580089710652828,-0.009907996281981468,-0.0005098158144392073,-0.0,0.004832358565181494
0.005417399108409882,0.009721726179122925,-0.009289328008890152,-0.00046058883890509605,-0.0,0.004996425472199917
0.005728260148316622,0.009649026207625866,-0.009300954639911652,-0.0004157144285272807,-0.0,0.005042995326220989
0.005394688807427883,0.00981283187866211,-0.009358176961541176,-0.0003803835134021938,-0.0,0.00541168637573719
0.006119169760495424,0.009824028238654137,-0.009133848361670971,-0.00041587548912502825,-0.0,0.005732260178774595
0.005471695680171251,0.009455873630940914,-0.009637251496315002,-0.0003900683659594506,-0.0,0.0054641407914459705
0.005355137400329113,0.00907981675118208,-0.009705628268420696,-0.0004204603028483689,-0.0,0.005444052163511515
0.005576195195317268,0.009443387389183044,-0.009375572204589844,-0.00039761365042068064,-0.0,0.004881239961832762
0.005149710923433304,0.009148543700575829,-0.010036817751824856,-0.00042045986629091203,-0.0,0.005061555653810501
0.005749143194407225,0.009300440549850464,-0.009701207280158997,-0.00040324320434592664,-0.0,0.005435247905552387
0.005716348998248577,0.009671413339674473,-0.009474620223045349,-0.00038224097806960344,-0.0,0.005240738857537508
0.005502463784068823,0.009026934392750263,-0.009457362815737724,-0.0003455661062616855,-0.0,0.004998593125492334
0.005644097924232483,0.009483874775469303,-0.009136565960943699,-0.00033106780028901994,-0.0,0.005122541915625334
0.005828820634633303,0.00876813754439354,-0.009338523261249065,-0.00033663722570054233,-0.0,0.005454684607684612
0.006005033850669861,0.00808118749409914,-0.010443191975355148,-0.00031504727667197585,-0.0,0.00553305447101593
0.006005033850669861,0.00808118749409914,-0.010443191975355148,-0.00031504727667197585,-0.0,0.00553305447101593
0.005885481834411621,0.008584270253777504,-0.009276637807488441,-0.00029454351169988513,-0.0,0.005740812048316002
0.005858233664184809,0.00879599992185831,-0.009929727762937546,-0.0003054956323467195,-0.0,0.0047281114384531975
0.005858233664184809,0.00879599992185831,-0.009929727762937546,-0.0003054956323467195,-0.0,0.0047281114384531975
0.005882733501493931,0.009182069450616837,-0.009280433878302574,-0.0002949658373836428,-0.0,0.0049109929241240025
0.005839417688548565,0.009302745573222637,-0.00866089016199112,-0.0002800654910970479,-0.0,0.005200392100960016
0.006132291164249182,0.00869850255548954,-0.009188254363834858,-0.0002662772894836962,-0.0,0.006044165696948767
0.005661976058036089,0.00858443696051836,-0.009082666598260403,-0.00025376322446390986,-0.0,0.00611591711640358
0.005825647618621588,0.008832075633108616,-0.009173075668513775,-0.00024237098114099354,-0.0,0.0061216508038342
0.005766167305409908,0.008680984377861023,-0.010190951637923717,-0.00023195707763079554,-0.0,0.0058523123152554035
0.006303459871560335,0.008468186482787132,-0.009497053921222687,-0.0002224016934633255,-0.0,0.005849834531545639
0.006528995931148529,0.008701247163116932,-0.00922815315425396,-0.0002136033435817808,-0.0,0.005651415791362524
0.006127651315182447,0.008606857620179653,-0.009479906409978867,-0.00020547382882796228,-0.0,0.00582808768376708
0.005718470085412264,0.008353818207979202,-0.009334554895758629,-0.00019794111722148955,-0.0,0.0060402522794902325
0.0058952500112354755,0.008441561833024025,-0.009057708084583282,-0.00019094112212769687,-0.0,0.005924772471189499
0.006300078704953194,0.008527549915015697,-0.009440915659070015,-0.00018441957945469767,-0.0,0.005894862115383148
0.006507132202386856,0.008805820718407631,-0.009562256745994091,-0.00017832859884947538,-0.0,0.00627080537378788
0.006473945919424295,0.008589806035161018,-0.009180481545627117,-0.00017262704204767942,-0.0,0.006186293438076973
0.006015711929649115,0.008989096619188786,-0.009135481901466846,-0.00016727899492252618,-0.0,0.00619882857427001
0.006333391182124615,0.008558704517781734,-0.00931353960186243,-0.00016225264698732644,-0.0,0.005892246495932341
0.006617146078497171,0.00857838336378336,-0.009219548664987087,-0.0001575191563460976,-0.0,0.005899347830563784
0.006294087041169405,0.008972751908004284,-0.008766358718276024,-0.00015305420674849302,-0.0,0.005964998155832291
0.006251005921512842,0.008875853382050991,-0.008934267796576023,-0.00014883549010846764,-0.0,0.005804244428873062
0.006110715214163065,0.00930085964500904,-0.008688537403941154,-0.00014105932496022433,-0.0,0.005688763689249754
0.006225782446563244,0.009095976129174232,-0.009647036902606487,-0.00013746826152782887,-0.0,0.0059762317687273026
0.00651808874681592,0.00892023928463459,-0.00930266547948122,-0.00013405553181655705,-0.0,0.006366107612848282
0.006284379865974188,0.00860158633440733,-0.009022468701004982,-0.0001308080682065338,-0.0,0.005757481791079044
0.006170903332531452,0.009135334752500057,-0.009603779762983322,-0.00012771414185408503,-0.0,0.0058586737141013145
0.006170903332531452,0.009135334752500057,-0.009603779762983322,-0.00012771414185408503,-0.0,0.0058586737141013145
0.006226054392755032,0.008945517241954803,-0.009133934043347836,-0.0001247634645551443,-0.0,0.005447683855891228
0.00613823439925909,0.008968985639512539,-0.009886537678539753,-0.00012194592272862792,-0.0,0.005408179480582476
0.0060538784600794315,0.009371322579681873,-0.010068518109619617,-0.0001192528652609326,-0.0,0.005700725130736828
0.006112877279520035,0.008815769106149673,-0.009407996200025082,-0.00011667612852761522,-0.0,0.005952450446784496
0.005955362226814032,0.008456277661025524,-0.008924184367060661,-0.00011420834198361263,-2.1008543171774363e-06,0.005995726212859154
0.00641617551445961,0.009054379537701607,-0.009802635759115219,-0.00011184280447196215,-1.3717077251840237e-07,0.006048050709068775
0.0063559808768332005,0.008555835112929344,-0.009836938232183456,-0.00010957340418826789,-8.956271280169403e-09,0.005931468214839697
0.006334404461085796,0.008471732959151268,-0.009154855273663998,-0.00010739416029537097,-5.847805017999974e-10,0.005941073410212994
0.006058759056031704,0.009099637158215046,-0.009426224045455456,-0.00010530003055464476,-3.8181995759556386e-11,0.006014137528836727
0.006064302287995815,0.009041639044880867,-0.00947032030671835,-0.00010328584903618321,-2.4930112228066514e-12,0.005941573530435562
0.006306776311248541,0.008907840587198734,-0.009344649501144886,-0.00010134744661627337,-1.6277582580437322e-13,0.006303178146481514
0.006423170678317547,0.00858480017632246,-0.010669408366084099,-9.948040678864345e-05,-1.062809762479534e-14,0.006038418505340815
0.0063417693600058556,0.008794843219220638,-0.010291448794305325,-9.768093150341883e-05,-6.939388359390188e-16,0.006098800338804722
0.006560315378010273,0.008885838091373444,-0.009447147138416767,-9.594534640200436e-05,-4.530924818651062e-17,0.006053037941455841
0.006470450200140476,0.008530261926352978,-0.010091946460306644,-9.427101031178609e-05,-2.958370101765276e-18,0.005932253785431385
0.006529425270855427,0.00888611376285553,-0.009613133035600185,-9.265584230888635e-05,-1.9316041198411859e-19,0.006133874412626028
0.006547518074512482,0.009223828092217445,-0.009082702919840813,-9.109070379054174e-05,-1.261199452682117e-20,0.006355971563607454
0.006571135949343443,0.00876295194029808,-0.00959909800440073,-8.958174294093624e-05,-8.234731430033317e-22,0.006304948125034571
0.006349768955260515,0.008526172488927841,-0.010591945610940456,-8.811995212454349e-05,-5.376691020990233e-23,0.006188661325722933
0.0064539615996181965,0.009158272296190262,-0.009823775850236416,-8.670520765008405e-05,-3.5105951113017885e-24,0.006164340302348137
0.006720362231135368,0.009037993848323822,-0.010153570212423801,-8.533497020835057e-05,-2.292167740840307e-25,0.005728798918426037
0.0067033059895038605,0.00863526202738285,-0.011018007062375546,-8.400739898206666e-05,-1.496621670855855e-26,0.005839246325194836
0.006337715778499842,0.009471884928643703,-0.009776590391993523,-7.248228212120011e-05,-9.771870018679455e-28,0.006085691973567009
0.006480372976511717,0.009447677992284298,-0.009494698606431484,-6.812542414991185e-05,-6.38033326629716e-29,0.006157226394861937
0.00688346428796649,0.008990143425762653,-0.009812303818762302,-6.590616976609454e-05,-2.720036328579583e-31,0.006128144916146994
0.006560727022588253,0.009771871380507946,-0.010447034612298012,-6.495391426142305e-05,-1.7759893216577174e-32,0.006147391628473997
0.006232829298824072,0.009412629529833794,-0.010260920971632004,-6.402964208973572e-05,-1.1595942285239814e-33,0.006236142944544554
0.006568782962858677,0.009415089152753353,-0.009609649889171124,-6.313136691460386e-05,-7.571321231504189e-35,0.0060368673875927925
0.0068249148316681385,0.00936922151595354,-0.010374427773058414,-6.225797551451251e-05,-4.943532021847589e-36,0.006185097154229879
0.006875190883874893,0.008930445648729801,-0.009838804602622986,-4.99396919622086e-05,-3.2277730792934585e-37,0.006204778794199228
0.006875190883874893,0.008930445648729801,-0.009838804602622986,-4.99396919622086e-05,-3.2277730792934585e-37,0.006204778794199228
0.006833346094936132,0.008736930787563324,-0.009974602609872818,-4.8518410039832816e-05,-2.1075051060668914e-38,0.005949828308075666
0.006714505609124899,0.009427727200090885,-0.010063640773296356,-4.7825000365264714e-05,-1.3760498685946125e-39,0.006258209235966206
0.006939729675650597,0.00901897344738245,-0.009895571507513523,-4.719489152194001e-05,-8.984565233864997e-41,0.005954045336693525
0.006660108454525471,0.009290528483688831,-0.01006561890244484,-3.570836270228028e-05,-5.865835371663684e-42,0.006375214084982872
0.006554740481078625,0.009202152490615845,-0.010963586159050465,-3.4541972127044573e-05,-3.825544807606751e-43,0.006614068988710642
0.006612773519009352,0.00958090927451849,-0.011109095066785812,1.1205995178897865e-05,-2.5223372357846707e-44,0.006379882805049419
0.007109807804226875,0.008884943090379238,-0.009348751045763493,2.5477591407252476e-05,-1.401298464324817e-45,0.006222992669790983
0.007475933060050011,0.009297342039644718,-0.009823266416788101,3.7404144677566364e-05,-0.0,0.006169009953737259
0.006689797155559063,0.008750693872570992,-0.00968730729073286,4.805962089449167e-05,-0.0,0.006211358122527599
0.006578759290277958,0.00869064126163721,-0.009596768766641617,5.6790966482367367e-05,-0.0,0.0062210955657064915
0.007017749827355146,0.009436409920454025,-0.010383370332419872,6.215093890205026e-05,-0.0,0.006310239899903536
0.007028081454336643,0.009125846438109875,-0.010102767497301102,0.0006590163102373481,-0.0,0.006511491257697344
0.006975861266255379,0.009043827652931213,-0.010463890619575977,0.000722970231436193,-0.0,0.006635753437876701
0.0069204941391944885,0.008670635521411896,-0.01106342114508152,0.0007249035988934338,-0.0,0.006378354970365763
0.006968097295612097,0.009315825067460537,-0.010136292316019535,0.0007183963898569345,-0.0,0.0065081133507192135
0.006808124948292971,0.009010993875563145,-0.009464060887694359,0.0006967524532228708,-0.0,0.0068344236351549625
0.006697117816656828,0.00897151231765747,-0.010397997684776783,0.0008396144839935005,-0.0,0.0063027143478393555
0.0068085817620158195,0.009307480417191982,-0.00931925605982542,0.0008891668985597789,-0.0,0.006151334848254919
0.006929649971425533,0.008764894679188728,-0.00965415220707655,0.0008933442295528948,-0.0,0.006894676014780998
0.007312427274882793,0.008733428083360195,-0.01068999245762825,0.0009645526297390461,-0.0,0.007054735906422138
0.007544931024312973,0.008878746069967747,-0.009624325670301914,0.001047940575517714,-0.0,0.00677933543920517
0.006979270372539759,0.00893186591565609,-0.009438922628760338,0.001029276056215167,-0.0,0.006982321385294199
0.007676292210817337,0.008457005955278873,-0.009773535653948784,0.001254238304682076,-0.0,0.006697669625282288
0.007724647875875235,0.008920307271182537,-0.00970885157585144,0.0013214417267590761,-0.0,0.008058966137468815
0.007724647875875235,0.008920307271182537,-0.00970885157585144,0.0013214417267590761,-0.0,0.008058966137468815
0.006925633642822504,0.00843830592930317,-0.010230883955955505,0.0014622753951698542,-0.0,0.0065039703622460365
0.007168726064264774,0.008178599178791046,-0.010006982833147049,0.0015187665121629834,-0.0,0.006074084900319576
0.008175325579941273,0.00896325334906578,-0.010240515694022179,0.0014493450289592147,-0.0,0.006365504581481218
0.007708913180977106,0.008663714863359928,-0.009965605102479458,0.001305364421568811,-0.0,0.007346296217292547
0.007528658024966717,0.00855164136737585,-0.009877358563244343,0.0013850260293111205,-0.0,0.007357235066592693
0.008008444681763649,0.00869622640311718,-0.009917445480823517,0.0020446262788027525,-0.0,0.006831752136349678
0.008008444681763649,0.00869622640311718,-0.009917445480823517,0.0020446262788027525,-0.0,0.006831752136349678
0.008120350539684296,0.00854392908513546,-0.010139883495867252,0.0022288707550615072,-0.0,0.0071026962250471115
0.007971636950969696,0.008312562480568886,-0.010058156214654446,0.002143343212082982,-0.0,0.006917964201420546
0.00784597359597683,0.008651289157569408,-0.010624355636537075,0.0020035046618431807,-0.0,0.007298268377780914
0.0072516161017119884,0.008497849106788635,-0.009746117517352104,0.0019516049651429057,-0.0,0.007002856582403183
0.00796082615852356,0.007790177594870329,-0.010485692881047726,0.0019103819504380226,-0.0,0.0069275195710361
0.007699602749198675,0.008995170705020428,-0.009941689670085907,0.0019808991346508265,-0.0,0.007140415720641613
0.007541039027273655,0.008342604152858257,-0.009320964105427265,0.0024274650495499372,-0.0,0.006970743183046579
0.007867895066738129,0.00783154834061861,-0.009840600192546844,0.0024819287937134504,-0.0,0.006946905981749296
0.007700740825384855,0.007540146820247173,-0.010075724683701992,0.0024311847519129515,-0.0,0.007333619054406881
0.007604042999446392,0.008076549507677555,-0.009328578598797321,0.002392127877101302,-0.0,0.007455094717442989
0.007713609375059605,0.008018123917281628,-0.009496400132775307,0.0021581894252449274,-0.0,0.007400716654956341
0.007666687946766615,0.008178883232176304,-0.009991738013923168,0.002201792784035206,-0.0,0.0073912437073886395
0.008033636957406998,0.007696186192333698,-0.009487067349255085,0.002284622984007001,-0.0,0.00788419134914875
0.007529451511800289,0.008198265917599201,-0.009294715709984303,0.0023018973879516125,-0.0,0.0076470766216516495
0.00811969954520464,0.00824797060340643,-0.009418991394340992,0.0026500725653022528,-0.0,0.007265771739184856
0.008054028265178204,0.008156898431479931,-0.009050704538822174,0.002436068607494235,-0.0,0.007192717865109444
0.007579179015010595,0.00834126491099596,-0.009595346637070179,0.0023496507201343775,-0.0,0.007914718240499496
0.00785152893513441,0.007845316082239151,-0.010135503485798836,0.00211296952329576,-0.0,0.007672987412661314
0.007729451172053814,0.007580437231808901,-0.009597755037248135,0.002120709978044033,-0.0,0.006842657923698425
0.00817923154681921,0.008058838546276093,-0.009681270457804203,0.002319878898561001,-0.0,0.007265258114784956
0.007823092862963676,0.008307795971632004,-0.009301862679421902,0.002295376267284155,-0.0,0.007583309896290302
0.008317495696246624,0.007856289856135845,-0.009264092892408371,0.0025288588367402554,-0.0,0.0075311483815312386
0.008518706075847149,0.008170513436198235,-0.010035418905317783,0.0022772063966840506,-0.0,0.007872999645769596
0.008518706075847149,0.008170513436198235,-0.010035418905317783,0.0022772063966840506,-0.0,0.007872999645769596
0.007629944942891598,0.00822610966861248,-0.010440826416015625,0.0021976318676024675,-0.0,0.007983514107763767
0.007712175138294697,0.007820192724466324,-0.009621965698897839,0.0020325914956629276,-0.0,0.007626562379300594
0.008766424842178822,0.007679689209908247,-0.010103547014296055,0.0022740273270756006,-0.0,0.006909079849720001
0.00813134852796793,0.007539166137576103,-0.009982672519981861,0.002707271371036768,-0.0,0.00708824023604393
0.007982861250638962,0.007798042614012957,-0.009737326763570309,0.0028511304408311844,-0.0,0.008080721832811832
0.00843572523444891,0.008092843927443027,-0.00964136328548193,0.0027122299652546644,-0.0,0.007919644005596638
0.00904699694365263,0.007844510488212109,-0.010196355171501637,0.002710461849346757,-0.0,0.008076110854744911
0.007917202077805996,0.00815157312899828,-0.010078974068164825,0.00278105353936553,-0.0,0.007896889932453632
0.008312047459185123,0.007964439690113068,-0.010103504173457623,0.0027159464079886675,-0.0,0.0077564348466694355
0.00892020482569933,0.007826270535588264,-0.009684783406555653,0.0024946965277194977,-0.0,0.00753483222797513
0.008670127019286156,0.007534146308898926,-0.010602271184325218,0.0023528956808149815,-0.0,0.007447015959769487
0.00791725143790245,0.00767046632245183,-0.01002454198896885,0.0023132809437811375,-0.0,0.007723373826593161
0.008766299113631248,0.007913148030638695,-0.009413491934537888,0.002715099835768342,-0.0,0.007750175893306732
0.009109643287956715,0.00759684294462204,-0.01012110710144043,0.0030329579021781683,-0.0,0.007768059149384499
0.008173376321792603,0.008129743859171867,-0.010110962204635143,0.0029576721135526896,-0.0,0.007888969965279102
0.008807641454041004,0.008437493816018105,-0.010165133513510227,0.0028751131612807512,-0.0,0.008060968481004238
0.009144438430666924,0.007950725965201855,-0.010272637009620667,0.0029624735470861197,-0.0,0.00767888780683279
0.007623901590704918,0.00764709897339344,-0.00990621093660593,0.003158068982884288,-0.0,0.007875116541981697
0.009076227433979511,0.007646352984011173,-0.009653393179178238,0.0031629481818526983,-0.0,0.007902009412646294
0.00902260560542345,0.007880222983658314,-0.009842801839113235,0.0027269364800304174,-0.0,0.00755257299169898
0.008594060316681862,0.007471156772226095,-0.009863716550171375,0.0024791588075459003,-0.0,0.007776759099215269
0.008753815665841103,0.008228066377341747,-0.010860219597816467,0.002270144410431385,-0.0,0.007799278944730759
0.009458848275244236,0.008390340022742748,-0.01101860124617815,0.002344617387279868,-0.0,0.008189698681235313
0.009148632176220417,0.007871389389038086,-0.009953225031495094,0.00259893829934299,-0.0,0.008059365674853325
0.009424727410078049,0.0078741405159235,-0.010487082414329052,0.0028471702244132757,-0.0,0.008176110684871674
0.009086741134524345,0.008680056780576706,-0.010468008928000927,0.003214558120816946,-0.0,0.007932202890515327
0.009526028297841549,0.008623962290585041,-0.01011632476001978,0.00308007700368762,-0.0,0.00831522885710001
0.009526028297841549,0.008623962290585041,-0.01011632476001978,0.00308007700368762,-0.0,0.00831522885710001
0.009139844216406345,0.008037082850933075,-0.01048691663891077,0.00302999559789896,-0.0,0.008102885447442532
0.009575256146490574,0.00768495537340641,-0.010597393848001957,0.002882439875975251,-0.0,0.008143843151628971
0.008876931853592396,0.008114514872431755,-0.010014847852289677,0.002859102562069893,-0.0,0.008342742919921875
0.009661943651735783,0.00757518270984292,-0.010741358622908592,0.0027446227613836527,-0.0,0.00835089385509491
0.009258204139769077,0.0071874335408210754,-0.010153194889426231,0.0029861119110137224,-0.0,0.00830368883907795
0.009561298415064812,0.007224488537758589,-0.010721303522586823,0.002979918383061886,-0.0,0.008371886797249317
0.00948662031441927,0.0075469473376870155,-0.010312454774975777,0.0029809041880071163,-0.0,0.00859809946268797
0.009442705661058426,0.0073371464386582375,-0.00924134161323309,0.0033586856443434954,-0.0,0.009127811528742313
0.009586518630385399,0.007331192959100008,-0.011280681937932968,0.0032277849968522787,-0.0,0.0078091369941830635
0.009204428642988205,0.00710341427475214,-0.011011609807610512,0.003282977268099785,-0.0,0.007891306653618813
0.009816139936447144,0.008128740824759007,-0.010046969167888165,0.0032557544764131308,-0.0,0.008988337591290474
0.009524866938591003,0.008088139817118645,-0.010338831692934036,0.0031203962862491608,-0.0,0.008536312729120255
0.009159873239696026,0.007442933041602373,-0.010092821903526783,0.0034110911656171083,-0.0,0.008551498875021935
0.009536903351545334,0.007261746563017368,-0.010570230893790722,0.003355075605213642,-0.0,0.008956978097558022
0.009623512625694275,0.007629302330315113,-0.01122854370623827,0.0031153715681284666,-0.0,0.008203692734241486
0.009993622079491615,0.0075285062193870544,-0.0104586873203516,0.0028621277306228876,-0.0,0.008092294447124004
0.009838121011853218,0.008116337470710278,-0.010638218373060226,0.0028071454726159573,-0.0,0.008752333000302315
0.009332590736448765,0.007892997935414314,-0.010809347033500671,0.003149086842313409,-0.0,0.00892491266131401
0.009204840287566185,0.008327840827405453,-0.01037001982331276,0.0033164932392537594,-0.0,0.008834057487547398
0.009868611581623554,0.007185757625848055,-0.010768864303827286,0.0033708885312080383,-0.0,0.008493445813655853
0.009502481669187546,0.00744466669857502,-0.009968023747205734,0.0032387396786361933,-0.0,0.008700690232217312
0.009741461835801601,0.00816275179386139,-0.01068219356238842,0.0032246510963886976,-0.0,0.008978690020740032
0.00989161990582943,0.007746270392090082,-0.01066183764487505,0.0034073269926011562,-0.0,0.008903268724679947
0.009670394472777843,0.00763297313824296,-0.010290325619280338,0.003632089588791132,-0.0,0.008569895289838314
0.010228519327938557,0.007671314757317305,-0.010742055252194405,0.0033465323504060507,-0.0,0.008712494745850563
0.010228519327938557,0.007671314757317305,-0.010742055252194405,0.0033465323504060507,-0.0,0.008712494745850563
0.009579760953783989,0.007665483746677637,-0.01014141645282507,0.0035053438041359186,-0.0,0.008916460908949375
0.009177242405712605,0.007697610650211573,-0.010470094159245491,0.003848443506285548,-0.0,0.009488546289503574
0.009673342108726501,0.0073221768252551556,-0.010734056122601032,0.0035060669761151075,-0.0,0.009714087471365929
0.009918972849845886,0.00747267808765173,-0.009986203163862228,0.0032562455162405968,-0.0,0.009042280726134777
0.010549400001764297,0.007515518460422754,-0.01076589711010456,0.0031033786945044994,-0.0,0.0089371707290411
0.010358148254454136,0.007395134307444096,-0.010242346674203873,0.0028965729288756847,-0.0,0.008746243081986904
0.009910237975418568,0.007485643494874239,-0.009838886559009552,0.003091328777372837,-0.0,0.009309477172791958
0.00969361886382103,0.007802367676049471,-0.010782112367451191,0.0031590149737894535,-0.0,0.00942204613238573
0.01075907051563263,0.007808732334524393,-0.010788096114993095,0.00302995671518147,-0.0,0.009608563967049122
0.010210328735411167,0.008131077513098717,-0.010755694471299648,0.002917367732152343,-0.0,0.00947860162705183
0.009653140790760517,0.007753114681690931,-0.01108965277671814,0.0031560296192765236,-0.0,0.00973859615623951
0.010182919912040234,0.00787897314876318,-0.01097965333610773,0.0031996862962841988,-0.0,0.010259512811899185
0.010269996710121632,0.0076283179223537445,-0.01136556826531887,0.0034641323145478964,-0.0,0.009630970656871796
0.010002112947404385,0.007555297110229731,-0.010545705445110798,0.0037112105637788773,-0.0,0.009463191032409668
0.010319534689188004,0.007674938999116421,-0.009684273973107338,0.0039103589951992035,-0.0,0.009626669809222221
0.009940293617546558,0.008002321235835552,-0.010738042183220387,0.0035245195031166077,-0.0,0.009572138078510761
0.009956634603440762,0.007108348421752453,-0.010620540007948875,0.0035200673155486584,-0.0,0.009642899967730045
0.010652735829353333,0.006888506934046745,-0.010171267203986645,0.0037409814540296793,-0.0,0.009644080884754658
0.009908650070428848,0.007279813289642334,-0.010801488533616066,0.0039874110370874405,-0.0,0.009524845518171787
0.010488192550837994,0.007583656348288059,-0.01059433352202177,0.0039732493460178375,-0.0,0.009643794037401676
0.010072559118270874,0.008015655912458897,-0.010890219360589981,0.00432650838047266,-0.0,0.009231613017618656
0.011090423911809921,0.007594015449285507,-0.01102708000689745,0.004176916554570198,-0.0,0.009022019803524017
0.010389132425189018,0.008185666985809803,-0.010612898506224155,0.003999178297817707,-0.0,0.009321478195488453
0.0097758574411273,0.007823528721928596,-0.010722707025706768,0.0041460697539150715,-0.0,0.00933599192649126
0.010150966234505177,0.007149380166083574,-0.010616675019264221,0.0043332381173968315,-0.0,0.009479316882789135
0.010460028424859047,0.008056501857936382,-0.011140955612063408,0.004434376489371061,-0.0,0.00973969604820013
0.009746083989739418,0.008005216717720032,-0.010795717127621174,0.004193795379251242,-0.0,0.009912742301821709
0.010029502213001251,0.007581174839287996,-0.010129185393452644,0.0043394071981310844,-0.0,0.009886451065540314
0.010029502213001251,0.007581174839287996,-0.010129185393452644,0.0043394071981310844,-0.0,0.009886451065540314
0.010276919230818748,0.0073473514057695866,-0.011105752550065517,0.004545080941170454,-0.0,0.009720662608742714
0.010263675823807716,0.007278012577444315,-0.011258008889853954,0.00458407262340188,-0.0,0.010327868163585663
0.010822187177836895,0.0075885881669819355,-0.010962349362671375,0.004228717181831598,-0.0,0.00961553305387497
0.011163384653627872,0.007458995096385479,-0.010926664806902409,0.004382536746561527,-0.0,0.009507793933153152
0.011388535611331463,0.007409864105284214,-0.010198120027780533,0.004876077640801668,-0.0,0.009707926772534847
0.010399782098829746,0.00739003112539649,-0.010665863752365112,0.004826306831091642,-0.0,0.009728453122079372
0.010221702978014946,0.0076572890393435955,-0.010969990864396095,0.004474359564483166,-0.0,0.010073055513203144
0.011035031639039516,0.006913254037499428,-0.010244743898510933,0.0040657189674675465,-0.0,0.010192188434302807
0.011417626403272152,0.0069566150195896626,-0.010689078830182552,0.003912734799087048,-0.0,0.010851791128516197
0.012144672684371471,0.0070319571532309055,-0.010733943432569504,0.004250091966241598,-0.0,0.009953864850103855
0.012584881857037544,0.007767937146127224,-0.01082097738981247,0.005094845779240131,-0.0,0.009602275677025318
0.012335233390331268,0.007368350867182016,-0.011006572283804417,0.005098947323858738,-0.0,0.010703429579734802
0.011876838281750679,0.007110745646059513,-0.01061408594250679,0.004529485013335943,-0.0,0.010385638102889061
0.012030597776174545,0.006951846182346344,-0.010917358100414276,0.004417313262820244,-0.0,0.009925475344061852
0.011446458287537098,0.007496155798435211,-0.010784734971821308,0.004581958521157503,-0.0,0.009962067939341068
0.012475348077714443,0.007365136872977018,-0.010788929648697376,0.004788368009030819,-0.0,0.010369643568992615
0.01197878085076809,0.007276636082679033,-0.011110152117908001,0.0046844747848808765,-0.0,0.009753848426043987
0.011966127902269363,0.007339925970882177,-0.01088378019630909,0.00427798368036747,-0.0,0.009527107700705528
0.012236475013196468,0.007544546853750944,-0.01097436249256134,0.004249608609825373,-0.0,0.010293863713741302
0.012173082679510117,0.00677863135933876,-0.010641755536198616,0.004388094414025545,-0.0,0.010627180337905884
0.01176818273961544,0.006766361650079489,-0.01088989619165659,0.004600659012794495,-0.0,0.01002158410847187
0.01253827940672636,0.007206404581665993,-0.010815098881721497,0.004487521480768919,-0.0,0.010074825957417488
0.012501690536737442,0.007577473763376474,-0.010802592150866985,0.004361008759588003,-0.0,0.010043714195489883
0.012592749670147896,0.006889001931995153,-0.011239276267588139,0.005055745132267475,-0.0,0.010098475962877274
0.012813101522624493,0.006961977109313011,-0.01097506657242775,0.005037040915340185,-0.0,0.01041834894567728
0.012382788583636284,0.007038319483399391,-0.010978540405631065,0.004794371780008078,-0.0,0.010708973743021488
0.013100700452923775,0.007703723385930061,-0.011330961249768734,0.00477004935964942,-0.0,0.010277016088366508
0.013100700452923775,0.007703723385930061,-0.011330961249768734,0.00477004935964942,-0.0,0.010277016088366508
0.011990159749984741,0.007509701419621706,-0.010725113563239574,0.005114114377647638,-0.0,0.010325713083148003
0.01266519632190466,0.00687059061601758,-0.01145933847874403,0.005434614606201649,-0.0,0.010237963870167732
0.012183423154056072,0.007236490957438946,-0.011614284478127956,0.0056456164456903934,-0.0,0.010549292899668217
0.012496136128902435,0.007704081945121288,-0.01102529652416706,0.0055588623508811,-0.0,0.01100112684071064
0.012252257205545902,0.006990233436226845,-0.011290200985968113,0.005446788854897022,-0.0,0.011081594042479992
0.012303040362894535,0.006612572818994522,-0.01095307432115078,0.005176027305424213,-0.0,0.01072339154779911
0.01295268815010786,0.006989073008298874,-0.012205572798848152,0.005228091962635517,-0.0,0.01072520762681961
0.012792399153113365,0.007298869080841541,-0.011539675295352936,0.005478464532643557,-0.0,0.010556447319686413
0.01294676586985588,0.0071192034520208836,-0.011206794530153275,0.005208582151681185,-0.0,0.010676535777747631
0.012437917292118073,0.00679803267121315,-0.011865329928696156,0.005101109389215708,-0.0,0.011034528724849224
0.01292584277689457,0.006892040837556124,-0.011513595469295979,0.00508069945499301,-0.0,0.01126787904649973
0.013080875389277935,0.007227729540318251,-0.011341970413923264,0.005005702376365662,-0.0,0.011162836104631424
0.013026650995016098,0.007494338788092136,-0.011804851703345776,0.004916185978800058,-0.0,0.010905556380748749
0.01304838340729475,0.0070952544920146465,-0.011200309731066227,0.0048514134250581264,-0.0,0.010532953776419163
0.01309798751026392,0.007432328537106514,-0.011738144792616367,0.005250425077974796,-0.0,0.010903331451117992
0.013468286953866482,0.007920817472040653,-0.011452331207692623,0.005287242587655783,-0.0,0.010785701684653759
0.013360763899981976,0.007328033447265625,-0.012191865593194962,0.004691302310675383,-0.0,0.011307304725050926
0.012844385579228401,0.006803841795772314,-0.011694001965224743,0.004932624753564596,-0.0,0.011605994775891304
0.013024849817156792,0.00728959683328867,-0.012201467528939247,0.005377987399697304,-0.0,0.011569705791771412
0.012830597348511219,0.007309482432901859,-0.01216461043804884,0.005658124573528767,-0.0,0.01128464750945568
0.013080543838441372,0.0070528858341276646,-0.012361662462353706,0.0053321500308811665,-0.0,0.011171720921993256
0.013080543838441372,0.0070528858341276646,-0.012361662462353706,0.0053321500308811665,-0.0,0.011171720921993256
0.013041283003985882,0.006985317915678024,-0.01203768327832222,0.004911602940410376,-0.0,0.01137600652873516
0.013041283003985882,0.006985317915678024,-0.01203768327832222,0.004911602940410376,-0.0,0.01137600652873516
0.013395694084465504,0.007050138898193836,-0.012568563222885132,0.004641506355255842,-0.0,0.01138154324144125
0.013193458318710327,0.007110639475286007,-0.011868181638419628,0.004778043366968632,-0.0,0.011798664927482605
0.01366869080811739,0.007146868389099836,-0.012313099578022957,0.005518739111721516,-0.0,0.011401776224374771
0.013432009145617485,0.007113474886864424,-0.012250013649463654,0.005160531960427761,-0.0,0.011808187700808048
0.01371711678802967,0.007331032771617174,-0.012676162645220757,0.004924762528389692,-8.631042192064342e-07,0.011886018328368664
0.012995096854865551,0.00728177186101675,-0.012636303901672363,0.004810798913240433,-5.6354537036895636e-08,0.011745505034923553
0.013730994425714016,0.00727655878290534,-0.01217056717723608,0.004928765818476677,-3.6795488878027527e-09,0.01174850296229124
0.013530129566788673,0.00725205335766077,-0.012441231869161129,0.005326001904904842,-2.402482379704196e-10,0.01259111613035202
0.01378957461565733,0.00726327346637845,-0.011729125864803791,0.005605708342045546,-1.5686493770594723e-11,0.011427361518144608
0.013176639564335346,0.007220008410513401,-0.012864082120358944,0.00541294552385807,-1.0242158683670954e-12,0.01089166384190321
0.013688079081475735,0.00741615379229188,-0.012307497672736645,0.005488863214850426,-6.687398302219344e-14,0.011145476251840591
0.013588075526058674,0.007068163249641657,-0.012538587674498558,0.005418590269982815,-4.366393009690769e-15,0.011565940454602242
0.013671943917870522,0.007407177705317736,-0.012542957440018654,0.005918014328926802,-2.850942699775136e-16,0.012033495120704174
0.013589594513177872,0.007520158309489489,-0.012351385317742825,0.005712550599128008,-1.861461773326467e-17,0.011933265253901482
0.013683394528925419,0.006643206346780062,-0.01264718733727932,0.005767445545643568,-1.2154014962376933e-18,0.012108505703508854
0.013544771820306778,0.006652805954217911,-0.01253189891576767,0.0054611400701105595,-7.935703255604375e-20,0.01228161808103323
0.013820608146488667,0.007217354141175747,-0.012894337996840477,0.005388361401855946,-5.181447644025445e-21,0.012135252356529236
0.013838348910212517,0.007065769284963608,-0.012634418904781342,0.0053934743627905846,-0.00016813064576126635,0.011995963752269745
0.013767722062766552,0.00687441136687994,-0.012935508973896503,0.0051092104986310005,-0.0003867782943416387,0.012110576033592224
0.013716662302613258,0.0065819029696285725,-0.012652846053242683,0.005189868621528149,-0.00041824925574474037,0.012573101557791233
0.014028306119143963,0.006545135285705328,-0.013241692446172237,0.005348807666450739,-0.0007094582542777061,0.01224508136510849
0.013746049255132675,0.006673845462501049,-0.012556750327348709,0.005301619414240122,-0.0009933356195688248,0.011727266944944859
0.013994953595101833,0.006437505129724741,-0.012872220017015934,0.005343033466488123,-0.0009949031518772244,0.011586296372115612
0.013529911637306213,0.0070740352384746075,-0.012442267499864101,0.005614202935248613,-0.0009827502071857452,0.012340142391622066
0.0143140759319067,0.006828966550529003,-0.013084289617836475,0.00580076826736331,-0.0010009815450757742,0.012583586387336254
0.013532742857933044,0.006218745373189449,-0.012633238919079304,0.005345650017261505,-0.0010974775068461895,0.012412147596478462
0.014137379825115204,0.00659113610163331,-0.012783152051270008,0.005554167553782463,-0.0011101143900305033,0.012320038862526417
0.014137379825115204,0.00659113610163331,-0.012783152051270008,0.005554167553782463,-0.0011101143900305033,0.012320038862526417
0.014356481842696667,0.006553459446877241,-0.012393146753311157,0.005878978408873081,-0.0012817957904189825,0.012425982393324375
0.014356481842696667,0.006553459446877241,-0.012393146753311157,0.005878978408873081,-0.0012817957904189825,0.012425982393324375
0.014174687676131725,0.006571347825229168,-0.013210684061050415,0.0061063398607075214,-0.001222589984536171,0.012413947843015194
0.014593685045838356,0.006668803282082081,-0.012741685844957829,0.006189701613038778,-0.0011235132114961743,0.01246595662087202
0.013872822746634483,0.006734686437994242,-0.013459788635373116,0.0057657514698803425,-0.001189798698760569,0.012818785384297371
0.014704732224345207,0.006272487808018923,-0.01268288865685463,0.0058046262711286545,-0.001099816057831049,0.012869603931903839
0.014227252453565598,0.006575352046638727,-0.013014157302677631,0.006184970494359732,-0.000998162548057735,0.013030481524765491
0.014235970564186573,0.006407417822629213,-0.01329947542399168,0.00628261873498559,-0.0009798100218176842,0.013172009028494358
0.012567010708153248,0.006054141093045473,-0.013356465846300125,0.005900345742702484,-0.0008781587821431458,0.01334716659039259
0.015403172001242638,0.006149403750896454,-0.013083838857710361,0.005750680807977915,-0.0007584313862025738,0.01291025709360838
0.01521312166005373,0.006540804635733366,-0.01308983750641346,0.005812419578433037,-0.0007445798837579787,0.012668751180171967
0.01468469575047493,0.0064698574133217335,-0.013593376614153385,0.006116640288382769,-0.0006793976644985378,0.012648070231080055
0.014230957254767418,0.0062235090881586075,-0.013634724542498589,0.005526283755898476,-0.0006984611973166466,0.012117522768676281
0.014649431221187115,0.00618686992675066,-0.013594851829111576,0.005835720803588629,-0.000677935837302357,0.012647515162825584
0.014298532158136368,0.0061218333430588245,-0.012588249519467354,0.005488918628543615,-0.0006558666937053204,0.012635000981390476
0.014543049037456512,0.006133920978754759,-0.013109738007187843,0.005914666689932346,-0.0005670150858350098,0.012647720985114574
0.014893770217895508,0.005893504712730646,-0.01378853339701891,0.006281252019107342,-0.0005531429778784513,0.013062821701169014
0.01486232876777649,0.006177335046231747,-0.013449287973344326,0.005683791358023882,-0.0005412987084127963,0.01344600785523653
0.01496895495802164,0.006283003371208906,-0.013780992478132248,0.005874983035027981,-0.0004945445107296109,0.01332800928503275
0.014454652555286884,0.006358294747769833,-0.013034568168222904,0.005998407956212759,-0.0004897137987427413,0.013190689496695995
0.014454652555286884,0.006358294747769833,-0.013034568168222904,0.005998407956212759,-0.0004897137987427413,0.013190689496695995
0.014390724711120129,0.006488497368991375,-0.013607771135866642,0.0066291047260165215,-0.00045251683332026005,0.013356518931686878
0.014390724711120129,0.006488497368991375,-0.013607771135866642,0.0066291047260165215,-0.00045251683332026005,0.013356518931686878
0.014968707226216793,0.0065720523707568645,-0.013326144777238369,0.0063452282920479774,-0.00042230644612573087,0.013270941562950611
0.014723592437803745,0.006123015657067299,-0.013131539337337017,0.006250197999179363,-0.00044837070163339376,0.013362637721002102
0.015053026378154755,0.0064568654634058475,-0.013410747982561588,0.00624154694378376,-0.0004253064398653805,0.013215107843279839
0.015200711786746979,0.006252862047404051,-0.013875971548259258,0.006706244312226772,-0.00040378214907832444,0.014357217587530613
0.015124162659049034,0.006195174064487219,-0.01366392057389021,0.006669783499091864,-0.0003749538736883551,0.013173575513064861
0.015280374325811863,0.006132449023425579,-0.013784116134047508,0.006250317674130201,-0.00040616863407194614,0.012585987336933613
0.015134063549339771,0.00611770898103714,-0.01310545764863491,0.006031893193721771,-0.0004165522113908082,0.012524831108748913
0.01507334690541029,0.006188911851495504,-0.012807012535631657,0.006400097627192736,-0.0004180261166766286,0.013034122064709663
0.015191800892353058,0.006063494365662336,-0.012225531041622162,0.006743662524968386,-0.0004352250834926963,0.013351364992558956
0.015335356816649437,0.006268060300499201,-0.013055252842605114,0.006645749788731337,-0.00042272795690223575,0.012945017777383327
0.015054631978273392,0.006055581849068403,-0.013337572105228901,0.006352330092340708,-0.00040201126830652356,0.013330389745533466
0.015676205977797508,0.006160482298582792,-0.013345184735953808,0.005966976284980774,-0.0005469421739690006,0.013266955502331257
0.015597280114889145,0.006540228612720966,-0.012808937579393387,0.006562255322933197,-0.0004990100860595703,0.013749634847044945
0.0160178504884243,0.00618097884580493,-0.012579578906297684,0.007499787025153637,-0.0004932209267280996,0.013869281858205795
0.016237441450357437,0.00632986705750227,-0.013050145469605923,0.0072002834640443325,-0.0004877552855759859,0.014310804195702076
0.016744667664170265,0.005999991204589605,-0.012685557827353477,0.006579590495675802,-0.00044967301073484123,0.014146072790026665
0.016776887699961662,0.006423928774893284,-0.013154354877769947,0.0066305361688137054,-0.0004152344190515578,0.013986659236252308
0.016720613464713097,0.006260574329644442,-0.013142610900104046,0.007371373474597931,-0.0004192654159851372,0.01430768147110939
0.016384903341531754,0.006415019743144512,-0.01273166574537754,0.006876593921333551,-0.0004349530499894172,0.014223086647689342
0.016885070130228996,0.006281529553234577,-0.01321544498205185,0.007109898142516613,-0.0004223888390697539,0.014215816743671894
0.016885070130228996,0.006281529553234577,-0.01321544498205185,0.007109898142516613,-0.0004223888390697539,0.014215816743671894
0.016964135691523552,0.0067561618052423,-0.01283514965325594,0.007685491349548101,-0.00040720237302593887,0.01417545322328806
0.01676703244447708,0.006307500414550304,-0.013365194201469421,0.007555737160146236,-0.0003774422802962363,0.014464178122580051
0.01692289486527443,0.006016718689352274,-0.013048727065324783,0.00707786250859499,-0.00041324488120153546,0.014344236813485622
0.016660962253808975,0.006185317412018776,-0.012815611436963081,0.006813775282353163,-0.0004353365511633456,0.014172669500112534
0.017239423468708992,0.006855170242488384,-0.01338992640376091,0.0073614828288555145,-0.00045060270349495113,0.014299963600933552
0.017079301178455353,0.006762390024960041,-0.01286327838897705,0.006484434939920902,-0.0004503166419453919,0.014240882359445095
0.017303211614489555,0.006139006465673447,-0.013616384007036686,0.007416208274662495,-0.0006683955434709787,0.014154713600873947
0.017174100503325462,0.006165510509163141,-0.013287097215652466,0.00755168916657567,-0.0007037815521471202,0.014547869563102722
0.016920365393161774,0.005956323817372322,-0.013827250339090824,0.008117257617413998,-0.0007277912809513509,0.014731322415173054
0.01723487861454487,0.0063890437595546246,-0.013211156241595745,0.008188242092728615,-0.0007222614949569106,0.015216154977679253
0.017643257975578308,0.0064011551439762115,-0.014320616610348225,0.007432439364492893,-0.0006958957528695464,0.01469112653285265
0.017831653356552124,0.005701809655874968,-0.013659229502081871,0.007684806827455759,-0.0007879435434006155,0.014704584144055843
0.017503123730421066,0.0060194688849151134,-0.014023362658917904,0.007893219590187073,-0.0008085928275249898,0.014432283118367195
0.01727708987891674,0.006088252179324627,-0.013268094509840012,0.007976667955517769,-0.0008127109613269567,0.014105571433901787
0.017950909212231636,0.007084625773131847,-0.013474121689796448,0.007721795700490475,-0.0008223509066738188,0.014118467457592487
0.017799103632569313,0.006073330994695425,-0.013955483213067055,0.007882166653871536,-0.0008846975979395211,0.014223868027329445
0.017664801329374313,0.005787264555692673,-0.014501824043691158,0.00833945907652378,-0.0010013385908678174,0.014336696825921535
0.01778581738471985,0.006003166548907757,-0.014387430623173714,0.00795003678649664,-0.0010273531079292297,0.014457205310463905
0.01759297028183937,0.006366143003106117,-0.014313124120235443,0.007038405630737543,-0.0011003543622791767,0.014893559738993645
0.01787620224058628,0.006947840563952923,-0.013725603930652142,0.007235376629978418,-0.001190508482977748,0.01506646815687418
0.017482539638876915,0.006790681276470423,-0.013852176256477833,0.008085588924586773,-0.0012774295173585415,0.014408114366233349
0.018012015148997307,0.006567944306880236,-0.014566791243851185,0.007873063907027245,-0.0012314777122810483,0.014447573572397232
0.01775004155933857,0.006449681241065264,-0.014810432679951191,0.0078112417832016945,-0.0008664160850457847,0.014800803735852242
0.01775004155933857,0.006449681241065264,-0.014810432679951191,0.0078112417832016945,-0.0008664160850457847,0.014800803735852242
0.016691366210579872,0.0063342503271996975,-0.0141037218272686,0.007853901945054531,-0.0008312549325637519,0.015223521739244461
0.018610088154673576,0.0060622962191700935,-0.0142367547377944,0.008202374912798405,-0.00074751180363819,0.015035544522106647
0.018343117088079453,0.006198859307914972,-0.014446718618273735,0.007664622738957405,-0.0005867284489795566,0.014366223476827145
0.01832594908773899,0.007235058583319187,-0.01362418383359909,0.00791176501661539,-0.0005291567649692297,0.014262297190725803
0.01832594908773899,0.007235058583319187,-0.01362418383359909,0.00791176501661539,-0.0005291567649692297,0.014262297190725803
0.01802881620824337,0.006510945037007332,-0.0139778982847929,0.0075516547076404095,-0.00048187398351728916,0.014598366804420948
0.018692059442400932,0.006266375537961721,-0.013923805207014084,0.0077910409308969975,-0.0005108390469104052,0.015314428135752678
0.017976734787225723,0.006572273559868336,-0.014268768951296806,0.008307164534926414,-0.0004766330821439624,0.014610767364501953
0.017594153061509132,0.006466187536716461,-0.014087953604757786,0.008386616595089436,-0.0004433609719853848,0.01442852895706892
0.017966078594326973,0.006453061010688543,-0.014155801385641098,0.008473945781588554,-0.0004142115358263254,0.015325484797358513
0.0179936271160841,0.006455949507653713,-0.013731885701417923,0.008629241958260536,-0.0003886448685079813,0.015180893242359161
0.018776878714561462,0.006597475148737431,-0.014400103129446507,0.00881047174334526,-0.00036605403875000775,0.015225491486489773
0.018404927104711533,0.006235557608306408,-0.01359101478010416,0.008325326256453991,-0.00034594477619975805,0.01473029050976038
0.01776336506009102,0.006572621874511242,-0.013943927362561226,0.00814745295792818,-0.000327930087223649,0.014797786250710487
0.018504997715353966,0.0068612005561590195,-0.013524758629500866,0.008961568586528301,-0.0003117008600383997,0.014780592173337936
0.01862681470811367,0.00632268562912941,-0.01456106174737215,0.008296793326735497,-0.00029700095183216035,0.015225710347294807
0.01895565167069435,0.006372595671564341,-0.013806321658194065,0.007797180209308863,-0.0002836277708411217,0.015160485170781612
0.01844188943505287,0.006458459887653589,-0.014123295433819294,0.0077728694304823875,-0.0003075320564676076,0.015589049085974693
0.018149347975850105,0.006690990645438433,-0.013632548041641712,0.008668565191328526,-0.0002971925132442266,0.015710055828094482
0.01863020658493042,0.006825094111263752,-0.014562182128429413,0.008485052734613419,-0.00028555700555443764,0.015675803646445274
0.01846730336546898,0.006857625208795071,-0.014039025641977787,0.008113128133118153,-0.00027467202744446695,0.01582944579422474
0.01871870644390583,0.0062623461708426476,-0.014715579338371754,0.008439525961875916,-0.0002645771310199052,0.01548136305063963
0.019005954265594482,0.006588362157344818,-0.014422658830881119,0.008432825095951557,-0.0002464618592057377,0.015514986589550972
0.01911422237753868,0.006359696388244629,-0.013820115476846695,0.008502954617142677,-0.00023830309510231018,0.01594415307044983
0.018890751525759697,0.006156561430543661,-0.014232841320335865,0.009087358601391315,-0.00023066815629135817,0.015632569789886475
0.018890751525759697,0.006156561430543661,-0.014232841320335865,0.009087358601391315,-0.00023066815629135817,0.015632569789886475
0.01895255595445633,0.006547118071466684,-0.013795636594295502,0.00834241509437561,-0.00016417834558524191,0.015897240489721298
0.018769778311252594,0.006840807851403952,-0.014701906591653824,0.008532761596143246,-0.00015057987184263766,0.015757733955979347
0.01917176879942417,0.006449728272855282,-0.014067019335925579,0.009190392680466175,-0.00014519110845867544,0.015776483342051506
0.0192443635314703,0.006268691271543503,-0.014326187781989574,0.008695309981703758,-0.00014061912952456623,0.015892671421170235
0.018764548003673553,0.006121062207967043,-0.013984140940010548,0.008301415480673313,-0.00013635553477797657,0.016401106491684914
0.019350318238139153,0.00614504050463438,-0.01476941630244255,0.00854474026709795,-0.00013234450307209045,0.016919704154133797
0.019247232005000114,0.006465116515755653,-0.014237788505852222,0.008913527242839336,-0.00012856344983447343,0.016337770968675613
0.01896936632692814,0.0064674546010792255,-0.014700201340019703,0.009146664291620255,-0.00012499206059146672,0.01629634201526642
0.01962682604789734,0.006538799032568932,-0.013854900375008583,0.009042492136359215,-0.0001335577544523403,0.016510065644979477
0.01930444873869419,0.006183057092130184,-0.014568576589226723,0.009379702620208263,-0.00014128783368505538,0.016596633940935135
0.018835702911019325,0.006407647859305143,-0.014375473372638226,0.008865035139024258,-0.0001384001225233078,0.016146590933203697
0.01933775283396244,0.006754076573997736,-0.014923716895282269,0.008631383068859577,-0.0001349879748886451,0.016267351806163788
0.01959931291639805,0.006602935492992401,-0.014354600571095943,0.00916371401399374,-0.00013169874728191644,0.01677713729441166
0.01944466307759285,0.006193480454385281,-0.014661184512078762,0.008995607495307922,-0.00012856362445745617,0.016747210174798965
0.019981134682893753,0.006203567609190941,-0.013986646197736263,0.0091755585744977,-0.00012557374429889023,0.016771923750638962
0.020016536116600037,0.006454172544181347,-0.014864031225442886,0.009235138073563576,-0.00012271985178813338,0.016691112890839577
0.01955912448465824,0.00558454031124711,-0.014039143919944763,0.009625921957194805,-0.00013865585788153112,0.016576942056417465
0.01989571377635002,0.005321712698787451,-0.014437057077884674,0.009420845657587051,-0.00013686134479939938,0.016489200294017792
0.020907938480377197,0.0056227995082736015,-0.014484441839158535,0.009467189200222492,-0.0001340289891231805,0.016537679359316826
0.02013518288731575,0.005949951708316803,-0.015153967775404453,0.010017577558755875,-0.00013124178803991526,0.01723768375813961
0.020052777603268623,0.005495139863342047,-0.0144621841609478,0.00960842426866293,-0.00012856413377448916,0.017254183068871498
0.020277108997106552,0.005870706867426634,-0.015088031999766827,0.00955680850893259,-0.0001427926035830751,0.01731167733669281
0.019996467977762222,0.005858731921762228,-0.01541147381067276,0.008962729014456272,-0.00013844866771250963,0.01718682050704956
0.020177816972136497,0.005450108088552952,-0.014609561301767826,0.009924142621457577,-0.00013614144700113684,0.01740669459104538
0.020378869026899338,0.005575455259531736,-0.014964882284402847,0.009779173880815506,-0.00017301183834206313,0.016956452280282974
0.021055439487099648,0.005843330640345812,-0.014132436364889145,0.008660197257995605,-0.00016925543604884297,0.01726878061890602
0.020504070445895195,0.005253019742667675,-0.015249092131853104,0.008774690330028534,-0.0001632928615435958,0.017752554267644882
0.020504070445895195,0.005253019742667675,-0.015249092131853104,0.008774690330028534,-0.0001632928615435958,0.017752554267644882
0.021216535940766335,0.005713129881769419,-0.015102720819413662,0.009832043200731277,-0.00015758514928165823,0.017786022275686264
0.020619960501790047,0.005513948388397694,-0.01570691168308258,0.009616704657673836,-0.00015225322567857802,0.017713239416480064
0.019347157329320908,0.005374034866690636,-0.015419421717524529,0.009467543102800846,-0.000147270446177572,0.017613830044865608
0.020697420462965965,0.005505054257810116,-0.01527074258774519,0.009965512901544571,-0.00014260293391998857,0.017754415050148964
0.02106509357690811,0.00563177140429616,-0.015475006774067879,0.009796423837542534,-0.0001382222690153867,0.017828578129410744
0.020860757678747177,0.005076212342828512,-0.015590178780257702,0.009648609906435013,-0.00015911833907011896,0.016909252852201462
0.020334048196673393,0.0048063891008496284,-0.015879007056355476,0.009814601391553879,-0.00015614810399711132,0.01755867339670658
0.021071769297122955,0.0049467612989246845,-0.015535417944192886,0.009728880599141121,-0.00015186413656920195,0.01802581548690796
0.02133781835436821,0.005085362587124109,-0.015605525113642216,0.009675308130681515,-0.000147715923958458,0.01843126118183136
0.02163737453520298,0.005704151000827551,-0.015239883214235306,0.00999743863940239,-0.00016613891057204455,0.018589166924357414
0.02121908776462078,0.005345240700989962,-0.016130413860082626,0.009640363045036793,-0.00016329094069078565,0.01793261058628559
0.02211267128586769,0.004822213668376207,-0.01516937930136919,0.009224455803632736,-0.00015925796469673514,0.017275076359510422
0.021318936720490456,0.00475951936095953,-0.015344181098043919,0.009769308380782604,-0.00015533737314399332,0.016965169459581375
0.02141690067946911,0.004980395548045635,-0.014775802381336689,0.009780311025679111,-0.0001704076858004555,0.017667504027485847
0.0216570682823658,0.004910212475806475,-0.015453042462468147,0.009749955497682095,-0.0001689992204774171,0.01878504455089569
0.02240191027522087,0.005182364024221897,-0.015648826956748962,0.010200845077633858,-0.0001652894716244191,0.018937332555651665
0.022344056516885757,0.00553041510283947,-0.015717685222625732,0.01039155013859272,-0.0001615908113308251,0.01869443990290165
0.02179167978465557,0.005049744620919228,-0.015446252189576626,0.010758443735539913,-0.00015804381109774113,0.018708353862166405
0.02199314348399639,0.005293612368404865,-0.015432847663760185,0.011172275990247726,-0.00019770451763179153,0.01871548593044281
0.022541560232639313,0.005288113374263048,-0.015797678381204605,0.010341063141822815,-0.00019539175264071673,0.019649378955364227
0.02226598933339119,0.005122627131640911,-0.015514418482780457,0.010017338208854198,-0.000187653538887389,0.0196546521037817
0.021876342594623566,0.005600249860435724,-0.01527574472129345,0.010214531794190407,-0.00020771726849488914,0.01844244822859764
0.022191541269421577,0.0055163949728012085,-0.01583077572286129,0.010098365135490894,-0.00021650048438459635,0.018264232203364372
0.02219342067837715,0.005127489101141691,-0.015444250777363777,0.01048591360449791,-0.00022407103097066283,0.018364837393164635
0.022900104522705078,0.005384562071412802,-0.015894096344709396,0.009750855155289173,-0.00021733845642302185,0.018935807049274445
0.02260957844555378,0.005322346463799477,-0.015320372767746449,0.010109764523804188,-0.0002381481317570433,0.01936846226453781
0.022752583026885986,0.005799907725304365,-0.015520178712904453,0.010749539360404015,-0.00023229261569213122,0.019166845828294754
0.022752583026885986,0.005799907725304365,-0.015520178712904453,0.010749539360404015,-0.00023229261569213122,0.019166845828294754
0.023064859211444855,0.005180030595511198,-0.01513365563005209,0.010427797213196754,-0.00032055960036814213,0.019217360764741898
0.022709257900714874,0.004827781580388546,-0.01567087322473526,0.010700522921979427,-0.00038241324364207685,0.019351838156580925
0.0229476485401392,0.005103651434183121,-0.015950119122862816,0.010647138580679893,-0.00039253104478120804,0.019246311858296394
0.02324717678129673,0.0053343395702540874,-0.015736481174826622,0.010209900327026844,-0.00039576765266247094,0.019355714321136475
0.02314656786620617,0.005669133272022009,-0.015968848019838333,0.010646221227943897,-0.00037068527308292687,0.01946124993264675
0.023424021899700165,0.0052397181279957294,-0.015324651263654232,0.010190007276833057,-0.00038954862975515425,0.019200799986720085
0.023560013622045517,0.005786003079265356,-0.016053956001996994,0.010711251758038998,-0.0003793782670982182,0.019404888153076172
0.023508992046117783,0.00549720786511898,-0.015508487820625305,0.010924236848950386,-0.00040297445957548916,0.019981596618890762
0.023640993982553482,0.005860297475010157,-0.016111213713884354,0.010968416929244995,-0.00038924836553633213,0.01932137832045555
0.023707443848252296,0.0055329990573227406,-0.01551217120140791,0.011193080805242062,-0.0004810249083675444,0.019320663064718246
0.023849954828619957,0.0058374302461743355,-0.016219671815633774,0.011039895936846733,-0.0005072656786069274,0.019490497186779976
0.024164676666259766,0.005435829050838947,-0.016025099903345108,0.010897384025156498,-0.0004824592615477741,0.019712967798113823
0.02407640591263771,0.0057491110637784,-0.015846647322177887,0.011302473954856396,-0.0005128620541654527,0.01962788589298725
0.023943327367305756,0.005436283070594072,-0.016178123652935028,0.01061215065419674,-0.0005286920932121575,0.019743822515010834
0.024171344935894012,0.005720154847949743,-0.015995901077985764,0.010933980345726013,-0.0005073256907053292,0.02011225000023842
0.023922136053442955,0.005867513827979565,-0.016587967053055763,0.01146587636321783,-0.0006219971692189574,0.020055729895830154
0.024081237614154816,0.0054806871339678764,-0.015463576652109623,0.011016052216291428,-0.0006723976111970842,0.019755087792873383
0.025080598890781403,0.005455579608678818,-0.016119439154863358,0.011665061116218567,-0.0006921189487911761,0.01987414062023163
0.02492261491715908,0.006114272866398096,-0.015789909288287163,0.011664140038192272,-0.0007009842665866017,0.01982320472598076
0.024744784459471703,0.005638508591800928,-0.015906954184174538,0.011404580436646938,-0.000797522603534162,0.02005237713456154
0.024391235783696175,0.005766760092228651,-0.01593947596848011,0.01118328794836998,-0.0009272408206015825,0.020188407972455025
0.02507323957979679,0.005756579805165529,-0.016305867582559586,0.010774966329336166,-0.0009127965313382447,0.01985917240381241
0.026151562109589577,0.005287437234073877,-0.01601210981607437,0.011253529228270054,-0.000839466811157763,0.0199788399040699
0.025451239198446274,0.005806452129036188,-0.016397036612033844,0.011109871789813042,-0.0009402930154465139,0.02004888281226158
0.023438123986124992,0.0056212833151221275,-0.015622769482433796,0.01175032276660204,-0.0008707542438060045,0.02063239924609661
0.02528642863035202,0.005788200069218874,-0.01633554883301258,0.011391176842153072,-0.0008704638457857072,0.020960278809070587
0.02621704712510109,0.005468726623803377,-0.016300521790981293,0.011366145685315132,-0.0008662382024340332,0.020900940522551537
0.02621704712510109,0.005468726623803377,-0.016300521790981293,0.011366145685315132,-0.0008662382024340332,0.020900940522551537
0.025817058980464935,0.005892464891076088,-0.016490129753947258,0.01171429455280304,-0.0007849631947465241,0.019809899851679802
0.0251692496240139,0.005717217456549406,-0.016598151996731758,0.01139971986413002,-0.0007444342481903732,0.01962151564657688
0.025900322943925858,0.005825650412589312,-0.016345931217074394,0.011967399157583714,-0.0006543515482917428,0.019738128408789635
0.026255551725625992,0.0061027295887470245,-0.01661457121372223,0.011475590988993645,-0.0006780298426747322,0.01968630589544773
0.02621685154736042,0.005385992582887411,-0.016174379736185074,0.011735456064343452,-0.0006956837023608387,0.020669758319854736
0.02569565922021866,0.005937380250543356,-0.016991818323731422,0.011640588752925396,-0.0007159229717217386,0.020888052880764008
0.025581857189536095,0.005575931165367365,-0.016522975638508797,0.011753277853131294,-0.0007453500875271857,0.020307505503296852
0.02616068907082081,0.005877144169062376,-0.016620663926005363,0.012753496877849102,-0.0007105810800567269,0.020636502653360367
0.026773063465952873,0.005953049752861261,-0.016936568543314934,0.011958003975450993,-0.0007079826318658888,0.02139096148312092
0.026479357853531837,0.006018693093210459,-0.016769399866461754,0.012384851463139057,-0.0006502177566289902,0.021548720076680183
0.02649114653468132,0.005883820354938507,-0.01782875694334507,0.012632299214601517,-0.0005818597855977714,0.021203603595495224
0.025983300060033798,0.005866152234375477,-0.01695629209280014,0.012289303354918957,-0.0006065047346055508,0.02063317410647869
0.026683345437049866,0.006254707928746939,-0.017074178904294968,0.012712124735116959,-0.0005580398137681186,0.020193008705973625
0.02614646777510643,0.005858532153069973,-0.017251621931791306,0.012193414382636547,-0.0005761056090705097,0.02056744135916233
0.02621065266430378,0.005833255127072334,-0.01675136759877205,0.012570791877806187,-0.000541382294613868,0.02116345800459385
0.02618483453989029,0.005614003166556358,-0.017076581716537476,0.01232231967151165,-0.0005040241521783173,0.02195810154080391
0.026550831273198128,0.006114252842962742,-0.016493314877152443,0.012378532439470291,-0.00047106490819714963,0.022101208567619324
0.02666817605495453,0.0055854893289506435,-0.017696630209684372,0.012394187040627003,-0.00044212592183612287,0.02169189415872097
0.026605114340782166,0.005980394780635834,-0.017322149127721786,0.012481680139899254,-0.0003814306983258575,0.021214239299297333
0.026895824819803238,0.0057935090735554695,-0.016835089772939682,0.012746919877827168,-0.0003430723154451698,0.021448777988553047
0.027141114696860313,0.005695824511349201,-0.01785246469080448,0.012350153177976608,-0.00031818714342080057,0.021664660423994064
0.027027379721403122,0.006074243690818548,-0.016994157806038857,0.012712393887341022,-0.0002971245558001101,0.021848706528544426
0.027302056550979614,0.005627986043691635,-0.017361057922244072,0.012218003161251545,-0.0002787092234939337,0.02163483388721943
0.027013126760721207,0.006455753929913044,-0.01757974922657013,0.012776235118508339,-0.0002624461776576936,0.021658511832356453
0.02686447463929653,0.0059164357371628284,-0.01732814498245716,0.012403254397213459,-0.0002908914757426828,0.02170482464134693
0.027754317969083786,0.0054632024839520454,-0.01707281731069088,0.012820778414607048,-0.00028979944181628525,0.02199399657547474
0.027975788339972496,0.005917889531701803,-0.01922176033258438,0.012417476624250412,-0.0002964084269478917,0.022265901789069176
0.02801971323788166,0.0063109127804636955,-0.017116308212280273,0.012961040250957012,-0.00030421026167459786,0.02234359085559845
0.02734682522714138,0.005874317605048418,-0.01689276657998562,0.012652759440243244,-0.0003096750588156283,0.02191953919827938
0.026225514709949493,0.005600947421044111,-0.017881808802485466,0.013096870854496956,-0.0003477114369161427,0.02203322947025299
0.026899652555584908,0.005199496168643236,-0.016887139528989792,0.012748883105814457,-0.00038860796485096216,0.021655533462762833
0.02812497690320015,0.00601149769499898,-0.016884637996554375,0.013166031800210476,-0.0003780369006562978,0.02167396806180477
0.02812497690320015,0.00601149769499898,-0.016884637996554375,0.013166031800210476,-0.0003780369006562978,0.02167396806180477
0.02759016677737236,0.006194631103426218,-0.017494715750217438,0.013006623834371567,-0.0004092472663614899,0.022268885746598244
0.02745012752711773,0.006258675828576088,-0.017246663570404053,0.012888024561107159,-0.0004285185132175684,0.022054200991988182
0.028506508097052574,0.005535560194402933,-0.017735272645950317,0.012948345392942429,-0.0006092144758440554,0.0217643603682518
0.0281332079321146,0.005753581412136555,-0.017374791204929352,0.01275483425706625,-0.0006940466701053083,0.022197967395186424
0.0279255174100399,0.005516507662832737,-0.01765822246670723,0.01291974913328886,-0.0007246417226269841,0.022616954520344734
0.027665402740240097,0.006079698447138071,-0.018005456775426865,0.012920644134283066,-0.0007384662749245763,0.02230905368924141
0.027677562087774277,0.0063478983938694,-0.017577100545167923,0.0133525300770998,-0.0007188061717897654,0.02223156951367855
0.027956288307905197,0.0056229461915791035,-0.017780182883143425,0.013170060701668262,-0.0006920411833561957,0.022294742986559868
0.028196655213832855,0.005892693996429443,-0.017723076045513153,0.013411205261945724,-0.0007102448143996298,0.022569533437490463
0.028433820232748985,0.005412004422396421,-0.018236825242638588,0.013033311814069748,-0.0007328119827434421,0.022726530209183693
0.02840367890894413,0.005022511817514896,-0.01843341253697872,0.013615443371236324,-0.0007254923693835735,0.02241073176264763
0.028339970856904984,0.0050709727220237255,-0.017458956688642502,0.013143781572580338,-0.0006951384129934013,0.022428276017308235
0.02814100682735443,0.004950243514031172,-0.018266325816512108,0.013150271959602833,-0.000713313405867666,0.022465743124485016
0.02874165028333664,0.004711444023996592,-0.018117327243089676,0.012887408956885338,-0.000913511379621923,0.022661833092570305
0.028802763670682907,0.0046953740529716015,-0.01755380444228649,0.013151257298886776,-0.0009584490908309817,0.02262777090072632
0.028909949585795403,0.004744396544992924,-0.01816084422171116,0.01341678574681282,-0.0009227726841345429,0.022548992186784744
0.02885391004383564,0.004966420121490955,-0.01766164042055607,0.013375264592468739,-0.0008719770121388137,0.022617651149630547
0.029077637940645218,0.005026353523135185,-0.01788463443517685,0.013892188668251038,-0.000927229761146009,0.023001892492175102
0.029340140521526337,0.00517183355987072,-0.01852610521018505,0.01385727059096098,-0.0009255490149371326,0.02353302761912346
0.029340140521526337,0.00517183355987072,-0.01852610521018505,0.01385727059096098,-0.0009255490149371326,0.02353302761912346
0.027374446392059326,0.0045847524888813496,-0.01790453866124153,0.013466265983879566,-0.0008097868412733078,0.02316170558333397
0.02986566536128521,0.004934863653033972,-0.018304258584976196,0.013826402835547924,-0.0008143170853145421,0.02254175953567028
0.029719239100813866,0.004903186112642288,-0.01801847293972969,0.013607471249997616,-0.0007594492053613067,0.022526925429701805
0.029042281210422516,0.004908554255962372,-0.018154636025428772,0.014449193142354488,-0.00075234827818349,0.022921746596693993
0.029033826664090157,0.005077290814369917,-0.017921049147844315,0.01409283746033907,-0.0006860208231955767,0.023611389100551605
0.029557500034570694,0.004993637558072805,-0.01823240891098976,0.014377138577401638,-0.0007045285892672837,0.023187490180134773
0.029392695054411888,0.00438469834625721,-0.0183902345597744,0.013815019279718399,-0.0007239787955768406,0.02357117086648941
0.029696669429540634,0.004596027545630932,-0.017882686108350754,0.013728366233408451,-0.0007923392695374787,0.024159898981451988
0.029696669429540634,0.004596027545630932,-0.017882686108350754,0.013728366233408451,-0.0007923392695374787,0.024159898981451988
0.029881909489631653,0.004748103674501181,-0.01860545389354229,0.01422964595258236,-0.0007185684517025948,0.023557983338832855
0.029468560591340065,0.0048476834781467915,-0.018178554251790047,0.01384806726127863,-0.00072685960913077,0.022296220064163208
0.02972419001162052,0.005032165441662073,-0.018696654587984085,0.014195299707353115,-0.0007319721044041216,0.023471063002943993
0.029941435903310776,0.0048289536498487,-0.017838241532444954,0.014139728620648384,-0.0006844100425951183,0.024008745327591896
0.029993118718266487,0.004735282622277737,-0.018097946420311928,0.014890909194946289,-0.0006749870954081416,0.02436717227101326
0.029878737404942513,0.004482645075768232,-0.01787886954843998,0.014684627763926983,-0.0006823809817433357,0.023979706689715385
0.02973967045545578,0.004505256190896034,-0.017247874289751053,0.014643990434706211,-0.0006297295913100243,0.023609397932887077
0.03012894093990326,0.005107692442834377,-0.01806335337460041,0.01407835353165865,-0.0005654592532664537,0.023640180006623268
0.030413541942834854,0.005065887235105038,-0.018190978094935417,0.014235831797122955,-0.0005910580512136221,0.023899666965007782
0.0310091283172369,0.0045429980382323265,-0.018255604431033134,0.013977553695440292,-0.0005450505414046347,0.02407706156373024
0.03064752370119095,0.004391574300825596,-0.018424922600388527,0.01480783335864544,-0.0005366435507312417,0.024433474987745285
0.029247727245092392,0.00491494731977582,-0.0177536029368639,0.014668752439320087,-0.0005288751563057303,0.02405403181910515
0.03059292398393154,0.004881569650024176,-0.01782943494617939,0.014967802911996841,-0.0004946023691445589,0.023774215951561928
0.031203269958496094,0.004627179820090532,-0.018836645409464836,0.01468880195170641,-0.0004615614016074687,0.02394963800907135
0.031041495501995087,0.005062513519078493,-0.018489623442292213,0.0148261534050107,-0.0004201439442113042,0.024103352800011635
0.03219989687204361,0.005413743667304516,-0.01817278563976288,0.014208006672561169,-0.0004557160136755556,0.023981982842087746
0.03141658380627632,0.00499572791159153,-0.019177183508872986,0.014295093715190887,-0.0004245296586304903,0.024557018652558327
0.030936349183321,0.004738745745271444,-0.017984788864850998,0.013601523824036121,-0.0004548679862637073,0.024611113592982292
0.030344633385539055,0.004804644268006086,-0.018536442890763283,0.013656378723680973,-0.0005698206950910389,0.024269433692097664
0.03121819905936718,0.004874172620475292,-0.01818954385817051,0.014145095832645893,-0.0006890709046274424,0.024072133004665375
0.03121819905936718,0.004874172620475292,-0.01818954385817051,0.014145095832645893,-0.0006890709046274424,0.024072133004665375
0.03039672039449215,0.004643295891582966,-0.018919343128800392,0.014144355431199074,-0.0006411458598449826,0.024329204112291336
0.03109579347074032,0.004533992148935795,-0.018918287009000778,0.014564826153218746,-0.0006574094295501709,0.02446621283888817
0.03146611154079437,0.00459870183840394,-0.01855708844959736,0.014508544467389584,-0.00066883594263345,0.024892650544643402
0.03170675039291382,0.004267802461981773,-0.018948126584291458,0.014839628711342812,-0.0007426833035424352,0.02481781132519245
0.031048350036144257,0.004365804139524698,-0.018737947568297386,0.014687038026750088,-0.0008010822930373251,0.02498149313032627
0.03190769627690315,0.005001391284167767,-0.018582141026854515,0.01486152783036232,-0.000756927183829248,0.024652663618326187
0.03208444267511368,0.004540468566119671,-0.01838906854391098,0.01425850298255682,-0.0007486512186005712,0.024643396958708763
0.03154852241277695,0.004533783532679081,-0.018241405487060547,0.014622330665588379,-0.0006913937977515161,0.024919608607888222
0.03196507319808006,0.004480505362153053,-0.018897363916039467,0.014683662913739681,-0.0007071658619679511,0.025769611820578575
0.031948428601026535,0.004826824646443129,-0.01907019130885601,0.015153594315052032,-0.0007166235591284931,0.025782976299524307
0.031618524342775345,0.0048029860481619835,-0.018485289067029953,0.014838204719126225,-0.0007217818638309836,0.02512219548225403
0.03182079643011093,0.004760000854730606,-0.018954139202833176,0.01547667570412159,-0.0007148374570533633,0.024582451209425926
0.03153131529688835,0.004724656697362661,-0.019016943871974945,0.015008717775344849,-0.0006859692512080073,0.024978119879961014
0.0332232266664505,0.004730301443487406,-0.017965195700526237,0.015256443060934544,-0.0006978668388910592,0.025799471884965897
0.03359996899962425,0.0047544026747345924,-0.018558917567133904,0.014812406152486801,-0.0006510835373774171,0.025123387575149536
0.031692393124103546,0.0047738756984472275,-0.01914200186729431,0.014754989184439182,-0.000674369337502867,0.025236159563064575
0.031859785318374634,0.0046861423179507256,-0.018580736592411995,0.014572711661458015,-0.0006499696173705161,0.02606794238090515
0.03329027444124222,0.005139671266078949,-0.018642835319042206,0.015047629363834858,-0.0006253666942939162,0.026020606979727745
0.03231770545244217,0.0045729815028607845,-0.018872303888201714,0.015025409869849682,-0.0006504611228592694,0.025436853989958763
0.032893359661102295,0.004553916864097118,-0.018596598878502846,0.015268424525856972,-0.0006571142002940178,0.025469861924648285
0.03381241112947464,0.004582063760608435,-0.01890053227543831,0.014947966672480106,-0.0006200651987455785,0.024902645498514175
0.033936526626348495,0.005172009579837322,-0.018468638882040977,0.015026272274553776,-0.0006357866805046797,0.025490345433354378
0.03207973763346672,0.005016293376684189,-0.01850142702460289,0.015251979231834412,-0.0006726534920744598,0.026340944692492485
0.0325559601187706,0.00453196419402957,-0.01890190690755844,0.015279614366590977,-0.0006915397243574262,0.02608948014676571
0.03327415511012077,0.004908787086606026,-0.0183554757386446,0.01536351814866066,-0.0006583567592315376,0.026022713631391525
0.032274164259433746,0.004844059236347675,-0.018585296347737312,0.016071435064077377,-0.0007567809661850333,0.025501595810055733
0.033275701105594635,0.004586359020322561,-0.01792742684483528,0.015878640115261078,-0.0007335536065511405,0.025353897362947464
0.033275701105594635,0.004586359020322561,-0.01792742684483528,0.015878640115261078,-0.0007335536065511405,0.025353897362947464
0.0332760214805603,0.00498333852738142,-0.018431074917316437,0.015800947323441505,-0.0006965346401557326,0.02560715563595295
0.0335579439997673,0.0049451906234025955,-0.018701832741498947,0.014819957315921783,-0.0007159877568483353,0.026240823790431023
0.03359527513384819,0.0048003485426306725,-0.0183390062302351,0.015830205753445625,-0.0006486767088063061,0.026593713089823723
0.033301450312137604,0.004659411497414112,-0.0190174151211977,0.01605912297964096,-0.0006664460524916649,0.02617012709379196
0.0332036167383194,0.00460384227335453,-0.018977344036102295,0.016674526035785675,-0.0006386958411894739,0.026476114988327026
0.03365091606974602,0.004890792537480593,-0.018793970346450806,0.016079064458608627,-0.000613571610301733,0.02617642655968666
0.033976148813962936,0.004734136164188385,-0.019084161147475243,0.01688995212316513,-0.0006012952653691173,0.026764677837491035
0.033976148813962936,0.004734136164188385,-0.019084161147475243,0.01688995212316513,-0.0006012952653691173,0.026764677837491035
0.03410601243376732,0.004874540958553553,-0.018486320972442627,0.016497347503900528,-0.0005859446246176958,0.027109546586871147
0.03361276909708977,0.004913128912448883,-0.01892593502998352,0.01693534106016159,-0.0005384841351769865,0.026565589010715485
0.033716339617967606,0.004745570011436939,-0.019194314256310463,0.015849879011511803,-0.0005620734882541001,0.026897728443145752
0.03291396424174309,0.004498376976698637,-0.019084013998508453,0.015840571373701096,-0.0005253429990261793,0.027189826592803
0.03483066335320473,0.004304319154471159,-0.019396226853132248,0.015611177310347557,-0.0005185184418223798,0.02721208706498146
0.034763675183057785,0.004881449043750763,-0.018897835165262222,0.01589992083609104,-0.0004913905868306756,0.02715943194925785
0.033977389335632324,0.0050111375749111176,-0.01910652592778206,0.016179930418729782,-0.00044470897410064936,0.027329014614224434
0.03387608006596565,0.0048101977445185184,-0.019163675606250763,0.015550424344837666,-0.0004438749165274203,0.0271542277187109
0.03428652882575989,0.00474042072892189,-0.018622661009430885,0.0158389825373888,-0.0004428894317243248,0.027201848104596138
0.034779369831085205,0.004779594950377941,-0.018747815862298012,0.015759756788611412,-0.00044469512067735195,0.02598775178194046
0.034801796078681946,0.0044567477889359,-0.019824393093585968,0.016421571373939514,-0.00044387197704054415,0.027666497975587845
0.03472241014242172,0.0045418692752718925,-0.019862094894051552,0.016067687422037125,-0.00046030254452489316,0.027880480512976646
0.034239623695611954,0.004526752512902021,-0.018548743799328804,0.016538379713892937,-0.00044559311936609447,0.02792089246213436
0.03461039811372757,0.004782677162438631,-0.019458908587694168,0.016588667407631874,-0.00047130315215326846,0.02875456213951111
0.03474241495132446,0.004795472137629986,-0.019255677238106728,0.01654571294784546,-0.0005436721257865429,0.02789720520377159
0.03564807027578354,0.0043145716190338135,-0.0194756668061018,0.016098691150546074,-0.0005539191188290715,0.02684856206178665
0.03509889543056488,0.004400818608701229,-0.019829098135232925,0.01641232706606388,-0.000545831280760467,0.02709178626537323
0.03509889543056488,0.004400818608701229,-0.019829098135232925,0.01641232706606388,-0.000545831280760467,0.02709178626537323
0.03362586721777916,0.004607548005878925,-0.018741201609373093,0.016253124922513962,-0.0007697881083004177,0.02846418507397175
0.03442179039120674,0.004597686231136322,-0.019097451120615005,0.01648375391960144,-0.0008109269547276199,0.02827012725174427
0.03445710614323616,0.004733179695904255,-0.019239598885178566,0.01657012104988098,-0.0008242648327723145,0.02822168730199337
0.03470882400870323,0.004736742470413446,-0.0188625305891037,0.016230162233114243,-0.0007421528571285307,0.029215063899755478
0.035823509097099304,0.0045934333465993404,-0.02009899541735649,0.01657908409833908,-0.0007527415873482823,0.028726577758789062
0.03584562987089157,0.004227038007229567,-0.019793778657913208,0.016030510887503624,-0.0006929691880941391,0.028069479390978813
0.033831559121608734,0.004517633002251387,-0.01878940872848034,0.016392981633543968,-0.0006765176076442003,0.027115462347865105
0.033958423882722855,0.004697241820394993,-0.01926158182322979,0.016188137233257294,-0.0007593819755129516,0.027308067306876183
0.035565976053476334,0.004292516969144344,-0.01964566297829151,0.0166772548109293,-0.0007291747606359422,0.02856290526688099
0.03508174046874046,0.0043039931915700436,-0.01945079118013382,0.016524653881788254,-0.0007438820321112871,0.02864352986216545
0.03505905717611313,0.004497104324400425,-0.020311417058110237,0.016612105071544647,-0.0007830102695152164,0.028290782123804092
0.03521701693534851,0.004100174643099308,-0.020476175472140312,0.016950078308582306,-0.00082330935401842,0.027777867391705513
0.03502795100212097,0.004383229184895754,-0.020027903839945793,0.016734961420297623,-0.0008359432104043663,0.02824585698544979
0.03525774925947189,0.004029265604913235,-0.020209521055221558,0.01712716370820999,-0.0007899651536718011,0.028127221390604973
0.0354783833026886,0.004336019512265921,-0.020250551402568817,0.016820091754198074,-0.0007986503769643605,0.028381921350955963
0.035200245678424835,0.004137231968343258,-0.02031315490603447,0.0170121006667614,-0.0008387810667045414,0.028282688930630684
0.035661615431308746,0.004310157615691423,-0.020195145159959793,0.016892345622181892,-0.0008499238756485283,0.028391093015670776
0.0354081466794014,0.004428208339959383,-0.02047560177743435,0.016226626932621002,-0.000840627180878073,0.028351495042443275
0.03542894870042801,0.004090667236596346,-0.020501315593719482,0.01658918522298336,-0.0007668969919905066,0.02845289744436741
0.037059031426906586,0.003999514039605856,-0.02025928534567356,0.01636011153459549,-0.000756670197006315,0.028652111068367958
0.03666245564818382,0.004027133341878653,-0.020454827696084976,0.016673723235726357,-0.0007045892998576164,0.028699180111289024
0.03495058789849281,0.003959631081670523,-0.020649144425988197,0.01643906906247139,-0.0006777262315154076,0.028158409520983696
0.03607884794473648,0.0043434579856693745,-0.020549351349473,0.01691095158457756,-0.0006316332728601992,0.029726991429924965
0.03566872701048851,0.004147597588598728,-0.020579539239406586,0.016738969832658768,-0.0006537356530316174,0.028905754908919334
0.03566872701048851,0.004147597588598728,-0.020579539239406586,0.016738969832658768,-0.0006537356530316174,0.028905754908919334
0.03600005432963371,0.0041917855851352215,-0.01986834593117237,0.016831500455737114,-0.0006224969401955605,0.028899334371089935
0.03600005432963371,0.0041917855851352215,-0.01986834593117237,0.016831500455737114,-0.0006224969401955605,0.028899334371089935
0.03488458693027496,0.0041491263546049595,-0.020296255126595497,0.01685269922018051,-0.0006712530739605427,0.02920074202120304
0.03521537780761719,0.003990416880697012,-0.020525192841887474,0.017118465155363083,-0.0007020916673354805,0.029071491211652756
0.036359064280986786,0.003928268328309059,-0.02004195749759674,0.017155548557639122,-0.000725449004676193,0.028360065072774887
0.036400675773620605,0.0038655302487313747,-0.01996779441833496,0.017663417384028435,-0.000731581007130444,0.029420867562294006
0.03652629628777504,0.0040301429107785225,-0.02073391154408455,0.01758858561515808,-0.0006872352678328753,0.030380496755242348
0.036366693675518036,0.004027577117085457,-0.020689688622951508,0.018194332718849182,-0.0007920714560896158,0.030051391571760178
0.03629158064723015,0.003886578604578972,-0.020448315888643265,0.018200021237134933,-0.0008129234192892909,0.02881259098649025
0.03651898726820946,0.0038045612163841724,-0.020616507157683372,0.017791062593460083,-0.0008009994053281844,0.029003646224737167
0.037392932921648026,0.00429781898856163,-0.021153312176465988,0.018294237554073334,-0.0007848499226383865,0.030352232977747917
0.0365602932870388,0.004627597983926535,-0.02117995172739029,0.019217349588871002,-0.0007498417980968952,0.029927683994174004
0.03652610257267952,0.0045482865534722805,-0.021391039714217186,0.019159257411956787,-0.0007194374338723719,0.030122634023427963
0.0371798612177372,0.004360225982964039,-0.021353736519813538,0.01930372603237629,-0.000718684634193778,0.031011389568448067
0.03719385713338852,0.004104213789105415,-0.02085809037089348,0.018754437565803528,-0.0006852475926280022,0.030410166829824448
0.03750051185488701,0.004207472782582045,-0.020329715684056282,0.017926275730133057,-0.000685676874127239,0.0296564269810915
0.03737947717308998,0.00451769819483161,-0.021278999745845795,0.01793440245091915,-0.0006390622584149241,0.029505541548132896
0.0378597266972065,0.0041948771104216576,-0.021889707073569298,0.01716812141239643,-0.0006530718528665602,0.03065970353782177
0.03737856447696686,0.0044618514366447926,-0.021737495437264442,0.017307739704847336,-0.0006077232537791133,0.030844947323203087
0.037084948271512985,0.004558451008051634,-0.02048824355006218,0.017485858872532845,-0.0006104626809246838,0.02938278764486313
0.03824132680892944,0.004408328328281641,-0.02145993337035179,0.01725395768880844,-0.0006362095009535551,0.03145933523774147
0.03801737353205681,0.004436445888131857,-0.022048307582736015,0.01794443465769291,-0.0006646767724305391,0.03156628832221031
0.03787863999605179,0.004572109319269657,-0.021841639652848244,0.017784815281629562,-0.0006880362052470446,0.030908415094017982
0.037616241723299026,0.004193443339318037,-0.02069912850856781,0.018410738557577133,-0.0009183947113342583,0.030667977407574654
0.038168709725141525,0.004228642210364342,-0.02199281007051468,0.017880093306303024,-0.0009875732939690351,0.03078935109078884
0.038168709725141525,0.004228642210364342,-0.02199281007051468,0.017880093306303024,-0.0009875732939690351,0.03078935109078884
0.038249656558036804,0.004436546470969915,-0.021085606887936592,0.017807360738515854,-0.0009768810123205185,0.031074097380042076
0.038594841957092285,0.0042123617604374886,-0.020945148542523384,0.01734916679561138,-0.0011281558545306325,0.030926624312996864
0.03835011646151543,0.004066842142492533,-0.02219260483980179,0.017251145094633102,-0.001096558989956975,0.03090410679578781
0.038313187658786774,0.0039575910195708275,-0.02222488448023796,0.018136976286768913,-0.0010660133557394147,0.031232383102178574
0.03896379843354225,0.003916542511433363,-0.021941889077425003,0.018261753022670746,-0.0010716107208281755,0.031653959304094315
0.03961963579058647,0.0039125774055719376,-0.021220721304416656,0.019480327144265175,-0.0011035442585125566,0.031582046300172806
0.038911957293748856,0.00429865438491106,-0.021716345101594925,0.018699584528803825,-0.001051851431839168,0.03208499029278755
0.037729859352111816,0.004135631024837494,-0.021845396608114243,0.01830030232667923,-0.0010282450821250677,0.03195789456367493
0.0390622578561306,0.0044321902096271515,-0.021740609779953957,0.018369978293776512,-0.0010298086563125253,0.031761765480041504
0.039504118263721466,0.004301592241972685,-0.021753355860710144,0.018389252945780754,-0.0010028474498540163,0.03174208104610443
0.03933067247271538,0.003976972308009863,-0.022000420838594437,0.018118692561984062,-0.0009859782876446843,0.031873468309640884
0.04079483449459076,0.0037873091641813517,-0.0220947265625,0.01851808652281761,-0.0009739434462971985,0.0322500579059124
0.03832264244556427,0.004263840150088072,-0.02220155857503414,0.01882374845445156,-0.0009572651470080018,0.030949143692851067
0.0386558398604393,0.0041335513815283775,-0.02213161066174507,0.018601706251502037,-0.0009974451968446374,0.03219121694564819
0.04004141315817833,0.004185095429420471,-0.02213532291352749,0.018618151545524597,-0.001063328585587442,0.03399240970611572
0.039993658661842346,0.004123140126466751,-0.02262536995112896,0.018596677109599113,-0.0009930344531312585,0.034366410225629807
0.03931070864200592,0.0043488736264407635,-0.02239977940917015,0.018374957144260406,-0.0010543024400249124,0.03178587555885315
0.039470430463552475,0.004522223491221666,-0.022001124918460846,0.018620740622282028,-0.0010295737301930785,0.031192680820822716
0.03978061303496361,0.0040962304919958115,-0.022210661321878433,0.018530605360865593,-0.0009985031792894006,0.0327889621257782
0.03980306535959244,0.004379930905997753,-0.02244800329208374,0.018563026562333107,-0.0008766734972596169,0.032739486545324326
0.03979019075632095,0.00425349548459053,-0.02263832837343216,0.01899649202823639,-0.0008722306811250746,0.033418428152799606
0.03963843733072281,0.004266844596713781,-0.022508762776851654,0.018880359828472137,-0.0007838510209694505,0.03398672863841057
0.04128895327448845,0.004127574153244495,-0.022018276154994965,0.01903396286070347,-0.0006699168006889522,0.03357970342040062
0.04128009453415871,0.0043177371844649315,-0.022293221205472946,0.019427070394158363,-0.0006312165642157197,0.03206954523921013
0.038343630731105804,0.004425124265253544,-0.02275436744093895,0.019308079034090042,-0.0006083412445150316,0.03178809955716133
0.040131695568561554,0.0044844746589660645,-0.022195735946297646,0.019479015842080116,-0.0005789499846287072,0.03404109925031662
0.041281916201114655,0.004273430909961462,-0.022374341264367104,0.018654925748705864,-0.0006032669334672391,0.03408084437251091
0.041281916201114655,0.004273430909961462,-0.022374341264367104,0.018654925748705864,-0.0006032669334672391,0.03408084437251091
0.04104878753423691,0.004276706371456385,-0.02262556366622448,0.01878945715725422,-0.0006579546025022864,0.03331812471151352
0.040148988366127014,0.00413504708558321,-0.022598054260015488,0.019418936222791672,-0.000716838869266212,0.03164716809988022
0.03958458825945854,0.004412820562720299,-0.022635443136096,0.01888786442577839,-0.0007330773514695466,0.03368233144283295
0.04111558198928833,0.0045085265301167965,-0.02215997315943241,0.019188623875379562,-0.0007568942965008318,0.03413928672671318
0.041427820920944214,0.004345585126429796,-0.022471288219094276,0.01952934078872204,-0.0009559521568007767,0.03403482958674431
0.04059440270066261,0.0041097053326666355,-0.022748753428459167,0.01923077180981636,-0.0009772013872861862,0.033656906336545944
0.0406080037355423,0.004020282533019781,-0.02333039604127407,0.019406434148550034,-0.0009574552532285452,0.033510107547044754
0.040741607546806335,0.004409614950418472,-0.022915540263056755,0.01986495964229107,-0.00094915262889117,0.03372623771429062
0.040933817625045776,0.004503978881984949,-0.022549141198396683,0.01939372904598713,-0.00101813196670264,0.03391618654131889
0.0412929467856884,0.004741270560771227,-0.022472089156508446,0.01942538283765316,-0.0010501053184270859,0.0338757298886776
0.04052946716547012,0.004306118004024029,-0.022695787250995636,0.019915474578738213,-0.0010313191451132298,0.03364796191453934
0.040961965918540955,0.004442256409674883,-0.023029133677482605,0.02024677023291588,-0.0009412036743015051,0.033694662153720856
0.041485294699668884,0.004088062327355146,-0.022809870541095734,0.019787520170211792,-0.0009760870016179979,0.03422316163778305
0.0414666049182415,0.004357377532869577,-0.021235989406704903,0.020194798707962036,-0.0009648709674365819,0.034344252198934555
0.04166164621710777,0.00421768706291914,-0.02258160710334778,0.019897369667887688,-0.0009548570378683507,0.03390824422240257
0.04179191589355469,0.004283986520022154,-0.024233242496848106,0.019082998856902122,-0.0009236778132617474,0.03508903086185455
0.041849881410598755,0.004567794501781464,-0.023866768926382065,0.019476132467389107,-0.000842439359985292,0.035277221351861954
0.041391562670469284,0.004226276185363531,-0.022234978154301643,0.01982029341161251,-0.0007533982279710472,0.034405581653118134
0.04225398227572441,0.004421936348080635,-0.02293574996292591,0.019715961068868637,-0.0006496607675217092,0.03403356671333313
0.0424889512360096,0.004118890501558781,-0.022639553993940353,0.01970520429313183,-0.0006728805019520223,0.034793902188539505
0.04228883236646652,0.0039432174526154995,-0.02270595170557499,0.019426753744482994,-0.0006909389630891383,0.034596286714076996
0.04220877215266228,0.003872315166518092,-0.023372482508420944,0.01897437497973442,-0.000711530155967921,0.035725776106119156
0.04264319688081741,0.004343682434409857,-0.022961482405662537,0.01989089697599411,-0.0007792266551405191,0.03561551123857498
0.04256444051861763,0.004401593469083309,-0.023089991882443428,0.019988007843494415,-0.0008326221723109484,0.034152645617723465
0.04256444051861763,0.004401593469083309,-0.023089991882443428,0.019988007843494415,-0.0008326221723109484,0.034152645617723465
0.042384713888168335,0.004376443102955818,-0.023201530799269676,0.019599197432398796,-0.0008555714157409966,0.034368980675935745
0.042469415813684464,0.004213762003928423,-0.023117072880268097,0.019514165818691254,-0.0011341626523062587,0.03552659973502159
0.04246997460722923,0.004452511202543974,-0.022936023771762848,0.019290322437882423,-0.0011094285873696208,0.03554537147283554
0.04342588409781456,0.004294109996408224,-0.02274506166577339,0.019777951762080193,-0.0010963942622765899,0.03503412380814552
0.04398258775472641,0.004472007509320974,-0.02300839126110077,0.020816676318645477,-0.0012372726341709495,0.03558698669075966
0.042019207030534744,0.004487411119043827,-0.023506229743361473,0.020566783845424652,-0.0011948575265705585,0.03514804318547249
0.042531367391347885,0.0040046884678304195,-0.023582493886351585,0.019979327917099,-0.0011844768887385726,0.03428303077816963
