davideferrari95/blind_handover_controller/data/Test 112 - [2024-02-07 -- 16-26-45]/joint_states_data.csv
shoulder_pan_joint,shoulder_lift_joint,elbow_joint,wrist_1_joint,wrist_2_joint,wrist_3_joint
0.006531830411404371,0.010411422699689865,-0.011954805813729763,0.0028482999186962843,0.0,0.006413627415895462
0.006324741058051586,0.009046119637787342,-0.012005673721432686,0.0033750534057617188,0.0,0.006323642563074827
0.006324741058051586,0.009046119637787342,-0.012005673721432686,0.0033750534057617188,0.0,0.006323642563074827
0.006511509884148836,0.011316144838929176,-0.011865245178341866,0.0037022761534899473,0.0,0.00629442511126399
0.006813381798565388,0.010254981927573681,-0.011817224323749542,0.0033661085180938244,0.0,0.006251280661672354
0.006106197368353605,0.011027742177248001,-0.011818885803222656,0.0031882175244390965,0.0,0.0061109005473554134
0.006740017794072628,0.010332518257200718,-0.01190641988068819,0.003240596503019333,0.0,0.006188415456563234
0.006337113678455353,0.009811736643314362,-0.011765419505536556,0.003565337974578142,0.0,0.006139316130429506
0.006073466036468744,0.010647068731486797,-0.012224397622048855,0.0033142801839858294,0.0,0.005911148618906736
0.006396382115781307,0.010310059413313866,-0.011731178499758244,0.003499707905575633,0.0,0.006421492900699377
0.005902019329369068,0.010553227737545967,-0.011153824627399445,0.003257552394643426,0.0,0.006294918712228537
0.00612922478467226,0.010797061957418919,-0.011748884804546833,0.0034990364219993353,0.0,0.0063324058428406715
0.006631864234805107,0.009941164404153824,-0.011504622176289558,0.0035730553790926933,0.0,0.006614117417484522
0.006798599846661091,0.010050712153315544,-0.012103279121220112,0.0034860572777688503,0.0,0.006793532054871321
0.006272746715694666,0.009896057657897472,-0.011632760986685753,0.003362050047144294,0.0,0.006383666768670082
0.006384711246937513,0.010435109958052635,-0.011360403150320053,0.0031748616602271795,0.0,0.006053570657968521
0.006581840571016073,0.009965772740542889,-0.012363910675048828,0.0035155238583683968,0.0,0.005562202073633671
0.006267869845032692,0.009792972356081009,-0.01169592048972845,0.003351298626512289,0.0,0.005878669209778309
0.006267869845032692,0.009792972356081009,-0.01169592048972845,0.003351298626512289,0.0,0.005878669209778309
0.00645776093006134,0.009470280259847641,-0.01184611115604639,0.0031519001349806786,0.0,0.005778214894235134
0.006383796688169241,0.010061229579150677,-0.01197115145623684,0.0030547615606337786,0.0,0.006174009758979082
0.0065520447678864,0.009553681127727032,-0.011493735946714878,0.002824929775670171,0.0,0.006442971061915159
0.006268735975027084,0.009210601449012756,-0.012221924029290676,0.00278821075335145,0.0,0.006128334905952215
0.006509882397949696,0.009724561125040054,-0.011439989320933819,0.0026706685312092304,0.0,0.005971401464194059
0.006517041940242052,0.00987575575709343,-0.012181458063423634,0.002797365188598633,0.0,0.006069074850529432
0.006385971792042255,0.009764104150235653,-0.012379384599626064,0.0028604366816580296,0.0,0.00624074274674058
0.006589855998754501,0.00942125916481018,-0.012220832519233227,0.0028812543023377657,0.0,0.006198626942932606
0.006735912524163723,0.00974645558744669,-0.01223371084779501,0.002759824274107814,0.0,0.006116407923400402
0.0064603667706251144,0.008957960642874241,-0.01136535033583641,0.0028888557571917772,0.0,0.005776581354439259
0.006157890427857637,0.009814077988266945,-0.012220404110848904,0.0029252946842461824,0.0,0.006405808962881565
0.006262477021664381,0.00959406141191721,-0.012241395190358162,0.0029486583080142736,0.0,0.0066541763953864574
0.006111643277108669,0.009322279132902622,-0.012727206572890282,0.002810665173456073,0.0,0.005949904210865498
0.005893312394618988,0.008569040335714817,-0.01235122513025999,0.0029609729535877705,0.0,0.0058882650919258595
0.006341693457216024,0.010020104236900806,-0.012393241748213768,0.0031937879975885153,0.0,0.005743199028074741
0.006084783934056759,0.009212722070515156,-0.01208100002259016,0.0036166782956570387,0.0,0.005843381863087416
0.006217735819518566,0.009267408400774002,-0.012146150693297386,0.0033165859058499336,0.0,0.005681023001670837
0.005794426426291466,0.00914959516376257,-0.012261716648936272,0.0029429250862449408,0.0,0.006017060484737158
0.00610027089715004,0.008823815733194351,-0.013129758648574352,0.0027067626360803843,0.0,0.0055406163446605206
0.005791873205453157,0.009517785161733627,-0.012224027886986732,0.002567002782598138,0.0,0.005837956443428993
0.005957883317023516,0.008771871216595173,-0.011537115089595318,0.0024704360403120518,0.0,0.006206546910107136
0.006168833933770657,0.008727971464395523,-0.012675656005740166,0.002746824873611331,0.0,0.0060662743635475636
0.005689940880984068,0.00909978523850441,-0.01171167753636837,0.003389006480574608,0.0,0.006053116172552109
0.005880451295524836,0.009184639900922775,-0.012285420671105385,0.003499602898955345,0.0,0.005703460890799761
0.005871986038982868,0.008415399119257927,-0.012127433903515339,0.0030889352783560753,0.0,0.0058941966854035854
0.006217060144990683,0.008158017881214619,-0.012253456749022007,0.0027884894516319036,0.0,0.005986189469695091
0.006222916767001152,0.008927811868488789,-0.011917303316295147,0.002731421496719122,0.0,0.005985497031360865
0.005862413439899683,0.00847877562046051,-0.011196207255125046,0.0031587176490575075,0.0,0.0058204783126711845
0.006208361592143774,0.008355635218322277,-0.012223729863762856,0.003177940845489502,0.0,0.005798823665827513
0.006208361592143774,0.008355635218322277,-0.012223729863762856,0.003177940845489502,0.0,0.005798823665827513
0.005735216196626425,0.00856371596455574,-0.011730600148439407,0.0029923575930297375,0.0,0.0059412140399217606
0.005960672628134489,0.009507748298346996,-0.011942272074520588,0.0027523194439709187,0.0,0.006208508275449276
0.006219642702490091,0.008440831676125526,-0.012654283083975315,0.002808426273986697,0.0,0.006117858458310366
0.005986358970403671,0.008632848039269447,-0.011536402627825737,0.003337763948366046,0.0,0.005430682096630335
0.006034363526850939,0.009020941331982613,-0.0118457255885005,0.0033122182358056307,0.0,0.005167894531041384
0.005858485121279955,0.008577442727982998,-0.01252759899944067,0.003091059625148773,0.0,0.005436960607767105
0.006305007729679346,0.008668443188071251,-0.012289276346564293,0.002755405381321907,0.0,0.006055348552763462
0.006364018190652132,0.008711520582437515,-0.012086969800293446,0.002726253354921937,0.0,0.00572986900806427
0.005913030821830034,0.008903454057872295,-0.011399578303098679,0.0030494676902890205,0.0,0.005631773266941309
0.005901040975004435,0.008353554643690586,-0.012075958773493767,0.0032175120431929827,0.0,0.005731399171054363
0.006514178588986397,0.008390100672841072,-0.011576781049370766,0.0034020189195871353,0.0,0.00579825509339571
0.006059661973267794,0.009017705917358398,-0.011471301317214966,0.0030273410957306623,0.0,0.005826637148857117
0.0065140631049871445,0.008430150337517262,-0.01189095713198185,0.0032127168960869312,0.0,0.005569898057729006
0.006579986773431301,0.009232440032064915,-0.011801336891949177,0.0033625809010118246,0.0,0.005497918929904699
0.006212122272700071,0.008694863878190517,-0.011445531621575356,0.0031376269180327654,0.0,0.005548984743654728
0.0064720772206783295,0.008658794686198235,-0.01172810047864914,0.002926295856013894,0.0,0.005859015043824911
0.006816419772803783,0.009070687927305698,-0.012343175709247589,0.00303805829025805,0.0,0.0061403848230838776
0.006712732370942831,0.009076545014977455,-0.011548539623618126,0.0032791614066809416,0.0,0.0057216971181333065
0.006095417775213718,0.008538870140910149,-0.01154401060193777,0.003281516022980213,0.0,0.005676585715264082
0.006224822252988815,0.00872829370200634,-0.011247161775827408,0.0032213868107646704,0.0,0.005421190056949854
0.0065269386395812035,0.009290510788559914,-0.011737028136849403,0.0031997363548725843,0.0,0.00566108338534832
0.006555231288075447,0.008784886449575424,-0.01165612693876028,0.002939919475466013,0.0,0.005575023125857115
0.006465582642704248,0.008839236572384834,-0.011040699668228626,0.003028084058314562,0.0,0.005737676285207272
0.006937985774129629,0.009081121534109116,-0.011693963780999184,0.002937913639470935,0.0,0.005969821009784937
0.006937985774129629,0.009081121534109116,-0.011693963780999184,0.002937913639470935,0.0,0.005969821009784937
0.006976722273975611,0.008671009913086891,-0.01131577230989933,0.0029015459585934877,0.0,0.005476105492562056
0.005872604437172413,0.008467468433082104,-0.011641522869467735,0.002761301351711154,0.0,0.005919121205806732
0.006528587080538273,0.00885612890124321,-0.011248704046010971,0.0028600296936929226,0.0,0.005690698511898518
0.00611814484000206,0.008850869722664356,-0.010777386836707592,0.002655693097040057,0.0,0.005797070916742086
0.0059151663444936275,0.008709774352610111,-0.01160835474729538,0.0026649408973753452,0.0,0.005759173072874546
0.006735009141266346,0.009059729985892773,-0.011278408579528332,0.002817322965711355,0.0,0.005695486906915903
0.0063024237751960754,0.009079108014702797,-0.01207773294299841,0.0028884788043797016,0.0,0.005227064248174429
0.0059798602014780045,0.00874395202845335,-0.011330842040479183,0.0030232786666601896,0.0,0.005326318088918924
0.006062827073037624,0.00946332048624754,-0.010997612960636616,0.0030275671742856503,0.0,0.005658827256411314
0.005936853587627411,0.009338481351733208,-0.01123774889856577,0.003150674980133772,0.0,0.005515908356755972
0.006488192826509476,0.00858111958950758,-0.011027897708117962,0.0031354380771517754,0.0,0.005636530462652445
0.006844107527285814,0.008636965416371822,-0.010950176045298576,0.0028227344155311584,0.0,0.0054569304920732975
0.006110175512731075,0.008763246238231659,-0.011041972786188126,0.002681598998606205,0.0,0.0054416414350271225
0.006609057541936636,0.008672656491398811,-0.011179408989846706,0.0029922127723693848,0.0,0.005589124746620655
0.007143566384911537,0.00934649258852005,-0.011353221721947193,0.003200795967131853,0.0,0.005812088027596474
0.006915474776178598,0.0091902706772089,-0.010452482849359512,0.0031378588173538446,0.0,0.005843586754053831
0.0063791521824896336,0.008518273010849953,-0.011483820155262947,0.0031005884520709515,0.0,0.0055887168273329735
0.006369056645780802,0.008698967285454273,-0.010897844098508358,0.0027658208273351192,0.0,0.005784162785857916
0.006805368699133396,0.009381063282489777,-0.011074245907366276,0.0026416038163006306,0.0,0.005310775246471167
0.006785625126212835,0.008661123923957348,-0.011194750666618347,0.0032386803068220615,0.0,0.005167464260011911
0.006424976047128439,0.00844302587211132,-0.010784106329083443,0.0035104125272482634,0.0,0.005432510282844305
0.0061216470785439014,0.009591341949999332,-0.011900748126208782,0.0030924645252525806,0.0,0.005996127147227526
0.006729726679623127,0.008941132575273514,-0.011054035276174545,0.0029512944165617228,-4.686674947151914e-05,0.005841453559696674
0.006838400848209858,0.008856195956468582,-0.010898036882281303,0.002846716670319438,-5.2296556532382965e-05,0.005417518317699432
0.006838400848209858,0.008856195956468582,-0.010898036882281303,0.002846716670319438,-5.2296556532382965e-05,0.005417518317699432
0.007388794329017401,0.008975631557404995,-0.01124061830341816,0.002957344753667712,-5.208140646573156e-05,0.004913754295557737
0.006416309159249067,0.009359082207083702,-0.010944767855107784,0.0031078991014510393,-5.15107240062207e-05,0.005109764169901609
0.0063825915567576885,0.008687390945851803,-0.011531265452504158,0.0030473105143755674,-5.0929422286571935e-05,0.005393174011260271
0.006755287293344736,0.00867645163089037,-0.011302260681986809,0.0029211032669991255,-5.035958020016551e-05,0.005243893712759018
0.0066702524200081825,0.009391948580741882,-0.01057344302535057,0.002850022166967392,-4.9802249122876674e-05,0.005404850002378225
0.006552193313837051,0.00883736927062273,-0.011212022975087166,0.002984333783388138,-6.41513133814442e-06,0.005126185715198517
0.006355857942253351,0.00889657624065876,-0.010862206108868122,0.0029409031849354506,-4.1886229951160203e-07,0.0047485120594501495
0.006585455033928156,0.009011806920170784,-0.011003865860402584,0.0027474097441881895,-2.734871706877584e-08,0.00490883644670248
0.006772387772798538,0.008598181419074535,-0.011788364499807358,0.002563165035098791,-1.7856758294243491e-09,0.004870509263128042
0.006743071600794792,0.008815622888505459,-0.011798955500125885,0.0027405854780226946,-1.1659186116563802e-10,0.004812097642570734
0.0065432824194431305,0.009481391869485378,-0.011626248247921467,0.002994068432599306,-7.612615399166245e-12,0.005521857645362616
0.006772072985768318,0.009119227528572083,-0.011308918707072735,0.0030900894198566675,-4.970493417896793e-13,0.005457224324345589
0.00741327740252018,0.008644452318549156,-0.01151136215776205,0.0032925382256507874,-3.245377260658287e-14,0.005068821366876364
0.006672983057796955,0.008937655948102474,-0.010909399017691612,0.0028452202677726746,-1.383554998050403e-16,0.00481231976300478
0.006323516834527254,0.009028365835547447,-0.011536255478858948,0.0027687796391546726,-9.033625407621202e-18,0.004759696312248707
0.0068662106059491634,0.009114601649343967,-0.011627270840108395,0.0030007928144186735,-5.898312170446519e-19,0.005412896163761616
0.007087866775691509,0.009441866539418697,-0.010654119774699211,0.0028977184556424618,-3.851176186814449e-20,0.005393503699451685
0.006848631892353296,0.00886400043964386,-0.01158621534705162,0.003053725464269519,-2.514542628249541e-21,0.005082461982965469
0.006505915429443121,0.008842751383781433,-0.011424632743000984,0.0027123347390443087,-1.6418165696646136e-22,0.005207317881286144
0.006550633814185858,0.009422190487384796,-0.012074055150151253,0.0025299733970314264,-1.0719889216755316e-23,0.004927493166178465
0.006850757636129856,0.009264795109629631,-0.011378582566976547,0.002643620828166604,-6.999321223373814e-25,0.004757730755954981
0.0070402491837739944,0.008665366098284721,-0.010726782493293285,0.0028385277837514877,-4.570056729517565e-26,0.005021984688937664
0.007018763106316328,0.009161537513136864,-0.011177046224474907,0.0033700442872941494,-2.9839204926299144e-27,0.005166273098438978
0.006993289105594158,0.0091620571911335,-0.01086556538939476,0.0033005308359861374,-1.948287102146655e-28,0.0051269931718707085
0.006761440075933933,0.008566517382860184,-0.010744643397629261,0.003519641235470772,-1.2720922259852905e-29,0.00519966147840023
0.007173175923526287,0.009116961620748043,-0.011122155003249645,0.003158526960760355,-8.30585312302319e-31,0.004662499763071537
0.007094758562743664,0.00879095308482647,-0.010728772729635239,0.0030529594514518976,-5.423127906092063e-32,0.004626029171049595
0.007094758562743664,0.00879095308482647,-0.010728772729635239,0.0030529594514518976,-5.423127906092063e-32,0.004626029171049595
0.0066403839737176895,0.008688093163073063,-0.011420262046158314,0.0029503803234547377,-3.540915184359083e-33,0.005064541939646006
0.00675741583108902,0.009218146093189716,-0.010831201449036598,0.002899165265262127,-2.3119648146734194e-34,0.005185280926525593
0.0071112532168626785,0.00891499686986208,-0.01154838502407074,0.0027650310657918453,-1.5095478335054962e-35,0.004939558915793896
0.007495949976146221,0.00864680577069521,-0.01162385568022728,0.0029951203614473343,-9.85626883959387e-37,0.004897884093225002
0.0070570348761975765,0.008673801086843014,-0.010674658231437206,0.0033840318210422993,-6.435439095078136e-38,0.004808357451111078
0.006565655115991831,0.009313467890024185,-0.011988062411546707,0.0037553959991782904,-4.2018817270812165e-39,0.004675751086324453
0.00705601554363966,0.008855363354086876,-0.01136168371886015,0.0034908705856651068,-2.743532198378343e-40,0.004607750102877617
0.00717833312228322,0.008657936006784439,-0.01093499455600977,0.0031644373666495085,-1.7912798269464137e-41,0.005167075898498297
0.00679226266220212,0.008940201252698898,-0.011610825546085835,0.002841769950464368,-1.1700842177112223e-42,0.005467069800943136
0.006864612456411123,0.008844183757901192,-0.011290492489933968,0.0026974063366651535,-7.567011707354012e-44,0.005470522679388523
0.007550985086709261,0.008772623725235462,-0.011116822250187397,0.0028712614439427853,-0.0,0.004279319662600756
0.0074956659227609634,0.009001938626170158,-0.01095628459006548,0.0028431422542780638,-0.0,0.004147728439420462
0.006880100350826979,0.008649972267448902,-0.011400027200579643,0.003106471849605441,-0.0,0.004328072536736727
0.007384918630123138,0.008168401196599007,-0.011268744245171547,0.003036299953237176,-0.0,0.004423342179507017
0.007417286280542612,0.008841908536851406,-0.010846730321645737,0.0031665267888456583,-0.0,0.004788703750818968
0.0074325748719275,0.00880170427262783,-0.011905563063919544,0.003288857638835907,-0.0,0.0048019252717494965
0.006663958542048931,0.008255031891167164,-0.011339733377099037,0.0033122512977570295,-0.0,0.004390975926071405
0.007279023062437773,0.00842499639838934,-0.011705906130373478,0.003184116678312421,-0.0,0.004314843565225601
0.008160066790878773,0.008886110037565231,-0.011332757771015167,0.003202155465260148,-0.0,0.00417375611141324
0.007777733262628317,0.00824765581637621,-0.011178389191627502,0.0031839259900152683,-0.0,0.0043390849605202675
0.006731824483722448,0.008434303104877472,-0.01139152143150568,0.0031360022258013487,-0.0,0.004648816771805286
0.007047291845083237,0.009229450486600399,-0.011177831329405308,0.003402411937713623,-0.0,0.004529125522822142
0.0073095750994980335,0.008185657672584057,-0.010795420967042446,0.003431399818509817,-0.0,0.004521352704614401
0.0073293661698699,0.008025647141039371,-0.01131958793848753,0.003367440542206168,-0.0,0.0045124851167202
0.006875413935631514,0.008295247331261635,-0.011045083403587341,0.003636556211858988,-0.0,0.004454482346773148
0.006875413935631514,0.008295247331261635,-0.011045083403587341,0.003636556211858988,-0.0,0.004454482346773148
0.00719802500680089,0.00868385098874569,-0.011268055997788906,0.0038382429629564285,-0.0,0.004577650688588619
0.00748136593028903,0.007927162572741508,-0.011140630580484867,0.0034382487647235394,-0.0,0.004444763530045748
0.0076569789089262486,0.008051625452935696,-0.01088143140077591,0.003249790985137224,-0.0,0.004368977155536413
0.0069016157649457455,0.008339280262589455,-0.01170429028570652,0.0032577505335211754,-0.0,0.00421117153018713
0.007252231705933809,0.008060820400714874,-0.011932305991649628,0.0031497867312282324,-0.0,0.004428190179169178
0.007433833554387093,0.008227890357375145,-0.011821773834526539,0.0030833298806101084,-0.0,0.004511378705501556
0.007729777600616217,0.007987100630998611,-0.011680319905281067,0.0034161079674959183,-4.7678491682745516e-05,0.004296654369682074
0.006948651280254126,0.008200693875551224,-0.010537424124777317,0.0032125399447977543,-6.910098454682156e-05,0.0043555209413170815
0.007152793928980827,0.007494548335671425,-0.012151828967034817,0.0033435001969337463,-6.948048394406214e-05,0.004168087616562843
0.007423714268952608,0.0075843678787350655,-0.01153886690735817,0.0035263027530163527,-6.851697980891913e-05,0.003968335688114166
0.007211092859506607,0.007835199125111103,-0.011416233144700527,0.0034377379342913628,-6.749552994733676e-05,0.004099572543054819
0.007078687660396099,0.007931250147521496,-0.011048396117985249,0.003298620693385601,-6.553017010446638e-05,0.004748385399580002
0.00743440305814147,0.007906007580459118,-0.011315800249576569,0.0031351258512586355,-7.58207606850192e-05,0.004549229517579079
0.007664191070944071,0.008039268665015697,-0.011409166269004345,0.0034062929917126894,-7.630065374542028e-05,0.004542296286672354
0.0071863336488604546,0.00782779697328806,-0.01071083638817072,0.0032097201328724623,-7.533755706390366e-05,0.004259880166500807
0.007389553822577,0.0076904697343707085,-0.011351849883794785,0.003351527964696288,-7.430742698488757e-05,0.004088989458978176
0.0074805086478590965,0.0077014099806547165,-0.011070934124290943,0.003309364430606365,-7.329922664212063e-05,0.003942558541893959
0.007470219396054745,0.008447444997727871,-0.011533785611391068,0.003440292552113533,-7.231761992443353e-05,0.004222243558615446
0.0070314668118953705,0.008068947121500969,-0.011926993727684021,0.0033118119463324547,-7.136199565138668e-05,0.004175673704594374
0.007236923091113567,0.007714551407843828,-0.011157350614666939,0.0034941243939101696,-7.915051537565887e-05,0.00435831630602479
0.007812654599547386,0.007705503609031439,-0.01132433582097292,0.003257569158449769,-8.091467316262424e-05,0.004053825978189707
0.007665097247809172,0.00792222935706377,-0.011217454448342323,0.003373814048245549,-8.006791904335842e-05,0.0037935180589556694
0.0072367237880826,0.00719795236364007,-0.011311220936477184,0.003155020298436284,-7.907479448476806e-05,0.003688373137265444
0.007495784666389227,0.007301004137843847,-0.011816546320915222,0.0032081787940114737,-7.809545786585659e-05,0.003427869640290737
0.007742834743112326,0.007616848219186068,-0.011312994174659252,0.003038128139451146,-7.713927334407344e-05,0.00397936487570405
0.0075512598268687725,0.008342435583472252,-0.011898071505129337,0.0031523550860583782,-8.637325663585216e-05,0.0041190255433321
0.007279119919985533,0.007964459247887135,-0.011451765894889832,0.0035889928694814444,-8.600488945376128e-05,0.004456076771020889
0.008163067512214184,0.0077580721117556095,-0.010935806669294834,0.003946504555642605,-8.503255230607465e-05,0.004218440968543291
0.008375145494937897,0.007073485758155584,-0.01148945465683937,0.003581036115065217,-8.404280379181728e-05,0.003885060315951705
0.007969544269144535,0.008134476840496063,-0.011175981722772121,0.0035198272671550512,-8.307334064738825e-05,0.003671446116641164
0.007147462572902441,0.007799314334988594,-0.011868136934936047,0.0031040317844599485,-0.00015296795754693449,0.0032597382087260485
0.007147462572902441,0.007799314334988594,-0.011868136934936047,0.0031040317844599485,-0.00015296795754693449,0.0032597382087260485
0.00811838824301958,0.007373250555247068,-0.011547937989234924,0.0030941555742174387,-0.00016988758579827845,0.0034988741390407085
0.007775928825139999,0.0073015643283724785,-0.011231153272092342,0.00341332727111876,-0.00016513581795152277,0.003815707052126527
0.007665786426514387,0.00761756906285882,-0.011663928627967834,0.0033145234920084476,-0.00015938332944642752,0.0035138714592903852
0.007376957684755325,0.007825657725334167,-0.011244522407650948,0.003549819579347968,-0.00015393646026495844,0.0034006470814347267
0.00806515384465456,0.007437552325427532,-0.012080147862434387,0.00335295544937253,-0.00014884474512655288,0.003481409279629588
0.007790350820869207,0.007342434022575617,-0.01195647194981575,0.003495397511869669,-0.00014407876005861908,0.00372602348215878
0.007401544135063887,0.007588895037770271,-0.011473549529910088,0.003350804327055812,-0.00013960829528514296,0.0038078250363469124
0.00765600660815835,0.007343527860939503,-0.01095579843968153,0.0035310517996549606,-0.00015762397379148751,0.0031196540221571922
0.00812489353120327,0.007318370509892702,-0.011735545471310616,0.0036674030125141144,-0.00015325647837016732,0.0029221309814602137
0.007672406733036041,0.0075926268473267555,-0.011977753601968288,0.0036213970743119717,-0.00014903367264196277,0.0032233328092843294
0.007506726309657097,0.0073098717257380486,-0.011001702398061752,0.00350653356872499,-0.00014503218699246645,0.003596316557377577
0.008034953847527504,0.007391275838017464,-0.011884407140314579,0.003628021338954568,-0.00014123784785624593,0.0038205792661756277
0.00814869999885559,0.007468228228390217,-0.011721402406692505,0.0038249052595347166,-0.00013763847528025508,0.003363503608852625
0.007580088917165995,0.007765016984194517,-0.012030372396111488,0.004283156245946884,-0.00015079905278980732,0.003165219444781542
0.008247297257184982,0.007999231107532978,-0.012398462742567062,0.004107765853404999,-0.00015241175424307585,0.0033851908519864082
0.00859218742698431,0.00710632698610425,-0.011451218277215958,0.003934576641768217,-0.00014914646453689784,0.0033000081311911345
0.007794877048581839,0.007047528866678476,-0.011881924234330654,0.003562388475984335,-0.00014571909559890628,0.003266784129664302
0.0077647860161960125,0.008151447400450706,-0.01129950862377882,0.0033527049235999584,-0.00014242644829209894,0.0032743404153734446
0.00817932840436697,0.007698086090385914,-0.012237660586833954,0.00321002583950758,-0.0001392774429405108,0.0032109320163726807
0.008540552109479904,0.0074789212085306644,-0.012101019732654095,0.0033880197443068027,-0.00013626518193632364,0.003137705847620964
0.007912036031484604,0.008199281990528107,-0.012041393667459488,0.0036797416396439075,-0.00013338007556740195,0.002946025924757123
0.0082247881218791,0.007862158119678497,-0.012720320373773575,0.003944961819797754,-0.00014445610577240586,0.003115497063845396
0.008371641859412193,0.00737714534625411,-0.011403631418943405,0.003979604225605726,-0.00014592736260965466,0.0035924725234508514
0.008391217328608036,0.007376028690487146,-0.011844003573060036,0.003491162322461605,-0.00014331034617498517,0.0034690964967012405
0.008353352546691895,0.007624301593750715,-0.01170404814183712,0.0035455781035125256,-0.0001405317016178742,0.0031770183704793453
0.008353352546691895,0.007624301593750715,-0.01170404814183712,0.0035455781035125256,-0.0001405317016178742,0.0031770183704793453
0.008034449070692062,0.007827647030353546,-0.012785564176738262,0.0036522976588457823,-0.00013784242037218064,0.0030279713682830334
0.008305218070745468,0.007214462850242853,-0.012098581530153751,0.0037074361462146044,-0.00013525316899176687,0.0027547520585358143
0.007965830154716969,0.00746559863910079,-0.012340317480266094,0.003790072863921523,-0.00013035554729867727,0.0028891069814562798
0.007965830154716969,0.00746559863910079,-0.012340317480266094,0.003790072863921523,-0.00013035554729867727,0.0028891069814562798
0.008238658308982849,0.007499603554606438,-0.011798969469964504,0.003753743367269635,-0.00012803755817003548,0.003019423224031925
0.008223741315305233,0.007157998625189066,-0.012003367766737938,0.0036788119468837976,-0.00012580034672282636,0.003133970545604825
0.008219347335398197,0.007052171975374222,-0.012385142035782337,0.0037230653688311577,-0.00012380587577354163,0.003197392215952277
0.008367958478629589,0.007421125192195177,-0.011597647331655025,0.0036750389263033867,-0.00013034506991971284,0.003015164053067565
0.008735159412026405,0.007912627421319485,-0.012004579417407513,0.003713187063112855,-0.00012731843162328005,0.0027881688438355923
0.008173498325049877,0.0073685962706804276,-0.011893908493220806,0.0037231510505080223,-0.00012385733134578913,0.0027123107574880123
0.008220338262617588,0.007140098139643669,-0.011788356117904186,0.004080623853951693,-0.00011739739420590922,0.002446251455694437
0.008301990106701851,0.007930200546979904,-0.011254256591200829,0.004189625382423401,-0.00011441231617936864,0.002609772840514779
0.008230661042034626,0.007477791979908943,-0.012034637853503227,0.004040365107357502,-0.0001115755585487932,0.0027478723786771297
0.00830729492008686,0.0071343607269227505,-0.011509139090776443,0.00381836318410933,-0.00010887582902796566,0.0029429569840431213
0.008362937718629837,0.00751976203173399,-0.011861399747431278,0.003896812442690134,-0.0001063038143911399,0.002910532522946596
0.008265038952231407,0.007510689087212086,-0.011656046845018864,0.003630773164331913,-0.00010385040513938293,0.0028866706416010857
0.008372115902602673,0.007173966616392136,-0.010396607220172882,0.003596513532102108,-0.00010150780144613236,0.0028169439174234867
0.008494993671774864,0.007044872269034386,-0.012249293737113476,0.003696874249726534,-0.00011779640044551343,0.002808878431096673
0.008809858933091164,0.0070029511116445065,-0.011754279024899006,0.00391096156090498,-0.00011646446364466101,0.0028759364504367113
0.008131968788802624,0.007205781992524862,-0.011655212379992008,0.004025580827146769,-0.00011408286809455603,0.002943576080724597
0.009050891734659672,0.007268168963491917,-0.01161863747984171,0.003977264277637005,-0.00011172765516676009,0.0027809145394712687
0.00906513910740614,0.007309591863304377,-0.012147192843258381,0.00391313387081027,-0.00010946291877189651,0.0027370534371584654
0.00803485605865717,0.007352261338382959,-0.012243282981216908,0.004019811749458313,-0.00010728818597272038,0.003123392816632986
0.00810438022017479,0.0074682594276964664,-0.011612992733716965,0.003958106506615877,-0.00010519799980102107,0.0030741526279598475
0.008901172317564487,0.0073268539272248745,-0.011986012570559978,0.0038625882007181644,-0.00010318782733520493,0.003157353261485696
0.00869040098041296,0.007250279653817415,-0.011112689971923828,0.0038943851832300425,-0.00010125289554707706,0.002875108504667878
0.00824492983520031,0.007710230071097612,-0.011216768994927406,0.003938160836696625,-0.00011168198398081586,0.002503341296687722
0.00824492983520031,0.007710230071097612,-0.011216768994927406,0.003938160836696625,-0.00011168198398081586,0.002503341296687722
0.00917379092425108,0.007574840448796749,-0.011217196471989155,0.003924587741494179,-0.0001135796046582982,0.002492282073944807
0.008780548349022865,0.007160905748605728,-0.011186908930540085,0.00429399823769927,-0.00011181914305780083,0.002638802630826831
0.008796581998467445,0.007009533233940601,-0.01223134994506836,0.0041504199616611,-0.00010988542635459453,0.0025209563318639994
0.009239776991307735,0.007371014915406704,-0.011887709610164165,0.004478501621633768,-0.00010800289601320401,0.002682598540559411
0.00888882763683796,0.007850859314203262,-0.012015330605208874,0.004596911370754242,-0.00010618242959026247,0.0026011548470705748
0.009029255248606205,0.007346156053245068,-0.011931315064430237,0.004754680208861828,-0.00011549635382834822,0.002367096021771431
0.00856255553662777,0.006948945578187704,-0.01130734197795391,0.005139126442372799,-0.0001171432450064458,0.0024715608451515436
0.009004989638924599,0.0072135101072490215,-0.012152830138802528,0.0050712102092802525,-0.00011549444025149569,0.0026942440308630466
0.009031719528138638,0.007489343639463186,-0.01142978761345148,0.005059287883341312,-0.00011368595733074471,0.0028036017902195454
0.008975058794021606,0.007439450826495886,-0.012094722129404545,0.004839580040425062,-0.00011191963130841032,0.002731380984187126
0.009394119493663311,0.006903326138854027,-0.012070286087691784,0.00485199922695756,-0.00011020666715921834,0.002653267467394471
0.00906238704919815,0.007143472786992788,-0.01195615716278553,0.00443188427016139,-0.00010854519496206194,0.002523742150515318
0.009181002154946327,0.007323618978261948,-0.011559918522834778,0.004851323552429676,-0.0001053682281053625,0.0023978129029273987
0.009516354650259018,0.007368732709437609,-0.012537101283669472,0.004747620318084955,-0.00011962820281041786,0.0022239002864807844
0.008785173296928406,0.007562244776636362,-0.011916302144527435,0.004412753973156214,-0.00012158650497440249,0.002445169258862734
0.008963409811258316,0.007681922055780888,-0.011902646161615849,0.004023591056466103,-0.00011871800961671397,0.002361576072871685
0.009131789207458496,0.007671789266169071,-0.012511035427451134,0.003962909337133169,-0.00011568803893169388,0.002298532985150814
0.009768372401595116,0.006871108431369066,-0.011681357398629189,0.004023273009806871,-0.00011278963938821107,0.002148676197975874
0.008749181404709816,0.00704278564080596,-0.012084626592695713,0.004139503929764032,-0.0001100316148949787,0.002058842685073614
0.009964140132069588,0.007550446316599846,-0.011402812786400318,0.00450201565399766,-0.00010740537254605442,0.0022027173545211554
0.009236171841621399,0.0074037243612110615,-0.011302514001727104,0.004479372873902321,-0.00011521342094056308,0.00246215402148664
0.008878486230969429,0.00800810195505619,-0.012313599698245525,0.004551881458610296,-0.00012231734581291676,0.0024257153272628784
0.009545639157295227,0.007118320558220148,-0.012056549079716206,0.004147524479776621,-0.00012022874579997733,0.002226205077022314
0.009549731388688087,0.007197388913482428,-0.012383230961859226,0.003453243523836136,-0.00011765049566747621,0.0021032721269875765
0.009229715913534164,0.006999938748776913,-0.011725747026503086,0.0034751284401863813,-0.00011514440848259255,0.0020444977562874556
0.009370292536914349,0.007144610397517681,-0.01195847149938345,0.004187440034002066,-0.00011274059943389148,0.001989069627597928
0.009578315541148186,0.007299472577869892,-0.012108966708183289,0.004649662878364325,-0.00012642612273339182,0.0021663084626197815
0.009098626673221588,0.007460026536136866,-0.011641266755759716,0.004713149741292,-0.00012610106205102056,0.002018564147874713
0.009098626673221588,0.007460026536136866,-0.011641266755759716,0.004713149741292,-0.00012610106205102056,0.002018564147874713
0.009116774424910545,0.006985658314079046,-0.012116566300392151,0.004669109359383583,-0.00012376776430755854,0.0019125227117910981
0.009363144636154175,0.00723195681348443,-0.01180353295058012,0.004620756953954697,-0.00012139230238972232,0.00181719777174294
0.00909576565027237,0.00724462466314435,-0.01242552138864994,0.0043359179981052876,-0.00011909801105502993,0.001567736268043518
0.009168555960059166,0.007776161190122366,-0.012021803297102451,0.004434036556631327,-0.00011688826634781435,0.0015154542634263635
0.010484393686056137,0.006941028870642185,-0.011693650856614113,0.004548242315649986,-0.0001147591246990487,0.0015059534925967455
0.009480530396103859,0.006622064393013716,-0.011530342511832714,0.0048765805549919605,-0.00011270596587564796,0.0018522600876167417
0.009452041238546371,0.0072862510569393635,-0.011301534250378609,0.005264592822641134,-0.00011072505003539845,0.0021579472813755274
0.009678873233497143,0.007752495352178812,-0.012126862071454525,0.0050363787449896336,-0.00010881283378694206,0.0022386254277080297
0.009416736662387848,0.007022643927484751,-0.012653621844947338,0.004875922109931707,-0.00010696516983443871,0.0022850348614156246
0.009819862432777882,0.007359397131949663,-0.0119701586663723,0.004734491929411888,-0.00011633316171355546,0.0021681489888578653
0.009822674095630646,0.006946601439267397,-0.011887241154909134,0.004862089175730944,-0.00011797835759352893,0.0017488512676209211
0.009564796462655067,0.007145943585783243,-0.012086700648069382,0.005161278881132603,-0.00011630446533672512,0.00163546996191144
0.009808660484850407,0.007120667025446892,-0.01135668158531189,0.004735767375677824,-0.00011268022353760898,0.0012889241334050894
0.009825687855482101,0.007013475056737661,-0.012244713492691517,0.004600385669618845,-0.00011094389628851786,0.0011835910845547915
0.010026433505117893,0.006910793483257294,-0.012106706388294697,0.004439032636582851,-0.00010926044342340901,0.0012601392809301615
0.009737989865243435,0.007211574353277683,-0.011936218477785587,0.004466380923986435,-0.000133905719849281,0.0014559852425009012
0.00969418603926897,0.0069341398775577545,-0.012215366587042809,0.004905391484498978,-0.00013838298036716878,0.0015852897195145488
0.009933370165526867,0.006901416927576065,-0.011389564722776413,0.005040641874074936,-0.0001347991346847266,0.001569825690239668
0.010795289650559425,0.007531481329351664,-0.012178471311926842,0.005107628181576729,-0.00013091386063024402,0.0016563765238970518
0.010003888979554176,0.007130010519176722,-0.012242711149156094,0.004832203034311533,-0.0001272149820579216,0.0015547225484624505
0.009460215456783772,0.007370668929070234,-0.012006428092718124,0.004529598169028759,-0.00012371732736937702,0.001372131984680891
0.010179707780480385,0.006924131885170937,-0.012484599836170673,0.00499489763751626,-0.00012040689762216061,0.00137821095995605
0.0099162757396698,0.006918214727193117,-0.01165209710597992,0.005358737427741289,-0.00011726885713869706,0.0013367917854338884
0.009954694658517838,0.007440592162311077,-0.012441554106771946,0.0051544951274991035,-0.00011429058213252574,0.0013817439321428537
0.010286279022693634,0.0072639379650354385,-0.011344723403453827,0.004957956727594137,-0.00011145933240186423,0.0013638040982186794
0.010059626772999763,0.006810599472373724,-0.012194408103823662,0.005056890659034252,-0.0001276565162697807,0.0015106475912034512
0.00983368419110775,0.006925996392965317,-0.012675099074840546,0.004697288386523724,-0.000127251201774925,0.00163637928199023
0.00983368419110775,0.006925996392965317,-0.012675099074840546,0.004697288386523724,-0.000127251201774925,0.00163637928199023
0.009989485144615173,0.007510648109018803,-0.012345344759523869,0.004921012558043003,-0.00012448760389816016,0.0015866163885220885
0.009727098979055882,0.007220746483653784,-0.01300357561558485,0.005340518429875374,-0.00012169311958132312,0.0016874669818207622
0.010771175846457481,0.006978245452046394,-0.011853598989546299,0.005256154108792543,-0.00011901188554475084,0.0015413209330290556
0.010135719552636147,0.0069322302006185055,-0.012544882483780384,0.005276234354823828,-0.00011644540063571185,0.0013462862698361278
0.009431910701096058,0.007609561085700989,-0.012161876074969769,0.005066646728664637,-0.00011398737115086988,0.0011960621923208237
0.010400637984275818,0.007003655657172203,-0.01263607107102871,0.004789096303284168,-0.00011163087037857622,0.000988631509244442
0.010181400924921036,0.007282748818397522,-0.01255094725638628,0.004775892477482557,-0.00012638345651794225,0.000899286475032568
0.0096896318718791,0.006876265164464712,-0.01209981832653284,0.005203257780522108,-0.0001249857887160033,0.0009752865880727768
0.010074964724481106,0.007154045160859823,-0.012406442314386368,0.005309799686074257,-0.00012262559903319925,0.0012556506553664804
0.010646244511008263,0.0073060630820691586,-0.011686544865369797,0.0052908859215676785,-0.00012028886703774333,0.0014343668008223176
0.00970260240137577,0.007128249853849411,-0.012670035474002361,0.005039590410888195,-0.00011803544475696981,0.0014017622452229261
0.010144751518964767,0.007141662295907736,-0.012520468793809414,0.0048488955944776535,-0.00011586459004320204,0.0015509113436564803
0.010823195800185204,0.00712532177567482,-0.012800028547644615,0.005517913959920406,-0.0001274452661164105,0.0013443512143567204
0.011374126188457012,0.0068553355522453785,-0.012370333075523376,0.005287079606205225,-0.00012547493679448962,0.0011462760157883167
0.010886063799262047,0.006960597820580006,-0.012633835896849632,0.004989895038306713,-0.000123341815196909,0.001057476387359202
0.010593267157673836,0.007002909667789936,-0.012181680649518967,0.005240478552877903,-0.00013963096716906875,0.001028015511110425
0.011033136397600174,0.007373994681984186,-0.012506567873060703,0.005118850618600845,-0.00015247710689436644,0.0010263393633067608
0.010673239827156067,0.0073761711828410625,-0.012239273637533188,0.005019438918679953,-0.00014859063958283514,0.0009956109570339322
0.011120843701064587,0.006605247501283884,-0.012836494483053684,0.005559864453971386,-0.00014391301374416798,0.001000885502435267
0.011248487047851086,0.006714708171784878,-0.012707139365375042,0.005391066428273916,-0.00013945781392976642,0.0009861744474619627
0.010776113718748093,0.00731653394177556,-0.013236558996140957,0.005064868833869696,-0.0001553003821754828,0.0009742981637828052
0.011271431110799313,0.007148119620978832,-0.012878204695880413,0.005156008526682854,-0.00015712319873273373,0.0009603701764717698
0.011088794097304344,0.0070509775541722775,-0.012040499597787857,0.005408113356679678,-0.00015308335423469543,0.0009039653232321143
0.011977411806583405,0.0069795167073607445,-0.012330775149166584,0.005711819976568222,-0.00014888921577949077,0.0008341065258719027
0.011413812637329102,0.007381077855825424,-0.012002239935100079,0.005696530919522047,-0.00014489542809315026,0.0008382279193028808
0.011225298047065735,0.007401285693049431,-0.0127437524497509,0.00551090482622385,-0.0001411092234775424,0.0008451613830402493
0.011304918676614761,0.007276424206793308,-0.012454559095203876,0.00521389115601778,-0.0001588991581229493,0.0008221904281526804
0.011304918676614761,0.007276424206793308,-0.012454559095203876,0.00521389115601778,-0.0001588991581229493,0.0008221904281526804
0.01129696611315012,0.007245049811899662,-0.012505567632615566,0.005095709580928087,-0.0001563501136843115,0.0008218391449190676
0.011170397512614727,0.00757526746019721,-0.012194570153951645,0.005532321985810995,-0.000152652632095851,0.0008009418961592019
0.011600574478507042,0.007063404191285372,-0.011697499081492424,0.0060357702895998955,-0.00014904694398865104,0.0008109289919957519
0.010897591710090637,0.006747470702975988,-0.012435009703040123,0.0055536250583827496,-0.00014560257841367275,0.0008842661045491695
0.011529483832418919,0.0072703892365098,-0.011895514093339443,0.0051095313392579556,-0.00015997246373444796,0.000956808275077492
0.011383384466171265,0.007895179092884064,-0.012490589171648026,0.005559662356972694,-0.00015887654444668442,0.0009712488390505314
0.011684872210025787,0.007014792878180742,-0.012296237982809544,0.005594708025455475,-0.0001556019706185907,0.0009470341610722244
0.011738428846001625,0.007029660977423191,-0.012124991975724697,0.005912110209465027,-0.00015232054283842444,0.0008618184947408736
0.010820547118782997,0.007226407527923584,-0.012243624776601791,0.00546362716704607,-0.00014916533837094903,0.0008522114949300885
0.01104325708001852,0.00746189383789897,-0.011734559200704098,0.005577291361987591,-0.00014613766688853502,0.0007445113151334226
0.011361231096088886,0.007541594095528126,-0.012017449364066124,0.005314370151609182,-0.00019495832384563982,0.0007013639551587403
0.011131102219223976,0.007203992456197739,-0.012151611037552357,0.0054178922437131405,-0.00019401442841626704,0.0006682978710159659
0.011368226259946823,0.007135028950870037,-0.012644038535654545,0.005276520736515522,-0.00018646138778422028,0.0005977468681521714
0.011867527849972248,0.007300320081412792,-0.012283677235245705,0.005948578007519245,-0.00020208279602229595,0.0004894559970125556
0.011594701558351517,0.0071621970273554325,-0.012717663310468197,0.006235821638256311,-0.00019874580902978778,0.00044873799197375774
0.010947384871542454,0.00687967985868454,-0.012030093930661678,0.005431744270026684,-0.0001919487549457699,0.0004142814432270825
0.011759407818317413,0.00723384041339159,-0.012671377509832382,0.005771367810666561,-0.00018537597497925162,0.0003847406478598714
0.011468661017715931,0.007219299208372831,-0.011934771202504635,0.0057564303278923035,-0.00020707721705548465,0.00035913658211939037
0.01229121908545494,0.007022250909358263,-0.012617822736501694,0.0059455824084579945,-0.00020224550098646432,0.00033672922290861607
0.01166584249585867,0.00649275304749608,-0.012930023483932018,0.00561410840600729,-0.00019606901332736015,0.0003169550618622452
0.0114057632163167,0.007094527129083872,-0.012490612454712391,0.005676516331732273,-0.0001901585201267153,0.000299374689348042
0.011870153248310089,0.007675978355109692,-0.012748987413942814,0.0060287718661129475,-0.00018458654813002795,0.00028364406898617744
0.011728515848517418,0.00679321214556694,-0.012223728932440281,0.005994811654090881,-0.00020156898244749755,0.0002914042561315
0.012229801155626774,0.006734115071594715,-0.012481499463319778,0.006179076619446278,-0.00019905708904843777,0.00029794854344800115
0.011712713167071342,0.006801755633205175,-0.011955790221691132,0.005757890176028013,-0.0001938960631377995,0.00028576041222549975
0.011314081959426403,0.007311692461371422,-0.01282636821269989,0.00562041811645031,-0.00018882380391005427,0.0002734411973506212
0.01171619351953268,0.007015417329967022,-0.012397377751767635,0.005479146726429462,-0.00018426444148644805,0.0002620695158839226
0.011641873978078365,0.007303355727344751,-0.01202966645359993,0.005995874293148518,-0.00023792650608811527,0.0002516015665605664
0.011641873978078365,0.007303355727344751,-0.01202966645359993,0.005995874293148518,-0.00023792650608811527,0.0002516015665605664
0.012212418019771576,0.007059200666844845,-0.012367536313831806,0.006141499616205692,-0.0002299158222740516,0.00024193787248805165
0.011722059920430183,0.007782310713082552,-0.012104104273021221,0.0061571733094751835,-0.00021899465355090797,0.00023298905580304563
0.011699232272803783,0.00717299897223711,-0.012910225428640842,0.006088166031986475,-0.0002292507851962,0.00022467851522378623
0.012356489896774292,0.006771023850888014,-0.011758490465581417,0.006216749083250761,-0.0002381038066232577,0.00021694085444323719
0.011828291229903698,0.0066303107887506485,-0.012308909557759762,0.006264903582632542,-0.00022923429787624627,0.0002097180695272982
0.011816218495368958,0.007091345265507698,-0.012465173378586769,0.0063625420443713665,-0.00021997562726028264,0.00020296077127568424
0.012066242285072803,0.007068776059895754,-0.012340092100203037,0.006323881447315216,-0.00022861163597553968,0.0001966255804290995
0.011998273432254791,0.007333880756050348,-0.012950693257153034,0.006134476978331804,-0.00023613288067281246,0.00019067399261984974
0.012085977010428905,0.007060997188091278,-0.011862270534038544,0.006100309547036886,-0.00022861486650072038,0.0001850720727816224
0.011914887465536594,0.006509365513920784,-0.01255060639232397,0.006435062736272812,-0.0002206746576121077,0.00012087593495380133
0.01233239658176899,0.007106754928827286,-0.012326336465775967,0.006333543453365564,-0.00021320994710549712,6.13844022154808e-05
0.012109871953725815,0.006793823093175888,-0.012607906945049763,0.006141691468656063,-0.00020622984447982162,5.585166218224913e-05
0.012258416041731834,0.007227146998047829,-0.012380450963973999,0.0060926806181669235,-0.00019355675613041967,5.235602657194249e-05
0.011966210789978504,0.007121792528778315,-0.012841613031923771,0.006470460910350084,-0.0002128077030647546,5.087514000479132e-05
0.012279696762561798,0.007292268332093954,-0.01200555358082056,0.006287918891757727,-0.00020828319247812033,4.947654088027775e-05
0.011881639249622822,0.007639368064701557,-0.012708225287497044,0.006158789619803429,-0.00020253036927897483,4.8152833187486976e-05
0.012213892303407192,0.006843452341854572,-0.012232877314090729,0.006307421717792749,-0.00019699569384101778,4.689819616032764e-05
0.012260613963007927,0.0070386724546551704,-0.012808689847588539,0.0065346467308700085,-0.00019174952467437834,4.5707274693995714e-05
0.012167543172836304,0.00697463471442461,-0.012926875613629818,0.0063356682658195496,-0.00020772067364305258,2.8054106223862618e-05
0.012406830675899982,0.006957692094147205,-0.013305306434631348,0.006134776398539543,-0.00020540723926387727,2.2125519535620697e-05
0.012368681840598583,0.006972149014472961,-0.012843870557844639,0.00618578540161252,-0.00019688686006702483,2.1260437279124744e-05
0.0122905308380723,0.007245668675750494,-0.012613804079592228,0.006019673775881529,-0.00020711618708446622,2.0747907910845242e-05
0.012506025843322277,0.007565877865999937,-0.012992019765079021,0.006546130869537592,-0.00021602670312859118,5.240887730906252e-06
0.012506025843322277,0.007565877865999937,-0.012992019765079021,0.006546130869537592,-0.00021602670312859118,5.240887730906252e-06
0.012380375526845455,0.007172613870352507,-0.013495931401848793,0.006097206845879555,-0.00020109319302719086,2.234272500345469e-08
0.012380375526845455,0.007172613870352507,-0.013495931401848793,0.006097206845879555,-0.00020109319302719086,2.234272500345469e-08
0.012335741892457008,0.007513622287660837,-0.012883755378425121,0.0060798549093306065,-0.00019387761130928993,1.458820397814975e-09
0.01257363148033619,0.006926242727786303,-0.013037329539656639,0.0062742941081523895,-0.0002162398595828563,9.525055050252362e-11
0.012891114689409733,0.006758332252502441,-0.01285727322101593,0.00626407889649272,-0.0002108971675625071,6.219180118810508e-12
0.012709164060652256,0.006802537012845278,-0.013676127418875694,0.006338866427540779,-0.00022577833442483097,4.060680556996349e-13
0.012833118438720703,0.006834479048848152,-0.013404500670731068,0.006244415882974863,-0.00022554234601557255,2.651334420024007e-14
0.012815396301448345,0.006978905294090509,-0.013154829852283001,0.006131364498287439,-0.00021912412194069475,1.7311319504013305e-15
0.012650576420128345,0.0072401766665279865,-0.013062477111816406,0.006352479103952646,-0.00021267992269713432,1.130305381711168e-16
0.012226644903421402,0.006945370230823755,-0.013052343390882015,0.006796618457883596,-0.0002987498010043055,7.380087227224637e-18
0.013269230723381042,0.007472596596926451,-0.013340037316083908,0.006472782231867313,-0.000292698823614046,-0.0006814179942011833
0.012544487603008747,0.00782558973878622,-0.012720867060124874,0.006199598778039217,-0.0003024674078915268,-0.000772870727814734
0.012867676094174385,0.006715717259794474,-0.013524558395147324,0.006213234271854162,-0.0003098848392255604,-0.0007411338738165796
0.012416393496096134,0.006550876889377832,-0.012895898893475533,0.006221318617463112,-0.00029459528741426766,-0.0007484037196263671
0.012771335430443287,0.007148274686187506,-0.013147803023457527,0.007204068824648857,-0.00030918954871594906,-0.000779770954977721
0.013018687255680561,0.007396433502435684,-0.013223377987742424,0.006689506582915783,-0.00029539415845647454,-0.0008041733526624739
0.013246767222881317,0.0068772342056035995,-0.01285591907799244,0.00674275029450655,-0.0003119817120023072,-0.000825449067633599
0.012872537598013878,0.007175659295171499,-0.01305373851209879,0.006954833399504423,-0.0003080044116359204,-0.00099763844627887
0.013013063929975033,0.007528851740062237,-0.01328203734010458,0.006901041138917208,-0.00040166848339140415,-0.00111581280361861
0.011195567436516285,0.006551380269229412,-0.012470696121454239,0.0067450422793626785,-0.0004206087323836982,-0.0012124563800171018
0.01369374431669712,0.005430905148386955,-0.013660076074302197,0.006457390263676643,-0.000422534387325868,-0.0012369806645438075
0.013509891927242279,0.005026546306908131,-0.013175373896956444,0.006723937578499317,-0.00045069007319398224,-0.0012817394454032183
0.013636000454425812,0.005992785561829805,-0.013498879037797451,0.006751229055225849,-0.0004576744104269892,-0.0012270205188542604
0.013535305857658386,0.005940229166299105,-0.013144907541573048,0.006896631326526403,-0.00045645592035725713,-0.001174015342257917
0.01385092455893755,0.006368536967784166,-0.013269834220409393,0.0071160211227834225,-0.0005493327626027167,-0.0011581520084291697
0.013316631317138672,0.005857573356479406,-0.01256994903087616,0.0070062559098005295,-0.0005882906843908131,-0.00126383057795465
0.013934888876974583,0.005596555769443512,-0.013132558204233646,0.0073119355365633965,-0.000624301319476217,-0.0016374882543459535
0.013814824633300304,0.00583126163110137,-0.013116038404405117,0.0067579615861177444,-0.0006345987203530967,-0.0016260521952062845
0.013814824633300304,0.00583126163110137,-0.013116038404405117,0.0067579615861177444,-0.0006345987203530967,-0.0016260521952062845
0.0144114401191473,0.00661406060680747,-0.013119688257575035,0.006971772760152817,-0.0005835251649841666,-0.0017320392653346062
0.0144114401191473,0.00661406060680747,-0.013119688257575035,0.006971772760152817,-0.0005835251649841666,-0.0017320392653346062
0.01438123919069767,0.0060018086805939674,-0.0128939813002944,0.00707975821569562,-0.0005715005681850016,-0.0016631295438855886
0.014220940880477428,0.0056974380277097225,-0.01309821754693985,0.007234098855406046,-0.000531533733010292,-0.0016854603309184313
0.014136032201349735,0.006171551067382097,-0.012271424755454063,0.006990174297243357,-0.0005312401917763054,-0.0016562644159421325
0.01402828935533762,0.005683102644979954,-0.013258165679872036,0.007111761253327131,-0.00048818145296536386,-0.0014539130497723818
0.013972965069115162,0.006456668954342604,-0.012738456018269062,0.007442368194460869,-0.0005057472735643387,-0.0013519121566787362
0.013923602178692818,0.005769097711890936,-0.013449168764054775,0.007002450525760651,-0.00048064219299703836,-0.0014395919861271977
0.014257458969950676,0.005281794350594282,-0.013081717304885387,0.006878065411001444,-0.00047822174383327365,-0.00215651816688478
0.014284146018326283,0.005496881902217865,-0.012958825565874577,0.006873444654047489,-0.00047475460451096296,-0.003648370271548629
0.014742019586265087,0.006052233278751373,-0.013223502784967422,0.007745327893644571,-0.0004900400526821613,-0.003958282992243767
0.01454455591738224,0.006478304974734783,-0.0131329745054245,0.007715598214417696,-0.0004725126491393894,-0.003210094990208745
0.014468939043581486,0.006043559405952692,-0.0134689100086689,0.007298038341104984,-0.0005101448041386902,-0.002470701700076461
0.01484616193920374,0.005299509037286043,-0.013251150026917458,0.007656896021217108,-0.0005187522037886083,-0.0018337017390877008
0.014766981825232506,0.006297206971794367,-0.012872145511209965,0.007642595563083887,-0.0005141583969816566,-0.0020566119346767664
0.014840371906757355,0.00625521969050169,-0.013338071294128895,0.00743513461202383,-0.0005076688248664141,-0.002773596439510584
0.014873523265123367,0.00597700010985136,-0.012962416745722294,0.008091051131486893,-0.0004719081916846335,-0.0034898975864052773
0.015202906914055347,0.005878755357116461,-0.013307000510394573,0.008464565500617027,-0.0004974736948497593,-0.0036914029624313116
0.015272717922925949,0.005506083369255066,-0.013075766153633595,0.008597525767982006,-0.0004688763292506337,-0.0033056794200092554
0.015249070711433887,0.006320646498352289,-0.013261349871754646,0.007892979308962822,-0.0005132676451466978,-0.002925821114331484
0.014941043220460415,0.006867019459605217,-0.013094905763864517,0.008075878024101257,-0.00048420633538626134,-0.002953591523692012
0.015070227906107903,0.006333386059850454,-0.013162918388843536,0.008473556488752365,-0.00043866841588169336,-0.002986306557431817
0.015041192062199116,0.006186747457832098,-0.013249673880636692,0.008083472028374672,-0.0004583318659570068,-0.002699808916077018
0.015664275735616684,0.006505970377475023,-0.01309830229729414,0.007598894648253918,-0.00043915145215578377,-0.0026678405702114105
0.01549181342124939,0.006176646798849106,-0.013522575609385967,0.007567061111330986,-0.00040719888056628406,-0.00260851695202291
0.015498862601816654,0.006384262815117836,-0.012913217768073082,0.008127372711896896,-0.00042510105413384736,-0.0029657117556780577
0.015258869156241417,0.006298490799963474,-0.013522744178771973,0.008100294508039951,-0.0004117598873563111,-0.0032086160499602556
0.015258869156241417,0.006298490799963474,-0.013522744178771973,0.008100294508039951,-0.0004117598873563111,-0.0032086160499602556
0.015786955133080482,0.00622464157640934,-0.013654292561113834,0.007996102795004845,-0.00039037843816913664,-0.0030604952480643988
0.015786955133080482,0.00622464157640934,-0.013654292561113834,0.007996102795004845,-0.00039037843816913664,-0.0030604952480643988
0.01551989559084177,0.006567390635609627,-0.012976923026144505,0.00767470570281148,-0.0003925336932297796,-0.003114480758085847
0.015666892752051353,0.0064706639386713505,-0.013863946311175823,0.00802592746913433,-0.0003736884391400963,-0.003255045972764492
0.015557779930531979,0.006052306387573481,-0.013444303534924984,0.007843111641705036,-0.0003553413553163409,-0.003595237620174885
0.015644952654838562,0.006106100510805845,-0.013637617230415344,0.0078009748831391335,-0.0003386304306332022,-0.003707380499690771
0.01550357136875391,0.0061274063773453236,-0.01346947904676199,0.007930776104331017,-0.00032341567566618323,-0.0036381667014211416
0.015884339809417725,0.006308592855930328,-0.013022731989622116,0.007660071365535259,-0.0002958432596642524,-0.0035715331323444843
0.0156758613884449,0.0065370481461286545,-0.013654925860464573,0.007933923974633217,-0.0002763342927210033,-0.003644808428362012
0.016237659379839897,0.006550098303705454,-0.013662602752447128,0.008285521529614925,-0.0002602569293230772,-0.003734421916306019
0.01586044393479824,0.006059478037059307,-0.013769974000751972,0.008264955133199692,-0.0002460169489495456,-0.003355303080752492
0.01635916717350483,0.006236202549189329,-0.013900128193199635,0.007743356749415398,-0.00023325945949181914,-0.0033980312291532755
0.015871327370405197,0.0065253800712525845,-0.013358423486351967,0.008157274685800076,-0.0002521286078263074,-0.0037278062663972378
0.015949346125125885,0.0061530075035989285,-0.014386321417987347,0.008146682754158974,-0.00024213490542024374,-0.003669084282591939
0.016038822010159492,0.0060402206145226955,-0.01371275819838047,0.0081869438290596,-0.00023182413133326918,-0.0036031242925673723
0.016337573528289795,0.006161972880363464,-0.014109165407717228,0.008207842707633972,-0.00022228485613595694,-0.003689554985612631
0.016016488894820213,0.0066403658129274845,-0.01344271656125784,0.008433014154434204,-0.00021349491726141423,-0.003748856019228697
0.016693387180566788,0.006498039234429598,-0.014045343734323978,0.008441055193543434,-0.0002372797462157905,-0.0037422499153763056
0.016219299286603928,0.006374332122504711,-0.013593567535281181,0.008510672487318516,-0.00023067157599143684,-0.003782072337344289
0.016419654712080956,0.006209430284798145,-0.014477785676717758,0.00827095564454794,-0.0002226539800176397,-0.003878961084410548
0.01671859249472618,0.006235734559595585,-0.014169775880873203,0.008096144534647465,-0.00021506112534552813,-0.003894174937158823
0.016272002831101418,0.0066382866352796555,-0.014248332940042019,0.007818212732672691,-0.0002079612313536927,-0.004208302590996027
0.016673864796757698,0.0061692432500422,-0.013736453838646412,0.008527446538209915,-0.0002013160556089133,-0.004098572302609682
0.01642594113945961,0.00603743689134717,-0.014861009083688259,0.008538195863366127,-0.00021571632532868534,-0.004551401827484369
0.016923364251852036,0.006533356383442879,-0.014416311867535114,0.008230557665228844,-0.00021578061569016427,-0.004267137032002211
0.017015356570482254,0.00695240031927824,-0.014777759090065956,0.008007260970771313,-0.00020991609198972583,-0.004339028615504503
0.016409926116466522,0.006268742028623819,-0.014470920898020267,0.008620098233222961,-0.00020399581990204751,-0.0042404904961586
0.01723998226225376,0.006288844160735607,-0.015209908597171307,0.008578394539654255,-0.00019837665604427457,-0.0042984094470739365
0.017081057652831078,0.005868706852197647,-0.01468629203736782,0.00820404663681984,-0.00019305718888062984,-0.004238476976752281
0.017162030562758446,0.006144292186945677,-0.015059726312756538,0.008280767127871513,-0.00018813542556017637,-0.004365554079413414
0.01703561097383499,0.006664349231868982,-0.01409392524510622,0.00814127642661333,-0.0001819640165194869,-0.004618687555193901
0.01703561097383499,0.006664349231868982,-0.01409392524510622,0.00814127642661333,-0.0001819640165194869,-0.004618687555193901
0.017388857901096344,0.00572612090036273,-0.014246043749153614,0.007653817068785429,-0.00016843674529809505,-0.004350095521658659
0.017388857901096344,0.00572612090036273,-0.014246043749153614,0.007653817068785429,-0.00016843674529809505,-0.004350095521658659
0.01702074706554413,0.005960557144135237,-0.014667574316263199,0.008370059542357922,-0.00016235923976637423,-0.004856898449361324
0.01698032021522522,0.005981628317385912,-0.014173490926623344,0.008653813973069191,-0.00015670497668907046,-0.004845557734370232
0.01669999584555626,0.00622542342171073,-0.01478532049804926,0.00854453258216381,-0.00015143102791626006,-0.0044699073769152164
0.01736874133348465,0.006052363198250532,-0.014276616275310516,0.008094027638435364,-0.0001465004461351782,-0.004442418925464153
0.017375003546476364,0.005656631663441658,-0.014888166449964046,0.008333632722496986,-0.0001418807660229504,-0.004417457152158022
0.017177890986204147,0.006205859128385782,-0.013999602757394314,0.008175422437489033,-0.0001375437423121184,-0.004861357621848583
0.017228994518518448,0.0060728625394403934,-0.014539269730448723,0.008655834943056107,-0.0001334642292931676,-0.005222241394221783
0.01758667826652527,0.0061379075050354,-0.014769385568797588,0.00900672934949398,-0.0001259900745935738,-0.004893657751381397
0.01758667826652527,0.0061379075050354,-0.014769385568797588,0.00900672934949398,-0.0001259900745935738,-0.004893657751381397
0.017430640757083893,0.005967296659946442,-0.014621700160205364,0.009070541709661484,-0.00014275604917202145,-0.005081353709101677
0.0173058919608593,0.005566709209233522,-0.014064935967326164,0.00887864176183939,-0.00013944532838650048,-0.005059287883341312
0.01726546883583069,0.006388818379491568,-0.014861045405268669,0.00851806066930294,-0.00013595896598417312,-0.0052385167218744755
0.017784783616662025,0.005792076233774424,-0.01472040731459856,0.008948354050517082,-0.00013262132415547967,-0.00509527837857604
0.017479533329606056,0.005415273364633322,-0.014900906011462212,0.008822759613394737,-0.00014543657016474754,-0.004991588182747364
0.01735210232436657,0.005439773201942444,-0.014323608949780464,0.008932705037295818,-0.0001471163413953036,-0.005162942688912153
0.017813008278608322,0.006051493342965841,-0.01472292561084032,0.009050222113728523,-0.00014408331480808556,-0.005331406369805336
0.01790185645222664,0.005802227649837732,-0.01463338267058134,0.009738074615597725,-0.00014088266470935196,-0.0057153357192873955
0.01806974969804287,0.005894641857594252,-0.015270634554326534,0.009162439964711666,-0.00013780244626104832,-0.006231591105461121
0.017937785014510155,0.006163293961435556,-0.014743432402610779,0.008680523373186588,-0.000144326186273247,-0.006027246359735727
0.017501408234238625,0.005482071079313755,-0.014822729863226414,0.009255224838852882,-0.00015024833555798978,-0.005278827156871557
0.018071331083774567,0.00598884467035532,-0.014674666337668896,0.009385794401168823,-0.00014774862211197615,-0.005264249164611101
0.017640190199017525,0.005808996502310038,-0.01489249523729086,0.009045429527759552,-0.00014481508696917444,-0.005309085827320814
0.01768982969224453,0.006380998995155096,-0.015119907446205616,0.009938105940818787,-0.0001543908438179642,-0.0059553892351686954
0.018352393060922623,0.00577585631981492,-0.015244642272591591,0.009582744911313057,-0.00016105630493257195,-0.006227592006325722
0.018352393060922623,0.00577585631981492,-0.015244642272591591,0.009582744911313057,-0.00016105630493257195,-0.006227592006325722
0.017858533188700676,0.005752272438257933,-0.015407619066536427,0.009334600530564785,-0.00015626041567884386,-0.0060530900955200195
0.018211502581834793,0.005818571895360947,-0.01493915356695652,0.009791344404220581,-0.00015106612408999354,-0.005903140176087618
0.018167072907090187,0.005972591228783131,-0.014917157590389252,0.009581387974321842,-0.0001715240505291149,-0.005584625992923975
0.017831111326813698,0.0059979925863444805,-0.014843578450381756,0.00913179386407137,-0.00016962397785391659,-0.005989519879221916
0.01835441030561924,0.00581296905875206,-0.015245489776134491,0.009190697222948074,-0.00016467874229419976,-0.00566992349922657
0.017954925075173378,0.005950713064521551,-0.014653831720352173,0.009685362689197063,-0.00018466368783265352,-0.005711383651942015
0.017685940489172935,0.0058468058705329895,-0.015164736658334732,0.009441936388611794,-0.00018097949214279652,-0.005713969003409147
0.018607042729854584,0.0060211974196136,-0.014571260660886765,0.009617041796445847,-0.000197858244064264,-0.00585042592138052
0.0182657353579998,0.0064443000592291355,-0.01526182983070612,0.010118278674781322,-0.00019549827266018838,-0.0061083086766302586
0.018155675381422043,0.006481989752501249,-0.014903731644153595,0.008899111300706863,-0.0003777551755774766,-0.00627673277631402
0.018315695226192474,0.005609246902167797,-0.014994911849498749,0.009259521029889584,-0.00037317804526537657,-0.0061253332532942295
0.018505368381738663,0.005361426156014204,-0.014627588912844658,0.009607327170670033,-0.00041057035559788346,-0.005576756317168474
0.01693917252123356,0.006409892812371254,-0.014525231905281544,0.010470828972756863,-0.0004190199251752347,-0.006471490021795034
0.01693917252123356,0.006409892812371254,-0.014525231905281544,0.010470828972756863,-0.0004190199251752347,-0.006471490021795034
0.019012581557035446,0.005881720222532749,-0.015033544972538948,0.009093270637094975,-0.0004249377525411546,-0.007000206504017115
0.018651315942406654,0.006046844180673361,-0.015115683898329735,0.009410264901816845,-0.0006404371815733612,-0.006437330041080713
0.01877734251320362,0.005908283405005932,-0.014827118255198002,0.010139389894902706,-0.0006304963026195765,-0.006356880068778992
0.018942443653941154,0.006238545291125774,-0.01518685556948185,0.010149465873837471,-0.0006561859045177698,-0.0065405098721385
0.018669165670871735,0.0063381502404809,-0.014947851188480854,0.010204954072833061,-0.0006792230997234583,-0.007247582543641329
0.018589762970805168,0.0056571378372609615,-0.015031427145004272,0.01085315365344286,-0.0008305268129333854,-0.006837083026766777
0.01905118301510811,0.005779029335826635,-0.01501934602856636,0.010164725594222546,-0.0008915131911635399,-0.006467926781624556
0.0192628912627697,0.006011964287608862,-0.014869199134409428,0.009873220697045326,-0.0007840576581656933,-0.0065673827193677425
0.019655544310808182,0.006047479808330536,-0.015273947268724442,0.010157131589949131,-0.0007914433954283595,-0.0066934144124388695
0.019940314814448357,0.006175409536808729,-0.015112255699932575,0.01046072132885456,-0.0007578424992971122,-0.006701374892145395
0.019760558381676674,0.005669827573001385,-0.0152418939396739,0.010344005189836025,-0.000725422753021121,-0.006913468241691589
0.019282139837741852,0.00593860587105155,-0.015177672728896141,0.010532263666391373,-0.0006812827195972204,-0.006973573472350836
0.0191018208861351,0.006185826845467091,-0.01565587893128395,0.010129756294190884,-0.0006022193701937795,-0.006233811844140291
0.0191018208861351,0.006185826845467091,-0.01565587893128395,0.010129756294190884,-0.0006022193701937795,-0.006233811844140291
0.01928713172674179,0.006030541379004717,-0.014738798141479492,0.010577882640063763,-0.0006229897262528539,-0.006956159602850676
0.019485758617520332,0.005998467560857534,-0.015235424973070621,0.010412506759166718,-0.0005695903673768044,-0.0076370444148778915
0.019984127953648567,0.005420364905148745,-0.015252212062478065,0.010583674535155296,-0.0005956971435807645,-0.007330988999456167
0.019930589944124222,0.006029506679624319,-0.015660632401704788,0.010812780819833279,-0.0005869157030247152,-0.007007257547229528
0.019509335979819298,0.006058086175471544,-0.015093917027115822,0.010724242776632309,-0.0005781070212833583,-0.00666419230401516
0.02037634514272213,0.006270357873290777,-0.01570560410618782,0.011109222657978535,-0.000669072731398046,-0.007096859626471996
0.020393842831254005,0.005873267073184252,-0.015512493439018726,0.01119114737957716,-0.0007273893570527434,-0.007893253117799759
0.020375143736600876,0.005837989505380392,-0.01572461798787117,0.011202570050954819,-0.0007238782127387822,-0.007912995293736458
0.020006880164146423,0.0061768400482833385,-0.015635663643479347,0.010627241805195808,-0.0006974173011258245,-0.007805422879755497
0.02073041908442974,0.006189960055053234,-0.015961403027176857,0.009846983477473259,-0.0008328920230269432,-0.0077126482501626015
0.020187411457300186,0.0059713153168559074,-0.016094453632831573,0.009601033292710781,-0.0007611181354150176,-0.007681126240640879
0.0202686358243227,0.005294967442750931,-0.0155160678550601,0.010517609305679798,-0.000766633078455925,-0.008122343569993973
0.020261533558368683,0.005267843138426542,-0.016258351504802704,0.010821042582392693,-0.0006846363539807498,-0.008187912404537201
0.021230068057775497,0.005444171838462353,-0.015680089592933655,0.010203901678323746,-0.0006569979595951736,-0.007676253095269203
0.020597640424966812,0.005569559521973133,-0.015677424147725105,0.010252690874040127,-0.0006188272382132709,-0.00724283792078495
0.021519694477319717,0.005103128496557474,-0.016289260238409042,0.010267659090459347,-0.0006032807286828756,-0.0074409847147762775
0.021500134840607643,0.005353082437068224,-0.01639294996857643,0.010862256400287151,-0.0005588041385635734,-0.008066689595580101
0.020828846842050552,0.005121177993714809,-0.01639152690768242,0.010333153419196606,-0.0005207770736888051,-0.007985101081430912
0.021019402891397476,0.005194395314902067,-0.01662627048790455,0.010764180682599545,-0.00044058565981686115,-0.007906807586550713
0.0212374459952116,0.005079956725239754,-0.016305122524499893,0.010979809798300266,-0.0003994973376393318,-0.007635087240487337
0.020835794508457184,0.005249620880931616,-0.016401559114456177,0.010878341272473335,-0.00036677709431387484,-0.007573853712528944
0.01940484344959259,0.004839522298425436,-0.01598731055855751,0.011077315546572208,-0.000402135425247252,-0.007552640978246927
0.02228373847901821,0.004680515266954899,-0.016691727563738823,0.0103421900421381,-0.00040868722135201097,-0.0075179156847298145
0.02216274105012417,0.004712036810815334,-0.016058852896094322,0.00965860579162836,-0.00041039122152142227,-0.007712273392826319
0.021776147186756134,0.005075330380350351,-0.015980852767825127,0.010212681256234646,-0.0003870240179821849,-0.008394388481974602
0.02183838188648224,0.005363643169403076,-0.016158057376742363,0.010448701679706573,-0.00036472882493399084,-0.008014265447854996
0.021975740790367126,0.005597738549113274,-0.01609894074499607,0.010482365265488625,-0.00034476941800676286,-0.008129388093948364
0.022295570001006126,0.0046913595870137215,-0.01689702644944191,0.010965779423713684,-0.0003496521385386586,-0.007754224352538586
0.022295570001006126,0.0046913595870137215,-0.01689702644944191,0.010965779423713684,-0.0003496521385386586,-0.007754224352538586
0.022293921560049057,0.004568053875118494,-0.01611165516078472,0.011082935146987438,-0.0003535765572451055,-0.007978733628988266
0.0219868291169405,0.0046397242695093155,-0.01643097959458828,0.011148716323077679,-0.00033833846100606024,-0.008127093315124512
0.02213362418115139,0.005191359203308821,-0.01579231768846512,0.011049943044781685,-0.0003232356102671474,-0.008260789327323437
0.022763852030038834,0.005496140569448471,-0.01648690178990364,0.010715285316109657,-0.00030935098766349256,-0.00839006993919611
0.022947533056139946,0.005603865720331669,-0.01690410077571869,0.011092874221503735,-0.0002966039173770696,-0.008127936162054539
0.022306492552161217,0.004598070401698351,-0.016259685158729553,0.011073550209403038,-0.00028486765222623944,-0.0082166139036417
0.022452378645539284,0.0045472620986402035,-0.016461079940199852,0.010644986294209957,-0.00027019649860449135,-0.008751211687922478
0.02311226911842823,0.0047122216783463955,-0.015908842906355858,0.010877941735088825,-0.00025227817241102457,-0.00870449561625719
0.023366916924715042,0.0051481639966368675,-0.016574183478951454,0.010840640403330326,-0.00023870896256994456,-0.00851741898804903
0.02290068008005619,0.005382752511650324,-0.016402840614318848,0.011045500636100769,-0.0002266690571559593,-0.008692947216331959
0.022932270541787148,0.005570435430854559,-0.016543647274374962,0.011128208599984646,-0.00023686977510806173,-0.008805765770375729
0.023016653954982758,0.0050940439105033875,-0.016388913616538048,0.01030582096427679,-0.0002456599613651633,-0.009015209972858429
0.023402299731969833,0.0045842817053198814,-0.01603875495493412,0.010944891721010208,-0.00023619193234480917,-0.008851177990436554
0.023711763322353363,0.005032903049141169,-0.016054421663284302,0.011298802681267262,-0.0002349870337639004,-0.009328565560281277
0.023815788328647614,0.005278690252453089,-0.01654663123190403,0.01159328781068325,-0.00024246695102192461,-0.008876591920852661
0.02397582121193409,0.005484794732183218,-0.015721391886472702,0.010959811508655548,-0.00023452007735613734,-0.008877362124621868
0.02392721176147461,0.005053504835814238,-0.01619335636496544,0.011019369587302208,-0.00025419157464057207,-0.008972722105681896
0.024190109223127365,0.0047516971826553345,-0.01633787341415882,0.011679724790155888,-0.0002492460189387202,-0.009716796688735485
0.02419574372470379,0.00522370170801878,-0.016707122325897217,0.01129942573606968,-0.00031475501600652933,-0.009127478115260601
0.024525906890630722,0.005193498916924,-0.016499174758791924,0.011151684448122978,-0.0003169665578752756,-0.009605824947357178
0.02518848329782486,0.005116278771311045,-0.015573501586914062,0.010870139114558697,-0.0003414002130739391,-0.009219036437571049
0.02518848329782486,0.005116278771311045,-0.015573501586914062,0.010870139114558697,-0.0003414002130739391,-0.009219036437571049
0.024589933454990387,0.004872915334999561,-0.015700291842222214,0.011587632820010185,-0.00031542422948405147,-0.009144138544797897
0.02226889319717884,0.004818190820515156,-0.016545575112104416,0.011064657010138035,-0.0003443090827204287,-0.009502979926764965
0.02512253075838089,0.005577937699854374,-0.016535338014364243,0.011609237641096115,-0.00032932445174083114,-0.009330609813332558
0.02520393207669258,0.005364947021007538,-0.01640884391963482,0.011360119096934795,-0.0003131486300844699,-0.009614760987460613
0.02520393207669258,0.005364947021007538,-0.01640884391963482,0.011360119096934795,-0.0003131486300844699,-0.009614760987460613
0.02475670352578163,0.005383732728660107,-0.01655947044491768,0.011243834160268307,-0.00029832805739715695,-0.010258367285132408
0.02439142018556595,0.004967718850821257,-0.015991024672985077,0.011316786520183086,-0.0003227454435545951,-0.00924864411354065
0.02500144951045513,0.005234206560999155,-0.016488153487443924,0.011052665300667286,-0.00031126243993639946,-0.009656811133027077
0.02574453316628933,0.0050857714377343655,-0.016259388998150826,0.011326095089316368,-0.0002989476779475808,-0.009721403941512108
0.024942846968770027,0.004917627666145563,-0.016822179779410362,0.011745813302695751,-0.0003583709476515651,-0.009612230584025383
0.024639498442411423,0.005102898925542831,-0.01703387126326561,0.011673481203615665,-0.0003369824553374201,-0.009802875109016895
0.024650488048791885,0.005450468044728041,-0.01676119491457939,0.012060894630849361,-0.0003721871762536466,-0.010708335787057877
0.02509395219385624,0.005136759020388126,-0.01714826188981533,0.011643565259873867,-0.0003517634468153119,-0.010052048601210117
0.025657301768660545,0.00503393542021513,-0.016755860298871994,0.011241008527576923,-0.0003710360324475914,-0.009730547666549683
0.02498624101281166,0.00492511922493577,-0.016898617148399353,0.011544299311935902,-0.00036237886524759233,-0.010250911116600037
0.024489039555191994,0.005215867888182402,-0.016118165105581284,0.01156946737319231,-0.0003434483951423317,-0.009700396098196507
0.02475816383957863,0.005438946187496185,-0.01715060882270336,0.012243223376572132,-0.00036006601294502616,-0.009628652594983578
0.02495748922228813,0.005288551561534405,-0.017304260283708572,0.011731919832527637,-0.000423908670200035,-0.010171806439757347
0.02525157667696476,0.005051462911069393,-0.017068784683942795,0.011776616796851158,-0.0004143035621382296,-0.010396622121334076
0.02548927627503872,0.005648805759847164,-0.01614464446902275,0.011664416640996933,-0.00045193207915872335,-0.010823002085089684
0.025593861937522888,0.005331411957740784,-0.017723439261317253,0.012436303310096264,-0.0004554350452963263,-0.01015661284327507
0.025185948237776756,0.005529233254492283,-0.018107570707798004,0.01206782553344965,-0.00045398378279060125,-0.009957661852240562
0.02504926174879074,0.005616967100650072,-0.01740598864853382,0.011847165413200855,-0.0004253720981068909,-0.010642774403095245
0.02525489404797554,0.00519877253100276,-0.017130132764577866,0.012462117709219456,-0.000451552274171263,-0.010033925995230675
0.024821888655424118,0.0052680689841508865,-0.017001710832118988,0.01302026491612196,-0.0005601481534540653,-0.01045535784214735
0.025024469941854477,0.005157432518899441,-0.018032807856798172,0.012280945666134357,-0.0006313934572972357,-0.010448861867189407
0.025398366153240204,0.00489033805206418,-0.01725076511502266,0.012172883376479149,-0.0006497827125713229,-0.010719379410147667
0.02574627473950386,0.00529978284612298,-0.016484130173921585,0.012496682815253735,-0.0006095573771744967,-0.011093201115727425
0.025458509102463722,0.005152064375579357,-0.017400510609149933,0.012203970924019814,-0.0006309850723482668,-0.010834907181560993
0.025388354435563087,0.0049349470064044,-0.01710415631532669,0.012595666572451591,-0.0007030795095488429,-0.010732804425060749
0.025388354435563087,0.0049349470064044,-0.01710415631532669,0.012595666572451591,-0.0007030795095488429,-0.010732804425060749
0.023842018097639084,0.005155113525688648,-0.017445553094148636,0.012230008840560913,-0.0007741705048829317,-0.010676386766135693
0.026380430907011032,0.0051816171035170555,-0.017257874831557274,0.0126539571210742,-0.0007942761294543743,-0.010500682517886162
0.026093512773513794,0.005731847137212753,-0.016883114352822304,0.01275697536766529,-0.0007553647737950087,-0.010790104977786541
0.026143262162804604,0.005400964058935642,-0.017345085740089417,0.012376843951642513,-0.0007674639346078038,-0.011794342659413815
0.02594659850001335,0.005341686774045229,-0.01676313579082489,0.012527992017567158,-0.0006989777903072536,-0.011105348356068134
0.024959923699498177,0.005462590605020523,-0.017407460138201714,0.012226685881614685,-0.0007169719319790602,-0.010842077434062958
0.025578822940587997,0.0054847439751029015,-0.017152603715658188,0.012654186226427555,-0.0007229918264783919,-0.010800989344716072
0.02654411457479,0.005464976187795401,-0.017106380313634872,0.012475306168198586,-0.0007159434026107192,-0.011462077498435974
0.02667154185473919,0.005171454977244139,-0.017659736797213554,0.012677752412855625,-0.0006869242060929537,-0.011946475133299828
0.026015931740403175,0.005342116579413414,-0.016847318038344383,0.012938053347170353,-0.000704703968949616,-0.0115217175334692
0.02624121494591236,0.005041651893407106,-0.017808564007282257,0.012722098268568516,-0.0006513690459541976,-0.011863097548484802
0.02645227685570717,0.0048757330514490604,-0.017745573073625565,0.012790866196155548,-0.0007274894160218537,-0.01164782140403986
0.026016179472208023,0.005142176989465952,-0.0172867514193058,0.012702788226306438,-0.0007526728441007435,-0.011470557190477848
0.025881245732307434,0.005578349344432354,-0.017410965636372566,0.012758519500494003,-0.0007355218986049294,-0.011224503628909588
0.026179267093539238,0.005060521885752678,-0.017621232196688652,0.012891853228211403,-0.0007813112461008132,-0.011258142068982124
0.02666127309203148,0.0049578528851270676,-0.017749151214957237,0.012706038542091846,-0.0007563860854133964,-0.011309163644909859
0.02665054425597191,0.0053423866629600525,-0.01728714257478714,0.012925034388899803,-0.0006533418782055378,-0.011852228082716465
0.0265591349452734,0.005221410188823938,-0.017572501674294472,0.013087447732686996,-0.0005707127274945378,-0.011895704083144665
0.026688620448112488,0.005014394875615835,-0.017203813418745995,0.012768167071044445,-0.0005933584179729223,-0.011853503994643688
0.02655155025422573,0.005259993020445108,-0.017610102891921997,0.012957828119397163,-0.0005451675970107317,-0.011511207558214664
0.026188787072896957,0.004822118673473597,-0.017795830965042114,0.012445913627743721,-0.000556327635422349,-0.011042299680411816
0.02603944018483162,0.004528508521616459,-0.017343861982226372,0.013267895206809044,-0.0005283688078634441,-0.011351065710186958
0.026705104857683182,0.004554680548608303,-0.0176266897469759,0.012847349978983402,-0.0005224045598879457,-0.011403825134038925
0.026770342141389847,0.004682713188230991,-0.017105933278799057,0.013184675015509129,-0.0005159048596397042,-0.011364944279193878
0.026329243555665016,0.004692369606345892,-0.017790457233786583,0.01314055360853672,-0.0004832874401472509,-0.011534462682902813
0.026852725073695183,0.004848087672144175,-0.018131384626030922,0.013777997344732285,-0.00041046604746952653,-0.012035749852657318
0.02691478095948696,0.005104369949549437,-0.017206110060214996,0.01349102146923542,-0.0003717993968166411,-0.011461139656603336
0.026973774656653404,0.004828228615224361,-0.017594967037439346,0.01330577302724123,-0.0003763656422961503,-0.011550011113286018
0.02703617513179779,0.004311146680265665,-0.017379963770508766,0.013108565472066402,-0.00038021389627829194,-0.011783786118030548
0.02703617513179779,0.004311146680265665,-0.017379963770508766,0.013108565472066402,-0.00038021389627829194,-0.011783786118030548
0.026805339381098747,0.004448696039617062,-0.01747988909482956,0.013087528757750988,-0.00040849216748028994,-0.011853700503706932
0.027681022882461548,0.004937243182212114,-0.017720548436045647,0.013412784785032272,-0.00039032934000715613,-0.011797149665653706
0.027355611324310303,0.005069173872470856,-0.0170748308300972,0.013353154063224792,-0.0004134580085519701,-0.011790012009441853
0.027592187747359276,0.004845228511840105,-0.017540497705340385,0.013917984440922737,-0.0003969080571550876,-0.012299868278205395
0.027198005467653275,0.004710178356617689,-0.01743846945464611,0.014372424222528934,-0.00047979902592487633,-0.012045185081660748
0.027675911784172058,0.0047650886699557304,-0.01753273606300354,0.014754245989024639,-0.0005102082504890859,-0.01188585814088583
0.027645384892821312,0.004870483186095953,-0.018070923164486885,0.01437511295080185,-0.000505251984577626,-0.0118594691157341
0.027726976200938225,0.004550896119326353,-0.017427710816264153,0.01415791641920805,-0.0005364908138290048,-0.011655272915959358
0.027510184794664383,0.004545784089714289,-0.017530662938952446,0.013532663695514202,-0.0004988566506654024,-0.012111790478229523
0.027921408414840698,0.004535461310297251,-0.017985520884394646,0.01351107656955719,-0.000523944094311446,-0.011839068494737148
0.02798382192850113,0.0040836092084646225,-0.017934316769242287,0.013769727200269699,-0.0006623868830502033,-0.012426428496837616
0.028105691075325012,0.004368768073618412,-0.017266390845179558,0.013570750132203102,-0.0006414329982362688,-0.011675922200083733
0.028318213298916817,0.004550104029476643,-0.017809728160500526,0.014306504279375076,-0.00065929553238675,-0.011683168821036816
0.028431983664631844,0.004613362718373537,-0.018406186252832413,0.013588800095021725,-0.0006489954539574683,-0.01176522858440876
0.0284303929656744,0.004613141994923353,-0.01819784753024578,0.01365721132606268,-0.0006306755822151899,-0.012351078912615776
0.028311189264059067,0.004840847570449114,-0.018534939736127853,0.013031404465436935,-0.0005821703816764057,-0.012105106376111507
0.028515225276350975,0.004339574370533228,-0.018571052700281143,0.013574968092143536,-0.0006159510812722147,-0.01170867308974266
0.02870221808552742,0.004243083298206329,-0.01775602623820305,0.013574839569628239,-0.0006564032519236207,-0.012076321057975292
0.02955106645822525,0.004143623169511557,-0.018190128728747368,0.013818366453051567,-0.0006768192397430539,-0.01218552514910698
0.029262755066156387,0.0042909723706543446,-0.018290208652615547,0.01398319099098444,-0.0006219240603968501,-0.012438504956662655
0.02806691639125347,0.004533655010163784,-0.018250485882163048,0.013303199782967567,-0.0006364493165165186,-0.011939887888729572
0.028528917580842972,0.00461250776425004,-0.018602803349494934,0.013564735651016235,-0.0005947106401436031,-0.01187859196215868
0.029434604570269585,0.004355393350124359,-0.018132774159312248,0.013619616627693176,-0.0006599492626264691,-0.011628130450844765
0.029133282601833344,0.004267609212547541,-0.01806768961250782,0.014184939675033092,-0.0006924359477125108,-0.011846422217786312
0.02958807162940502,0.004033458884805441,-0.018689531832933426,0.013329735025763512,-0.0006959382444620132,-0.012097375467419624
0.029824648052453995,0.004450469743460417,-0.018176743760704994,0.013824833557009697,-0.000647891080006957,-0.011998923495411873
0.029824648052453995,0.004450469743460417,-0.018176743760704994,0.013824833557009697,-0.000647891080006957,-0.011998923495411873
0.029392363503575325,0.004643972031772137,-0.018840795382857323,0.013767157681286335,-0.000666884530801326,-0.012598826549947262
0.0289843138307333,0.004695679061114788,-0.01889057271182537,0.014354892075061798,-0.0007265360909514129,-0.012110497802495956
0.028683388605713844,0.0044104913249611855,-0.018260667100548744,0.014426637440919876,-0.0007570157758891582,-0.012216263450682163
0.029588397592306137,0.004376161377876997,-0.01888347417116165,0.014644967392086983,-0.0007758422289043665,-0.01230697613209486
0.029784593731164932,0.004087439738214016,-0.018311340361833572,0.01439301110804081,-0.0007900831988081336,-0.01260334998369217
0.02802182361483574,0.0038407708052545786,-0.018019799143075943,0.014748393557965755,-0.0008608175558038056,-0.012885132804512978
0.030152304098010063,0.004295016638934612,-0.017819618806242943,0.01450939942151308,-0.0009491245145909488,-0.012745826505124569
0.03027939610183239,0.004107011016458273,-0.018836544826626778,0.014695556834340096,-0.0009117739973589778,-0.012336133979260921
0.030238062143325806,0.003879006253555417,-0.01915031112730503,0.014647448435425758,-0.0008500685798935592,-0.011821707710623741
0.029839694499969482,0.004362653475254774,-0.018486669287085533,0.01510616671293974,-0.000844665220938623,-0.011673592031002045
0.030180010944604874,0.004211192484945059,-0.017793159931898117,0.015386620536446571,-0.0007672689971514046,-0.012178368866443634
0.030377332121133804,0.0044150264002382755,-0.018495358526706696,0.015303898602724075,-0.0007305553881451488,-0.011904177255928516
0.030601052567362785,0.004077833611518145,-0.01784360595047474,0.014232435263693333,-0.0006681906525045633,-0.012359424494206905
0.0305190272629261,0.004027287941426039,-0.01839619316160679,0.01439334824681282,-0.0006806425517424941,-0.012146826833486557
0.03034081496298313,0.00411146879196167,-0.01900193654000759,0.014458590187132359,-0.0006246876437216997,-0.012106198817491531
0.030407428741455078,0.004133783280849457,-0.01857692562043667,0.014620330184698105,-0.0005689658573828638,-0.01229264959692955
0.03014574944972992,0.00451761344447732,-0.01878218911588192,0.014504757709801197,-0.0005910766776651144,-0.012198111042380333
0.030588766559958458,0.004616454243659973,-0.01860925927758217,0.014266915619373322,-0.0005532200448215008,-0.01208629459142685
0.03132418915629387,0.004354831762611866,-0.018374202772974968,0.014453286305069923,-0.0005169130163267255,-0.012437197379767895
0.030604885891079903,0.0040663075633347034,-0.0186653770506382,0.014365793205797672,-0.00046519070747308433,-0.012440032325685024
0.029711585491895676,0.004271981306374073,-0.018456358462572098,0.014361190609633923,-0.0004833806015085429,-0.012963970191776752
0.030573202297091484,0.004341596271842718,-0.018881220370531082,0.014134151861071587,-0.00046112772542983294,-0.01295068021863699
0.03156725689768791,0.004087208304554224,-0.019262846559286118,0.014283401891589165,-0.0004259724810253829,-0.011791577562689781
0.03074653074145317,0.004128625616431236,-0.018662283197045326,0.014516584575176239,-0.00045605533523485065,-0.01334435399621725
0.03185484558343887,0.004121930338442326,-0.01855737902224064,0.01461764145642519,-0.00047408443060703576,-0.013102139346301556
0.03167666122317314,0.003956998698413372,-0.018517354503273964,0.014727666042745113,-0.0004585462447721511,-0.012671544216573238
0.03167666122317314,0.003956998698413372,-0.018517354503273964,0.014727666042745113,-0.0004585462447721511,-0.012671544216573238
0.03155377507209778,0.0042977891862392426,-0.018266785889863968,0.014926227740943432,-0.0005000797682441771,-0.012499535456299782
0.030147604644298553,0.004041620530188084,-0.01889820210635662,0.014776401221752167,-0.000533939921297133,-0.01240196917206049
0.03070237673819065,0.00386486086063087,-0.01905032992362976,0.014968992210924625,-0.0004959075013175607,-0.012042000889778137
0.0317179411649704,0.0043031866662204266,-0.018474549055099487,0.01539184432476759,-0.0005252262926660478,-0.012598368339240551
0.03121021017432213,0.00417293468490243,-0.01904158852994442,0.015359819866716862,-0.0004890671698376536,-0.012862023897469044
0.030540306121110916,0.003952665254473686,-0.018952220678329468,0.015644120052456856,-0.0005101063870824873,-0.013195319101214409
0.031286828219890594,0.004299543797969818,-0.018089553341269493,0.015212200582027435,-0.0004865120572503656,-0.013381793163716793
0.030785907059907913,0.004098806064575911,-0.018558256328105927,0.01557138655334711,-0.0006244852556847036,-0.012810617685317993
0.03137364238500595,0.003936502151191235,-0.019053636118769646,0.015210548415780067,-0.0006124111823737621,-0.012851644307374954
0.031126607209444046,0.004263707902282476,-0.018718549981713295,0.015961697325110435,-0.000632806564681232,-0.01300519984215498
0.03165791183710098,0.004467033315449953,-0.018789924681186676,0.015298446640372276,-0.0005850060260854661,-0.013600341975688934
0.03138761594891548,0.004061846528202295,-0.018729539588093758,0.015200383961200714,-0.0006019136635586619,-0.01348109170794487
0.031231114640831947,0.004387900233268738,-0.01844000816345215,0.015115010552108288,-0.0005681648035533726,-0.013609563931822777
0.03156795725226402,0.004184415563941002,-0.01916535757482052,0.015490792691707611,-0.0007325843325816095,-0.013287891633808613
0.03202163428068161,0.004429487511515617,-0.01857864297926426,0.015190155245363712,-0.0007616195944137871,-0.013560024090111256
0.031410157680511475,0.004241365473717451,-0.019166646525263786,0.01509303878992796,-0.0007777289138175547,-0.013047518208622932
0.03161570429801941,0.004513877909630537,-0.018427027389407158,0.015633899718523026,-0.0007714052335359156,-0.01280919648706913
0.03108246438205242,0.0046470933593809605,-0.018497923389077187,0.015490169636905193,-0.0007503295782953501,-0.012840514071285725
0.030777525156736374,0.004771547392010689,-0.018736543133854866,0.01490964274853468,-0.0006489718798547983,-0.013193796388804913
0.03273278474807739,0.004318475257605314,-0.018873484805226326,0.015369894914329052,-0.0006499117589555681,-0.013465626165270805
0.032905519008636475,0.00426896195858717,-0.019137272611260414,0.01540470216423273,-0.0006024900358170271,-0.013662567362189293
0.031995173543691635,0.00469780620187521,-0.019274262711405754,0.016165759414434433,-0.0005434282938949764,-0.013613949529826641
0.0319364033639431,0.00478418217971921,-0.018946455791592598,0.015866853296756744,-0.0005646598874591291,-0.01366113219410181
0.03181198239326477,0.004846062511205673,-0.019795812666416168,0.016309846192598343,-0.000527024909388274,-0.013700754381716251
0.03244563937187195,0.004372228868305683,-0.01949881948530674,0.015804748982191086,-0.0005515296943485737,-0.01406004372984171
0.03236987814307213,0.003967687021940947,-0.01878492720425129,0.015876764431595802,-0.0005021998658776283,-0.013866818509995937
0.032752953469753265,0.004077632911503315,-0.01954999938607216,0.016139106824994087,-0.0004855235165450722,-0.014034382998943329
0.0327434204518795,0.004112585913389921,-0.019667889922857285,0.01613854430615902,-0.00048012493061833084,-0.013732695020735264
0.03267577663064003,0.004773299675434828,-0.019320711493492126,0.01676025055348873,-0.000511807098519057,-0.013836086727678776
0.032816629856824875,0.00449738884344697,-0.019566809758543968,0.016119495034217834,-0.000527764845173806,-0.013735118322074413
0.03218168020248413,0.004553125239908695,-0.020129241049289703,0.016747480258345604,-0.0005065035074949265,-0.013835353776812553
0.03218168020248413,0.004553125239908695,-0.020129241049289703,0.016747480258345604,-0.0005065035074949265,-0.013835353776812553
0.032465822994709015,0.004471319727599621,-0.019282754510641098,0.016359856352210045,-0.0006949099479243159,-0.013554537668824196
0.0332934632897377,0.0043982998467981815,-0.019025474786758423,0.01615801639854908,-0.0007488029659725726,-0.013550307601690292
0.03271814435720444,0.004393299110233784,-0.01986163854598999,0.015754546970129013,-0.0007470903219655156,-0.013343126513063908
0.0320691354572773,0.004466583486646414,-0.019697275012731552,0.016144661232829094,-0.0007379319285973907,-0.013465115800499916
0.03278053551912308,0.004800853319466114,-0.01960580237209797,0.01637932099401951,-0.0007094194879755378,-0.013699664734303951
0.03287603333592415,0.004648306872695684,-0.019633380696177483,0.01674155332148075,-0.0007644194411113858,-0.01402154378592968
0.03364391252398491,0.004943900741636753,-0.019396718591451645,0.017114177346229553,-0.0007685618475079536,-0.014213779009878635
0.0344417504966259,0.005053211003541946,-0.01939464919269085,0.01645408570766449,-0.0006996527663432062,-0.01390830334275961
0.03376539424061775,0.004803110379725695,-0.019745539873838425,0.016972843557596207,-0.0006965142674744129,-0.01407568994909525
0.03293649107217789,0.004250022582709789,-0.019649742171168327,0.017108751460909843,-0.0006926657515577972,-0.01413230411708355
0.032762251794338226,0.0043346150778234005,-0.019652996212244034,0.017260560765862465,-0.0006709062727168202,-0.014187305234372616
0.034000199288129807,0.00468378234654665,-0.020263109356164932,0.017334574833512306,-0.0006662776577286422,-0.014208032749593258
0.033630214631557465,0.004834277555346489,-0.019116003066301346,0.017470812425017357,-0.0006181358476169407,-0.014376637525856495
0.03375968337059021,0.004703775513917208,-0.019861212000250816,0.01693352684378624,-0.0006254325853660703,-0.014513978734612465
0.034114278852939606,0.004390653222799301,-0.019801758229732513,0.016680389642715454,-0.0006497526774182916,-0.014250965788960457
0.03395243361592293,0.004531333222985268,-0.019371243193745613,0.01701459474861622,-0.0006148734246380627,-0.01432394701987505
0.03423150256276131,0.004588324110955,-0.019932225346565247,0.01679588109254837,-0.0006552093545906246,-0.014387640170753002
0.03365612402558327,0.004406091757118702,-0.019946971908211708,0.017413528636097908,-0.000678712036460638,-0.01575418747961521
0.03385564684867859,0.004525717347860336,-0.019360966980457306,0.01704433374106884,-0.000664513383526355,-0.013969773426651955
0.03409609571099281,0.004948565270751715,-0.0195566825568676,0.017155835404992104,-0.0006417598342522979,-0.014174973592162132
0.03395787999033928,0.00493427412584424,-0.019728370010852814,0.017103880643844604,-0.0006570522673428059,-0.01453255396336317
0.03424407169222832,0.0045236870646476746,-0.01948598213493824,0.016724247485399246,-0.0006870796205475926,-0.015152334235608578
0.03538062423467636,0.004360167309641838,-0.019571054726839066,0.017412107437849045,-0.000662232399918139,-0.01500002946704626
0.034858785569667816,0.004473184235394001,-0.020135166123509407,0.01707933470606804,-0.0006891735247336328,-0.014962425455451012
0.033304594457149506,0.004977995064109564,-0.01981980912387371,0.01776288077235222,-0.0007060599746182561,-0.014988566748797894
0.033304594457149506,0.004977995064109564,-0.01981980912387371,0.01776288077235222,-0.0007060599746182561,-0.014988566748797894
0.03437592089176178,0.004711361136287451,-0.019655829295516014,0.017572861164808273,-0.0006460299482569098,-0.015183140523731709
0.034700166434049606,0.004619271028786898,-0.01977522484958172,0.017082322388887405,-0.0006270365556702018,-0.015192119404673576
0.03406750038266182,0.004890425596386194,-0.020020563155412674,0.017274020239710808,-0.0006104734493419528,-0.015427746810019016
0.03530765697360039,0.004888265859335661,-0.019547853618860245,0.01687467470765114,-0.0005665427888743579,-0.015738122165203094
0.03463727980852127,0.004777540918439627,-0.019712263718247414,0.017426807433366776,-0.0005520885461010039,-0.015597541816532612
0.033721715211868286,0.004839806351810694,-0.020339613780379295,0.017485778778791428,-0.0005671635153703392,-0.015679318457841873
0.03421804681420326,0.0048219277523458,-0.01982029527425766,0.01690881885588169,-0.0005334737943485379,-0.01544614601880312
0.03563780337572098,0.0049219997599720955,-0.019889727234840393,0.017443107441067696,-0.000556708313524723,-0.015536757186055183
0.03511578217148781,0.004640021361410618,-0.019882557913661003,0.016939708963036537,-0.0005202949978411198,-0.015319344587624073
0.03492097929120064,0.004708288703113794,-0.01977730169892311,0.01732129231095314,-0.0005450366297736764,-0.015306737273931503
0.03528007119894028,0.004804394673556089,-0.02033136412501335,0.017392050474882126,-0.0006352862110361457,-0.015176411718130112
0.03550528362393379,0.004441676661372185,-0.020806288346648216,0.016993457451462746,-0.0007370139355771244,-0.015447541140019894
0.03547818213701248,0.004542838782072067,-0.020272905007004738,0.017234282568097115,-0.0007856435258872807,-0.015419197268784046
0.03565326705574989,0.005223526619374752,-0.02033410593867302,0.017499113455414772,-0.0009712857427075505,-0.015440765768289566
0.03568555787205696,0.004772842861711979,-0.020106807351112366,0.01744592934846878,-0.0010579358786344528,-0.015304865315556526
0.03566328063607216,0.0045699262991547585,-0.020139038562774658,0.017290696501731873,-0.0010316603584215045,-0.015315010212361813
0.035754963755607605,0.004715879913419485,-0.020793134346604347,0.017822209745645523,-0.0009566721855662763,-0.016006046906113625
0.03625652194023132,0.00469290791079402,-0.020568663254380226,0.017376460134983063,-0.0008822011295706034,-0.0160972997546196
0.036045562475919724,0.0049143205396831036,-0.020019451156258583,0.017552586272358894,-0.0009549055248498917,-0.016313692554831505
0.03622399643063545,0.004825847689062357,-0.02030433528125286,0.017349012196063995,-0.0009518795995973051,-0.016481483355164528
0.0366416797041893,0.004667347762733698,-0.020921258255839348,0.017260920256376266,-0.0010321505833417177,-0.015965349972248077
0.036521416157484055,0.004571347031742334,-0.0207400880753994,0.017719315364956856,-0.0010451639536768198,-0.01595098152756691
0.036427635699510574,0.004689647350460291,-0.020029127597808838,0.017260674387216568,-0.001022416166961193,-0.01577138714492321
0.036139585077762604,0.0044777789153158665,-0.02034570463001728,0.01742643117904663,-0.0010042942594736814,-0.01563340052962303
0.036667224019765854,0.004545904695987701,-0.020303038880228996,0.017929207533597946,-0.0009346965816803277,-0.01599740795791149
0.03695150092244148,0.004510230850428343,-0.020134322345256805,0.0181869063526392,-0.0008676634752191603,-0.01633187010884285
0.03666219487786293,0.004602174740284681,-0.02000236324965954,0.01857093535363674,-0.000805976742412895,-0.01656225137412548
0.03685322403907776,0.00421246699988842,-0.021032432094216347,0.018547073006629944,-0.0007546141277998686,-0.016493894159793854
0.03700157254934311,0.0044799973256886005,-0.02092147059738636,0.017973821610212326,-0.0007462150533683598,-0.016188371926546097
0.03695990890264511,0.00447675958275795,-0.019949454814195633,0.017999345436692238,-0.0006893597892485559,-0.016015883535146713
0.037361837923526764,0.0043433355167508125,-0.020359938964247704,0.017840009182691574,-0.0007052899454720318,-0.016212832182645798
0.03725632652640343,0.004454576876014471,-0.020993685349822044,0.018601763993501663,-0.0006594941951334476,-0.016296613961458206
0.03718911483883858,0.004554790444672108,-0.020350666716694832,0.019195882603526115,-0.0006681741215288639,-0.01619672402739525
0.03718911483883858,0.004554790444672108,-0.020350666716694832,0.019195882603526115,-0.0006681741215288639,-0.01619672402739525
0.037456005811691284,0.004292414989322424,-0.020108548924326897,0.018793292343616486,-0.0006676146876998246,-0.015911202877759933
0.038316912949085236,0.004479255061596632,-0.020753417164087296,0.018306754529476166,-0.0006452508387155831,-0.015655312687158585
0.037711527198553085,0.004377244506031275,-0.02078976482152939,0.019026638939976692,-0.0006659686914645135,-0.015816176310181618
0.036447521299123764,0.004183282144367695,-0.02034677192568779,0.018854346126317978,-0.0008074698271229863,-0.015846475958824158
0.03803671523928642,0.004455822054296732,-0.021133260801434517,0.01929428055882454,-0.0008440905367024243,-0.015924805775284767
0.03810354694724083,0.004787583835422993,-0.02197648026049137,0.019352693110704422,-0.0008446742431260645,-0.016056502237915993
0.03819895163178444,0.004826514516025782,-0.021602410823106766,0.01839589513838291,-0.0008367788977921009,-0.01663149520754814
0.03923238441348076,0.004638336598873138,-0.02119656838476658,0.018606577068567276,-0.0007785928901284933,-0.016969365999102592
0.037844326347112656,0.004689090419560671,-0.021277235820889473,0.018862010911107063,-0.0009133457206189632,-0.01670871675014496
