davideferrari95/blind_handover_controller/data/Test 88 - [2024-02-07 -- 16-09-44]/joint_states_data.csv
shoulder_pan_joint,shoulder_lift_joint,elbow_joint,wrist_1_joint,wrist_2_joint,wrist_3_joint
0.006975697819143534,0.005143329501152039,-0.00907081738114357,0.006630190648138523,0.0,0.006437231786549091
0.007103340234607458,0.006142577156424522,-0.009731478057801723,0.006677709519863129,0.0,0.005988663528114557
0.007103340234607458,0.006142577156424522,-0.009731478057801723,0.006677709519863129,0.0,0.005988663528114557
0.006925874389708042,0.005798749625682831,-0.00947556085884571,0.007323945872485638,0.0,0.005902513861656189
0.007133060600608587,0.005267600994557142,-0.008917341940104961,0.007530644536018372,0.0,0.006145930383354425
0.006745750550180674,0.005184705834835768,-0.008658253587782383,0.006881003733724356,0.0,0.006002570036798716
0.006620666943490505,0.0050894045270979404,-0.008897638879716396,0.006374703254550695,0.0,0.0061913589015603065
0.006945414002984762,0.005276289768517017,-0.008989722467958927,0.006853512022644281,0.0,0.006372496485710144
0.00704612722620368,0.005524416454136372,-0.008722888305783272,0.00675671873614192,0.0,0.006272532977163792
0.006889136508107185,0.005600702483206987,-0.00968957506120205,0.00678428215906024,0.0,0.006380454637110233
0.006674603559076786,0.005091843660920858,-0.008922209031879902,0.006476060952991247,0.0,0.006289624143391848
0.007529533933848143,0.004878268577158451,-0.007569888606667519,0.006508590653538704,0.0,0.005860156379640102
0.006771588232368231,0.005080850794911385,-0.0090605104342103,0.006909096147865057,0.0,0.005851350724697113
0.006632381118834019,0.0050422498025000095,-0.00924650114029646,0.00656268373131752,0.0,0.006082967855036259
0.006702165585011244,0.005198326427489519,-0.008543798699975014,0.006222667172551155,0.0,0.006129743065685034
0.0070001971907913685,0.005210652016103268,-0.008800139650702477,0.005985786207020283,0.0,0.006155000999569893
0.006870883051306009,0.004556753672659397,-0.009011712856590748,0.006179771851748228,0.0,0.006064784247428179
0.007132236380130053,0.0044471221044659615,-0.008521704003214836,0.006315974518656731,0.0,0.0069971829652786255
0.007132236380130053,0.0044471221044659615,-0.008521704003214836,0.006315974518656731,0.0,0.0069971829652786255
0.006561350077390671,0.004508395213633776,-0.00836059171706438,0.006112976931035519,0.0,0.005867487750947475
0.006430547218769789,0.004600308835506439,-0.00941164419054985,0.006138344760984182,0.0,0.005508273374289274
0.006862284149974585,0.00468689389526844,-0.01021236926317215,0.006182950921356678,0.0,0.005729622207581997
0.006496131420135498,0.004810900893062353,-0.009623686783015728,0.006219943054020405,0.0,0.006095634773373604
0.006324047688394785,0.004469901788979769,-0.010133778676390648,0.006506047677248716,0.0,0.006738326512277126
0.006253708153963089,0.004458264447748661,-0.009904935024678707,0.006622578948736191,0.0,0.007015405222773552
0.006530688144266605,0.0044074892066419125,-0.0097001101821661,0.006646923720836639,0.0,0.006148106884211302
0.007097735069692135,0.004185658413916826,-0.009520567953586578,0.0065030306577682495,0.0,0.006319998297840357
0.006413969676941633,0.004331223666667938,-0.009257912635803223,0.006508540362119675,0.0,0.006580246612429619
0.006496559828519821,0.004608427174389362,-0.0100318044424057,0.006026917137205601,0.0,0.006282842252403498
0.006460785400122404,0.004577449522912502,-0.009791410528123379,0.005847447086125612,0.0,0.005982921924442053
0.006444096099585295,0.004289785400032997,-0.009111065417528152,0.006644442677497864,0.0,0.006308501120656729
0.006575505714863539,0.0044552842155098915,-0.010015043430030346,0.0069076791405677795,0.0,0.006298488937318325
0.006454357877373695,0.00425430852919817,-0.009490174241364002,0.006343541666865349,0.0,0.0064786565490067005
0.006371987983584404,0.004379987251013517,-0.008961431682109833,0.005809432361274958,0.0,0.006618952378630638
0.006351790856570005,0.0049455673433840275,-0.009706233628094196,0.005911617074161768,0.0,0.005962512455880642
0.0062638684175908566,0.0049396660178899765,-0.009710662066936493,0.006194221321493387,0.0,0.006062246859073639
0.006565031595528126,0.004335840232670307,-0.0095359580591321,0.006294614169746637,0.0,0.006316021084785461
0.006706066429615021,0.00428797909989953,-0.009606877341866493,0.006235836539417505,0.0,0.006334028672426939
0.006855536252260208,0.004546542186290026,-0.009061659686267376,0.006015817169100046,0.0,0.0062994761392474174
0.0063303448259830475,0.004160878714174032,-0.0087181581184268,0.005588446743786335,0.0,0.006457981653511524
0.006664344109594822,0.004471166990697384,-0.009675397537648678,0.005653867498040199,0.0,0.005965289659798145
0.006425099913030863,0.004676960874348879,-0.009716310538351536,0.0054520475678145885,0.0,0.006083521526306868
0.006425099913030863,0.004676960874348879,-0.009716310538351536,0.0054520475678145885,0.0,0.006083521526306868
0.006115488708019257,0.004502499476075172,-0.009319556877017021,0.005465602967888117,0.0,0.0065271868370473385
0.006530930288136005,0.004371634218841791,-0.01002181600779295,0.005407830700278282,0.0,0.006225085351616144
0.006717689335346222,0.00442802719771862,-0.009690203703939915,0.005770678166300058,0.0,0.005942767020314932
0.006589258089661598,0.00461032846942544,-0.00904048327356577,0.0055824145674705505,0.0,0.005563120823353529
0.006450209766626358,0.0042140246368944645,-0.009368591010570526,0.005214550532400608,0.0,0.005854236427694559
0.006621788255870342,0.004474962130188942,-0.009675408713519573,0.006041110027581453,0.0,0.006938625127077103
0.006619442254304886,0.004653605632483959,-0.00919378362596035,0.00586555153131485,0.0,0.007129062432795763
0.006649093236774206,0.004468723200261593,-0.00967831164598465,0.005389941856265068,0.0,0.005611757282167673
0.006429919041693211,0.004483131226152182,-0.009219241328537464,0.0055377972312271595,0.0,0.005781054962426424
0.006723964586853981,0.004426164086908102,-0.009420155547559261,0.005758477374911308,0.0,0.006067068316042423
0.006560566835105419,0.004278348758816719,-0.009689489379525185,0.005499411374330521,0.0,0.006078300531953573
0.006960483267903328,0.004840460140258074,-0.009259521029889584,0.0054367962293326855,0.0,0.006097239907830954
0.006918271537870169,0.005006587132811546,-0.009288462810218334,0.005405593663454056,0.0,0.005646469537168741
0.006556553300470114,0.004730944987386465,-0.009792773984372616,0.005896708928048611,0.0,0.005928437691181898
0.006998349912464619,0.004363243468105793,-0.009121935814619064,0.005982851143926382,0.0,0.006177164148539305
0.006655203178524971,0.004828182049095631,-0.008666956797242165,0.005918292794376612,0.0,0.00591672770678997
0.006723247934132814,0.0044754305854439735,-0.009496448561549187,0.005352342501282692,0.0,0.0055062370374798775
0.006763473618775606,0.004584497306495905,-0.009303729981184006,0.005562358535826206,0.0,0.005749878473579884
0.0065289996564388275,0.004460139200091362,-0.008885461837053299,0.005931411869823933,0.0,0.005947584751993418
0.006538576912134886,0.004258168861269951,-0.009594401344656944,0.006051031872630119,0.0,0.006564126815646887
0.006644442677497864,0.004853707272559404,-0.009396468289196491,0.005921593867242336,0.0,0.006464339792728424
0.006673052906990051,0.00485819298774004,-0.008997139520943165,0.005810086149722338,0.0,0.0062598250806331635
0.00749070942401886,0.00454373424872756,-0.009301784448325634,0.005500817205756903,0.0,0.00539143942296505
0.00749070942401886,0.00454373424872756,-0.009301784448325634,0.005500817205756903,0.0,0.00539143942296505
0.006781254895031452,0.004992147441953421,-0.009279586374759674,0.005461456254124641,0.0,0.005269964691251516
0.006571919657289982,0.004883036017417908,-0.008498374372720718,0.0055184694938361645,0.0,0.006189890205860138
0.00654603773728013,0.0048163398168981075,-0.008743474259972572,0.005183015950024128,0.0,0.006367113441228867
0.006527903024107218,0.004503114614635706,-0.009960873052477837,0.005159073043614626,0.0,0.005731324199587107
0.0071180532686412334,0.004540807101875544,-0.009087718091905117,0.005532258655875921,0.0,0.005655003245919943
0.007463481277227402,0.004602562170475721,-0.009500847198069096,0.005267047788947821,0.0,0.0053173936903476715
0.006531284190714359,0.0046527632512152195,-0.008875514380633831,0.005378200206905603,0.0,0.006023475434631109
0.007073822431266308,0.004751852247864008,-0.008531334809958935,0.0048100645653903484,0.0,0.005939379334449768
0.007086923811584711,0.0049482849426567554,-0.009106500074267387,0.004654773510992527,0.0,0.005857260897755623
0.006961620878428221,0.004999426193535328,-0.009209045208990574,0.004649583250284195,0.0,0.005774773191660643
0.006788743659853935,0.00470702676102519,-0.008565029129385948,0.004691456910222769,0.0,0.005677669309079647
0.007437425199896097,0.004764802288264036,-0.008658726699650288,0.005619712173938751,0.0,0.005700068082660437
0.007589016109704971,0.004938669502735138,-0.008759323507547379,0.005491077434271574,0.0,0.0059638661332428455
0.006568955723196268,0.004927792586386204,-0.00824740994721651,0.005318144802004099,0.0,0.006386957596987486
0.006404205225408077,0.004709647968411446,-0.008139274083077908,0.005005101207643747,0.0,0.005782898049801588
0.006979714147746563,0.004883660934865475,-0.009060773067176342,0.004833212122321129,0.0,0.005858638323843479
0.007377288769930601,0.004966139793395996,-0.008648760616779327,0.005401294212788343,0.0,0.005721505731344223
0.007480785250663757,0.004836053121834993,-0.00831624586135149,0.005402244161814451,0.0,0.0055608064867556095
0.0068559045903384686,0.004717259202152491,-0.008763020858168602,0.005890868604183197,0.0,0.005603979807347059
0.0072059123776853085,0.004682616330683231,-0.008754739537835121,0.0055462997406721115,0.0,0.00603726040571928
0.00676314439624548,0.004656115546822548,-0.008204318583011627,0.00594324292615056,0.0,0.006006141658872366
0.006669888272881508,0.004588811192661524,-0.008380474522709846,0.005486196372658014,0.0,0.005925507750362158
0.0068151638843119144,0.0047188010066747665,-0.009035429917275906,0.005392099265009165,0.0,0.005975351668894291
0.006849097553640604,0.005064317490905523,-0.00885086227208376,0.005585655104368925,0.0,0.005773973185569048
0.006972454488277435,0.004666589200496674,-0.00832358282059431,0.0054841418750584126,0.0,0.005683406721800566
0.007634390145540237,0.005051090382039547,-0.009003880433738232,0.005457221996039152,0.0,0.005876019597053528
0.007634390145540237,0.005051090382039547,-0.009003880433738232,0.005457221996039152,0.0,0.005876019597053528
0.006798094604164362,0.004877719562500715,-0.008614715188741684,0.005038147326558828,0.0,0.006266346201300621
0.00639354670420289,0.004756904672831297,-0.008346136659383774,0.0052834865637123585,0.0,0.00613851984962821
0.006710102781653404,0.0044756559655070305,-0.009231305681169033,0.005301746539771557,0.0,0.005513087380677462
0.007266097702085972,0.004803272895514965,-0.009132036939263344,0.0050748856738209724,0.0,0.005710928700864315
0.007535143755376339,0.004883121233433485,-0.009069514460861683,0.005152047146111727,0.0,0.005472668446600437
0.007436803076416254,0.0050530326552689075,-0.009046915918588638,0.004983069840818644,0.0,0.005168428644537926
0.0069045694544911385,0.004819229245185852,-0.00885482132434845,0.0052089206874370575,0.0,0.005345991812646389
0.006926271133124828,0.004385193809866905,-0.008507421240210533,0.005110809113830328,0.0,0.005476911086589098
0.00674706744030118,0.004549448378384113,-0.00985803548246622,0.005174542311578989,0.0,0.0054562706500291824
0.006989816669374704,0.004705587401986122,-0.008769013918936253,0.004966567270457745,0.0,0.00591212697327137
0.007103132549673319,0.005057540722191334,-0.008477162569761276,0.004833906423300505,0.0,0.005693093407899141
0.007439195644110441,0.004957246128469706,-0.009091109037399292,0.004780695773661137,0.0,0.005344790872186422
0.0069711897522211075,0.004545694682747126,-0.009074600413441658,0.005460571963340044,0.0,0.005108803976327181
0.0066333673894405365,0.004302461631596088,-0.00898971688002348,0.005483894143253565,0.0,0.005798587575554848
0.006959301885217428,0.004911246709525585,-0.008435968309640884,0.005335265304893255,0.0,0.005648806691169739
0.007133220788091421,0.00505991792306304,-0.009446597658097744,0.005032350309193134,0.0,0.0058521730825304985
0.007187137380242348,0.004614008590579033,-0.008761403150856495,0.004819374997168779,0.0,0.0056895483285188675
0.006807405035942793,0.005047000478953123,-0.00856311246752739,0.004760462325066328,0.0,0.005565411876887083
0.00722122797742486,0.004923983942717314,-0.009347734041512012,0.005285249091684818,0.0,0.005126665811985731
0.007279897574335337,0.004700066056102514,-0.008671149611473083,0.005566270090639591,0.0,0.005236323922872543
0.007131501566618681,0.0046012927778065205,-0.008274436928331852,0.00577543256804347,0.0,0.005445194896310568
0.007040255703032017,0.00476894760504365,-0.008510682731866837,0.0052132937125861645,0.0,0.005412380211055279
0.007599159609526396,0.005178902298212051,-0.008907248266041279,0.005123936105519533,0.0,0.0056410967372357845
0.007791696581989527,0.005029857158660889,-0.008011344820261002,0.005047083366662264,0.0,0.005427431780844927
0.0071379682049155235,0.004899881314486265,-0.009179734624922276,0.005325659643858671,0.0,0.005333419889211655
0.007351710461080074,0.005111481063067913,-0.009822208434343338,0.005675509572029114,0.0,0.005114784464240074
0.007351710461080074,0.005111481063067913,-0.009822208434343338,0.005675509572029114,0.0,0.005114784464240074
0.007724801078438759,0.004555273801088333,-0.008450953289866447,0.005588098429143429,0.0,0.00525791198015213
0.00701165571808815,0.004559755325317383,-0.007815434597432613,0.005743982270359993,0.0,0.005044842138886452
0.006960769183933735,0.005049171857535839,-0.00958969071507454,0.005318939220160246,0.0,0.004901112522929907
0.006846333853900433,0.005347066558897495,-0.009104742668569088,0.005249842535704374,0.0,0.005055848974734545
0.007057331036776304,0.0050164456479251385,-0.008749883621931076,0.005200376734137535,0.0,0.005022553727030754
0.00827291700989008,0.004713257774710655,-0.009064190089702606,0.0054704612120985985,0.0,0.004991001449525356
0.0072004832327365875,0.004616067744791508,-0.008641071617603302,0.005098872818052769,0.0,0.005414346233010292
0.007065474987030029,0.00470791757106781,-0.008991110138595104,0.005103245377540588,0.0,0.005826025735586882
0.007990012876689434,0.0050206673331558704,-0.008978630416095257,0.005154307000339031,0.0,0.005414200481027365
0.007859822362661362,0.004980974830687046,-0.008375883102416992,0.005218988750129938,0.0,0.005010933615267277
0.007110765669494867,0.004836919717490673,-0.00884986761957407,0.005204055458307266,0.0,0.005145203322172165
0.007401307113468647,0.005000621546059847,-0.009224026463925838,0.004841618239879608,0.0,0.0050472235307097435
0.007614530622959137,0.004966279026120901,-0.009183960035443306,0.004600486718118191,0.0,0.005200549960136414
0.00804260466247797,0.004718045704066753,-0.008661205880343914,0.004855038598179817,0.0,0.005116494372487068
0.007274565286934376,0.004842385649681091,-0.009775271639227867,0.005032186862081289,0.0,0.004828434903174639
0.007234035525470972,0.005465279798954725,-0.009100919589400291,0.005647137761116028,0.0,0.004676531534641981
0.007687580306082964,0.005072869826108217,-0.008673745207488537,0.005376051180064678,0.0,0.004891319200396538
0.007612583693116903,0.004708756227046251,-0.009234270080924034,0.00496930256485939,0.0,0.004875256214290857
0.007659588009119034,0.004710332956165075,-0.00922299362719059,0.0047996859066188335,0.0,0.0048882667906582355
0.007097771856933832,0.004841400310397148,-0.008957686834037304,0.004688481334596872,0.0,0.005382227245718241
0.008015338331460953,0.005131341516971588,-0.009644332341849804,0.004963107407093048,0.0,0.005229883827269077
0.007942304946482182,0.0054963394068181515,-0.009642223827540874,0.005700363777577877,0.0,0.0050755892880260944
0.007059814874082804,0.0049772709608078,-0.009572750888764858,0.005391804501414299,0.0,0.004895852413028479
0.0069018276408314705,0.004781780764460564,-0.009517108090221882,0.005167676601558924,0.0,0.004781010095030069
0.007505920249968767,0.004722600802779198,-0.009453297592699528,0.004916754085570574,0.0,0.0046022511087358
0.00825786404311657,0.004952203948050737,-0.009098167531192303,0.0048424550332129,0.0,0.005032645538449287
0.00774484034627676,0.004940214101225138,-0.00931813009083271,0.005123118404299021,0.0,0.004680713638663292
0.007668389938771725,0.005728768650442362,-0.010159003548324108,0.0052297539077699184,0.0,0.004582543857395649
0.007668389938771725,0.005728768650442362,-0.010159003548324108,0.0052297539077699184,0.0,0.004582543857395649
0.007960772141814232,0.005253010429441929,-0.009114286862313747,0.004918970167636871,0.0,0.004460968542844057
0.007866570726037025,0.004753738641738892,-0.009754526428878307,0.004501080606132746,0.0,0.004232276231050491
0.007076201029121876,0.00421530194580555,-0.009478287771344185,0.0044453744776546955,0.0,0.00441193301230669
0.006994421593844891,0.004470571875572205,-0.009374757297337055,0.004476792644709349,0.0,0.00503272470086813
0.008130429312586784,0.004714534152299166,-0.009004849009215832,0.00492494460195303,0.0,0.004980445373803377
0.008460481651127338,0.005665275733917952,-0.00936137791723013,0.0056695654056966305,0.0,0.004579353611916304
0.007966376841068268,0.0052301581017673016,-0.009314262308180332,0.005311930552124977,0.0,0.004420533776283264
0.007509557530283928,0.004246855154633522,-0.009570893831551075,0.005034568253904581,0.0,0.004677699413150549
0.008087766356766224,0.004809302277863026,-0.009357471019029617,0.0050209215842187405,0.0,0.004297071602195501
0.007667531259357929,0.004964486230164766,-0.00908234529197216,0.005810693837702274,0.0,0.004324338398873806
0.0074298265390098095,0.005374230444431305,-0.009707383811473846,0.0054931240156292915,0.0,0.004547485150396824
0.007951178587973118,0.005712111014872789,-0.009505837224423885,0.005076569505035877,0.0,0.0042618946172297
0.007765740621834993,0.004952533636242151,-0.008924980647861958,0.0050446465611457825,0.0,0.004419019445776939
0.007599079981446266,0.004278135951608419,-0.00960637629032135,0.00503057986497879,0.0,0.0042153457179665565
0.0070664044469594955,0.003833124181255698,-0.009732925333082676,0.004918421618640423,0.0,0.004031334072351456
0.007788276765495539,0.003706155112013221,-0.00869620032608509,0.005224756896495819,0.0,0.004287921357899904
0.007914683781564236,0.0043066213838756084,-0.008837592788040638,0.005387876182794571,0.0,0.004466657061129808
0.00802735798060894,0.004651406779885292,-0.009146333672106266,0.005046821665018797,0.0,0.004780945833772421
0.007728671655058861,0.004736212082207203,-0.008783129043877125,0.005105616990476847,0.0,0.004663269501179457
0.00815438013523817,0.004495380911976099,-0.009535031393170357,0.004702847916632891,0.0,0.0043848128989338875
0.007880420424044132,0.004130994901061058,-0.00926061999052763,0.005050923675298691,0.0,0.004072107840329409
0.007733401842415333,0.003908869344741106,-0.00962393544614315,0.0056444332003593445,0.0,0.0038601774722337723
0.007518459111452103,0.004235265776515007,-0.008925816975533962,0.005596762988716364,0.0,0.00413533765822649
0.007616438437253237,0.004046849440783262,-0.009879393503069878,0.005534697324037552,0.0,0.004153036512434483
0.007912412285804749,0.004415519069880247,-0.009035824798047543,0.005050878506153822,0.0,0.0043021310120821
0.007523508742451668,0.004209032282233238,-0.00893337931483984,0.004397214390337467,0.0,0.004115683492273092
0.008372967131435871,0.003911174833774567,-0.00902116484940052,0.0043223947286605835,0.0,0.004358209669589996
0.008473733440041542,0.004253622610121965,-0.008709216490387917,0.005090480204671621,0.0,0.00413272250443697
0.008473733440041542,0.004253622610121965,-0.008709216490387917,0.005090480204671621,0.0,0.00413272250443697
0.007900574244558811,0.004149631597101688,-0.008988192304968834,0.0051839291118085384,0.0,0.0038772679399698973
0.007573877461254597,0.003965374547988176,-0.00873869564384222,0.005119640845805407,0.0,0.003760917577892542
0.008380343206226826,0.0038101135287433863,-0.009862426668405533,0.004941921215504408,0.0,0.004210085608065128
0.008712596260011196,0.003868565196171403,-0.008993776515126228,0.0047530559822916985,0.0,0.0041652340441942215
0.00792243704199791,0.004108342807739973,-0.008400708436965942,0.005174386780709028,0.0,0.003943195566534996
0.008101784624159336,0.004156131763011217,-0.009060665965080261,0.005209953524172306,0.0,0.003438544925302267
0.008170418441295624,0.004221129231154919,-0.00916697084903717,0.00554981455206871,0.0,0.003629551036283374
0.00812124740332365,0.003979794681072235,-0.009302684105932713,0.005228892434388399,2.273498921567807e-06,0.003708690172061324
0.008382758125662804,0.0038544435519725084,-0.009680983610451221,0.0053733703680336475,1.4844323459328734e-07,0.003664615796878934
0.00830602552741766,0.003933831583708525,-0.00899373646825552,0.005369044840335846,9.692282532114405e-09,0.0036324893590062857
0.008142043836414814,0.003974245861172676,-0.009823360480368137,0.0057629747316241264,6.328367274655022e-10,0.003733074991032481
0.008272471837699413,0.003896157955750823,-0.00964436773210764,0.005445723421871662,4.131971848009286e-11,0.003809174755588174
0.008549198508262634,0.004183435812592506,-0.009242711588740349,0.005720033310353756,2.697882715840816e-12,0.003812802489846945
0.007947757840156555,0.0042149401269853115,-0.00880761444568634,0.005504294764250517,1.7615244115795625e-13,0.0038186695892363787
0.007842027582228184,0.003980613779276609,-0.009778094477951527,0.005968743469566107,1.1501497013631772e-14,0.003505293745547533
0.0081589724868536,0.004323788918554783,-0.009330742061138153,0.006248258054256439,7.509655408711514e-16,0.0033388803713023663
0.008917931467294693,0.004169898107647896,-0.009295725263655186,0.00618886761367321,4.9032682599909865e-17,0.003229518886655569
0.008179082535207272,0.004010381642729044,-0.009691199287772179,0.006013371050357819,3.2014838604685923e-18,0.0033577419817447662
0.008038753643631935,0.0040818569250404835,-0.009256677702069283,0.0056832036934792995,2.0903400793901119e-19,0.0036337445490062237
0.008676844649016857,0.004039423540234566,-0.00919139664620161,0.005583832040429115,1.3648428408336672e-20,0.0041474876925349236
0.008526368997991085,0.004490424878895283,-0.009654124267399311,0.005813075229525566,8.911448373839089e-22,0.003940613940358162
0.00816434994339943,0.0047213239595294,-0.00904793106019497,0.0058960928581655025,5.818539587069211e-23,0.003623924683779478
0.008996116928756237,0.004363297950476408,-0.008912351913750172,0.0055285608395934105,3.79909022181107e-24,0.003392972517758608
0.008706285618245602,0.004391383845359087,-0.009709855541586876,0.005661219824105501,2.480534412979309e-25,0.003332902677357197
0.008807589299976826,0.004264461807906628,-0.009634402580559254,0.005497793201357126,1.6196118652532148e-26,0.0033592144027352333
0.008807589299976826,0.004264461807906628,-0.009634402580559254,0.005497793201357126,1.6196118652532148e-26,0.0033592144027352333
0.009357919916510582,0.004410285037010908,-0.009644309990108013,0.00578412925824523,1.0574905768291157e-27,0.0032165462616831064
0.008967068046331406,0.004380347207188606,-0.009771532379090786,0.005470774136483669,6.904658064006863e-29,0.0033647771924734116
0.00898801814764738,0.0045250216498970985,-0.009249675087630749,0.005300155840814114,4.508248411109792e-30,0.003229497466236353
0.008663062006235123,0.004354377277195454,-0.009087562561035156,0.005211622454226017,2.943563632354546e-31,0.003198083722963929
0.00831206701695919,0.00455066841095686,-0.00979544036090374,0.005614269059151411,1.9219366431406987e-32,0.003193554002791643
0.008683762513101101,0.0044553810730576515,-0.010101954452693462,0.005821307189762592,1.254887331112321e-33,0.003071596147492528
0.00866667553782463,0.004723710007965565,-0.009584304876625538,0.005542613100260496,5.349781764595958e-36,0.003291442757472396
0.00921681523323059,0.0043207863345742226,-0.008598597720265388,0.005492706783115864,3.4930249777093803e-37,0.0032204734161496162
0.008690081536769867,0.004377426113933325,-0.009485645219683647,0.005152053199708462,2.2806957871681885e-38,0.0031078034080564976
0.008664392866194248,0.004330158699303865,-0.01004731934517622,0.0057191401720047,1.4891318520686966e-39,0.0029007098637521267
0.009259210899472237,0.00442534638568759,-0.009601261466741562,0.006023664493113756,9.722909394717743e-41,0.002927263267338276
0.009038373827934265,0.004506830126047134,-0.009159554727375507,0.006270242389291525,6.347882043391421e-42,0.0031339493580162525
0.009355448186397552,0.004623059649020433,-0.010608936659991741,0.006250396370887756,4.1478434544014585e-43,0.0030207675881683826
0.008904479444026947,0.004398794379085302,-0.009990016929805279,0.005508834961801767,2.6624670822171524e-44,0.0030675153248012066
0.00921559240669012,0.004034542478621006,-0.009276159107685089,0.00511555839329958,1.401298464324817e-45,0.0029685760382562876
0.008648433722555637,0.004294411279261112,-0.009123994037508965,0.005581246223300695,0.0,0.0028347342740744352
0.008963743224740028,0.004549437202513218,-0.009730324149131775,0.00576417800039053,0.0,0.002653016708791256
0.009194931015372276,0.004717614036053419,-0.009563173167407513,0.005586288869380951,0.0,0.0028849022928625345
0.008639957755804062,0.0047273882664740086,-0.009239453822374344,0.005054439418017864,0.0,0.0029864187818020582
0.008874711580574512,0.004381311591714621,-0.009975514374673367,0.004902310203760862,0.0,0.0033932041842490435
0.00903621967881918,0.004481355659663677,-0.009106208570301533,0.005284650716930628,0.0,0.0032306856010109186
0.009389603510499,0.004304191097617149,-0.00956718809902668,0.0057091182097792625,0.0,0.0030149035155773163
0.00873938761651516,0.004270798061043024,-0.009898181073367596,0.005867682863026857,0.0,0.0030301366932690144
0.009103919379413128,0.004422375001013279,-0.009421810507774353,0.005308292806148529,-8.106369205052033e-05,0.0028780156280845404
0.009341147728264332,0.004463596735149622,-0.009356198832392693,0.005131550133228302,-0.00010347748320782557,0.002868425799533725
0.008733145892620087,0.004647883586585522,-0.0092693530023098,0.005281865131109953,-0.0001027012913255021,0.002907732268795371
0.009609823115170002,0.004487340338528156,-0.009900283068418503,0.005602339748293161,-0.00010051108984043822,0.002961705904453993
0.009587193839251995,0.004087578039616346,-0.009290952235460281,0.00570177985355258,-0.00010799059964483604,0.002902263542637229
0.009051346220076084,0.0040688784793019295,-0.010204593650996685,0.005646593868732452,-0.00011481104593258351,0.0027060285210609436
0.009051346220076084,0.0040688784793019295,-0.010204593650996685,0.005646593868732452,-0.00011481104593258351,0.0027060285210609436
0.009304730221629143,0.004040981642901897,-0.010076293721795082,0.00531500531360507,-0.00011300377082079649,0.0025330851785838604
0.0097647188231349,0.004348470363765955,-0.00904354639351368,0.005322188604623079,-0.00011072547931689769,0.0024520650040358305
0.009830959141254425,0.004595402628183365,-0.009882618673145771,0.005650827195495367,-0.00012421536666806787,0.0023011290468275547
0.009484992362558842,0.00462636724114418,-0.009797226637601852,0.006100419908761978,-0.00012393874931149185,0.0024225451052188873
0.00948795024305582,0.004387035965919495,-0.00950328353792429,0.005935730412602425,-0.00012168649845989421,0.0026571503840386868
0.009575184434652328,0.004204533528536558,-0.010312720201909542,0.005641712341457605,-0.0001333427062490955,0.0025871756952255964
0.010114820674061775,0.004464089870452881,-0.009110198356211185,0.006107817869633436,-0.00013142636453267187,0.0022652947809547186
0.009283562190830708,0.00462186336517334,-0.009666604921221733,0.006852129939943552,-0.00026298806187696755,0.0021680514328181744
0.00968161504715681,0.004614610690623522,-0.01074211671948433,0.006713518872857094,-0.00028882030164822936,0.0021541588939726353
0.01003726851195097,0.004767980892211199,-0.009860044345259666,0.006232513580471277,-0.0002740246127359569,0.0019639728125184774
0.010099618695676327,0.005090760067105293,-0.009781218133866787,0.006129260174930096,-0.00029655659454874694,0.0020450421143323183
0.009912630543112755,0.004797462373971939,-0.009530041366815567,0.006519474554806948,-0.00029242667369544506,0.0019139477517455816
0.00988505408167839,0.004407194443047047,-0.009418562985956669,0.006505660712718964,-0.0002781419607345015,0.0020945779979228973
0.009988795034587383,0.004322862718254328,-0.01049824245274067,0.006332127843052149,-0.0003027428174391389,0.002056086901575327
0.010070685297250748,0.004764890763908625,-0.009958659298717976,0.006131805945187807,-0.0002938531106337905,0.0022494355216622353
0.010498866438865662,0.004942558240145445,-0.009685040451586246,0.0055605703964829445,-0.0003007085470017046,0.002321548294275999
0.00978198740631342,0.00484630698338151,-0.010579182766377926,0.006285449024289846,-0.0003061978495679796,0.0021960039157420397
0.010144965723156929,0.004675600212067366,-0.01016151811927557,0.0066261994652450085,-0.00029500090749934316,0.0020291320979595184
0.01055120024830103,0.0045721703208982944,-0.010047652758657932,0.006342181004583836,-0.0003850888751912862,0.001966979820281267
0.010095748119056225,0.0050031812861561775,-0.010818137787282467,0.006395882926881313,-0.00036168924998492,0.0018013656372204423
0.010611561127007008,0.004640518222004175,-0.010290665552020073,0.006320467684417963,-0.00039754356839694083,0.0017862423555925488
0.010522140190005302,0.005000722128897905,-0.009920786134898663,0.006241070106625557,-0.0003740889369510114,0.0016782006714493036
0.009634092450141907,0.005031031556427479,-0.010548596270382404,0.006460617296397686,-0.0003500889870338142,0.0017030056333169341
0.010869207791984081,0.004818689543753862,-0.010041704401373863,0.006422955077141523,-0.00035544633283279836,0.0019974540919065475
0.009636071510612965,0.004648381378501654,-0.010635783895850182,0.005967481527477503,-0.0003597184258978814,0.002015340141952038
0.009593642316758633,0.005038328468799591,-0.010181187652051449,0.006161767058074474,-0.0003418049309402704,0.002054616343230009
0.010514461435377598,0.005139596294611692,-0.01052247267216444,0.006093455944210291,-0.0003243087267037481,0.0019002058543264866
0.01076026912778616,0.004709791857749224,-0.010612886399030685,0.00598261971026659,-0.0003084323834627867,0.0017634889809414744
0.009838202968239784,0.004982193000614643,-0.010451112873852253,0.005974621046334505,-0.0002940337872132659,0.0015840193955227733
0.009838202968239784,0.004982193000614643,-0.010451112873852253,0.005974621046334505,-0.0002940337872132659,0.0015840193955227733
0.010186664760112762,0.00525804003700614,-0.009747345931828022,0.006055048201233149,-0.00031830856460146606,0.0014287035446614027
0.010343210771679878,0.004670672118663788,-0.010358516126871109,0.00612139655277133,-0.00030716467881575227,0.0013404348865151405
0.010647743009030819,0.005047712009400129,-0.01118471473455429,0.006104336120188236,-0.0002983222366310656,0.0012979651801288128
0.011184118688106537,0.004862973932176828,-0.010599065572023392,0.006117497570812702,-0.0002851133467629552,0.0013809016672894359
0.011620082892477512,0.005180420354008675,-0.009938985109329224,0.006173021625727415,-0.00026846909895539284,0.001550538232550025
0.011764929629862309,0.0049998280592262745,-0.009873086586594582,0.005768902134150267,-0.0002533706137910485,0.0015096814604476094
0.010981944389641285,0.004825483541935682,-0.01068388856947422,0.005904182326048613,-0.00023986204178072512,0.0016263077268376946
0.011579751968383789,0.004653641022741795,-0.01049567200243473,0.0056991614401340485,-0.0002701318881008774,0.0015147163067013025
0.011244682595133781,0.005407068878412247,-0.010150164365768433,0.006123017985373735,-0.00025989318965002894,0.0014718653401359916
0.012137296609580517,0.005329430568963289,-0.010572086088359356,0.005963948555290699,-0.0002481293922755867,0.001395977335050702
0.011490518227219582,0.004991060588508844,-0.010538533329963684,0.006036014761775732,-0.00023723718186374754,0.0014446246204897761
0.011230106465518475,0.004787390120327473,-0.010579284280538559,0.006516359746456146,-0.0002272518031531945,0.0013921718345955014
0.01133463904261589,0.005057233851402998,-0.010354126803576946,0.006123626604676247,-0.0002358564961468801,0.0014280877076089382
0.011486603878438473,0.0046768393367528915,-0.009890586137771606,0.005965766962617636,-0.0002433291811030358,0.0013331434456631541
0.011661401018500328,0.005039673764258623,-0.010718544013798237,0.00613586837425828,-0.00023532348859589547,0.0012056564446538687
0.011332684196531773,0.004325117915868759,-0.010957241989672184,0.006280001252889633,-0.00022691668709740043,0.0011521527776494622
0.011732552200555801,0.004336806014180183,-0.010189304128289223,0.006590275559574366,-0.00021903142624069005,0.0010245040757581592
0.011950734071433544,0.004341987892985344,-0.010694465599954128,0.006420421879738569,-0.00021167138766031712,0.0009988070232793689
0.01186452154070139,0.004060077015310526,-0.010219087824225426,0.006524832919239998,-0.00023207096091937274,0.0009845842141658068
0.011698956601321697,0.0043325601145625114,-0.010251049883663654,0.006489116232842207,-0.0002265477814944461,0.0009075950365513563
0.011945593170821667,0.004208546597510576,-0.010711122304201126,0.00678273243829608,-0.0002197489229729399,0.000977969728410244
0.011224356479942799,0.003962341696023941,-0.01002056896686554,0.006504041142761707,-0.00021324727276805788,0.0009715521591715515
0.011593717150390148,0.004066613502800465,-0.010847317054867744,0.006267980672419071,-0.00021826877491548657,0.0010419382015243173
0.011606269516050816,0.004101995378732681,-0.011052154935896397,0.006203909870237112,-0.00020999730622861534,0.0011200365843251348
0.011887903325259686,0.004363599233329296,-0.010113243944942951,0.006640167906880379,-0.00020075200882274657,0.001067325589247048
0.011887903325259686,0.004363599233329296,-0.010113243944942951,0.006640167906880379,-0.00020075200882274657,0.001067325589247048
0.01156957633793354,0.0038537560030817986,-0.010911092162132263,0.006800265517085791,-0.00018431234639137983,0.0009351944900117815
0.011671013198792934,0.0038949097506701946,-0.010713823139667511,0.006603793241083622,-0.00020411802688613534,0.0008026538416743279
0.012015744112432003,0.004307938273996115,-0.01033574715256691,0.006879068445414305,-0.00019694793445523828,0.0007523188833147287
0.012015744112432003,0.004307938273996115,-0.01033574715256691,0.006879068445414305,-0.00019694793445523828,0.0007523188833147287
0.012232296168804169,0.004318550229072571,-0.010225401259958744,0.006647846661508083,-0.00019003408669959754,0.0007661589770577848
0.011861967854201794,0.004106398206204176,-0.009855920448899269,0.006457379553467035,-0.00018357415683567524,0.0007738377898931503
0.012251315638422966,0.00396018335595727,-0.010653422214090824,0.0060526179149746895,-0.00019943996449001133,0.0007132492610253394
0.01197021547704935,0.0038328017108142376,-0.011480185203254223,0.006088458001613617,-0.00020003227109555155,0.0007045101374387741
0.011951278895139694,0.00376168848015368,-0.010748178698122501,0.0065987808629870415,-0.00019431475084275007,0.0007202043780125678
0.01182139664888382,0.004210193175822496,-0.010518781840801239,0.007056328468024731,-0.00018852860375773162,0.0007000676123425364
0.011930126696825027,0.004154633730649948,-0.01136299129575491,0.006907863076776266,-0.00018305209232494235,0.0006724417326040566
0.011926171369850636,0.004119321703910828,-0.01035179104655981,0.006377856247127056,-0.00017788335389923304,0.0006853921804577112
0.012058417312800884,0.004012290854007006,-0.00972091406583786,0.006529482081532478,-0.00019130930013488978,0.0006352600175887346
0.011940834112465382,0.003987366799265146,-0.01083831861615181,0.006808287464082241,-0.0001920099457493052,0.0006161693017929792
0.01194832194596529,0.0043049464002251625,-0.010563123039901257,0.006327447481453419,-0.00018739135703071952,0.0005712765268981457
0.011643576435744762,0.004199922550469637,-0.010239098221063614,0.006134554743766785,-0.00018266189727000892,0.0005829877918586135
0.012047168798744678,0.004033410456031561,-0.010699696838855743,0.006878279149532318,-0.0001781439350452274,0.0005467768642120063
0.011645618826150894,0.004422163125127554,-0.010824017226696014,0.007383657619357109,-0.00020320885232649744,0.000569279829505831
0.011670708656311035,0.004585382528603077,-0.011493715457618237,0.007078756112605333,-0.00019861062173731625,0.0005310632404871285
0.012096007354557514,0.004373189993202686,-0.01125096995383501,0.006465032696723938,-0.00019048774265684187,0.0005554308299906552
0.011715296655893326,0.004280439577996731,-0.0111321359872818,0.0062947566621005535,-0.00018276803893968463,0.0005196108832024038
0.011809786781668663,0.004252712242305279,-0.011622323654592037,0.006870198994874954,-0.00020608690101653337,0.0005309773841872811
0.011532160453498363,0.004407053347676992,-0.010494312271475792,0.006888138130307198,-0.00020253824186511338,0.0004909334238618612
0.012278729118406773,0.004089456982910633,-0.010191996581852436,0.0068660276010632515,-0.00019547840929590166,0.0004436455201357603
0.011806986294686794,0.004454081878066063,-0.011541550979018211,0.0065061794593930244,-0.00020407387637533247,0.0004038578481413424
0.011981566436588764,0.004554560873657465,-0.010832050815224648,0.006715948693454266,-0.00021163333440199494,0.0004344778717495501
0.011759691871702671,0.004321780055761337,-0.010087225586175919,0.006896882317960262,-0.00020566541934385896,0.0004101551021449268
0.011759691871702671,0.004321780055761337,-0.010087225586175919,0.006896882317960262,-0.00020566541934385896,0.0004101551021449268
0.011797402054071426,0.004339680541306734,-0.01058971043676138,0.0069494047202169895,-0.00019922286446671933,0.00038171213236637414
0.012202886864542961,0.004129225388169289,-0.010739981196820736,0.006698508746922016,-0.00019311932555865496,0.0003565314400475472
0.012654290534555912,0.004146510269492865,-0.01095720287412405,0.0064813136123120785,-0.0002078399556921795,0.00031492681591771543
0.012785287573933601,0.003983860369771719,-0.010179046541452408,0.006668343208730221,-0.00020226566994097084,0.00029756611911579967
0.012210729531943798,0.004010896198451519,-0.011088595725595951,0.006707098335027695,-0.00028002230101265013,0.000282019522273913
0.011987298727035522,0.004044235218316317,-0.010912352241575718,0.006855369079858065,-0.00026918036746792495,0.0002680169709492475
0.011821622028946877,0.004077180754393339,-0.010600049048662186,0.007302129175513983,-0.00029184340382926166,0.00025534015730954707
0.012818580493330956,0.003990811761468649,-0.01101101003587246,0.0074250721372663975,-0.0002880377578549087,0.00024380844843108207
0.012004966847598553,0.004388529807329178,-0.010583489201962948,0.0074278730899095535,-0.0002741785137914121,0.0002332735894015059
0.012498068623244762,0.004103933461010456,-0.01091860793530941,0.006947934161871672,-0.0002609741932246834,0.00022361177252605557
0.012562270276248455,0.003969284240156412,-0.010965456254780293,0.007452020421624184,-0.00024894322268664837,0.00021471861691679806
0.012504699639976025,0.004045598208904266,-0.010601489804685116,0.0075994692742824554,-0.0002573569363448769,0.000206505719688721
0.012740543112158775,0.004079713486135006,-0.011168000288307667,0.0072069233283400536,-0.0002645864151418209,0.0001988980802707374
0.01271125115454197,0.004439322743564844,-0.010867387987673283,0.007341451942920685,-0.0002550529898144305,0.00019183149561285973
0.013160096481442451,0.0042756590992212296,-0.010376532562077045,0.007462392561137676,-0.00027110177325084805,0.00018524969345889986
0.012674433179199696,0.004267909098416567,-0.011067182756960392,0.007486128713935614,-0.0002691398549359292,0.00017910439055413008
0.012837701477110386,0.004047825932502747,-0.010964235290884972,0.006847064476460218,-0.00025995535543188453,0.00017335431766696274
0.012276300229132175,0.003888576989993453,-0.011468089185655117,0.006397414952516556,-0.0002865700516849756,0.00016796182899270207
0.01290896162390709,0.004284496419131756,-0.011016326025128365,0.007053871173411608,-0.0003016793925780803,0.00016289454651996493
0.013133065775036812,0.0040675881318748,-0.010573631152510643,0.007599656004458666,-0.00028482655761763453,0.00015812415222171694
0.013318313285708427,0.004243991803377867,-0.011246485635638237,0.007710306905210018,-0.00030748647986911237,0.0001536253112135455
0.01338210329413414,0.004624507389962673,-0.011478639207780361,0.007236780598759651,-0.00030260722269304097,0.00014937524974811822
0.013152824714779854,0.004457036964595318,-0.011366460472345352,0.007177312392741442,-0.0002873108605854213,0.00014535420632455498
0.013697094283998013,0.004312789533287287,-0.011683735065162182,0.00777390506118536,-0.00027284203679300845,0.00014154391828924417
0.013697094283998013,0.004312789533287287,-0.011683735065162182,0.00777390506118536,-0.00027284203679300845,0.00014154391828924417
0.013373139314353466,0.004024294205009937,-0.011409387923777103,0.007312827277928591,-0.00025971842114813626,0.0001379283203277737
0.013589589856564999,0.003806730266660452,-0.01170870941132307,0.006760360673069954,-0.0002477970265317708,0.00013449275866150856
0.013097851537168026,0.004339447245001793,-0.011407888494431973,0.006892731878906488,-0.0002737129689194262,0.0001312243693973869
0.01402711495757103,0.004205844830721617,-0.011323835700750351,0.007181646768003702,-0.00026461342349648476,0.00012811110354959965
0.013657264411449432,0.004506508819758892,-0.011508391238749027,0.007242613472044468,-0.0002540956193115562,0.00010567907156655565
0.013734341599047184,0.003863222198560834,-0.011678334325551987,0.007556446827948093,-0.00023513556516263634,9.967142977984622e-05
0.013958947733044624,0.004273406229913235,-0.011781243607401848,0.007560491096228361,-0.00022667396115139127,9.750622120918706e-05
0.013661175966262817,0.00427676597610116,-0.010929298587143421,0.007366897538304329,-0.00021880072017665952,7.885562808951363e-05
0.013915455900132656,0.003963210619986057,-0.011844840832054615,0.007241235114634037,-0.0002338125486858189,7.492815348086879e-05
0.013983115553855896,0.0038055789191275835,-0.011208890937268734,0.007203342858701944,-0.00023330218391492963,7.325413753278553e-05
0.01429322175681591,0.003919568844139576,-0.011723813600838184,0.007910402491688728,-0.0002264263603137806,5.619108924292959e-05
0.01394518930464983,0.004147620871663094,-0.011640441603958607,0.007691747974604368,-0.00021955143893137574,6.571727681148332e-06
0.014105372130870819,0.004500431474298239,-0.011703752912580967,0.006991392467170954,-0.00021305617701727897,-4.745433398056775e-05
0.013974706642329693,0.004073630087077618,-0.012014259584248066,0.006901453249156475,-0.00020693214901257306,-5.869655069545843e-05
0.014574588276445866,0.004347598180174828,-0.01143550593405962,0.007365421392023563,-0.000201150614884682,-8.591972436988726e-05
0.014368182048201561,0.0038027081172913313,-0.011841611936688423,0.007602516561746597,-0.0001956832711584866,-9.460160799790174e-05
0.014701123349368572,0.003545825369656086,-0.012637638486921787,0.007220753468573093,-0.00019105077080894262,-0.0009473973186686635
0.014054514467716217,0.003601613687351346,-0.011837786063551903,0.007325183134526014,-0.00017943129932973534,-0.0008802202064543962
0.014478360302746296,0.0043370225466787815,-0.012229605577886105,0.007796416059136391,-0.00017229800869245082,-0.000761530187446624
0.014193050563335419,0.0042113312520086765,-0.011928243562579155,0.007673418149352074,-0.00016592672909609973,-0.000720720854587853
0.014304743148386478,0.003928062506020069,-0.012805992737412453,0.007073695305734873,-0.0001600241375854239,-0.0006891750381328166
0.014275754801928997,0.003828070592135191,-0.012212475761771202,0.006993704941123724,-0.00017739828035701066,-0.0006239489302970469
0.014614362269639969,0.003804104868322611,-0.011949491687119007,0.007500702980905771,-0.0001787523360690102,-0.0006431419169530272
0.014278069138526917,0.0037845969200134277,-0.012253022752702236,0.0077561684884130955,-0.0001734810502966866,-0.0006206546095199883
0.014409390278160572,0.0037940090987831354,-0.01217617653310299,0.007320704869925976,-0.00019424113270360976,-0.0006465342594310641
0.014211651869118214,0.003800823586061597,-0.012453464791178703,0.0073671238496899605,-0.0001900859788293019,-0.0006942200125195086
0.014578916132450104,0.0038363125640898943,-0.012012729421257973,0.007658494636416435,-0.00018462675507180393,-0.00128939189016819
0.01444602943956852,0.003764726687222719,-0.012596523389220238,0.007545928470790386,-0.00019195473578292876,-0.0014634816907346249
0.014567039906978607,0.003675168612971902,-0.011964930221438408,0.007582879159599543,-0.000198474750504829,-0.002122242469340563
0.014567039906978607,0.003675168612971902,-0.011964930221438408,0.007582879159599543,-0.000198474750504829,-0.002122242469340563
0.014402443543076515,0.00395014276728034,-0.012170880101621151,0.008204358629882336,-0.00019390115630812943,-0.001956422347575426
0.014982182532548904,0.004143723752349615,-0.011281353421509266,0.007693585939705372,-0.00018886513134930283,-0.0015971981920301914
0.014911086298525333,0.00372578133828938,-0.01200229860842228,0.009347209706902504,-0.00025261231348849833,-0.0012210821732878685
0.014911086298525333,0.00372578133828938,-0.01200229860842228,0.009347209706902504,-0.00025261231348849833,-0.0012210821732878685
0.015290343202650547,0.004031716380268335,-0.01279508601874113,0.008943715132772923,-0.00024978205328807235,-0.0012918991269543767
0.014757340773940086,0.004073658026754856,-0.01213212963193655,0.008377857506275177,-0.00023733716807328165,-0.001732447650283575
0.015250852331519127,0.004001987632364035,-0.012109974399209023,0.008264699019491673,-0.0002645331551320851,-0.0019938580226153135
0.014974957332015038,0.0038879886269569397,-0.012607335112988949,0.0083974814042449,-0.00025727893807925284,-0.0022268020547926426
0.01551971584558487,0.0038441219367086887,-0.011823238804936409,0.008088702335953712,-0.00026593831717036664,-0.0020731326658278704
0.015485185198485851,0.004324502777308226,-0.012532065622508526,0.007767966948449612,-0.0002730532141868025,-0.001725704176351428
0.01561150886118412,0.004103963263332844,-0.012253995053470135,0.008008547127246857,-0.0002628768852446228,-0.0016933733131736517
0.01617731712758541,0.003847145475447178,-0.012726604007184505,0.008068283088505268,-0.00027907968615181744,-0.001598069560714066
0.01613832451403141,0.003819960867986083,-0.01215502992272377,0.007627889048308134,-0.00027675862656906247,-0.0017906520515680313
0.016136039048433304,0.0038235068786889315,-0.012137875892221928,0.008146032691001892,-0.0003404273884370923,-0.0022131637670099735
0.015373416244983673,0.003990896046161652,-0.012277805246412754,0.008892274461686611,-0.00038137976662255824,-0.002419313183054328
0.015522644855082035,0.00397911062464118,-0.01163535937666893,0.00845281407237053,-0.0003557888267096132,-0.0027721459046006203
0.01517404429614544,0.0038881758227944374,-0.012210603803396225,0.00825186725705862,-0.00032998068490996957,-0.0027399782557040453
0.016080107539892197,0.0038240610156208277,-0.01212084200233221,0.00828650500625372,-0.0003646188124548644,-0.002420758595690131
0.015770526602864265,0.0037218122743070126,-0.012742653489112854,0.008702931925654411,-0.0003450422955211252,-0.002224518219009042
0.016397440806031227,0.004259142093360424,-0.012380201369524002,0.008668838068842888,-0.0003713140031322837,-0.0019911075942218304
0.015906017273664474,0.004173689987510443,-0.011973647400736809,0.008622276596724987,-0.00035669381031766534,-0.001970205456018448
0.01580965891480446,0.003921155352145433,-0.01251891814172268,0.008989430032670498,-0.000382925383746624,-0.0023316170554608107
0.016062689945101738,0.0037980314809828997,-0.011830256320536137,0.00860117468982935,-0.0003663932147901505,-0.0032359447795897722
0.016263645142316818,0.004187983460724354,-0.012535348534584045,0.008322699926793575,-0.00041986312135122716,-0.0042323158122599125
0.016580039635300636,0.004258133936673403,-0.012581168673932552,0.008795296773314476,-0.0004063447122462094,-0.0038711056113243103
0.016342705115675926,0.004066103138029575,-0.012083032168447971,0.008755049668252468,-0.00037413285463117063,-0.0031938960310071707
0.01642335206270218,0.003944060765206814,-0.012293439358472824,0.008631397038698196,-0.00037896729190833867,-0.0028828373178839684
0.01642335206270218,0.003944060765206814,-0.012293439358472824,0.008631397038698196,-0.00037896729190833867,-0.0028828373178839684
0.016764745116233826,0.004021699074655771,-0.01242124941200018,0.009156490676105022,-0.00035922086681239307,-0.003198927501216531
0.01611456088721752,0.004402333404868841,-0.012292221188545227,0.00857021939009428,-0.0003369273617863655,-0.003693005768582225
0.01611456088721752,0.004402333404868841,-0.012292221188545227,0.00857021939009428,-0.0003369273617863655,-0.003693005768582225
0.016690116375684738,0.0041252439841628075,-0.012400917708873749,0.008722065947949886,-0.0003663285169750452,-0.0038861013017594814
0.017025142908096313,0.004141947254538536,-0.011911468580365181,0.009468885138630867,-0.00034922361373901367,-0.0035344811622053385
0.01652313955128193,0.004036611411720514,-0.012023182585835457,0.008831541985273361,-0.00033107513445429504,-0.003473909804597497
0.016864465549588203,0.004545432515442371,-0.011343730613589287,0.00931866466999054,-0.00033945453469641507,-0.003391528967767954
0.016951890662312508,0.004332376644015312,-0.011979090981185436,0.00931960716843605,-0.00032665085745975375,-0.004114512354135513
0.017016906291246414,0.004480111878365278,-0.011666545644402504,0.008906819857656956,-0.0003126342489849776,-0.004537029191851616
0.01676853559911251,0.00421678414568305,-0.012285331264138222,0.00917067565023899,-0.00030575168784707785,-0.004233941435813904
0.01702420972287655,0.004233735613524914,-0.012454716488718987,0.009197323583066463,-0.0002925966982729733,-0.0036560881417244673
0.01667758822441101,0.004162559285759926,-0.01233068946748972,0.008965407498180866,-0.00030191781115718186,-0.0034664261620491743
0.017401395365595818,0.004382883198559284,-0.012160363607108593,0.009052988141775131,-0.00030932301888242364,-0.003628683043643832
0.017149627208709717,0.004483912140130997,-0.011688551865518093,0.00945495069026947,-0.00029408818227238953,-0.004075187724083662
0.01660865917801857,0.004339887294918299,-0.012258375063538551,0.00890408270061016,-0.00027899452834390104,-0.004339189268648624
0.01718655601143837,0.00407513277605176,-0.011984539218246937,0.009069849736988544,-0.0003035757108591497,-0.004534889943897724
0.01704113744199276,0.004253511782735586,-0.011731338687241077,0.009363009594380856,-0.00029462185921147466,-0.004239281173795462
0.017871547490358353,0.004339870065450668,-0.01229734905064106,0.00904091540724039,-0.000281783752143383,-0.004149492830038071
0.017413631081581116,0.004344999324530363,-0.011883378028869629,0.008944479748606682,-0.000305644643958658,-0.004044570494443178
0.016967862844467163,0.004163533914834261,-0.012757468968629837,0.009770290926098824,-0.00029544319841079414,-0.004448821768164635
0.017098313197493553,0.004480573348701,-0.012021426111459732,0.00949981901794672,-0.000283943023532629,-0.004191550426185131
0.017019744962453842,0.004633798263967037,-0.013040503486990929,0.009551255963742733,-0.00035614147782325745,-0.0043120114132761955
0.01790654845535755,0.004682998172938824,-0.012446078471839428,0.00970514677464962,-0.00034162570955231786,-0.0043067955411970615
0.017535490915179253,0.004387684166431427,-0.012143216095864773,0.009204156696796417,-0.000377462973119691,-0.004567371215671301
0.01699143648147583,0.004328834358602762,-0.012711451388895512,0.00909483153373003,-0.000385341583751142,-0.004634622484445572
0.017679570242762566,0.0042223562486469746,-0.012335940264165401,0.009559023194015026,-0.00038838357431814075,-0.004845628514885902
0.017679570242762566,0.0042223562486469746,-0.012335940264165401,0.009559023194015026,-0.00038838357431814075,-0.004845628514885902
0.01752573624253273,0.004341154359281063,-0.012974000535905361,0.009080878458917141,-0.0003674750914797187,-0.005172865930944681
0.017737679183483124,0.004602773580700159,-0.012116516008973122,0.008754681795835495,-0.00034732252242974937,-0.0050042252987623215
0.017766261473298073,0.004684792831540108,-0.012823834083974361,0.009366639889776707,-0.00036987787461839616,-0.005052623804658651
0.017401263117790222,0.004220506176352501,-0.012622046284377575,0.009907037019729614,-0.00035710298107005656,-0.005154495593160391
0.017937857657670975,0.003936930559575558,-0.012867807410657406,0.009562091901898384,-0.00045121152652427554,-0.0046532838605344296
0.017532719299197197,0.004129436798393726,-0.013209078460931778,0.009617993608117104,-0.0004879202169831842,-0.004638602025806904
0.01786062680184841,0.004366776440292597,-0.012935497798025608,0.009444777853786945,-0.00046504245256073773,-0.0053024329245090485
0.0176294706761837,0.0045441738329827785,-0.012359539046883583,0.010138480924069881,-0.00046263125841505826,-0.005564347840845585
0.018095137551426888,0.004667649976909161,-0.013398491777479649,0.009942159987986088,-0.00043290603207424283,-0.005164172500371933
0.01799367181956768,0.0043904841877520084,-0.012880832888185978,0.009154967963695526,-0.00040518396417610347,-0.004932516720145941
0.017668819054961205,0.004285676870495081,-0.01377791352570057,0.009146823547780514,-0.0004277197294868529,-0.005582425743341446
0.018124369904398918,0.00439840042963624,-0.01359529048204422,0.009719094261527061,-0.0004097957571502775,-0.005337617825716734
0.01790190488100052,0.004580809734761715,-0.013470785692334175,0.00991773884743452,-0.00038879504427313805,-0.005417208652943373
0.017907310277223587,0.004652409348636866,-0.013234498910605907,0.010295622050762177,-0.00041804590728133917,-0.005522054620087147
0.018195612356066704,0.004699934273958206,-0.01353796012699604,0.009807601571083069,-0.0003864163300022483,-0.005588341969996691
0.018294790759682655,0.00441556703299284,-0.013422942720353603,0.009128977544605732,-0.00035609290353022516,-0.005230073817074299
0.018850326538085938,0.004475842230021954,-0.012792220339179039,0.009342643432319164,-0.00037846603663638234,-0.0050422861240804195
0.018676327541470528,0.004542536102235317,-0.013393530622124672,0.009997200220823288,-0.00036776161869056523,-0.00520584499463439
0.017916148528456688,0.004420945420861244,-0.012764083221554756,0.009869575500488281,-0.0003452256787568331,-0.005571786779910326
0.017880750820040703,0.004483435302972794,-0.013338975608348846,0.010278899222612381,-0.00032453241874463856,-0.006132745649665594
0.018170056864619255,0.0049777766689658165,-0.013237758539617062,0.01032334752380848,-0.0003061301540583372,-0.005992807913571596
0.018384842202067375,0.005123852286487818,-0.012685992754995823,0.009683072566986084,-0.0003314844216220081,-0.005945376120507717
0.018503740429878235,0.004765644669532776,-0.013204997405409813,0.010033935308456421,-0.0003203452506568283,-0.005542673170566559
0.018603598698973656,0.004344876855611801,-0.013773661106824875,0.009742751717567444,-0.0003051960957236588,-0.005740674212574959
0.018293827772140503,0.004847113508731127,-0.01304445881396532,0.009455421939492226,-0.00031143109663389623,-0.006023819092661142
0.01849946565926075,0.004976238124072552,-0.013368945568799973,0.009630666114389896,-0.0003166163805872202,-0.005840028636157513
0.018206985667347908,0.004768981598317623,-0.013268270529806614,0.009863893501460552,-0.00030445968150161207,-0.005770741030573845
0.019205735996365547,0.004994191229343414,-0.013625487685203552,0.009860572405159473,-0.00029304480995051563,-0.005685783457010984
0.019205735996365547,0.004994191229343414,-0.013625487685203552,0.009860572405159473,-0.00029304480995051563,-0.005685783457010984
0.018716376274824142,0.0048070731572806835,-0.013374073430895805,0.009886064566671848,-0.00028407335048541427,-0.006134377792477608
0.018239842727780342,0.004606711212545633,-0.013152551837265491,0.010359135456383228,-0.0002677859738469124,-0.006446758285164833
0.018891729414463043,0.004191210493445396,-0.01342193316668272,0.009538260288536549,-0.0002527776232454926,-0.006222677882760763
0.018396271392703056,0.004312234930694103,-0.013010529801249504,0.009604761376976967,-0.0002807571436278522,-0.006556852255016565
0.018916228786110878,0.004804938565939665,-0.013277368620038033,0.00971680786460638,-0.00025954973534680903,-0.006289494689553976
0.0190900806337595,0.004779601003974676,-0.013734730891883373,0.010273555293679237,-0.00024766699061729014,-0.006386114284396172
0.017899559810757637,0.004470536019653082,-0.01321649644523859,0.009961512871086597,-0.00023680516460444778,-0.006193730514496565
0.020138971507549286,0.0038951216265559196,-0.013684357516467571,0.009349347092211246,-0.00026208674535155296,-0.00634417962282896
0.019678641110658646,0.0034991910215467215,-0.013327650725841522,0.010274888016283512,-0.0002538231201469898,-0.006024354137480259
0.019031301140785217,0.0036453453358262777,-0.01384376548230648,0.010342488996684551,-0.00024413577921222895,-0.00609239749610424
0.019201109185814857,0.004195691552013159,-0.01365584321320057,0.009720501489937305,-0.00025147790438495576,-0.006379094906151295
0.019510695710778236,0.004593809600919485,-0.013974873349070549,0.010480179451406002,-0.0002578316198196262,-0.006637886166572571
0.01937217451632023,0.004235025029629469,-0.013873246498405933,0.0104507552459836,-0.0002498865651432425,-0.00665829423815012
0.01985352672636509,0.003888532053679228,-0.01392778754234314,0.010593095794320107,-0.00028536427998915315,-0.0066707381047308445
0.019870225340127945,0.003713164944201708,-0.013804612681269646,0.010959011502563953,-0.00028220712556503713,-0.0070568230003118515
0.019604647532105446,0.0036590625531971455,-0.014051496051251888,0.010306259617209435,-0.0003057239227928221,-0.006973648443818092
0.019978990778326988,0.004243900999426842,-0.014575839042663574,0.01078325416892767,-0.0003010211221408099,-0.0074594574980437756
0.020234886556863785,0.004155205097049475,-0.0135358776897192,0.010641182772815228,-0.00028588695568032563,-0.006947699002921581
0.019865430891513824,0.004389991518110037,-0.013742128387093544,0.01039417739957571,-0.0003137065505143255,-0.006825885735452175
0.019861696287989616,0.004264534916728735,-0.013601288199424744,0.010353905148804188,-0.0003014445537701249,-0.006751726381480694
0.020090145990252495,0.004013776313513517,-0.014233320020139217,0.01035627257078886,-0.00028784756432287395,-0.00714917341247201
0.02027018740773201,0.0038466821424663067,-0.013951702043414116,0.010003048926591873,-0.00027527951169759035,-0.007045386824756861
0.02007278986275196,0.003919627051800489,-0.014505820348858833,0.010660688392817974,-0.00029886417905800045,-0.006924969609826803
0.02033246122300625,0.003924269694834948,-0.013893983326852322,0.01102534867823124,-0.0002891490585170686,-0.006848419550806284
0.02022315002977848,0.0037713393103331327,-0.014401216059923172,0.011325833387672901,-0.0002781272924039513,-0.006990721914917231
0.020068485289812088,0.0035331405233591795,-0.013847067020833492,0.01070760004222393,-0.00033626085496507585,-0.007316117640584707
0.020068485289812088,0.0035331405233591795,-0.013847067020833492,0.01070760004222393,-0.00033626085496507585,-0.007316117640584707
0.020570050925016403,0.0036850471515208483,-0.014450610615313053,0.010524064302444458,-0.0003341567062307149,-0.007382216863334179
0.020906224846839905,0.00405926164239645,-0.014040134847164154,0.010386697016656399,-0.0003124419890809804,-0.00728042284026742
0.020425913855433464,0.004481874871999025,-0.01475861482322216,0.010702499188482761,-0.00034660418168641627,-0.007227736990898848
0.020700085908174515,0.004061966668814421,-0.01410282589495182,0.010486491955816746,-0.00032903029932640493,-0.007360151503235102
0.02093064971268177,0.0038420623168349266,-0.01415551733225584,0.010609883815050125,-0.0003355377120897174,-0.007401592563837767
0.02100183069705963,0.0037687497679144144,-0.014036871492862701,0.010608959011733532,-0.0003406672622077167,-0.007415459956973791
0.021172750741243362,0.004314976744353771,-0.014236105605959892,0.010788651183247566,-0.00035137945087626576,-0.008056831546127796
0.02125965803861618,0.004182709846645594,-0.014702978543937206,0.01089796144515276,-0.00033633923158049583,-0.008360779844224453
0.02142716571688652,0.004407498985528946,-0.014272342436015606,0.011007221415638924,-0.00040155660826712847,-0.00796600617468357
0.021186672151088715,0.004171000327914953,-0.014794906601309776,0.011375871486961842,-0.0003937215660698712,-0.008645097725093365
0.02137436717748642,0.003917906433343887,-0.014668624848127365,0.011119741015136242,-0.0003636710171122104,-0.008578469976782799
0.0211422648280859,0.003829222172498703,-0.014862488023936749,0.01051116269081831,-0.00036919876583851874,-0.008341171778738499
0.021669363602995872,0.0038170518819242716,-0.014470402151346207,0.010870331898331642,-0.0003734998172149062,-0.008148816414177418
0.02183855138719082,0.004042467102408409,-0.014798465184867382,0.010723852552473545,-0.0003796147066168487,-0.008235987275838852
0.02206035703420639,0.004075268283486366,-0.014397747814655304,0.01081804744899273,-0.00038283169851638377,-0.008334677666425705
0.02224976010620594,0.004446565639227629,-0.014766450971364975,0.010866692289710045,-0.000407328741857782,-0.008263691328465939
0.021752268075942993,0.004223740193992853,-0.014688441529870033,0.010609402321279049,-0.0003925533965229988,-0.008380435407161713
0.021217573434114456,0.004407668486237526,-0.015168555080890656,0.011225882917642593,-0.0004768896906170994,-0.008524997159838676
0.022105686366558075,0.004317153710871935,-0.014900486916303635,0.011634747497737408,-0.0005201539606787264,-0.00878436304628849
0.022327564656734467,0.004374160431325436,-0.014907363802194595,0.011522986926138401,-0.00054872443433851,-0.007950819097459316
0.022025875747203827,0.00429264921694994,-0.01484904158860445,0.01151377521455288,-0.0005492682103067636,-0.00804680772125721
0.021796895191073418,0.004060257691890001,-0.014752345159649849,0.010994465090334415,-0.0005420959205366671,-0.008648599497973919
0.022536354139447212,0.00416137557476759,-0.015195006504654884,0.011097691021859646,-0.0008195594418793917,-0.008596708066761494
0.023164883255958557,0.0041603026911616325,-0.015184796415269375,0.011292709968984127,-0.0008460732060484588,-0.008760749362409115
0.0231037400662899,0.004403590690344572,-0.015446600504219532,0.011278195306658745,-0.0008540516719222069,-0.008507970720529556
0.022544942796230316,0.004590763244777918,-0.015123296529054642,0.012160676531493664,-0.0008143089362420142,-0.008550139144062996
0.02217775583267212,0.0043332139030098915,-0.015829745680093765,0.011414376087486744,-0.0009192510624416173,-0.008647352457046509
0.022326814010739326,0.00399084622040391,-0.015384907834231853,0.011830396950244904,-0.0009107064688578248,-0.008534994907677174
0.022638879716396332,0.0041460637003183365,-0.015926923602819443,0.011785273440182209,-0.000795229512732476,-0.009178218431770802
0.02374597080051899,0.00433109188452363,-0.015424877405166626,0.011746114119887352,-0.0007931321742944419,-0.009554839693009853
0.02301686629652977,0.004534005653113127,-0.015819257125258446,0.011697710491716862,-0.0007162698893807828,-0.009270867332816124
0.02301686629652977,0.004534005653113127,-0.015819257125258446,0.011697710491716862,-0.0007162698893807828,-0.009270867332816124
0.023241210728883743,0.0044193509966135025,-0.015831472352147102,0.01129142940044403,-0.0006438372656702995,-0.009384173899888992
0.023595545440912247,0.004033589269965887,-0.016104094684123993,0.011669042520225048,-0.0006615538732148707,-0.00936257466673851
0.023879943415522575,0.004291944205760956,-0.016559969633817673,0.011950242333114147,-0.0006104698404669762,-0.009443792514503002
0.023663800209760666,0.004316120874136686,-0.01599302887916565,0.012164812535047531,-0.0005359804490581155,-0.00965668261051178
0.023222533985972404,0.004077602177858353,-0.016321901232004166,0.011848578229546547,-0.00046012684470042586,-0.009324003010988235
0.023534834384918213,0.0044327364303171635,-0.016187112778425217,0.011310453526675701,-0.00045627259532921016,-0.009034429676830769
0.02354089729487896,0.00428240979090333,-0.015708651393651962,0.011597012169659138,-0.00042107392800971866,-0.009535834193229675
0.02374262362718582,0.004150073509663343,-0.01648288406431675,0.01185521949082613,-0.00045127805788069963,-0.009570740163326263
0.024195468053221703,0.0044029271230101585,-0.015893986448645592,0.012060794048011303,-0.0004694597446359694,-0.008937899954617023
0.023793131113052368,0.0046219914220273495,-0.016530025750398636,0.011633613146841526,-0.00045402641990222037,-0.009070930071175098
0.023606695234775543,0.004522854927927256,-0.016651244834065437,0.012489495798945427,-0.00048723918735049665,-0.009127837605774403
0.023955130949616432,0.004336175974458456,-0.015772679820656776,0.012124236673116684,-0.0004924424574710429,-0.00966578908264637
0.02424078807234764,0.004370122216641903,-0.01592089608311653,0.012141336686909199,-0.000490392732899636,-0.009753990918397903
0.024185417219996452,0.004158059600740671,-0.01691940240561962,0.012033481150865555,-0.00048541411524638534,-0.009874722920358181
0.02427775226533413,0.004375954624265432,-0.017296351492404938,0.011772429570555687,-0.0005024517886340618,-0.010755008086562157
0.02367560751736164,0.004593202844262123,-0.016293443739414215,0.012731118127703667,-0.00048118646373040974,-0.010366390459239483
0.023688437417149544,0.0043983240611851215,-0.01644664816558361,0.01209833100438118,-0.000448064150987193,-0.009928731247782707
0.024100927636027336,0.004032245837152004,-0.016897743567824364,0.012512334622442722,-0.00041836389573290944,-0.009786131791770458
0.024205267429351807,0.004351312760263681,-0.01638128235936165,0.01196920033544302,-0.00044075038749724627,-0.009460612200200558
0.024474889039993286,0.004212275613099337,-0.016510890796780586,0.011771216988563538,-0.00042155521805398166,-0.009427784942090511
0.02480202540755272,0.004279450513422489,-0.01597449742257595,0.012247731909155846,-0.00039863926940597594,-0.009885712526738644
0.023599376901984215,0.004559759981930256,-0.016665451228618622,0.011766589246690273,-0.00037774528027512133,-0.009816309437155724
0.024172091856598854,0.004267418757081032,-0.016316499561071396,0.0123125109821558,-0.0003704448463395238,-0.00969295110553503
0.0242999866604805,0.004485901910811663,-0.016162294894456863,0.012298919260501862,-0.00034484686329960823,-0.009880715981125832
0.025081085041165352,0.004137712065130472,-0.01659538596868515,0.012445532716810703,-0.000320456107147038,-0.010038423351943493
0.02496899664402008,0.004362309817224741,-0.016362393274903297,0.012432759627699852,-0.0003508468216750771,-0.010223504155874252
0.02496899664402008,0.004362309817224741,-0.016362393274903297,0.012432759627699852,-0.0003508468216750771,-0.010223504155874252
0.024119995534420013,0.004329882096499205,-0.01689840294420719,0.013001617044210434,-0.0003360619302839041,-0.010006675496697426
0.02350756525993347,0.004288651514798403,-0.01612028479576111,0.01289321668446064,-0.00031680066604167223,-0.010082580149173737
0.025433098897337914,0.004410789348185062,-0.016374217346310616,0.012302212417125702,-0.0003424215246923268,-0.009900476783514023
0.025271723046898842,0.004598499741405249,-0.0163367111235857,0.013009586371481419,-0.00033036674722097814,-0.009786510840058327
0.024018626660108566,0.004662375897169113,-0.01637217029929161,0.01235686894506216,-0.00031426813802681863,-0.010149476118385792
0.02494427002966404,0.0045708115212619305,-0.016911791637539864,0.012546473182737827,-0.00033918966073542833,-0.009816568344831467
0.025288846343755722,0.004763427190482616,-0.016542397439479828,0.012206769548356533,-0.00032719087903387845,-0.010127990506589413
0.02530183270573616,0.004808003548532724,-0.016851214691996574,0.012140513397753239,-0.00038451209547929466,-0.01054393220692873
0.025304323062300682,0.0046561360359191895,-0.016278132796287537,0.012302598915994167,-0.00035938553628511727,-0.010124444961547852
0.02439401112496853,0.0044375015422701836,-0.016907190904021263,0.012398464605212212,-0.0003950584796257317,-0.0106503302231431
0.02495204098522663,0.004920728504657745,-0.016427870839834213,0.012839803472161293,-0.0003763859858736396,-0.010116390883922577
0.025317562744021416,0.004524328280240297,-0.017217444255948067,0.013063402846455574,-0.0003796601959038526,-0.009911840781569481
0.025198351591825485,0.004555325955152512,-0.016814488917589188,0.012113009579479694,-0.00035967669100500643,-0.01023020688444376
0.02516631782054901,0.004290200304239988,-0.01713869906961918,0.012420078739523888,-0.00038242491427809,-0.010798693634569645
0.025198688730597496,0.004184131510555744,-0.016370298340916634,0.012928084470331669,-0.0003686075215227902,-0.010433102957904339
0.025645900517702103,0.004494808614253998,-0.016624001786112785,0.013662156648933887,-0.0003510096576064825,-0.009450443089008331
0.025326531380414963,0.004767490550875664,-0.016628574579954147,0.013921720907092094,-0.0004025293164886534,-0.009877094998955727
0.025108616799116135,0.0047350735403597355,-0.016110355034470558,0.013006873428821564,-0.00037924526259303093,-0.009318490512669086
0.025237230584025383,0.004676960874348879,-0.016841677948832512,0.013014902360737324,-0.00041086101555265486,-0.0095461281016469
0.02578846737742424,0.004735244438052177,-0.016473541036248207,0.012694655917584896,-0.00042103612213395536,-0.009650930762290955
0.02566615119576454,0.004628357477486134,-0.017184419557452202,0.01347358152270317,-0.000422234705183655,-0.00959803070873022
0.025932712480425835,0.0042924946174025536,-0.01733923703432083,0.012727692723274231,-0.00043932569678872824,-0.009513169527053833
0.02629363164305687,0.004464876372367144,-0.01670820824801922,0.01336643286049366,-0.00042647786904126406,-0.00981105212122202
0.026148861274123192,0.004474497400224209,-0.01721002720296383,0.013276482932269573,-0.0005582316080108285,-0.01041798572987318
0.025846712291240692,0.004743445198982954,-0.01655595563352108,0.013279673643410206,-0.0005180713487789035,-0.01009012944996357
0.025851096957921982,0.00471752742305398,-0.017307238653302193,0.012773822993040085,-0.0004659378028009087,-0.010366116650402546
0.025642668828368187,0.004263482056558132,-0.01730864681303501,0.012921439483761787,-0.00046298326924443245,-0.010115498676896095
0.025769632309675217,0.004366885870695114,-0.017449893057346344,0.013294406235218048,-0.0004603471315931529,-0.009889347478747368
0.025955818593502045,0.004170980304479599,-0.017719311639666557,0.012933562509715557,-0.00042639023740775883,-0.010302294977009296
0.025867516174912453,0.004206332378089428,-0.017112750560045242,0.012912626378238201,-0.0004521888040471822,-0.010342050343751907
0.025867516174912453,0.004206332378089428,-0.017112750560045242,0.012912626378238201,-0.0004521888040471822,-0.010342050343751907
0.02618633583188057,0.004081603139638901,-0.017460091039538383,0.012872492894530296,-0.0004589497111737728,-0.010358262807130814
0.026500636711716652,0.004398309160023928,-0.017022304236888885,0.013299819082021713,-0.00045763899106532335,-0.010729498229920864
0.02707819454371929,0.004233200568705797,-0.017765028402209282,0.012799881398677826,-0.00045105480239726603,-0.010459836572408676
0.026575617492198944,0.004368267487734556,-0.018390970304608345,0.013320119120180607,-0.00046906439820304513,-0.010640786029398441
0.026432009413838387,0.0040961443446576595,-0.017609858885407448,0.01311003603041172,-0.00046716202632524073,-0.011033941991627216
0.02698213793337345,0.003936264663934708,-0.018055977299809456,0.013566819950938225,-0.0004992374451830983,-0.010848662815988064
0.02660345286130905,0.004336844198405743,-0.01761367730796337,0.013311443850398064,-0.0004946989938616753,-0.010602238588035107
0.026342393830418587,0.004236653447151184,-0.017873814329504967,0.013122029602527618,-0.0006857169209979475,-0.010589183308184147
0.02725679986178875,0.004297473002225161,-0.0176447294652462,0.01293986663222313,-0.0007406027871184051,-0.010597137734293938
0.027589233592152596,0.0043812040239572525,-0.018467672169208527,0.013194631785154343,-0.000761726638302207,-0.011153456754982471
0.027561776340007782,0.003973402548581362,-0.018942588940262794,0.013446961529552937,-0.0007768639479763806,-0.01079119648784399
0.027749914675951004,0.0037870414089411497,-0.018086520954966545,0.014167829416692257,-0.0008153552189469337,-0.010660108178853989
0.026493405923247337,0.004366191104054451,-0.018525857478380203,0.01406802050769329,-0.0008523997385054827,-0.010771820321679115
0.026832344010472298,0.004626604728400707,-0.01851157657802105,0.01441209577023983,-0.0007975773769430816,-0.010908176191151142
0.02778520993888378,0.004283885005861521,-0.017563803121447563,0.013853410258889198,-0.0008066144655458629,-0.010906621813774109
0.027327025309205055,0.004381572362035513,-0.01800486072897911,0.014057177118957043,-0.0007966226548887789,-0.010538476519286633
0.027803706005215645,0.004610750824213028,-0.01803657039999962,0.013298112899065018,-0.0007383336778730154,-0.010718748904764652
0.029054803773760796,0.004172190558165312,-0.018108900636434555,0.013269712217152119,-0.0007131127058528364,-0.010729525238275528
0.02794940210878849,0.004299665801227093,-0.018759960308670998,0.012891080230474472,-0.0007392907864414155,-0.010570880956947803
0.027927370741963387,0.004252464044839144,-0.018168918788433075,0.013670793734490871,-0.0008113058283925056,-0.011050401255488396
0.027541520074009895,0.004504783544689417,-0.018094556406140327,0.013902885839343071,-0.0009675351902842522,-0.010627171024680138
0.02720947377383709,0.004231161437928677,-0.018298646435141563,0.014173997566103935,-0.001108003780245781,-0.010689912363886833
0.027790168300271034,0.004259319975972176,-0.01761374995112419,0.013940849341452122,-0.0010215580696240067,-0.010987667366862297
0.02797611616551876,0.004163444973528385,-0.01809314265847206,0.014396372251212597,-0.0009362269775010645,-0.010768959298729897
0.028070444241166115,0.0043471078388392925,-0.01845308020710945,0.013929534703493118,-0.0009189245174638927,-0.01086601335555315
0.027896542102098465,0.004083066713064909,-0.018437521532177925,0.013907268643379211,-0.0008270146790891886,-0.01063221413642168
0.028073381632566452,0.003931848332285881,-0.018565965816378593,0.01367503497749567,-0.0007251212373375893,-0.010414481163024902
0.02819005586206913,0.003922475501894951,-0.017717190086841583,0.013791239820420742,-0.0007163023110479116,-0.010465511120855808
0.028058787807822227,0.0038979011587798595,-0.017937060445547104,0.014324567280709743,-0.0006566884112544358,-0.011041609570384026
0.028117388486862183,0.0044071557931602,-0.018609656020998955,0.014032714068889618,-0.0006776840309612453,-0.01127445325255394
0.02807837724685669,0.004691733047366142,-0.018025895580649376,0.013963490724563599,-0.0006817806279286742,-0.01119514461606741
0.02807837724685669,0.004691733047366142,-0.018025895580649376,0.013963490724563599,-0.0006817806279286742,-0.01119514461606741
0.02808978222310543,0.004275100771337748,-0.01827268861234188,0.013919239863753319,-0.0006412786897271872,-0.011033374816179276
0.027997057884931564,0.00409318832680583,-0.01854262501001358,0.01413765549659729,-0.0006587872630916536,-0.01119749341160059
0.02771071158349514,0.003954533953219652,-0.0179059449583292,0.013826808892190456,-0.0006868844502605498,-0.011336869560182095
0.027095889672636986,0.004424284212291241,-0.01825249008834362,0.013400108553469181,-0.0007178904488682747,-0.011269109323620796
0.028957881033420563,0.004611416254192591,-0.017807113006711006,0.014093715697526932,-0.0008117777178995311,-0.011689847335219383
0.02896133065223694,0.0047745732590556145,-0.018328797072172165,0.013930290006101131,-0.0009166189702227712,-0.01159566268324852
0.028470734134316444,0.004445414524525404,-0.0180065780878067,0.014247084967792034,-0.0009201944922097027,-0.011688726022839546
0.02819826267659664,0.004212998319417238,-0.018390318378806114,0.01479350682348013,-0.0008882815018296242,-0.011861350387334824
0.028502605855464935,0.0038737838622182608,-0.018272263929247856,0.015227369964122772,-0.0008373723831027746,-0.01206262968480587
0.028497854247689247,0.003733595134690404,-0.017880432307720184,0.014773337170481682,-0.0008271047263406217,-0.01153214368969202
0.029979176819324493,0.003766554407775402,-0.01820153370499611,0.014980034902691841,-0.0007258731639012694,-0.011450810357928276
0.029579171910881996,0.003870167303830385,-0.018331853672862053,0.014462952502071857,-0.00074247014708817,-0.011696103028953075
0.029188137501478195,0.003999105654656887,-0.0177496038377285,0.0143251558765769,-0.0007393969572149217,-0.011555860750377178
0.027865950018167496,0.004314182326197624,-0.01837870664894581,0.014049582183361053,-0.0006839705165475607,-0.01223023608326912
0.02901967242360115,0.004566730931401253,-0.01814916543662548,0.014741560444235802,-0.0006944173946976662,-0.011826465837657452
0.029685843735933304,0.004206421319395304,-0.018458064645528793,0.014726572670042515,-0.0006427912157960236,-0.011978771537542343
0.029329385608434677,0.004077405668795109,-0.018439017236232758,0.015347150154411793,-0.0006095065618865192,-0.011870553717017174
0.02973576821386814,0.004106561653316021,-0.018063930794596672,0.014906263910233974,-0.0005450707394629717,-0.011802071705460548
0.03028341382741928,0.004090858157724142,-0.0189321581274271,0.014369009993970394,-0.0005768499686382711,-0.011991316452622414
0.030504200607538223,0.004472400061786175,-0.018771301954984665,0.014790968038141727,-0.0006020576693117619,-0.0117288613691926
0.029578719288110733,0.004332574550062418,-0.017962517216801643,0.014869642443954945,-0.0006281488458625972,-0.011724233627319336
0.029235178604722023,0.0042618196457624435,-0.018839756026864052,0.014690974727272987,-0.0007858477183617651,-0.012078074738383293
0.030146537348628044,0.0040702116675674915,-0.019110890105366707,0.015203489921987057,-0.0008931726333685219,-0.012095186859369278
0.030666077509522438,0.003807925386354327,-0.018377505242824554,0.014720591716468334,-0.0009001981234177947,-0.012631920166313648
0.030431048944592476,0.003701350884512067,-0.018870487809181213,0.014775402843952179,-0.0010343785397708416,-0.013571208342909813
0.029988335445523262,0.0037738988175988197,-0.018596621230244637,0.014498080126941204,-0.00113320117816329,-0.012716135010123253
0.030135277658700943,0.004251333884894848,-0.019221482798457146,0.014617662876844406,-0.0011210364755243063,-0.012175998650491238
0.030212974175810814,0.004583762492984533,-0.019016537815332413,0.014627916738390923,-0.0010360453743487597,-0.012341459281742573
0.02903205156326294,0.00409828731790185,-0.019511787220835686,0.014822694472968578,-0.0009571650298312306,-0.012625089846551418
0.02903205156326294,0.00409828731790185,-0.019511787220835686,0.014822694472968578,-0.0009571650298312306,-0.012625089846551418
0.03060046024620533,0.003837291616946459,-0.01894356869161129,0.015071534551680088,-0.0008480882388539612,-0.01276370044797659
0.030723202973604202,0.003898996626958251,-0.01939598098397255,0.014823793433606625,-0.0007488984265364707,-0.012508746236562729
0.030425505712628365,0.0039612469263374805,-0.019038978964090347,0.015192055143415928,-0.0006378174293786287,-0.012246908619999886
0.03041304275393486,0.004289878997951746,-0.01904655434191227,0.014858837239444256,-0.0005946924793533981,-0.012272297404706478
0.030768392607569695,0.004199605900794268,-0.01946977898478508,0.014500882476568222,-0.0006017401465214789,-0.012687827460467815
0.031045956537127495,0.00426472956314683,-0.0192226804792881,0.014813198707997799,-0.0005676581058651209,-0.012880634516477585
0.03149499371647835,0.004003297071903944,-0.018912898376584053,0.014961311593651772,-0.0005766026442870498,-0.012759079225361347
0.03103218972682953,0.0037696221843361855,-0.019158130511641502,0.015574230812489986,-0.0005495914374478161,-0.01321621797978878
0.03163541108369827,0.0036851996555924416,-0.018981968984007835,0.015074276365339756,-0.0005428182194009423,-0.013480698689818382
0.0316653735935688,0.003699568333104253,-0.019867543131113052,0.01501444261521101,-0.000562045257538557,-0.01315212156623602
0.03135554492473602,0.0037638975773006678,-0.01971721649169922,0.014750376343727112,-0.0005719626205973327,-0.012756101787090302
0.03191053867340088,0.004208184313029051,-0.01908355951309204,0.015323705039918423,-0.0005609547370113432,-0.013172327540814877
0.03165625035762787,0.004066332243382931,-0.019506560638546944,0.015326588414609432,-0.0005812353338114917,-0.013316292315721512
0.03159377723932266,0.00436708889901638,-0.019062872976064682,0.015260075218975544,-0.000661203172057867,-0.013546984642744064
0.03202534466981888,0.004097426310181618,-0.019002584740519524,0.01476418599486351,-0.0007378584123216569,-0.012974552810192108
0.032367900013923645,0.003936406224966049,-0.019299840554594994,0.014867367222905159,-0.0007055466994643211,-0.013163772411644459
0.03250817209482193,0.0038687947671860456,-0.019658446311950684,0.014970414340496063,-0.000717475195415318,-0.013260957784950733
0.0323147177696228,0.004321561194956303,-0.019065218046307564,0.015353965573012829,-0.0007002686616033316,-0.012998106889426708
0.03245793655514717,0.004088509362190962,-0.01949707791209221,0.015659773722290993,-0.0006758467643521726,-0.013114475645124912
0.03360452875494957,0.004193711560219526,-0.0198383666574955,0.015673547983169556,-0.0006989949033595622,-0.012847173027694225
0.03338129073381424,0.004083110950887203,-0.01927332766354084,0.015458652749657631,-0.0006316093495115638,-0.013169956393539906
0.03019717149436474,0.004331980831921101,-0.019923286512494087,0.015151843428611755,-0.0006583484937436879,-0.01326313242316246
0.03019717149436474,0.004331980831921101,-0.019923286512494087,0.015151843428611755,-0.0006583484937436879,-0.01326313242316246
0.03244708478450775,0.004159569274634123,-0.019890010356903076,0.015514068305492401,-0.0006402954459190369,-0.013595976866781712
0.03269757702946663,0.0042366161942481995,-0.019829008728265762,0.015587478876113892,-0.0006265292759053409,-0.01389999222010374
0.03269757702946663,0.0042366161942481995,-0.019829008728265762,0.015587478876113892,-0.0006265292759053409,-0.01389999222010374
0.03351868316531181,0.004400432109832764,-0.019953321665525436,0.015190313570201397,-0.0005933846696279943,-0.013349207118153572
0.03394085168838501,0.004169886000454426,-0.019514160230755806,0.01593828946352005,-0.0005777655751444399,-0.013467267155647278
0.03317324444651604,0.004195030778646469,-0.019607191905379295,0.015741975978016853,-0.0005397548084147274,-0.013248243369162083
0.032165803015232086,0.004065229557454586,-0.020102495327591896,0.016062255948781967,-0.0005543421139009297,-0.01347943115979433
0.03317580744624138,0.004368528723716736,-0.020025083795189857,0.016069771721959114,-0.0005224752239882946,-0.013548371382057667
0.03427119925618172,0.004494128283113241,-0.01997528038918972,0.01623542420566082,-0.0005470491596497595,-0.013702956959605217
0.033927179872989655,0.004601558204740286,-0.02014917880296707,0.015859538689255714,-0.0005400602240115404,-0.013636678457260132
0.03339063376188278,0.004606287460774183,-0.019773811101913452,0.015953190624713898,-0.000685148814227432,-0.01367183681577444
0.033693257719278336,0.004709131550043821,-0.020159533247351646,0.01549043133854866,-0.0007182348635978997,-0.013653857633471489
0.03387729078531265,0.00430027861148119,-0.020337995141744614,0.015818197280168533,-0.00069114298094064,-0.013711717911064625
0.03402625769376755,0.004439610056579113,-0.019585665315389633,0.01576833240687847,-0.0007087585981935263,-0.013393878005445004
0.03409279137849808,0.004174471367150545,-0.020267939195036888,0.016228973865509033,-0.0008478494128212333,-0.013759301044046879
0.0342697948217392,0.00442245090380311,-0.02003738284111023,0.016093088313937187,-0.0009145446238107979,-0.013623975217342377
0.03386098891496658,0.004149297252297401,-0.019956588745117188,0.016125835478305817,-0.0009161096531897783,-0.013889609836041927
0.03403826057910919,0.0042401524260640144,-0.020354386419057846,0.016317550092935562,-0.0009063128381967545,-0.01383437030017376
0.03445812687277794,0.004194687120616436,-0.020897742360830307,0.01613309420645237,-0.0008172245579771698,-0.014150259084999561
0.03433125466108322,0.004349539987742901,-0.020391276106238365,0.016528017818927765,-0.0007933055167086422,-0.01403770036995411
0.03419852256774902,0.004083811771124601,-0.02050366811454296,0.016012966632843018,-0.0006953685078769922,-0.01427648589015007
0.03513495624065399,0.004278742708265781,-0.020527424290776253,0.01635894365608692,-0.0007068592822179198,-0.014029056765139103
0.035768475383520126,0.004236978478729725,-0.02052454836666584,0.01577477529644966,-0.000637341639958322,-0.01554754190146923
0.034351933747529984,0.004488775972276926,-0.020542938262224197,0.015936734154820442,-0.0006402502185665071,-0.013607356697320938
0.03407226875424385,0.004586821887642145,-0.021143563091754913,0.016098573803901672,-0.0006005535833537579,-0.013737239874899387
0.03538970276713371,0.004665025509893894,-0.021379981189966202,0.016024669632315636,-0.0006224190001375973,-0.014057468622922897
0.03505789116024971,0.004578464198857546,-0.021405495703220367,0.01730717532336712,-0.0005952218198217452,-0.014692512340843678
0.035026855766773224,0.004321514628827572,-0.02117069624364376,0.017132693901658058,-0.0006118474993854761,-0.01467293594032526
0.035343192517757416,0.004495267756283283,-0.02162933349609375,0.017168600112199783,-0.0006412348011508584,-0.014572731219232082
0.035343192517757416,0.004495267756283283,-0.02162933349609375,0.017168600112199783,-0.0006412348011508584,-0.014572731219232082
0.03578446805477142,0.0045311045832931995,-0.022065559402108192,0.01628921926021576,-0.0006772116175852716,-0.014348608441650867
0.03474441543221474,0.004797556437551975,-0.021990813314914703,0.016141001135110855,-0.0008984158048406243,-0.014565840363502502
0.03489917516708374,0.004851179663091898,-0.02086303010582924,0.01633537746965885,-0.0009454000391997397,-0.0143295181915164
0.035069216042757034,0.004732260014861822,-0.021201515570282936,0.01618449203670025,-0.0008399503421969712,-0.014119469560682774
0.035649623721838,0.004639557097107172,-0.02176576480269432,0.01628916524350643,-0.0008172172820195556,-0.014456612057983875
0.035413339734077454,0.004506589379161596,-0.022479629144072533,0.016310611739754677,-0.0007471254793927073,-0.014789881184697151
0.03527703136205673,0.004546606447547674,-0.021959315985441208,0.01669837161898613,-0.0007153467740863562,-0.014704558067023754
0.03542899712920189,0.0051409159786999226,-0.021509215235710144,0.0165818240493536,-0.0006090612732805312,-0.01470531802624464
0.03587484732270241,0.004924584645777941,-0.022146742790937424,0.01665760576725006,-0.0006120464531704783,-0.014891906641423702
0.035568878054618835,0.004662294406443834,-0.021900922060012817,0.01641892082989216,-0.0005708896787837148,-0.014509319327771664
0.03555437922477722,0.004558484070003033,-0.021663250401616096,0.01671169325709343,-0.0005919250543229282,-0.014634503051638603
0.03632683306932449,0.004632422234863043,-0.02201171964406967,0.016013139858841896,-0.0006080505554564297,-0.014348951168358326
0.03472738340497017,0.004678545519709587,-0.022320197895169258,0.016569679602980614,-0.0005777411861345172,-0.0145370252430439
0.03647677227854729,0.004618890583515167,-0.02183360792696476,0.015795357525348663,-0.0006833387888036668,-0.01425810344517231
0.03634778782725334,0.004389892797917128,-0.021816899999976158,0.015920588746666908,-0.0007279798737727106,-0.014519897289574146
0.03645102307200432,0.004452769178897142,-0.022251462563872337,0.016361763700842857,-0.0007496412727050483,-0.014871002174913883
0.03640136495232582,0.004526947624981403,-0.022276747971773148,0.01667575165629387,-0.0007665898883715272,-0.014819289557635784
0.036566220223903656,0.0041127377189695835,-0.022227708250284195,0.017536047846078873,-0.0010178756201639771,-0.014605986885726452
0.036247558891773224,0.004472377244383097,-0.021897025406360626,0.017654171213507652,-0.000938276993110776,-0.014789095148444176
0.036973558366298676,0.004727476742118597,-0.022492043673992157,0.017217664048075676,-0.0009283783147111535,-0.014587882906198502
0.03685428947210312,0.004393860697746277,-0.022993234917521477,0.016891419887542725,-0.0009011474321596324,-0.014871779829263687
0.036468133330345154,0.0044577233493328094,-0.022397132590413094,0.016540849581360817,-0.0008269591489806771,-0.015036003664135933
0.036891404539346695,0.004493472632020712,-0.021942753344774246,0.016887018457055092,-0.000776371918618679,-0.015033864416182041
0.03684799373149872,0.004478814546018839,-0.02220216765999794,0.0166243277490139,-0.0007903299992904067,-0.014511507004499435
0.03645019605755806,0.004326754715293646,-0.02278497815132141,0.01695459708571434,-0.0008041205001063645,-0.01468043401837349
0.036379624158144,0.004549412988126278,-0.02260214276611805,0.016682732850313187,-0.0007690265774726868,-0.014834117144346237
0.036379624158144,0.004549412988126278,-0.02260214276611805,0.016682732850313187,-0.0007690265774726868,-0.014834117144346237
0.038311995565891266,0.004246722906827927,-0.022350957617163658,0.017061466351151466,-0.0007350711966864765,-0.014939296059310436
0.038318682461977005,0.0044497898779809475,-0.021879710257053375,0.01698131114244461,-0.000716596026904881,-0.015108748339116573
0.03562731295824051,0.005050891079008579,-0.022217299789190292,0.016418524086475372,-0.0007223766297101974,-0.01525117177516222
0.03707091137766838,0.005014136433601379,-0.022707859054207802,0.016612840816378593,-0.0007439173059538007,-0.015149451792240143
0.03713814541697502,0.004370945040136576,-0.022893114015460014,0.016194123774766922,-0.0007872379501350224,-0.015030523762106895
0.03707253932952881,0.00396200455725193,-0.022669751197099686,0.01655864715576172,-0.0007371669635176659,-0.014863578602671623
0.03788206726312637,0.004089496098458767,-0.022155266255140305,0.01676027663052082,-0.0008496597874909639,-0.01596708595752716
0.03726586326956749,0.004749186336994171,-0.022467462345957756,0.017251482233405113,-0.00083388906205073,-0.015239291824400425
0.03640572726726532,0.0043825414031744,-0.022334225475788116,0.017489006742835045,-0.0008487264858558774,-0.014592361636459827
0.0378672257065773,0.004503543023020029,-0.02226373925805092,0.017823487520217896,-0.0008776164031587541,-0.015047422610223293
0.03677021712064743,0.004275647923350334,-0.02261860854923725,0.0168918389827013,-0.0008801700314506888,-0.015075737610459328
0.03782765194773674,0.004397918004542589,-0.02257208712399006,0.016734536737203598,-0.0009003026643767953,-0.015213998965919018
0.037949979305267334,0.004935106262564659,-0.022112399339675903,0.016940603032708168,-0.0009013874805532396,-0.015307067893445492
0.03737159073352814,0.004954836796969175,-0.021976454183459282,0.016482029110193253,-0.0009780036052688956,-0.01511294860392809
0.037806399166584015,0.004596094600856304,-0.02212964929640293,0.01671169139444828,-0.0010009845718741417,-0.015377270989120007
0.03751972317695618,0.0046043433248996735,-0.02242552675306797,0.01658972166478634,-0.0009683229145593941,-0.01559948455542326
0.037763725966215134,0.004945364315062761,-0.023201992735266685,0.01724078878760338,-0.0008676291909068823,-0.015533135272562504
0.037986211478710175,0.004996503237634897,-0.022382138296961784,0.017735451459884644,-0.0008653881959617138,-0.015474718064069748
0.03785981610417366,0.0047345771454274654,-0.022085703909397125,0.017107730731368065,-0.0007784264744259417,-0.015620320104062557
0.03799784928560257,0.004691949114203453,-0.02242378517985344,0.017652051523327827,-0.0007031628047116101,-0.015480746515095234
0.0380953885614872,0.004831664264202118,-0.022442810237407684,0.01732742413878441,-0.0006116503500379622,-0.015615755692124367
0.03945982828736305,0.004633695352822542,-0.02318217046558857,0.017344176769256592,-0.0005901185213588178,-0.015536013059318066
0.038166292011737823,0.004377685487270355,-0.02291184291243553,0.0174816083163023,-0.0005734170554205775,-0.015201536007225513
0.037167228758335114,0.004534421022981405,-0.02204708941280842,0.017500950023531914,-0.0005958290421403944,-0.015407366678118706
0.03897624835371971,0.0050385189242661,-0.022585798054933548,0.01791607216000557,-0.0006118016317486763,-0.01572475954890251
0.03883182257413864,0.00489586079493165,-0.0234609954059124,0.01765694096684456,-0.0006303138216026127,-0.01583852991461754
0.03883182257413864,0.00489586079493165,-0.0234609954059124,0.01765694096684456,-0.0006303138216026127,-0.01583852991461754
0.03951343521475792,0.004543513525277376,-0.023473147302865982,0.017884209752082825,-0.0007013190188445151,-0.015495038591325283
0.03963514044880867,0.00458211125805974,-0.022505801171064377,0.018145805224776268,-0.0007271225331351161,-0.015806645154953003
0.03804534673690796,0.004440587945282459,-0.022499321028590202,0.018033910542726517,-0.0007455440354533494,-0.0161774680018425
0.03786325082182884,0.004589748568832874,-0.02291555516421795,0.01811417005956173,-0.000967423606198281,-0.01608816534280777
0.039633527398109436,0.004721259232610464,-0.02317037619650364,0.01827026531100273,-0.00112247746437788,-0.015815697610378265
0.0393022857606411,0.004638521000742912,-0.02355557307600975,0.017834074795246124,-0.0010275128297507763,-0.01605832949280739
0.03932507708668709,0.004854216240346432,-0.022739436477422714,0.01717660389840603,-0.0008884569979272783,-0.016097253188490868
0.039746321737766266,0.004789156373590231,-0.02318168617784977,0.017844242975115776,-0.000830717443022877,-0.016128189861774445
0.03950994461774826,0.00447413045912981,-0.023691311478614807,0.018009372055530548,-0.0008313373546116054,-0.01578928530216217
0.039868466556072235,0.004412075504660606,-0.023229245096445084,0.017737453803420067,-0.0008400063961744308,-0.016108855605125427
0.03987552598118782,0.004894866142421961,-0.022844484075903893,0.017850592732429504,-0.0008331260760314763,-0.016023889183998108
0.03977664187550545,0.004940561018884182,-0.023005502298474312,0.0176619254052639,-0.0008510755142197013,-0.016276685521006584
0.040194835513830185,0.004782617557793856,-0.02357521839439869,0.01795419305562973,-0.0009187918622046709,-0.016303185373544693
0.03999687358736992,0.004773780237883329,-0.02348165214061737,0.018838999792933464,-0.0009930030209943652,-0.017324931919574738
0.04033397510647774,0.004236454609781504,-0.023491818457841873,0.018195681273937225,-0.0009428500197827816,-0.01586506888270378
0.0399320162832737,0.0044362498447299,-0.023409642279148102,0.017909370362758636,-0.0011432060273364186,-0.01564834825694561
0.03985224664211273,0.00467638997361064,-0.02287193387746811,0.017830315977334976,-0.0011540151899680495,-0.016447367146611214
0.040983960032463074,0.004629850387573242,-0.023018350824713707,0.017493532970547676,-0.001116898492909968,-0.016451723873615265
0.040258198976516724,0.0045441072434186935,-0.02343568205833435,0.017932971939444542,-0.001052899518981576,-0.01658516190946102
0.04030614718794823,0.004613015800714493,-0.023712990805506706,0.0178349781781435,-0.0010373909026384354,-0.01644478738307953
0.04070642217993736,0.004590710625052452,-0.02314634993672371,0.017839856445789337,-0.0010153086623176932,-0.016784710809588432
0.04056962579488754,0.0044996836222708225,-0.023018497973680496,0.01844443939626217,-0.000998796196654439,-0.016671372577548027
0.04094754531979561,0.004639878403395414,-0.023302875459194183,0.018227288499474525,-0.0009847050532698631,-0.016289014369249344
0.04043034464120865,0.004697679076343775,-0.023706676438450813,0.018313204869627953,-0.0010243885917589068,-0.01632116362452507
0.04043034464120865,0.004697679076343775,-0.023706676438450813,0.018313204869627953,-0.0010243885917589068,-0.01632116362452507
0.04058774188160896,0.0046395896933972836,-0.023772550746798515,0.018296018242836,-0.0010875482112169266,-0.016506139189004898
0.04008597508072853,0.004603332839906216,-0.02300705388188362,0.01789020001888275,-0.0010092102456837893,-0.01727394387125969
0.04125937819480896,0.0047560157254338264,-0.02296862192451954,0.01813964731991291,-0.0011456701904535294,-0.016940979287028313
0.04230475053191185,0.004227729048579931,-0.023719480261206627,0.018366334959864616,-0.0011096837697550654,-0.016880664974451065
0.039599210023880005,0.004463851451873779,-0.02448344975709915,0.01842181757092476,-0.0010081275831907988,-0.0168539397418499
0.039916642010211945,0.004741538316011429,-0.024585943669080734,0.018977420404553413,-0.0009883878519758582,-0.016535688191652298
0.041641537100076675,0.005138604901731014,-0.02334890514612198,0.019073186442255974,-0.0007788693765178323,-0.017170259729027748
0.042232219129800797,0.005055805202573538,-0.024056604132056236,0.019248908385634422,-0.000788308447226882,-0.017696326598525047
0.040677882730960846,0.004362290259450674,-0.024699341505765915,0.019028428941965103,-0.0007501780055463314,-0.01796460896730423
0.04005194082856178,0.0042897844687104225,-0.024073924869298935,0.018859896808862686,-0.0007638740935362875,-0.01727987825870514
0.041538216173648834,0.004555440042167902,-0.02441231533885002,0.01921704225242138,-0.0007873154827393591,-0.016987208276987076
0.041893281042575836,0.005213265307247639,-0.02578451856970787,0.019392307847738266,-0.0008280699257738888,-0.017110047861933708
0.04173349589109421,0.004926453810185194,-0.024855447933077812,0.01933343894779682,-0.0008397107012569904,-0.01671406999230385
0.04155367985367775,0.004967925138771534,-0.023998042568564415,0.019161636009812355,-0.0007672379142604768,-0.016685470938682556
0.04140973463654518,0.004872661549597979,-0.024603083729743958,0.01851968839764595,-0.0007763465982861817,-0.016929898411035538
0.04165857657790184,0.004783595912158489,-0.023686612024903297,0.018224485218524933,-0.0009429540950804949,-0.01743534579873085
0.040874794125556946,0.004331431817263365,-0.024114197120070457,0.018138330429792404,-0.0010145213454961777,-0.017720486968755722
0.04121796414256096,0.004955114796757698,-0.02524895779788494,0.01808525249361992,-0.0010154281044378877,-0.01748967170715332
0.0414043664932251,0.0048972140066325665,-0.024954749271273613,0.018695682287216187,-0.001286165788769722,-0.01835528574883938
0.04155432805418968,0.004896366968750954,-0.024156825616955757,0.019069325178861618,-0.0012250769650563598,-0.017512664198875427
0.0427628830075264,0.004839937202632427,-0.02433990314602852,0.01889406330883503,-0.0011694967979565263,-0.017197828739881516
0.04049977287650108,0.004525912459939718,-0.024490270763635635,0.0190560445189476,-0.0010760757140815258,-0.017537526786327362
0.04059797152876854,0.004523224662989378,-0.024507038295269012,0.01902974396944046,-0.0010258429683744907,-0.017556723207235336
0.04089408367872238,0.004640758037567139,-0.024420667439699173,0.0184573233127594,-0.0010031951824203134,-0.01681184582412243
0.04089408367872238,0.004640758037567139,-0.024420667439699173,0.0184573233127594,-0.0010031951824203134,-0.01681184582412243
0.041386678814888,0.004550230223685503,-0.024497030302882195,0.01913919858634472,-0.0010211007902398705,-0.01687951199710369
0.04286270961165428,0.005459635052829981,-0.0249505415558815,0.019632434472441673,-0.0010203385027125478,-0.016832254827022552
0.04026787728071213,0.005387669894844294,-0.02464120276272297,0.019037263467907906,-0.0010509685380384326,-0.01724957674741745
0.04008805751800537,0.004457687493413687,-0.02433103322982788,0.019297348335385323,-0.0010491596767678857,-0.01769620180130005
0.04202304407954216,0.004126970190554857,-0.024483801797032356,0.019380496814846992,-0.0010379075538367033,-0.018076099455356598
0.04149475693702698,0.003945042844861746,-0.02424531616270542,0.01957370899617672,-0.0010235343361273408,-0.017532208934426308
0.04158291965723038,0.004413490183651447,-0.024659298360347748,0.019623562693595886,-0.0008939979015849531,-0.01702420599758625
