davideferrari95/blind_handover_controller/data/Test 110 - [2024-02-07 -- 16-25-35]/joint_states_data.csv
shoulder_pan_joint,shoulder_lift_joint,elbow_joint,wrist_1_joint,wrist_2_joint,wrist_3_joint
0.005234122276306152,0.00613718805834651,-0.011847415938973427,0.009957924485206604,-0.0,0.005327761173248291
0.005234122276306152,0.00613718805834651,-0.011847415938973427,0.009957924485206604,-0.0,0.005327761173248291
0.005298182368278503,0.006494486704468727,-0.011433286592364311,0.00927202869206667,-0.0,0.005274060182273388
0.005594159010797739,0.006447268184274435,-0.012040248140692711,0.009796204045414925,-0.0,0.005053292959928513
0.00525143276900053,0.00608400721102953,-0.011599774472415447,0.00973738543689251,-0.0,0.0048726461827754974
0.00525143276900053,0.00608400721102953,-0.011599774472415447,0.00973738543689251,-0.0,0.0048726461827754974
0.0050376844592392445,0.006160391960293055,-0.012175357900559902,0.009529068134725094,-0.0,0.005147884599864483
0.005111287347972393,0.006349505390971899,-0.01103250216692686,0.009329244494438171,-0.0,0.005624451674520969
0.00495497602969408,0.006264147348701954,-0.01222322229295969,0.009230666793882847,-0.0,0.005408937577158213
0.004896465688943863,0.006115875206887722,-0.01189509592950344,0.009523943066596985,-0.0,0.005027433391660452
0.004743507597595453,0.00603284640237689,-0.011982410214841366,0.009552019648253918,-0.0,0.005202646367251873
0.004778662696480751,0.006308047566562891,-0.011415936052799225,0.009325002320110798,-0.0,0.005226322915405035
0.005222476553171873,0.006875406019389629,-0.010811069048941135,0.009215747006237507,-0.0,0.0053896489553153515
0.004928966984152794,0.006751172244548798,-0.011594155803322792,0.009067717008292675,-0.0,0.005555637180805206
0.004676399752497673,0.006021157838404179,-0.011220975778996944,0.008452430367469788,-0.0,0.005209614522755146
0.004902853164821863,0.006075128447264433,-0.011088594794273376,0.008602115325629711,-0.0,0.005149489734321833
0.00498893391340971,0.006052913144230843,-0.011630299501121044,0.008931548334658146,-0.0,0.005175120197236538
0.00497038010507822,0.006445012055337429,-0.010980972088873386,0.008927998133003712,-0.0,0.005657586734741926
0.005310127045959234,0.006404998246580362,-0.011992563493549824,0.008225345984101295,-0.0,0.005298586096614599
0.004908041097223759,0.005497758276760578,-0.011418599635362625,0.008705574087798595,-0.0,0.0052676694467663765
0.005204606801271439,0.005410914774984121,-0.011125832796096802,0.008427716791629791,-0.0,0.005417729262262583
0.0049394299276173115,0.005494030192494392,-0.01234423741698265,0.008171736262738705,-0.0,0.005161379463970661
0.0050628893077373505,0.006424826104193926,-0.011932848952710629,0.008352325297892094,-0.0,0.005414293613284826
0.004616199526935816,0.005788432899862528,-0.011983005329966545,0.009014438837766647,-0.0,0.005186995025724173
0.005057625472545624,0.005184972658753395,-0.011403622105717659,0.008719772100448608,-0.0,0.005264755338430405
0.004949792753905058,0.005274119786918163,-0.011034196242690086,0.008562599308788776,-0.0,0.005056480411440134
0.005269933026283979,0.0055102817714214325,-0.011764662340283394,0.009061142802238464,-0.0,0.004922557156533003
0.0050995927304029465,0.005758743267506361,-0.011961913667619228,0.008614150807261467,-0.0,0.005127233918756247
0.0048157102428376675,0.0061144037172198296,-0.011827671900391579,0.008301421999931335,-0.0,0.005321633070707321
0.00453321635723114,0.0055384146980941296,-0.011706382036209106,0.009393415413796902,-0.0,0.005134514532983303
0.0055512934923172,0.005573325790464878,-0.011470123194158077,0.009000222198665142,-0.0,0.0053863259963691235
0.0053721582517027855,0.0052238996140658855,-0.01164564210921526,0.008379251696169376,-0.0,0.005335807800292969
0.004860122222453356,0.005855137947946787,-0.011198882944881916,0.008725411258637905,-0.0,0.005069686099886894
0.004860122222453356,0.005855137947946787,-0.011198882944881916,0.008725411258637905,-0.0,0.005069686099886894
0.004835898522287607,0.0057455869391560555,-0.011879248544573784,0.008820971474051476,-0.0,0.005206448026001453
0.004838599357753992,0.005694265011698008,-0.011765210889279842,0.008954193443059921,-0.0,0.005108997225761414
0.005317070055752993,0.004783160053193569,-0.01250473689287901,0.009159991517663002,-0.0,0.005384972784668207
0.005467400886118412,0.0034336529206484556,-0.011133850552141666,0.00865079089999199,-0.0,0.00510336272418499
0.005033704452216625,0.0023669966030865908,-0.011689119040966034,0.008711670525372028,-0.0,0.004967433400452137
0.004922275431454182,0.002375869546085596,-0.01132311299443245,0.009196588769555092,-0.0,0.004901292268186808
0.0051992530934512615,0.0034053835552185774,-0.011158506385982037,0.008672310970723629,-0.0,0.004819793161004782
0.005012368783354759,0.00398330157622695,-0.011834269389510155,0.008211249485611916,-0.0,0.005204183515161276
0.005516147706657648,0.003857335774227977,-0.01101526990532875,0.008546050637960434,-0.0,0.005358366761356592
0.005258476361632347,0.003236417192965746,-0.011818899773061275,0.008835938759148121,-0.0,0.00515912938863039
0.005497486796230078,0.003027255879715085,-0.011427194811403751,0.008526260033249855,-0.0,0.005458447150886059
0.005607585422694683,0.00281237019225955,-0.010992451570928097,0.008341015316545963,-0.0,0.005246116314083338
0.005043833516538143,0.002825309056788683,-0.011373408138751984,0.008544334210455418,-0.0,0.0048233880661427975
0.0054831416346132755,0.003146540140733123,-0.011210912838578224,0.008154594339430332,-0.0,0.004862105939537287
0.005391727201640606,0.002908905502408743,-0.011899545788764954,0.007719096727669239,-0.0,0.004847233183681965
0.005931306630373001,0.003080713329836726,-0.011723401956260204,0.00813292246311903,-0.0,0.004794927313923836
0.005696021020412445,0.002969041233882308,-0.011605922132730484,0.008717010729014874,-0.0,0.004787053447216749
0.005074024200439453,0.0029558425303548574,-0.011929377913475037,0.00826234370470047,-0.0,0.005056050140410662
0.0054079629480838776,0.0027422464918345213,-0.01128328312188387,0.008081466890871525,-0.0,0.005143838468939066
0.005298564210534096,0.003046105382964015,-0.011918128468096256,0.008113415911793709,-0.0,0.005005817394703627
0.005891798064112663,0.0030767666175961494,-0.011462787166237831,0.008012834936380386,-0.0,0.005116401240229607
0.005713350605219603,0.0029368335381150246,-0.011419618502259254,0.008044608868658543,-0.0,0.004911705385893583
0.005612937733530998,0.0027862382121384144,-0.011598546989262104,0.007793801836669445,-0.0,0.004916577599942684
0.005442984402179718,0.0028661012183874846,-0.011207491159439087,0.008133118972182274,-0.0,0.004625995177775621
0.005724847782403231,0.0032556678634136915,-0.011772993952035904,0.008177549578249454,-0.0,0.005167114082723856
0.005827134009450674,0.003288365202024579,-0.012130837887525558,0.007642530370503664,-0.0,0.005176255013793707
0.005777489859610796,0.0035833592992275953,-0.011627926491200924,0.008067933842539787,-0.0,0.004605584777891636
0.005191383883357048,0.003784904954954982,-0.011408795602619648,0.008538909256458282,-0.0,0.004295871127396822
0.005191383883357048,0.003784904954954982,-0.011408795602619648,0.008538909256458282,-0.0,0.004295871127396822
0.0051512205973267555,0.003899824572727084,-0.010877411812543869,0.008730233646929264,-0.0,0.004496308043599129
0.005153086967766285,0.0034607723355293274,-0.011000513099133968,0.008940567262470722,-0.0,0.004728451371192932
0.005730635020881891,0.003734126454219222,-0.01076388917863369,0.008924286812543869,-8.462828873234685e-07,0.004819897934794426
0.005591304507106543,0.00385129451751709,-0.011366353370249271,0.008344852365553379,-5.5256229813949176e-08,0.005117154214531183
0.00555815314874053,0.0034050035756081343,-0.01113654114305973,0.008328174240887165,-3.6078371401515597e-09,0.004868615884333849
0.00609338516369462,0.0034786055330187082,-0.010846545919775963,0.008147657848894596,-2.3556598338636547e-10,0.0045147244818508625
0.006135251838713884,0.0035564580466598272,-0.011234406381845474,0.00844455324113369,-1.538077477880595e-11,0.004404968582093716
0.0058816601522266865,0.0036160892341285944,-0.010824482887983322,0.008578792214393616,-1.004254730589682e-12,0.00474456325173378
0.006117492448538542,0.0037088694516569376,-0.010987904854118824,0.008404756896197796,-6.557065681438504e-14,0.004540078341960907
0.005525520537048578,0.004187028389424086,-0.0112420953810215,0.007916542701423168,-4.2812958446448654e-15,0.00462753651663661
0.005874060094356537,0.004162514116615057,-0.01063687726855278,0.007746615447103977,-2.795379985413214e-16,0.005052621942013502
0.005984961986541748,0.0035542913246899843,-0.011321624740958214,0.007838133722543716,-1.8251834514572387e-17,0.004870765842497349
0.006151914596557617,0.0033770138397812843,-0.010988632217049599,0.008570503443479538,-1.1917142488190482e-18,0.004462056793272495
0.006317288149148226,0.0034877858124673367,-0.011407677084207535,0.008079808205366135,-7.781043099276833e-20,0.0044150156900286674
0.005499142222106457,0.0036724451929330826,-0.011336048133671284,0.00791264045983553,-5.080465370221486e-21,0.004435723647475243
0.005957333371043205,0.0036561654414981604,-0.010885864496231079,0.00813362281769514,-3.3171808061645076e-22,0.004849206190556288
0.005962124560028315,0.003503962652757764,-0.011709491722285748,0.00786244124174118,-2.165882144106335e-23,0.0048254309222102165
0.00633277790620923,0.0038647253531962633,-0.011138060130178928,0.007501803804188967,-1.4141661942788066e-24,0.004408629145473242
0.006033307872712612,0.003927228506654501,-0.010939253494143486,0.007854592986404896,-9.233494252393085e-26,0.004428711719810963
0.0058678858913481236,0.0037980834022164345,-0.011479065753519535,0.008445313200354576,-6.028811690253251e-27,0.004480741918087006
0.005640604067593813,0.003749316791072488,-0.010643675923347473,0.0080339927226305,-3.9363831762437943e-28,0.004409820307046175
0.005735507234930992,0.003843060228973627,-0.011064210906624794,0.007551772985607386,-2.5701769830559635e-29,0.004472037777304649
0.006132655311375856,0.004252547863870859,-0.01114119403064251,0.007882816717028618,-1.67814194184407e-30,0.004605439491569996
0.005734193604439497,0.0040089162066578865,-0.010808904655277729,0.008113446645438671,-1.095706613815309e-31,0.004489850252866745
0.005912824999541044,0.004218285903334618,-0.011285007931292057,0.007664837408810854,-7.154181311327309e-33,0.004322934430092573
0.0056845699436962605,0.0042046126909554005,-0.011044731363654137,0.00747130298987031,-4.671169349393029e-34,0.004088622983545065
0.006847880315035582,0.004012488294392824,-0.011129082180559635,0.007720469031482935,-3.0499400533252813e-35,0.0042261588387191296
0.006166538223624229,0.0043235779739916325,-0.011492540128529072,0.00821680948138237,-1.9913926465078892e-36,0.004508765414357185
0.005752902012318373,0.004245855379849672,-0.011649164371192455,0.008260481059551239,-1.3002370432854656e-37,0.004641692619770765
0.005752902012318373,0.004245855379849672,-0.011649164371192455,0.008260481059551239,-1.3002370432854656e-37,0.004641692619770765
0.005757419392466545,0.00403662258759141,-0.011439050547778606,0.0078115337528288364,-8.489618208474686e-39,0.004423164296895266
0.005872249603271484,0.004033138509839773,-0.011028794571757317,0.007876875810325146,-5.543116335329679e-40,0.004452904686331749
0.005625216756016016,0.003967000637203455,-0.01084696501493454,0.008622902445495129,-3.6192736736581375e-41,0.004404428415000439
0.0065200310200452805,0.004610968753695488,-0.010582909919321537,0.0077453721314668655,-1.5414283107572988e-43,0.004417747724801302
0.006062757223844528,0.004350754432380199,-0.011260958388447762,0.008274683728814125,-9.80908925027372e-45,0.004188102204352617
0.00592796178534627,0.0044211894273757935,-0.01133759506046772,0.00829286314547062,-0.0,0.0043395813554525375
0.006263379007577896,0.004361125640571117,-0.011002523824572563,0.00762257119640708,-0.0,0.004338941071182489
0.006357666105031967,0.004045729059726,-0.011341102421283722,0.007630017586052418,-0.0,0.004542779643088579
0.006341780535876751,0.004031959921121597,-0.010866391472518444,0.007799075450748205,-0.0,0.0041603948920965195
0.006280849687755108,0.004007420036941767,-0.01090455986559391,0.007458883803337812,-0.0,0.0038680071011185646
0.0059164827689528465,0.004460824653506279,-0.01150080282241106,0.0072199879214167595,-0.0,0.004029182251542807
0.006116025149822235,0.004248989280313253,-0.010838949121534824,0.007353531196713448,-0.0,0.004013482481241226
0.006536842789500952,0.004431877750903368,-0.011352058500051498,0.007405158132314682,-0.0,0.003935058601200581
0.006275777239352465,0.0040892078541219234,-0.011753342114388943,0.007384076714515686,-0.0,0.004311244934797287
0.006430486682802439,0.004332492593675852,-0.011463272385299206,0.006926660891622305,-0.0,0.0041981893591582775
0.006381928455084562,0.004105521831661463,-0.011423962190747261,0.0070854779332876205,-0.0,0.003964344039559364
0.006291964091360569,0.004220015835016966,-0.010819562710821629,0.007502886466681957,-0.0,0.0037674508057534695
0.006423584185540676,0.004617332015186548,-0.011324348859488964,0.007768056355416775,-0.0,0.004174511414021254
0.006745576858520508,0.004668743349611759,-0.011358820833265781,0.007160871755331755,-0.0,0.004127353895455599
0.006184361409395933,0.004439446143805981,-0.010852379724383354,0.007120922673493624,-0.0,0.003984970506280661
0.006016066297888756,0.004607559647411108,-0.011677254922688007,0.007339427247643471,-0.0,0.004310413729399443
0.006674535106867552,0.004552355967462063,-0.011192877776920795,0.00777112552896142,-0.0,0.004258390516042709
0.0067144716158509254,0.004552730359137058,-0.011200354434549809,0.00752042094245553,-0.0,0.004002602305263281
0.006532877217978239,0.004546051379293203,-0.011620488949120045,0.007458440028131008,-0.0,0.0038353262934833765
0.006151943933218718,0.00429103709757328,-0.010950194671750069,0.008065792731940746,-0.0,0.0037743025459349155
0.006144302431493998,0.004419682081788778,-0.011524826288223267,0.0077844588086009026,-0.0,0.0040350137278437614
0.007015815936028957,0.0044802213087677956,-0.011580419726669788,0.0068473732098937035,-0.0,0.004075878765434027
0.0065049841068685055,0.004669897258281708,-0.011380806565284729,0.007042010314762592,-0.0,0.0039051524363458157
0.0064217690378427505,0.004275183659046888,-0.011615238152444363,0.007435686886310577,-0.0,0.004249535966664553
0.006846926640719175,0.004432687535881996,-0.011778125539422035,0.007302131969481707,-0.0,0.004075916018337011
0.006961966399103403,0.0046427445486187935,-0.011592933908104897,0.006848202086985111,-0.0,0.003941747359931469
0.006511727347970009,0.0045396797358989716,-0.011270266026258469,0.007017297204583883,-0.0,0.0038651239592581987
0.006511727347970009,0.0045396797358989716,-0.011270266026258469,0.007017297204583883,-0.0,0.0038651239592581987
0.0065839593298733234,0.0049049463123083115,-0.012098165228962898,0.0072516947984695435,-0.0,0.0034991460852324963
0.006905240472406149,0.004816125612705946,-0.012041287496685982,0.007036133669316769,-0.0,0.0035030003637075424
0.006848463322967291,0.004594477824866772,-0.012062438763678074,0.006637449376285076,-0.0,0.004025434143841267
0.006507082376629114,0.004623041488230228,-0.011506783775985241,0.00710696866735816,-0.0,0.004154636524617672
0.006216586101800203,0.0046652527526021,-0.01128852367401123,0.007510898169130087,-5.192621756577864e-06,0.0039708721451461315
0.0065201809629797935,0.004666684195399284,-0.012151255272328854,0.00796788651496172,-6.3725070504006e-05,0.003757077269256115
0.00676562637090683,0.004712545778602362,-0.011612936854362488,0.007819912396371365,-6.660578947048634e-05,0.003701510140672326
0.0073157865554094315,0.004795133601874113,-0.012412790209054947,0.007919782772660255,-6.588036922039464e-05,0.0034516560845077038
0.006607784889638424,0.004712977446615696,-0.011602668091654778,0.007882550358772278,-6.494591798400506e-05,0.003336053341627121
0.006429967936128378,0.004653587471693754,-0.01217578910291195,0.007737149018794298,-6.402297003660351e-05,0.0033664656803011894
0.00685708224773407,0.0044708228670060635,-0.011869315057992935,0.007628222461789846,-6.312492769211531e-05,0.0036019228864461184
0.007415359374135733,0.004373625386506319,-0.011801266111433506,0.007606115657836199,-6.225170363904908e-05,0.003845376428216696
0.007021925877779722,0.004842782858759165,-0.012362842448055744,0.007432100363075733,-6.140226469142362e-05,0.0038456583861261606
0.006785721518099308,0.0050581470131874084,-0.011665497906506062,0.0073590571992099285,-6.057571590645239e-05,0.003536179894581437
0.006653187330812216,0.004487501457333565,-0.012434598058462143,0.007972653023898602,-5.977111140964553e-05,0.003230733098462224
0.006912982556968927,0.0044691236689686775,-0.011833619326353073,0.007845645770430565,-7.000459299888462e-05,0.0034101118799299
0.007086118683218956,0.004908069968223572,-0.011255299672484398,0.007429588120430708,-6.981829938013107e-05,0.0037097742315381765
0.006993399001657963,0.004971622955054045,-0.011934192851185799,0.007255682721734047,-6.897348066559061e-05,0.003797726472839713
0.007016473449766636,0.004815501160919666,-0.011735002510249615,0.007398650050163269,-6.81066230754368e-05,0.0037939008325338364
0.007387363817542791,0.005172445438802242,-0.012452933937311172,0.007669742219150066,-6.725853017996997e-05,0.0037958845496177673
0.007599732838571072,0.004911632742732763,-0.012230170890688896,0.0077114407904446125,-6.643115921178833e-05,0.0038293455727398396
0.0070499335415661335,0.004517874680459499,-0.01157777477055788,0.007776014506816864,-6.56238553347066e-05,0.0038614007644355297
0.006780033465474844,0.005007633939385414,-0.011216237209737301,0.007619513664394617,-6.483594188466668e-05,0.003889949293807149
0.007050745654851198,0.005031704902648926,-0.010581140406429768,0.00739118829369545,-6.406675674952567e-05,0.0039327009581029415
0.008044539950788021,0.004808730445802212,-0.010085484012961388,0.007263307459652424,-6.33155505056493e-05,0.003529404057189822
0.008044539950788021,0.004808730445802212,-0.010085484012961388,0.007263307459652424,-6.33155505056493e-05,0.003529404057189822
0.006740822456777096,0.004697985947132111,-0.011526134796440601,0.007155637722462416,-7.149462180677801e-05,0.003625335171818733
0.007041781209409237,0.005083740223199129,-0.011181296780705452,0.007439657114446163,-7.131365418899804e-05,0.0032739874441176653
0.007041781209409237,0.005083740223199129,-0.011181296780705452,0.007439657114446163,-7.131365418899804e-05,0.0032739874441176653
0.007320902310311794,0.004690069239586592,-0.01080318633466959,0.0074373167008161545,-7.055602327454835e-05,0.0033402584958821535
0.007148379925638437,0.005080167204141617,-0.011011151596903801,0.00731634022668004,-6.977727025514469e-05,0.0033698170445859432
0.007026731502264738,0.004884496331214905,-0.011371728964149952,0.007329048588871956,-8.988129593490157e-06,0.003533960087224841
0.007291780784726143,0.005258040968328714,-0.011668700724840164,0.0072894650511443615,-3.831780404084384e-08,0.00339712668210268
0.007293181959539652,0.004888517782092094,-0.010784861631691456,0.007495887577533722,-2.5018787042085933e-09,0.0031763215083628893
0.007140702567994595,0.004340310115367174,-0.010309642180800438,0.007589953951537609,-1.633548019075448e-10,0.002996614668518305
0.007644260302186012,0.0039514219388365746,-0.011423666030168533,0.007953504100441933,-1.0665900454509547e-11,0.002949525136500597
0.007200290448963642,0.0031964252702891827,-0.011117123067378998,0.007579064462333918,-6.964070162554514e-13,0.002894737059250474
0.007211123593151569,0.002929999027401209,-0.011532371863722801,0.007486028131097555,-4.5470405733846406e-14,0.00303638051263988
0.007301725912839174,0.0030337353236973286,-0.011562744155526161,0.008689488284289837,-2.968892196498975e-15,0.003182572778314352
0.0074601443484425545,0.0035507886204868555,-0.011106324382126331,0.008669653907418251,-1.9384746044608689e-16,0.0031301332637667656
0.00745259877294302,0.004220785107463598,-0.01111281756311655,0.007802662439644337,-1.2656855161615775e-17,0.003216373734176159
0.008095940575003624,0.003993951249867678,-0.010519556701183319,0.007429605815559626,-8.264021321990387e-19,0.003201227867975831
0.007151483092457056,0.0033711350988596678,-0.011366399936378002,0.008015011437237263,-5.39581545795704e-20,0.0030752350576221943
0.007299669086933136,0.003338823327794671,-0.011734694242477417,0.00772758387029171,-3.5230821862080364e-21,0.003127407282590866
0.007525346707552671,0.0035575074143707752,-0.01116955652832985,0.007102206349372864,-2.3003206715438775e-22,0.003226891625672579
0.008066329173743725,0.0036844515707343817,-0.011748244054615498,0.006920875981450081,-1.5019452518361226e-23,0.0029644069727510214
0.007024502847343683,0.003557329997420311,-0.011875566095113754,0.007277005817741156,-9.80662869387025e-25,0.0030670962296426296
0.007330392953008413,0.0035322189796715975,-0.01174462866038084,0.007532348856329918,-6.403028044390655e-26,0.0028175581246614456
0.008264006115496159,0.0036354472395032644,-0.0112411268055439,0.007665268145501614,-4.180719745312381e-27,0.0027171061374247074
0.007790971547365189,0.003355109365656972,-0.01114475354552269,0.007373918313533068,-2.7297112696286586e-28,0.002720124553889036
0.007486711256206036,0.0034401006996631622,-0.012308375909924507,0.007723926100879908,-3.1925472285365686e-05,0.0027165613137185574
0.0075620729476213455,0.003205029759556055,-0.011785254813730717,0.007537632714956999,-9.160724584944546e-05,0.00254070945084095
0.007541905622929335,0.0034535019658505917,-0.01216219924390316,0.007322664838284254,-9.363834396936e-05,0.0026856602635234594
0.007918830029666424,0.003228879766538739,-0.011491602286696434,0.00720455264672637,-9.198151383316144e-05,0.002688850276172161
0.007443906273692846,0.0033140494488179684,-0.010997732169926167,0.007987530902028084,-9.01554521988146e-05,0.0027380813844501972
0.0074530853889882565,0.003413663012906909,-0.011961075477302074,0.007511685602366924,-8.838574285618961e-05,0.002820225665345788
0.007832098752260208,0.003554177237674594,-0.012039413675665855,0.007047947496175766,-8.668324153404683e-05,0.002913879696279764
0.008310515433549881,0.0035153452772647142,-0.012118872255086899,0.006677559576928616,-9.341480472357944e-05,0.0031044590286910534
0.00787832960486412,0.0031985011883080006,-0.011891748756170273,0.00743816327303648,-9.95969821815379e-05,0.002825397066771984
0.00787832960486412,0.0031985011883080006,-0.011891748756170273,0.00743816327303648,-9.95969821815379e-05,0.002825397066771984
0.008350369520485401,0.00340997870080173,-0.01112067699432373,0.007447357289493084,-9.830013732425869e-05,0.0025840282905846834
0.008007120341062546,0.0038206707686185837,-0.011878021992743015,0.007064035162329674,-9.657580812927336e-05,0.0023315653670579195
0.007569996640086174,0.003517890814691782,-0.01190887950360775,0.008103905245661736,-9.324291750090197e-05,0.00201597111299634
0.0076953349635005,0.0036294313613325357,-0.01214842963963747,0.008161280304193497,-9.166017844108865e-05,0.0022858837619423866
0.007844102568924427,0.003820783458650112,-0.01145532913506031,0.007194101344794035,-9.013022645376623e-05,0.00239956215955317
0.0077755567617714405,0.0038764015771448612,-0.012027193792164326,0.007293056696653366,-8.865063864504918e-05,0.00285698170773685
0.008154545910656452,0.003785765962675214,-0.01131291314959526,0.008076253347098827,-8.721873018657789e-05,0.002730867126956582
0.00817859172821045,0.003721856512129307,-0.01141078770160675,0.008570283651351929,-8.583236922277138e-05,0.0024680045899003744
0.008105184882879257,0.003293024143204093,-0.011415030807256699,0.007893410511314869,-8.4489474829752e-05,0.0020291355904191732
0.008002117276191711,0.0033595822751522064,-0.010838136076927185,0.007069963030517101,-9.001661237562075e-05,0.0018031176878139377
0.007994766347110271,0.0035789317917078733,-0.011442940682172775,0.008060709573328495,-9.512070391792804e-05,0.0016853748820722103
0.008737731724977493,0.0037301124539226294,-0.011347394436597824,0.007801143452525139,-9.412169310962781e-05,0.0017243712209165096
0.00844377651810646,0.0037716426886618137,-0.011119489558041096,0.007572817150503397,-9.276332275476307e-05,0.0020859111100435257
0.008048110641539097,0.004215566907078028,-0.011551233939826488,0.007139195222407579,-9.141906775766984e-05,0.0022035937290638685
0.008437207899987698,0.004007692448794842,-0.011279875412583351,0.008075646124780178,-9.0111541794613e-05,0.002572845434769988
0.008233088999986649,0.0038245993200689554,-0.012174096889793873,0.008137287572026253,-8.884083945304155e-05,0.0022829018998891115
0.008153529837727547,0.0038227050099521875,-0.011833159253001213,0.007426438853144646,-8.760545460972935e-05,0.0020430090371519327
0.008206735365092754,0.003915949258953333,-0.01197822019457817,0.007386949844658375,-9.79302276391536e-05,0.0018630181439220905
0.008250491693615913,0.003924260847270489,-0.011043784208595753,0.00758027657866478,-9.610763663658872e-05,0.0016914773732423782
0.008250491693615913,0.003924260847270489,-0.011043784208595753,0.00758027657866478,-9.610763663658872e-05,0.0016914773732423782
0.007839683443307877,0.004292323254048824,-0.012221341952681541,0.007376330904662609,-9.484484326094389e-05,0.0018473353702574968
0.008182138204574585,0.004292243160307407,-0.011589063331484795,0.0074680219404399395,-9.361189586343244e-05,0.0018641370115801692
0.00876776222139597,0.003961135633289814,-0.011900794692337513,0.007499136961996555,-9.24104533623904e-05,0.0021460584830492735
0.008389321155846119,0.0037826765328645706,-0.011797300539910793,0.007459377404302359,-0.0001252130896318704,0.002037803176790476
0.008446525782346725,0.0038081968668848276,-0.011015568859875202,0.007462936919182539,-0.00013250210031401366,0.00214903405867517
0.008870857767760754,0.0038818875327706337,-0.011581607162952423,0.007698998786509037,-0.00012940871238242835,0.002010313095524907
0.008423731662333012,0.003896730951964855,-0.011613432317972183,0.007700611837208271,-0.00012583662464749068,0.0019854558631777763
0.008310303092002869,0.0038572342600673437,-0.011921963654458523,0.007600994314998388,-0.00012241621152497828,0.0018555637216195464
0.009207731112837791,0.003838162636384368,-0.011971067637205124,0.007716720458120108,-0.00011917427036678419,0.0019021680345758796
0.00832370389252901,0.0038208093028515577,-0.011145084165036678,0.007948998361825943,-0.00011609933426370844,0.0017847804119810462
0.008342216722667217,0.0037265100982040167,-0.011953067034482956,0.007804700639098883,-0.00012429947673808783,0.0017886691493913531
0.008342216722667217,0.0037265100982040167,-0.011953067034482956,0.007804700639098883,-0.00012429947673808783,0.0017886691493913531
0.008807167410850525,0.003346080891788006,-0.011736874468624592,0.006974478717893362,-0.00012926106865052134,0.0017277426086366177
0.00867441762238741,0.0034863008186221123,-0.011813560500741005,0.007809591945260763,-0.00012628266995307058,0.0017385688843205571
0.008914317935705185,0.0041955201886594296,-0.01177249662578106,0.007901115342974663,-0.000123399673611857,0.0018249511485919356
0.009041808545589447,0.00413955794647336,-0.013041671365499496,0.007607564330101013,-0.00012064287875546142,0.0017083666753023863
0.009364133700728416,0.003968645352870226,-0.012313682585954666,0.007472348865121603,-0.0001180063554784283,0.0015730868326500058
0.0085157984867692,0.003884076839312911,-0.012454872950911522,0.008116571232676506,-0.00011548268957994878,0.001552432426251471
0.0089233024045825,0.003854700829833746,-0.01191740296781063,0.00814907532185316,-0.00011306466331006959,0.0015520424349233508
0.008868726901710033,0.0038288552314043045,-0.011955025605857372,0.007627043407410383,-0.0001107458010665141,0.001657281187362969
0.008827131241559982,0.004125451203435659,-0.01257332693785429,0.007221773266792297,-0.00010852012201212347,0.0015862182481214404
0.009212423115968704,0.004210659768432379,-0.012040534988045692,0.00790145993232727,-0.00010638211824698374,0.0014753404539078474
0.00924833957105875,0.004065542481839657,-0.012882969342172146,0.007704234216362238,-0.00010432677663629875,0.00149609858635813
0.009089861996471882,0.003929431550204754,-0.012116188183426857,0.008015560917556286,-0.00010234934597974643,0.0014059077948331833
0.0094584496691823,0.004014478996396065,-0.012774959206581116,0.007829959504306316,-0.00011286851076874882,0.0013387439539656043
0.009308593347668648,0.00406321557238698,-0.012240218929946423,0.008240669034421444,-0.00011476447980385274,0.0013721812283620238
0.008837907575070858,0.003979818895459175,-0.011830654926598072,0.008111748844385147,-0.00011296480079181492,0.0014099074760451913
0.009338855743408203,0.0038273183163255453,-0.01207271870225668,0.00785138551145792,-0.00011099150287918746,0.0013754499377682805
0.009552381001412868,0.0037615562323480844,-0.011936098337173462,0.007638679817318916,-0.00010907100659096614,0.0013316769618541002
0.009286974556744099,0.003912732005119324,-0.012957450933754444,0.007570365443825722,-0.00010721486614784226,0.0012719767400994897
0.008813404478132725,0.0038276738487184048,-0.012333057820796967,0.007377737667411566,-0.00010542071686359122,0.0012205205857753754
0.009560318663716316,0.00349762593396008,-0.012562182731926441,0.007231120485812426,-0.0001036857211147435,0.0012115034041926265
0.009535704739391804,0.003566772909834981,-0.012353009544312954,0.007558341603726149,-0.00010200680117122829,0.0012048993958160281
0.009053176268935204,0.004027143586426973,-0.012239529751241207,0.008130350150167942,-0.00010038146865554154,0.0011773559963330626
0.009053176268935204,0.004027143586426973,-0.012239529751241207,0.008130350150167942,-0.00010038146865554154,0.0011773559963330626
0.009322497062385082,0.0039031740743666887,-0.012758447788655758,0.007767158094793558,-9.880712605081499e-05,0.0011638501891866326
0.009456661529839039,0.003558532102033496,-0.011973139829933643,0.007358063478022814,-9.728140139486641e-05,0.0012393053621053696
0.009639455936849117,0.0036066228058189154,-0.011892427690327168,0.008101623505353928,-9.436708205612376e-05,0.0010927139082923532
0.009914610534906387,0.0034196311607956886,-0.01235215738415718,0.007777310907840729,-0.0001028372353175655,0.0011027625296264887
0.009565681219100952,0.004083326086401939,-0.012691502459347248,0.007342778146266937,-0.00010448789544170722,0.0011103752767667174
0.010011170990765095,0.004175251815468073,-0.011844828724861145,0.008068939670920372,-0.00010319553985027596,0.0010805868078023195
0.009529955685138702,0.004001478664577007,-0.012344065122306347,0.00823392253369093,-0.00010175060015171766,0.0010894578881561756
0.009063683450222015,0.003418841864913702,-0.012317975983023643,0.007672333624213934,-0.00010033356375060976,0.0011750786798074841
0.009633244015276432,0.0035528894513845444,-0.012856818735599518,0.0074355220422148705,-9.895470429910347e-05,0.0011367301922291517
0.010034234263002872,0.003725530579686165,-0.012378654442727566,0.008157121948897839,-9.76130977505818e-05,0.0011548720067366958
0.00948844663798809,0.00413535675033927,-0.01218588836491108,0.008132257498800755,-9.630740532884374e-05,0.0011655085254460573
0.00972556322813034,0.003610106883570552,-0.0120917409658432,0.007668046746402979,-9.503625187790021e-05,0.0010790807427838445
0.010225525125861168,0.003610891755670309,-0.011452849954366684,0.007952309213578701,-9.379817493027076e-05,0.0009817034006118774
0.009859401732683182,0.0038984157145023346,-0.012359932996332645,0.007916153408586979,-9.25919521250762e-05,0.0008531062048859894
0.01065880712121725,0.004042867571115494,-0.012299851514399052,0.007982701063156128,-9.141630289377645e-05,0.0008507944876328111
0.009955325163900852,0.00404847739264369,-0.012852676212787628,0.00803404487669468,-9.027016494655982e-05,0.0007665796438232064
0.009957949630916119,0.003512102412059903,-0.012369673699140549,0.007925997488200665,-9.23463812796399e-05,0.0006493200198747218
0.010004404932260513,0.003545565064996481,-0.012237959541380405,0.008118662051856518,-9.098237933358178e-05,0.0006400890997610986
0.009990517050027847,0.004045553505420685,-0.012117724865674973,0.008151077665388584,-8.921141125028953e-05,0.000666178239043802
0.009808986447751522,0.0037891599349677563,-0.011440536007285118,0.007901687175035477,-8.747929678065702e-05,0.0006892966339364648
0.0108408834785223,0.0035451732110232115,-0.012306902557611465,0.008753395639359951,-8.581126894569024e-05,0.0009102012845687568
0.010090962052345276,0.0036540317814797163,-0.012063760310411453,0.00809079222381115,-8.42055378598161e-05,0.00098758889362216
0.009571684524416924,0.004192674532532692,-0.012710603885352612,0.007864854298532009,-8.265876385848969e-05,0.0009691260638646781
0.010250728577375412,0.004279924090951681,-0.012225193902850151,0.008176371455192566,-8.11678619356826e-05,0.0008546591852791607
0.010732488706707954,0.004040599800646305,-0.01197607722133398,0.008372051641345024,-9.358809620607644e-05,0.0008317311876453459
0.009818541817367077,0.0035740670282393694,-0.012346033938229084,0.008331188932061195,-9.387362661072984e-05,0.0007670256309211254
0.010019417852163315,0.00419342378154397,-0.012036372907459736,0.007960014045238495,-0.00010400649625808,0.0006334411446005106
0.010390042327344418,0.003570802044123411,-0.011987553909420967,0.00839738454669714,-0.00010410493268864229,0.000560726213734597
0.009954784996807575,0.004022747743874788,-0.012042474001646042,0.00788155011832714,-0.00010252925858367234,0.00048214703565463424
0.00983413401991129,0.004289733711630106,-0.012146607041358948,0.007465984672307968,-0.00010089502757182345,0.000434322893852368
0.00983413401991129,0.004289733711630106,-0.012146607041358948,0.007465984672307968,-0.00010089502757182345,0.000434322893852368
0.010012879967689514,0.004076210781931877,-0.011655573733150959,0.008494005538523197,-9.93051944533363e-05,0.00039597658906131983
0.010458698496222496,0.003878210438415408,-0.012149985879659653,0.008030513301491737,-9.776420483831316e-05,0.0004173149063717574
0.009788386523723602,0.0038306168280541897,-0.011383804492652416,0.007387546822428703,-9.627026156522334e-05,0.00040273313061334193
0.009913182817399502,0.0038375789299607277,-0.01176367700099945,0.007272470276802778,-9.482123277848586e-05,0.0003757759986910969
0.010538454167544842,0.00378467608243227,-0.01218572910875082,0.007953530177474022,-9.341528493678197e-05,0.0003798451798502356
0.009891757741570473,0.0036553009413182735,-0.012097583152353764,0.007992214523255825,-9.2050337116234e-05,0.00038292453973554075
0.010661527514457703,0.004015268757939339,-0.012006478384137154,0.007569631561636925,-0.00010199302778346464,0.0003625921090133488
0.011290183290839195,0.004233847837895155,-0.011814174242317677,0.008149883709847927,-0.00010210303298663348,0.0003429567441344261
0.010022331960499287,0.004044620785862207,-0.012088488787412643,0.008634266443550587,-0.00010077551996801049,0.0003654721367638558
0.010213140398263931,0.0038745137862861156,-0.011537101119756699,0.008265594020485878,-9.939099982148036e-05,0.00035305542405694723
0.010647948831319809,0.0038625490851700306,-0.011454415507614613,0.007752573117613792,-9.803811553865671e-05,0.00033689202973619103
0.010243043303489685,0.004056484438478947,-0.011909542605280876,0.008129937574267387,-9.675777982920408e-05,0.0003218508791178465
0.010439814068377018,0.0038743538316339254,-0.011817553080618382,0.008684459142386913,-0.00015786784933879972,0.0003080778697039932
0.010654578916728497,0.0036782615352422,-0.012128154747188091,0.00781997386366129,-0.00015658712072763592,0.0002954344672616571
0.01128558162599802,0.00380123732611537,-0.011720629408955574,0.008014662191271782,-0.00015158714086282998,0.0002837874344550073
0.010557386092841625,0.004388608504086733,-0.01152053289115429,0.008478152565658092,-0.00014666389324702322,0.0002730242267716676
0.010773398913443089,0.00421307235956192,-0.01188381016254425,0.008724321611225605,-0.00014203556929714978,0.0002630478993523866
0.010858680121600628,0.003963148687034845,-0.01155760046094656,0.007991980761289597,-0.00016158611106220633,0.0002537751861382276
0.010716629214584827,0.004221765324473381,-0.012050146237015724,0.008210341446101665,-0.00016008346574380994,0.0002451336185913533
0.01019158773124218,0.004230461549013853,-0.012356639839708805,0.009450007230043411,-0.00015568251546937972,0.00023706193314865232
0.011040205135941505,0.00406120577827096,-0.012318429537117481,0.009067980572581291,-0.00015133331180550158,0.00022950432321522385
0.010981285013258457,0.00394773855805397,-0.012075550854206085,0.009115364402532578,-0.00014720841136295348,0.00022241398983169347
0.010457572527229786,0.004426307510584593,-0.011320123448967934,0.008930922485888004,-0.0001655834203120321,0.00021574854326900095
0.010971915908157825,0.004255249164998531,-0.012398136779665947,0.008744205348193645,-0.00016275870439130813,0.00020947122538927943
0.01073080487549305,0.003943277522921562,-0.012334149330854416,0.009270093403756618,-0.00015485563199035823,0.00019795229309238493
0.010852253064513206,0.003911449573934078,-0.012461931444704533,0.009217695333063602,-0.00016989219875540584,0.00019265501759946346
0.010752920992672443,0.0038887939881533384,-0.012225646525621414,0.008722255937755108,-0.0001684999151621014,0.00018763418484013528
0.011201178655028343,0.003989228047430515,-0.012317854911088943,0.009392552077770233,-0.00016481161583214998,0.00018286834529135376
0.011201178655028343,0.003989228047430515,-0.012317854911088943,0.009392552077770233,-0.00016481161583214998,0.00018286834529135376
0.011211369186639786,0.0038907446432858706,-0.011897117830812931,0.009445630945265293,-0.00016113392484840006,0.0001673849328653887
0.01108199916779995,0.00378213357180357,-0.0126073332503438,0.008645003661513329,-0.00015760748647153378,0.0001530144945718348
0.011287755332887173,0.0037122350186109543,-0.011226732283830643,0.008468165062367916,-0.0001894164743134752,0.0001487287227064371
0.0109707061201334,0.003722118679434061,-0.012690721079707146,0.008745186030864716,-0.00021393784845713526,0.00014525542792398483
0.010820701718330383,0.0037799261044710875,-0.012572518549859524,0.008599238470196724,-0.00022649625316262245,0.0001419788895873353
0.011391440406441689,0.004269921686500311,-0.012270623818039894,0.008920876309275627,-0.00023551539925392717,0.00013884936925023794
0.011866137385368347,0.004121711943298578,-0.012422512285411358,0.009607713669538498,-0.0002268554671900347,0.00013593598851002753
0.012826039455831051,0.003969748504459858,-0.012417346239089966,0.008822508156299591,-0.0002177854476030916,5.170716758584604e-05
0.012634530663490295,0.00426487484946847,-0.013209111988544464,0.008154302835464478,-0.0002093462971970439,4.51443629572168e-05
0.012698881328105927,0.004298991058021784,-0.012826664373278618,0.008779234252870083,-0.00023065705318003893,4.37040398537647e-05
0.013040611520409584,0.004094699863344431,-0.013027236796915531,0.00825979933142662,-0.00022636876383330673,2.6837482437258586e-05
0.01268391776829958,0.003916574642062187,-0.012929659336805344,0.008433382026851177,-0.00021876870596315712,2.1188838218222372e-05
0.012747866101562977,0.004285458941012621,-0.012836677953600883,0.008542321622371674,-0.00021144245692994446,5.284878625388956e-06
0.013404827564954758,0.004207349848002195,-0.012810327112674713,0.008742823265492916,-0.00022621065727435052,3.450648193847883e-07
0.012927986681461334,0.004011545795947313,-0.012455838732421398,0.008617016486823559,-0.00022595231712330133,2.253026565313121e-08
0.012293128296732903,0.00414774427190423,-0.012511994689702988,0.008919249288737774,-0.00021950999507680535,1.4710653806204732e-09
0.012721151113510132,0.003974447026848793,-0.012247954495251179,0.009310849010944366,-0.000213043371331878,9.605004985813181e-11
0.013216051273047924,0.0037150471471250057,-0.013080635108053684,0.009221998043358326,-0.0002069221663987264,6.271381851330471e-12
0.013149106875061989,0.003658170811831951,-0.012486145831644535,0.008741547353565693,-0.00023864189279265702,4.0947638075411463e-13
0.01319590862840414,0.0037159116473048925,-0.012599799782037735,0.009547307156026363,-0.00026064671692438424,-0.000652296410407871
0.013311473652720451,0.003808255773037672,-0.012504863552749157,0.009215214289724827,-0.00024858888355083764,-0.0009852086659520864
0.01353487279266119,0.0039053913205862045,-0.013162558898329735,0.00889008492231369,-0.00023571692872792482,-0.0008837102795951068
0.012536102905869484,0.004324926994740963,-0.012976535595953465,0.008925803005695343,-0.00022399009321816266,-0.0007625186117365956
0.013430316932499409,0.004659533966332674,-0.012345538474619389,0.009219792671501637,-0.0002448707527946681,-0.0006681744125671685
0.012720149010419846,0.004196705296635628,-0.013086368329823017,0.008738359436392784,-0.00024371760082431138,-0.000679594581015408
0.013263582251966,0.0038833010476082563,-0.012502510100603104,0.008584449999034405,-0.00023381051141768694,-0.0006889938958920538
0.013263582251966,0.0038833010476082563,-0.012502510100603104,0.008584449999034405,-0.00023381051141768694,-0.0006889938958920538
0.013224856927990913,0.004149555694311857,-0.012597963213920593,0.008798760361969471,-0.00024983592447824776,-0.000742599368095398
0.013124365359544754,0.004036654718220234,-0.013530171476304531,0.008271285332739353,-0.00024137584841810167,-0.0012943451292812824
0.013262290507555008,0.0035430644638836384,-0.01286258827894926,0.008500579744577408,-0.00023253788822330534,-0.0018110048258677125
0.013757666572928429,0.003564737271517515,-0.012819154188036919,0.008689669892191887,-0.00023995940864551812,-0.0018521768506616354
0.013299111276865005,0.0033745712134987116,-0.012654216960072517,0.008187548257410526,-0.0002464238496031612,-0.0016615898348391056
0.013646380975842476,0.003598204581066966,-0.01209088321775198,0.00832774955779314,-0.00023919546219985932,-0.001323469216004014
0.013205788098275661,0.0033447323366999626,-0.012987224385142326,0.008955235593020916,-0.00023156419047154486,-0.0012157560558989644
0.01357596181333065,0.0034816686529666185,-0.01270821038633585,0.008772401139140129,-0.0002246083749923855,-0.0011618059361353517
0.01317887008190155,0.003645292017608881,-0.013062521815299988,0.008722614496946335,-0.0002593680692370981,-0.0009749062592163682
0.01384055893868208,0.003677272005006671,-0.012126782909035683,0.009030887857079506,-0.0002481824776623398,-0.0010712252696976066
0.013277857564389706,0.003624820848926902,-0.012925151735544205,0.009189251810312271,-0.0002761516079772264,-0.0017229515360668302
0.01345333643257618,0.0036781930830329657,-0.013008286245167255,0.008543060161173344,-0.0002680349280126393,-0.001900063594803214
0.013100982643663883,0.0038081188686192036,-0.013157254084944725,0.008147737011313438,-0.00025570514844730496,-0.0020995596423745155
0.013305839151144028,0.0034541271161288023,-0.013145760633051395,0.00869909580796957,-0.0002794169122353196,-0.0019915399607270956
0.013247688300907612,0.0032792133279144764,-0.012784021906554699,0.008961056359112263,-0.00027217899332754314,-0.0017626176122575998
0.01362153422087431,0.0031947591342031956,-0.013395664282143116,0.008928838185966015,-0.0002887880546040833,-0.0016100347274914384
0.013656227849423885,0.0034481161274015903,-0.012858530506491661,0.009534483775496483,-0.0002860237436834723,-0.0016405365895479918
0.013683076947927475,0.0032908902503550053,-0.013457469642162323,0.00871653575450182,-0.0002756413887254894,-0.001914494438096881
0.01386540848761797,0.003561412449926138,-0.012836488895118237,0.009234604425728321,-0.00037430092925205827,-0.002491370541974902
0.01350412517786026,0.003446354763582349,-0.013165811076760292,0.009175756014883518,-0.00037840325967408717,-0.0030140795279294252
0.014086585491895676,0.003455857280641794,-0.013308613561093807,0.009578831493854523,-0.0003511881805025041,-0.0028829770162701607
0.01373318862169981,0.0036246890667825937,-0.01309865340590477,0.008729671128094196,-0.0003864785539917648,-0.002785544376820326
0.014256427995860577,0.004226943477988243,-0.01313918549567461,0.00878209713846445,-0.00036435265792533755,-0.002379670273512602
0.01372450403869152,0.0036007908638566732,-0.013083611615002155,0.009576395153999329,-0.00039076170651242137,-0.002281965920701623
0.01372450403869152,0.0036007908638566732,-0.013083611615002155,0.009576395153999329,-0.00039076170651242137,-0.002281965920701623
0.013527242466807365,0.003177097300067544,-0.013174530118703842,0.009420166723430157,-0.0003536975709721446,-0.002526946598663926
0.013871571980416775,0.003372588660567999,-0.013493511825799942,0.009476646780967712,-0.00035824612132273614,-0.0025391685776412487
0.013423468917608261,0.0035640723071992397,-0.012861473485827446,0.009109591133892536,-0.0003618356422521174,-0.0029000043869018555
0.013423468917608261,0.0035640723071992397,-0.012861473485827446,0.009109591133892536,-0.0003618356422521174,-0.0029000043869018555
0.013693728484213352,0.003612246597185731,-0.012989665381610394,0.009323129430413246,-0.0003824115265160799,-0.0029780056793242693
0.013990937732160091,0.0035260356962680817,-0.013788231648504734,0.00927867740392685,-0.0003602985816542059,-0.0028062923811376095
0.013925667852163315,0.003527962602674961,-0.013076252304017544,0.009075392968952656,-0.00039177152211777866,-0.0027836060617119074
0.014235437847673893,0.0036225547082722187,-0.013391848653554916,0.009899619035422802,-0.0004028260300401598,-0.0025996335316449404
0.01403701864182949,0.0037207226268947124,-0.012764101848006248,0.009148141369223595,-0.00040513434214517474,-0.0024387789890170097
0.014228048734366894,0.0038428071420639753,-0.01328855101019144,0.009105220437049866,-0.0004226271703373641,-0.002479658927768469
0.013843330554664135,0.003485131310299039,-0.013278339989483356,0.009255749173462391,-0.0004111830785404891,-0.0025955084711313248
0.014112398028373718,0.0035879388451576233,-0.013001998886466026,0.00975037645548582,-0.0005373286549001932,-0.003274972550570965
0.013992207124829292,0.0037915483117103577,-0.013094417750835419,0.009140033274888992,-0.0005239808815531433,-0.0038085118867456913
0.014100244268774986,0.0043392423540353775,-0.012462546117603779,0.009501343593001366,-0.0005597598501481116,-0.004237383138388395
0.014180555939674377,0.004215462598949671,-0.01326669566333294,0.009873748756945133,-0.0005125132156535983,-0.0042868368327617645
0.014819405041635036,0.003683563554659486,-0.012733914889395237,0.009694987908005714,-0.0004683977458626032,-0.0040396591648459435
0.014519911259412766,0.003478842554613948,-0.013092725537717342,0.009819983504712582,-0.00048371285083703697,-0.0038436639588326216
0.014951263554394245,0.003652169369161129,-0.013142595067620277,0.010419255122542381,-0.00046439110883511603,-0.0037484238855540752
0.014298143796622753,0.0038471368607133627,-0.013931824825704098,0.009460867382586002,-0.0004635624645743519,-0.0038432725705206394
0.01470340508967638,0.004150413442403078,-0.013945810496807098,0.009654467925429344,-0.0004614981880877167,-0.004323478788137436
0.014351469464600086,0.00427672453224659,-0.014388032257556915,0.010361171327531338,-0.0004641538253054023,-0.004433822352439165
0.01449899934232235,0.004070150200277567,-0.01359852310270071,0.009996702894568443,-0.00043151757563464344,-0.0038124157581478357
0.014354731887578964,0.0038381561171263456,-0.013888989575207233,0.009905612096190453,-0.0003944341733586043,-0.003527517430484295
0.014829928055405617,0.003623457159847021,-0.014032237231731415,0.009316891431808472,-0.00039777072379365563,-0.0037195098120719194
0.014829928055405617,0.003623457159847021,-0.014032237231731415,0.009316891431808472,-0.00039777072379365563,-0.0037195098120719194
0.01487031765282154,0.003837671596556902,-0.014120275154709816,0.009474311955273151,-0.00037459106533788145,-0.004609211347997189
0.014576413668692112,0.003934312146157026,-0.013895308598876,0.009147705510258675,-0.0004047298862133175,-0.004711538553237915
0.014576413668692112,0.003934312146157026,-0.013895308598876,0.009147705510258675,-0.0004047298862133175,-0.004711538553237915
0.014261030592024326,0.0034967802930623293,-0.014255580492317677,0.00995269138365984,-0.0003618188202381134,-0.004033837467432022
0.01485659833997488,0.0036453574430197477,-0.014688742347061634,0.009433800354599953,-0.000378215016098693,-0.004172008018940687
0.014493823982775211,0.004097737837582827,-0.014655828475952148,0.009113721549510956,-0.00037006629281677306,-0.004247182048857212
0.015446591190993786,0.004002752713859081,-0.014221394434571266,0.009773069992661476,-0.00035267279599793255,-0.0040463791228830814
0.0148728983476758,0.003793267998844385,-0.014463728293776512,0.009953000582754612,-0.0003375452070031315,-0.003907886333763599
0.015043121762573719,0.004224724136292934,-0.014642446301877499,0.009521136060357094,-0.0003369326877873391,-0.0038886743132025003
0.014873133972287178,0.004084578715264797,-0.014849194325506687,0.009969085454940796,-0.00031495513394474983,-0.004208078607916832
0.015058798715472221,0.004539704415947199,-0.015208642929792404,0.009868751280009747,-0.0002944405423477292,-0.0044776624999940395
0.014422907494008541,0.004207446705549955,-0.015253844670951366,0.00949882809072733,-0.0002763548691291362,-0.004678298253566027
0.014777716249227524,0.0043519027531147,-0.014974107965826988,0.010011989623308182,-0.00026035879272967577,-0.004866748116910458
0.015002856962382793,0.004185522440820932,-0.01478548999875784,0.010122397914528847,-0.0002461133408360183,-0.004617366008460522
0.015170571394264698,0.003996999002993107,-0.01457295287400484,0.009348047897219658,-0.000276801671134308,-0.004364050459116697
0.015116101130843163,0.0038752537220716476,-0.015121825970709324,0.009367275983095169,-0.00026599745615385473,-0.0047856285236775875
0.014079046435654163,0.003911344800144434,-0.01469522062689066,0.009855971671640873,-0.00025368345086462796,-0.0045439801178872585
0.01567596197128296,0.003918003756552935,-0.01558151375502348,0.010453948751091957,-0.0002423084806650877,-0.004655471071600914
0.015619460493326187,0.004059299360960722,-0.014837588183581829,0.010191132314503193,-0.0002319015475222841,-0.0047345515340566635
0.015501503832638264,0.004094399977475405,-0.015515432693064213,0.010039296932518482,-0.00022235058713704348,-0.005135107785463333
0.015160242095589638,0.003908159211277962,-0.014839344657957554,0.009856152348220348,-0.00024672833387739956,-0.005205249879509211
0.015870044007897377,0.0037389190401881933,-0.015155322849750519,0.010636423714458942,-0.00023950989998411387,-0.005046444479376078
0.015925630927085876,0.003637571120634675,-0.014368552714586258,0.010181360878050327,-0.0002308728580828756,-0.004789126571267843
0.01618698053061962,0.0036684530787169933,-0.01517457328736782,0.009466134943068027,-0.0002503140131011605,-0.004676584154367447
0.016262438148260117,0.0037080575712025166,-0.014758100733160973,0.009787127375602722,-0.00024556880816817284,-0.005067280028015375
0.016764074563980103,0.00422659469768405,-0.015594923868775368,0.010489909909665585,-0.00023770856205374002,-0.005096411798149347
0.01622777245938778,0.004175123292952776,-0.015214201994240284,0.009861214086413383,-0.0002365402615396306,-0.004961018450558186
0.016423000022768974,0.003933138679713011,-0.014671188779175282,0.009961486794054508,-0.00022596756753046066,-0.005133471917361021
0.016509752720594406,0.0043531786650419235,-0.014147250913083553,0.010194464586675167,-0.00025252337218262255,-0.00534418411552906
0.01637190952897072,0.004206258337944746,-0.014925599098205566,0.009773789905011654,-0.0002461260883137584,-0.004818313755095005
0.01657862216234207,0.004145337268710136,-0.014826594851911068,0.010164961218833923,-0.00025369529612362385,-0.005512742325663567
0.017100950703024864,0.004231082275509834,-0.014394181780517101,0.009342961944639683,-0.00025229857419617474,-0.005158682353794575
0.017100950703024864,0.004231082275509834,-0.014394181780517101,0.009342961944639683,-0.00025229857419617474,-0.005158682353794575
0.016639981418848038,0.0041536372154951096,-0.014912154525518417,0.010143726132810116,-0.00026727953809313476,-0.005128842778503895
0.016639981418848038,0.0041536372154951096,-0.014912154525518417,0.010143726132810116,-0.00026727953809313476,-0.005128842778503895
0.01670234091579914,0.004091916140168905,-0.015089195221662521,0.010563069023191929,-0.00025836226996034384,-0.005044930148869753
0.01620589941740036,0.003990212455391884,-0.014365717768669128,0.011171010322868824,-0.0004092770686838776,-0.005374772008508444
0.016809800639748573,0.00430202204734087,-0.014718493446707726,0.011153186671435833,-0.0004574147460516542,-0.005405097734183073
0.016905805096030235,0.004040521569550037,-0.01541468407958746,0.010597619228065014,-0.000426686427090317,-0.005488261114805937
0.017034703865647316,0.004319415427744389,-0.015086986124515533,0.010695801116526127,-0.00044421220081858337,-0.005682326853275299
0.01711738295853138,0.0037745411973446608,-0.01504570059478283,0.010053490288555622,-0.00042904308065772057,-0.005417353007942438
0.0163404643535614,0.0035464728716760874,-0.01493072509765625,0.010714653879404068,-0.0004026002425234765,-0.005139876157045364
0.017204230651259422,0.004028270952403545,-0.015421286225318909,0.010580673813819885,-0.0004047806141898036,-0.005725741386413574
0.017027482390403748,0.004282105714082718,-0.014602233655750751,0.01012907363474369,-0.0004062044317834079,-0.005920438561588526
0.017350587993860245,0.0044375332072377205,-0.014873044565320015,0.010163288563489914,-0.00038600704283453524,-0.0061499131843447685
0.017364583909511566,0.004342051222920418,-0.014759095385670662,0.010410888120532036,-0.0004316431295592338,-0.006164724938571453
0.01696685329079628,0.004036389756947756,-0.015274638310074806,0.009682873263955116,-0.0004142971010878682,-0.005734708160161972
0.01780952326953411,0.003988850861787796,-0.014994576573371887,0.010252732783555984,-0.0004365253262221813,-0.005881927907466888
0.017347432672977448,0.003918494563549757,-0.015471125952899456,0.010148555971682072,-0.0004199449613224715,-0.00605307100340724
0.017306536436080933,0.003844714490696788,-0.014719557017087936,0.010454636998474598,-0.0004222756833769381,-0.006074426230043173
0.017302406951785088,0.003799219848588109,-0.01521509513258934,0.01107870228588581,-0.00042291864519938827,-0.006083122454583645
0.017177511006593704,0.004292873200029135,-0.014807039871811867,0.010543504729866982,-0.0004257477121427655,-0.005661474075168371
0.017856091260910034,0.004102479200810194,-0.015183850191533566,0.010247703641653061,-0.0004261283320374787,-0.006267708260565996
0.01758633553981781,0.0039008460007607937,-0.014601752161979675,0.010379552841186523,-0.00046276964712888,-0.006614468526095152
0.017560243606567383,0.0037637718487530947,-0.015212088823318481,0.010549942962825298,-0.0004720414581242949,-0.006369665265083313
0.01756548136472702,0.00375939323566854,-0.01484830304980278,0.010147576220333576,-0.00043062851182185113,-0.006147055421024561
0.017815707251429558,0.004349519498646259,-0.015127859078347683,0.010856031440198421,-0.0004662235442083329,-0.006503769662231207
0.01809145137667656,0.0041298288851976395,-0.014945337548851967,0.010218731127679348,-0.0004335467820055783,-0.0063261110335588455
0.01815672591328621,0.003966621123254299,-0.015403538942337036,0.010359048843383789,-0.0004638048412743956,-0.006550119258463383
0.01817134954035282,0.004056905396282673,-0.014806310646235943,0.011198148131370544,-0.00048159327707253397,-0.006495271809399128
0.017985766753554344,0.004042449407279491,-0.015425462275743484,0.010549250058829784,-0.0005485412548296154,-0.006367210764437914
0.018007392063736916,0.003916931804269552,-0.015159236267209053,0.010825560428202152,-0.0005891767796128988,-0.006834858562797308
0.018007392063736916,0.003916931804269552,-0.015159236267209053,0.010825560428202152,-0.0005891767796128988,-0.006834858562797308
0.0183090902864933,0.003895267378538847,-0.015552643686532974,0.01005658321082592,-0.0006142276106402278,-0.007282122038304806
0.01801677793264389,0.0038601395208388567,-0.015136055648326874,0.010439598932862282,-0.0005695439758710563,-0.00693771755322814
0.01875145174562931,0.003744980087503791,-0.015097705647349358,0.010580063797533512,-0.0005923270364291966,-0.006428845226764679
0.01858043111860752,0.0036565836053341627,-0.014942270703613758,0.010396181605756283,-0.0005544524174183607,-0.0067773740738630295
0.01786174811422825,0.004135857801884413,-0.015795724466443062,0.010991820134222507,-0.0006344768335111439,-0.007016513030976057
0.019002148881554604,0.004185589030385017,-0.015215097926557064,0.010699668899178505,-0.0005651370738632977,-0.007128620985895395
0.01878408156335354,0.004002174362540245,-0.015420856885612011,0.010930219665169716,-0.0005957160028629005,-0.006953456439077854
0.0187735166400671,0.0038023432716727257,-0.014633707702159882,0.011134359054267406,-0.0005855011404491961,-0.007169493939727545
0.01944475807249546,0.003939429298043251,-0.015514777041971684,0.010583192110061646,-0.0005719425389543176,-0.007456156425178051
0.01881135255098343,0.0038213077932596207,-0.015102549456059933,0.01108930166810751,-0.0005818791105411947,-0.007587278261780739
0.018860941752791405,0.003554340684786439,-0.015300012193620205,0.011110324412584305,-0.0005543205188587308,-0.0074269832111895084
0.01872347854077816,0.003537560813128948,-0.015177585184574127,0.010836583562195301,-0.000540529377758503,-0.007569814566522837
0.018524030223488808,0.003933758940547705,-0.015517376363277435,0.011150280013680458,-0.0005051639745943248,-0.00770158926025033
0.019070057198405266,0.004015732556581497,-0.01612919196486473,0.01081373356282711,-0.0005340162315405905,-0.007616182789206505
0.019812820479273796,0.004344289191067219,-0.015937935560941696,0.011004703119397163,-0.0004956949851475656,-0.007470828481018543
0.0193213801831007,0.004154432564973831,-0.016002975404262543,0.011013784445822239,-0.000510187353938818,-0.007846029475331306
0.019485317170619965,0.004492561332881451,-0.015373878180980682,0.010552850551903248,-0.0004879064217675477,-0.008054942823946476
0.02014586515724659,0.004107754677534103,-0.016114749014377594,0.01110735535621643,-0.00050152133917436,-0.008581191301345825
0.019649507477879524,0.0038834388833492994,-0.015606818720698357,0.010656435042619705,-0.00048278042231686413,-0.007296226918697357
0.01956644468009472,0.004272752907127142,-0.015838589519262314,0.010202846489846706,-0.0004533414903562516,-0.007456501014530659
0.019964702427387238,0.0041560218669474125,-0.015249569900333881,0.010799192823469639,-0.0004555945342872292,-0.008711656555533409
0.019825274124741554,0.003903847187757492,-0.016395384445786476,0.01081405021250248,-0.0004395605647005141,-0.008264115080237389
0.019498100504279137,0.0039862473495304585,-0.01616143062710762,0.01095337700098753,-0.00047142599942162633,-0.008324802853167057
0.019941730424761772,0.004025107715278864,-0.015889715403318405,0.01101528201252222,-0.00047805317444726825,-0.008622175082564354
0.020345980301499367,0.004403121769428253,-0.01607443392276764,0.011052386835217476,-0.0004751438391394913,-0.008670037612318993
0.02026393450796604,0.00436577619984746,-0.016477568075060844,0.01107636746019125,-0.00041473127203062177,-0.008263463154435158
0.02059859409928322,0.004342761356383562,-0.016070853918790817,0.011191450990736485,-0.0003891121014021337,-0.008794429711997509
0.020161932334303856,0.004108254797756672,-0.01571420580148697,0.011447640135884285,-0.0003664671676233411,-0.008186928927898407
0.020367173478007317,0.003879535710439086,-0.015143973752856255,0.011415458284318447,-0.00039236858719959855,-0.008015424013137817
0.020367173478007317,0.003879535710439086,-0.015143973752856255,0.011415458284318447,-0.00039236858719959855,-0.008015424013137817
0.020709047093987465,0.004317365121096373,-0.016275843605399132,0.011404083110392094,-0.000374933413695544,-0.008010199293494225
0.02066371776163578,0.004206913989037275,-0.015839073807001114,0.011607500724494457,-0.0003565565275494009,-0.008755708113312721
0.020398350432515144,0.003919662907719612,-0.015947025269269943,0.011422303505241871,-0.00033974001416936517,-0.008249791339039803
0.020596928894519806,0.0037475861608982086,-0.015896230936050415,0.011473633348941803,-0.00033761997474357486,-0.008043209090828896
0.020885085687041283,0.003963763359934092,-0.015744773671030998,0.011449666693806648,-0.000316554302116856,-0.008139458484947681
0.020834937691688538,0.0039183637127280235,-0.016139032319188118,0.011869030073285103,-0.00029590254416689277,-0.008886481635272503
0.02072964236140251,0.0038870349526405334,-0.015722889453172684,0.01190256793051958,-0.0003185354871675372,-0.008496521972119808
0.021233832463622093,0.004365239292383194,-0.016070151701569557,0.011876151897013187,-0.0003128509852103889,-0.008451536297798157
0.021227477118372917,0.0046479357406497,-0.01528922189027071,0.011578014120459557,-0.000296502752462402,-0.00844146590679884
0.020496688783168793,0.004227210767567158,-0.01599501073360443,0.011075811460614204,-0.00028111712890677154,-0.008217957802116871
0.02096879668533802,0.0040372684597969055,-0.01586347259581089,0.011316896416246891,-0.00030576466815546155,-0.00791685190051794
0.021736418828368187,0.004037792328745127,-0.016223303973674774,0.011645574122667313,-0.0002966475731227547,-0.008477574214339256
0.021025648340582848,0.004006428178399801,-0.015961045399308205,0.011014935560524464,-0.0002836344647221267,-0.008493415080010891
0.021229058504104614,0.004397084470838308,-0.016057366505265236,0.011755143292248249,-0.00030008217436261475,-0.008502104319632053
0.021292252466082573,0.004097769036889076,-0.016361860558390617,0.011578269302845001,-0.0002967340697068721,-0.008123290725052357
0.02221343107521534,0.004149084445089102,-0.015879187732934952,0.011760828085243702,-0.00028605389525182545,-0.008104855194687843
0.021952787414193153,0.004107051528990269,-0.0165218785405159,0.011639907024800777,-0.00032528224983252585,-0.008180053904652596
0.021692592650651932,0.004362382460385561,-0.01578288897871971,0.011079142801463604,-0.0003070071979891509,-0.009060174226760864
0.02113630808889866,0.004147751722484827,-0.01617983542382717,0.01221210416406393,-0.00033735382021404803,-0.008572762832045555
0.0217098668217659,0.004066161811351776,-0.01597771607339382,0.011618646793067455,-0.00032391975400969386,-0.008724549785256386
0.022705474868416786,0.003993764519691467,-0.01614355854690075,0.011482990346848965,-0.00033085106406360865,-0.008262237533926964
0.02214732952415943,0.004411282949149609,-0.01658279076218605,0.011803667061030865,-0.00033617514418438077,-0.008271411992609501
0.021457547321915627,0.004654305521398783,-0.016273457556962967,0.011465403251349926,-0.00034292065538465977,-0.008653592318296432
0.022036198526620865,0.004157659597694874,-0.01574285700917244,0.01159590296447277,-0.0004151988832745701,-0.0081414133310318
0.021952252835035324,0.003972720820456743,-0.016094714403152466,0.01139164436608553,-0.0004520670627243817,-0.007821938954293728
0.022118886932730675,0.003886606078594923,-0.015767095610499382,0.011639532633125782,-0.00047634716611355543,-0.007668450940400362
0.022118886932730675,0.003886606078594923,-0.015767095610499382,0.011639532633125782,-0.00047634716611355543,-0.007668450940400362
0.022037358954548836,0.003917476162314415,-0.01611018180847168,0.011544235050678253,-0.00045529656927101314,-0.007513426244258881
0.0217618178576231,0.004302564077079296,-0.015914147719740868,0.012122890911996365,-0.0004862414498347789,-0.008118193596601486
0.021801618859171867,0.004487653262913227,-0.01638076826930046,0.01179741881787777,-0.0005032520275563002,-0.008176766335964203
0.02225932478904724,0.004332061391323805,-0.016213392838835716,0.012035856023430824,-0.0004884045920334756,-0.008444088511168957
0.022701367735862732,0.004468316677957773,-0.01607007347047329,0.011824924498796463,-0.0006191145512275398,-0.008282693102955818
0.022610992193222046,0.004116034600883722,-0.016584448516368866,0.01162888016551733,-0.0006586907547898591,-0.008448384702205658
0.02259954623878002,0.003863561898469925,-0.01588369347155094,0.012111536227166653,-0.0006788718746975064,-0.008436264470219612
0.022373536601662636,0.004031652119010687,-0.016510430723428726,0.011663556098937988,-0.0006665863329544663,-0.008229349739849567
0.02225971408188343,0.004032516852021217,-0.015903204679489136,0.011922336183488369,-0.0006462575984187424,-0.00839125644415617
0.022797811776399612,0.0039350236766040325,-0.016251323744654655,0.012087063863873482,-0.0006641931249760091,-0.008296862244606018
0.022883271798491478,0.004278149455785751,-0.01654159463942051,0.011906085535883904,-0.000640157493762672,-0.008301205933094025
0.022508876398205757,0.004449944477528334,-0.01651008054614067,0.012320032343268394,-0.0006183508667163551,-0.00847380980849266
0.02235662378370762,0.004312916658818722,-0.01729527860879898,0.012074057012796402,-0.0005981125286780298,-0.008794546127319336
0.02310769446194172,0.004056576639413834,-0.016193881630897522,0.012651067227125168,-0.0005847077118232846,-0.008462038822472095
0.02307313308119774,0.003975136671215296,-0.01683732308447361,0.012494845315814018,-0.0005710439872927964,-0.008629854768514633
0.023067234084010124,0.00392102962359786,-0.016618091613054276,0.0128959184512496,-0.0005957224639132619,-0.008534337393939495
0.023119473829865456,0.004169830121099949,-0.016636457294225693,0.012597228400409222,-0.0006123025668784976,-0.008880599401891232
0.02261929027736187,0.00425476860255003,-0.01672917976975441,0.012564745731651783,-0.0006128576351329684,-0.008550841361284256
0.023053953424096107,0.004043541382998228,-0.01688416488468647,0.01219753734767437,-0.0005945844459347427,-0.008480630815029144
0.02340787649154663,0.0037751421332359314,-0.017505140975117683,0.011634445749223232,-0.0006040938897058368,-0.008833246305584908
0.023408498615026474,0.003677105065435171,-0.016970574855804443,0.012474308721721172,-0.0005698296590708196,-0.009053098037838936
0.023195140063762665,0.0034170853905379772,-0.016772640869021416,0.011948339641094208,-0.0005786334513686597,-0.008883444592356682
0.02334548719227314,0.003419071203097701,-0.01671644300222397,0.013250158168375492,-0.0005513818468898535,-0.009111189283430576
0.023523462936282158,0.0036231905687600374,-0.017032356932759285,0.01242521870881319,-0.0005840581725351512,-0.00897476077079773
0.02373301237821579,0.003757187630981207,-0.017836792394518852,0.012135623954236507,-0.0006195510504767299,-0.009452900849282742
0.023629339411854744,0.0038238056004047394,-0.016445249319076538,0.012743079103529453,-0.0005789641290903091,-0.009092442691326141
0.02355642430484295,0.004069431684911251,-0.017078058794140816,0.012976115569472313,-0.0005953580257482827,-0.008892855606973171
0.02355642430484295,0.004069431684911251,-0.017078058794140816,0.012976115569472313,-0.0005953580257482827,-0.008892855606973171
0.023778771981596947,0.003582973266020417,-0.016535287722945213,0.012346829287707806,-0.0005453823832795024,-0.009362444281578064
0.023778771981596947,0.003582973266020417,-0.016535287722945213,0.012346829287707806,-0.0005453823832795024,-0.009362444281578064
0.024061009287834167,0.003687033662572503,-0.015879016369581223,0.012499186210334301,-0.0006082833278924227,-0.009327325038611889
0.023974180221557617,0.003387806238606572,-0.016902441158890724,0.012478056363761425,-0.0006229697610251606,-0.008647323586046696
0.02381427213549614,0.003515519667416811,-0.0172211155295372,0.013293623924255371,-0.0006273596081882715,-0.00859591830521822
0.023806562647223473,0.004105341620743275,-0.017496472224593163,0.012694681994616985,-0.0006100771715864539,-0.009411034174263477
0.022999707609415054,0.00429851608350873,-0.017331324517726898,0.013001025654375553,-0.0006275741616263986,-0.009980183094739914
0.024770628660917282,0.00398253882303834,-0.016885437071323395,0.012941633351147175,-0.0005892277113161981,-0.009155351668596268
0.024796627461910248,0.0033638826571404934,-0.017080985009670258,0.013557006604969501,-0.0006379970582202077,-0.008975612930953503
0.024478480219841003,0.0034868710208684206,-0.01682862639427185,0.012329446151852608,-0.0005663218908011913,-0.008807920850813389
0.02470206655561924,0.003716601524502039,-0.017147520557045937,0.01182010117918253,-0.0005034179775975645,-0.009020470082759857
0.02385152503848076,0.003824304323643446,-0.017374949529767036,0.0121485386043787,-0.0005306100356392562,-0.009321562014520168
0.02301749587059021,0.003806248540058732,-0.016906552016735077,0.012799043208360672,-0.0004927200498059392,-0.009139083325862885
0.023893844336271286,0.003830066416412592,-0.01753634586930275,0.013307493180036545,-0.0004521194496192038,-0.008739360608160496
0.024607261642813683,0.003874438349157572,-0.016955643892288208,0.012654321268200874,-0.0004508881247602403,-0.009094719775021076
0.02436280995607376,0.003838171251118183,-0.01741468906402588,0.013138195499777794,-0.00044946555863134563,-0.009356641210615635
0.02453877590596676,0.0037807179614901543,-0.01771209016442299,0.01265695970505476,-0.00042140018194913864,-0.009902345016598701
0.024492137134075165,0.003785845125094056,-0.01687302440404892,0.012938516214489937,-0.00039509026100859046,-0.0097648398950696
0.025233199819922447,0.0038205173332244158,-0.01720110885798931,0.013068780303001404,-0.0004211973282508552,-0.009380728006362915
0.024201348423957825,0.003937618341296911,-0.01688479818403721,0.013061782345175743,-0.0004009583790320903,-0.00926182884722948
0.02453668974339962,0.0034382997546344995,-0.0173454899340868,0.013479401357471943,-0.0003799990226980299,-0.00954325869679451
0.024366945028305054,0.0034390180371701717,-0.01738785207271576,0.013410860672593117,-0.0003431376244407147,-0.009740229696035385
0.024195408448576927,0.003622337244451046,-0.01703912578523159,0.013396237045526505,-0.00030375944334082305,-0.010571092367172241
0.024912139400839806,0.004305209964513779,-0.01744302175939083,0.0130225270986557,-0.0002835454070009291,-0.010180596262216568
0.02501779794692993,0.003970241639763117,-0.0176945012062788,0.012909559532999992,-0.00025173602625727654,-0.009393828921020031
0.024477330967783928,0.0038810737896710634,-0.017668696120381355,0.013100918382406235,-0.00027965838671661913,-0.010052802972495556
0.024837523698806763,0.003407108597457409,-0.01702839694917202,0.012786909006536007,-0.00027125648921355605,-0.009969206526875496
0.025110121816396713,0.0034676494542509317,-0.01751285418868065,0.013239587657153606,-0.000295963924145326,-0.01009424403309822
0.024873698130249977,0.0036370083689689636,-0.016798479482531548,0.012898029759526253,-0.00028759153792634606,-0.01013097446411848
0.024873698130249977,0.0036370083689689636,-0.016798479482531548,0.012898029759526253,-0.00028759153792634606,-0.01013097446411848
0.02522476203739643,0.0042516915127635,-0.017821071669459343,0.013102111406624317,-0.0003120092151220888,-0.010264047421514988
0.025114966556429863,0.004011878743767738,-0.018155785277485847,0.01294706854969263,-0.00030135971610434353,-0.009849700145423412
0.02422538585960865,0.0038268305361270905,-0.01773943565785885,0.013241334818303585,-0.0003667714190669358,-0.010152283124625683
0.02422538585960865,0.0038268305361270905,-0.01773943565785885,0.013241334818303585,-0.0003667714190669358,-0.010152283124625683
0.024969015270471573,0.003974004648625851,-0.017533225938677788,0.01331370510160923,-0.0003995960287284106,-0.010691232047975063
0.02467542327940464,0.00402267649769783,-0.01779906637966633,0.01356806606054306,-0.0004262129950802773,-0.010397296398878098
0.025137580931186676,0.003996673971414566,-0.017820993438363075,0.013065287843346596,-0.0004132810572627932,-0.010323021560907364
0.025566905736923218,0.003968103788793087,-0.017228879034519196,0.013486942276358604,-0.0004404319333843887,-0.010331066325306892
0.02430104650557041,0.003895142348483205,-0.017822090536355972,0.013417292386293411,-0.000670394510962069,-0.01062620710581541
0.025331027805805206,0.004387976136058569,-0.017633095383644104,0.013832115568220615,-0.0007069727289490402,-0.010885401628911495
0.02569206804037094,0.004196313675493002,-0.017550840973854065,0.013339793309569359,-0.0006514513515867293,-0.010503950528800488
0.025462882593274117,0.003961984999477863,-0.018078377470374107,0.013379555195569992,-0.0006730427849106491,-0.010563893243670464
0.025101279839873314,0.003863936522975564,-0.01705419272184372,0.013067370280623436,-0.0006775820511393249,-0.01081068255007267
0.025715403258800507,0.0038113954942673445,-0.017698092386126518,0.0133220124989748,-0.000637675286270678,-0.010434313677251339
0.025635095313191414,0.004201003350317478,-0.017984656617045403,0.013449599966406822,-0.0006324273999780416,-0.010496593080461025
0.02606958895921707,0.004152718931436539,-0.017581487074494362,0.01332378014922142,-0.000594389159232378,-0.010442783124744892
0.02675817906856537,0.003988335840404034,-0.01803506165742874,0.013459020294249058,-0.0006253308965824544,-0.010549496859312057
0.02664210833609104,0.0038377612363547087,-0.017748666927218437,0.012908536940813065,-0.0006352363270707428,-0.010556892491877079
0.026034604758024216,0.0037868195213377476,-0.017858140170574188,0.013245504349470139,-0.0006591948913410306,-0.010763022117316723
0.024935448542237282,0.003992185927927494,-0.018060578033328056,0.01301484927535057,-0.0006228378042578697,-0.010912904515862465
0.02626527100801468,0.0038138278760015965,-0.01874891296029091,0.012978699058294296,-0.0007337587885558605,-0.010633664205670357
0.02626527100801468,0.0038138278760015965,-0.01874891296029091,0.012978699058294296,-0.0007337587885558605,-0.010633664205670357
0.026250947266817093,0.0037762534338980913,-0.018604528158903122,0.013589531183242798,-0.000659884070046246,-0.010848830454051495
0.026553861796855927,0.004429663065820932,-0.017858706414699554,0.013536037877202034,-0.0006731823668815196,-0.010198241099715233
0.026772748678922653,0.004234711639583111,-0.01820765808224678,0.013740964233875275,-0.0006832148646935821,-0.010432478971779346
0.027134409174323082,0.0044335597194731236,-0.017925890162587166,0.013296231627464294,-0.0006482754833996296,-0.010532465763390064
0.02760697528719902,0.004121832549571991,-0.01823543757200241,0.013384249992668629,-0.0007358453003689647,-0.010628657415509224
0.0265230480581522,0.003982842899858952,-0.01894957572221756,0.01364036276936531,-0.0007903743535280228,-0.010870084166526794
0.026742005720734596,0.004007803276181221,-0.018363889306783676,0.01392234768718481,-0.0008053741767071187,-0.010595838539302349
0.02738199196755886,0.0040117590688169,-0.01793113350868225,0.013960621319711208,-0.000752476800698787,-0.010793698020279408
0.027562027797102928,0.0044509368017315865,-0.018334373831748962,0.014360576868057251,-0.0008908124873414636,-0.011280305683612823
0.027512473985552788,0.004515407606959343,-0.018094727769494057,0.014161716215312481,-0.0008994846139103174,-0.01061114389449358
0.02764231525361538,0.004157105926424265,-0.018717236816883087,0.01441962644457817,-0.000841548026073724,-0.010651845484972
0.027189677581191063,0.0038108944427222013,-0.018735088407993317,0.014389107935130596,-0.0007908655679784715,-0.01093913335353136
0.02741091325879097,0.00377304176799953,-0.01806556060910225,0.014134964905679226,-0.0007541353697888553,-0.010481338948011398
0.02721710503101349,0.004307064693421125,-0.018733151257038116,0.014134891331195831,-0.0007220173138193786,-0.010619075037539005
0.02559625543653965,0.004071605857461691,-0.018219608813524246,0.013624885119497776,-0.0006539670866914093,-0.010671863332390785
0.028122542425990105,0.004285942763090134,-0.018680937588214874,0.013760599307715893,-0.0005715941078960896,-0.010600335896015167
0.027891943231225014,0.00431953277438879,-0.017362432554364204,0.013279004022479057,-0.0006010524812154472,-0.010644529946148396
0.02774462103843689,0.004066290333867073,-0.017612654715776443,0.013744540512561798,-0.0005901615368202329,-0.010619526728987694
0.028079422190785408,0.004397504031658173,-0.019226744771003723,0.013558446429669857,-0.000576077844016254,-0.010886038653552532
0.027874719351530075,0.004181672818958759,-0.01874474808573723,0.014409452676773071,-0.0005668128142133355,-0.011043103411793709
0.02804345265030861,0.004202281124889851,-0.0182427316904068,0.013979895040392876,-0.0005564746679738164,-0.01090138778090477
0.028117720037698746,0.004090640693902969,-0.018750665709376335,0.013879768550395966,-0.0005185651825740933,-0.011353219859302044
0.02839728817343712,0.004433757159858942,-0.01851474493741989,0.013717889785766602,-0.0005422414978966117,-0.011497048661112785
0.02839728817343712,0.004433757159858942,-0.01851474493741989,0.013717889785766602,-0.0005422414978966117,-0.011497048661112785
0.028636302798986435,0.00468503637239337,-0.01851380616426468,0.01429078634828329,-0.0005309066036716104,-0.011515602469444275
0.028636302798986435,0.00468503637239337,-0.01851380616426468,0.01429078634828329,-0.0005309066036716104,-0.011515602469444275
0.028474844992160797,0.004392100963741541,-0.018395589664578438,0.014967595227062702,-0.0005557292024604976,-0.01147664338350296
0.02877543307840824,0.004028666764497757,-0.018879709765315056,0.014591332525014877,-0.000551374105270952,-0.011317419819533825
0.02915235236287117,0.003876408329233527,-0.01830284483730793,0.014497409574687481,-0.0006715105264447629,-0.011489723809063435
0.02917150780558586,0.0044229160994291306,-0.018570676445961,0.015460200607776642,-0.0006825673626735806,-0.01184046734124422
0.029178936034440994,0.004673874005675316,-0.018663039430975914,0.014182081446051598,-0.0006300774402916431,-0.010643640533089638
0.028987577185034752,0.004684704355895519,-0.018094563856720924,0.015068094246089458,-0.0006468420615419745,-0.011820469982922077
0.029583027586340904,0.0043626148253679276,-0.019044063985347748,0.013497184962034225,-0.0006590886623598635,-0.011632686480879784
0.03002721071243286,0.004016595426946878,-0.018988657742738724,0.013998591341078281,-0.0006220871582627296,-0.011645713821053505
0.02934722788631916,0.004102041013538837,-0.018168708309531212,0.014307891018688679,-0.0006391811766661704,-0.011892156675457954
0.02981712855398655,0.00402138102799654,-0.01857087016105652,0.015134491957724094,-0.0006255569169297814,-0.011515175923705101
0.030446717515587807,0.00436744000762701,-0.01882651261985302,0.015037281438708305,-0.0006048366194590926,-0.011724093928933144
0.031087912619113922,0.004647191613912582,-0.01828843727707863,0.015317361801862717,-0.0006313147023320198,-0.0112488167360425
0.030058884993195534,0.004665615037083626,-0.018656782805919647,0.01489750575274229,-0.0006502611795440316,-0.011320248246192932
0.02882969006896019,0.004378953017294407,-0.018528267741203308,0.015145490877330303,-0.0006055890116840601,-0.01141603197902441
0.030434010550379753,0.004227157216519117,-0.018521731719374657,0.014918145723640919,-0.0006703679682686925,-0.011410528793931007
0.030928781256079674,0.0040256427600979805,-0.018810566514730453,0.014914274215698242,-0.0007113013416528702,-0.011881549842655659
0.03028092347085476,0.004278975073248148,-0.0186315905302763,0.0146884024143219,-0.0006359427352435887,-0.01218497660011053
0.03101687878370285,0.004484941251575947,-0.018715549260377884,0.01433733943849802,-0.0006509150261990726,-0.011950448155403137
0.031633391976356506,0.004703228827565908,-0.01873893477022648,0.014586030505597591,-0.0005999589338898659,-0.011752565391361713
0.03081018663942814,0.004441600292921066,-0.01858401857316494,0.014458476565778255,-0.0006211496656760573,-0.011208822019398212
0.029857849702239037,0.004377387929707766,-0.018976429477334023,0.014509342610836029,-0.00066010607406497,-0.011976643465459347
0.029928188771009445,0.004054252989590168,-0.018566066399216652,0.014400516636669636,-0.0006752943736501038,-0.011536605656147003
0.030727213248610497,0.0043011619709432125,-0.017958352342247963,0.014717222191393375,-0.0006243056850507855,-0.011159904301166534
0.030383460223674774,0.004052035044878721,-0.018768219277262688,0.015081077814102173,-0.0006294416962191463,-0.01186397299170494
0.0301619041711092,0.0043790386989712715,-0.01946886256337166,0.015046793967485428,-0.0005914163775742054,-0.012146265245974064
0.03050069510936737,0.004826257936656475,-0.018621260300278664,0.015249927528202534,-0.0005418812506832182,-0.012129358947277069
0.030084865167737007,0.00472633633762598,-0.019199900329113007,0.015205237083137035,-0.00056524045066908,-0.012491866014897823
0.030328204855322838,0.004237787332385778,-0.018730729818344116,0.014959201216697693,-0.0005284097860567272,-0.01217254064977169
0.030328204855322838,0.004237787332385778,-0.018730729818344116,0.014959201216697693,-0.0005284097860567272,-0.01217254064977169
0.030301205813884735,0.004491270985454321,-0.01855936460196972,0.014846931211650372,-0.0005433011683635414,-0.011725250631570816
0.030554013326764107,0.004379921592772007,-0.018770596012473106,0.014977172017097473,-0.0005759428022429347,-0.011925199069082737
0.030802728608250618,0.00441332021728158,-0.018971456214785576,0.01470665168017149,-0.000614209333434701,-0.01213555596768856
0.03077266737818718,0.004325052723288536,-0.01901257038116455,0.015337936580181122,-0.0008336410974152386,-0.012234515510499477
0.03072654828429222,0.004332476761192083,-0.01878754422068596,0.014927363954484463,-0.0009216065518558025,-0.012294251471757889
0.03117477335035801,0.0041932412423193455,-0.01888412795960903,0.015370791777968407,-0.0009233528398908675,-0.012518252246081829
0.030933933332562447,0.004382723476737738,-0.019814517349004745,0.01482680905610323,-0.0009126236545853317,-0.012168982066214085
0.03083987906575203,0.004139318130910397,-0.019448615610599518,0.01536988653242588,-0.0008222730248235166,-0.011940522119402885
0.030637044459581375,0.004333023447543383,-0.018815217539668083,0.014656677842140198,-0.0007387015502899885,-0.01241763960570097
0.03146715089678764,0.00423361174762249,-0.019898932427167892,0.01504257507622242,-0.0006898997817188501,-0.012385833077132702
0.031955767422914505,0.0045229047536849976,-0.01932476833462715,0.01478133536875248,-0.0006038530846126378,-0.0123314643278718
0.03125249221920967,0.004175814799964428,-0.01888011395931244,0.015124490484595299,-0.000631298462394625,-0.012540200725197792
0.030059175565838814,0.004296302329748869,-0.019079845398664474,0.014656314626336098,-0.00057093525538221,-0.012692191638052464
0.03085719421505928,0.004555323161184788,-0.01941523514688015,0.01490846835076809,-0.00057965301675722,-0.012766136787831783
0.03214127570390701,0.004646284971386194,-0.01957194320857525,0.014536043629050255,-0.0005485923611558974,-0.01263615395873785
0.03157031163573265,0.0042237951420247555,-0.01966172829270363,0.014939744956791401,-0.0005407642456702888,-0.012542790733277798
0.032293375581502914,0.00442093750461936,-0.019514665007591248,0.015182104893028736,-0.000532704871147871,-0.012567912228405476
0.032403089106082916,0.004239043220877647,-0.019213877618312836,0.01524899248033762,-0.0004979401710443199,-0.012602513656020164
0.032448239624500275,0.00395639892667532,-0.019492393359541893,0.01544960867613554,-0.00046584010124206543,-0.01320304349064827
0.031494949012994766,0.00415012426674366,-0.019414512440562248,0.015359499491751194,-0.0004253762308508158,-0.012986077927052975
0.03142257407307625,0.004535502288490534,-0.018973590806126595,0.015737177804112434,-0.0003881472803186625,-0.012898126617074013
0.031872767955064774,0.004188923630863428,-0.019547685980796814,0.015405538491904736,-0.00035727149224840105,-0.012751404196023941
0.031968940049409866,0.004334830213338137,-0.019506245851516724,0.015869444236159325,-0.0003881098818965256,-0.01293721329420805
0.03174370154738426,0.0043187751434743404,-0.018904106691479683,0.015180611051619053,-0.0003693452454172075,-0.012791985645890236
0.03221290186047554,0.004606291186064482,-0.019094545394182205,0.015593299642205238,-0.00037421766319312155,-0.012892371043562889
0.031837098300457,0.004260802175849676,-0.01915634796023369,0.015152812004089355,-0.0003776186204049736,-0.013095947913825512
0.03222871944308281,0.004131073597818613,-0.018985934555530548,0.015679573640227318,-0.00038276627310551703,-0.01291855238378048
0.03236522898077965,0.00415905611589551,-0.019563252106308937,0.015574604272842407,-0.00038539484376087785,-0.012727567926049232
0.03236522898077965,0.00415905611589551,-0.019563252106308937,0.015574604272842407,-0.00038539484376087785,-0.012727567926049232
0.03221268206834793,0.004205684177577496,-0.019090265035629272,0.01578623242676258,-0.00048027990851551294,-0.013022128492593765
0.03275352343916893,0.004367940593510866,-0.019033094868063927,0.015962401404976845,-0.0004592213954310864,-0.012951724231243134
0.03332264721393585,0.0042626685462892056,-0.019407857209444046,0.01697514019906521,-0.00042440026300027966,-0.012869997881352901
0.032271504402160645,0.004340697079896927,-0.01899382472038269,0.016895543783903122,-0.00045450247125700116,-0.012519960291683674
0.033532366156578064,0.004267412703484297,-0.019032705575227737,0.016977546736598015,-0.0004276209219824523,-0.012780317105352879
0.033416781574487686,0.004066166002303362,-0.019309747964143753,0.015877535566687584,-0.00045391879393719137,-0.013000575825572014
0.033097658306360245,0.004242365714162588,-0.019314032047986984,0.015459183603525162,-0.0005396622000262141,-0.012882272712886333
0.032925091683864594,0.00411997688934207,-0.019602971151471138,0.015108535997569561,-0.0005915539222769439,-0.012815343216061592
0.03312011808156967,0.004265912342816591,-0.01951318047940731,0.01559099368751049,-0.000636255950666964,-0.013001875951886177
0.03357642889022827,0.004580102860927582,-0.018871262669563293,0.016142627224326134,-0.0006674757460132241,-0.013055403716862202
0.0332879014313221,0.004213920794427395,-0.019622189924120903,0.017190558835864067,-0.00097894505597651,-0.013197804801166058
0.03358353674411774,0.003918311093002558,-0.01961151510477066,0.016934318467974663,-0.0009972119005396962,-0.013022293336689472
0.03353693336248398,0.0041609760373830795,-0.0187776368111372,0.016013067215681076,-0.0009291455498896539,-0.012620087713003159
0.03392327204346657,0.0043258583173155785,-0.01937696896493435,0.01637006737291813,-0.0008626776398159564,-0.0126866539940238
0.034074343740940094,0.004405216313898563,-0.019726529717445374,0.015850108116865158,-0.0007621223921887577,-0.012907186523079872
0.03445059806108475,0.004103960935026407,-0.0191755760461092,0.016590265557169914,-0.0007699934649281204,-0.013229490257799625
0.03450829163193703,0.004281450994312763,-0.019464192911982536,0.016231855377554893,-0.0007008457323536277,-0.013217519968748093
0.03421110659837723,0.004393795505166054,-0.01968514546751976,0.016389571130275726,-0.0005979547277092934,-0.013353923335671425
0.034776754677295685,0.004229463171213865,-0.019352460280060768,0.01624198630452156,-0.0006148170214146376,-0.013591847382485867
0.03549699857831001,0.004447870887815952,-0.01972542703151703,0.015551390126347542,-0.000631241942755878,-0.013509176671504974
0.03435875102877617,0.004535723943263292,-0.019688870757818222,0.015509450808167458,-0.000634589756373316,-0.013658996671438217
0.03364937752485275,0.004798386245965958,-0.019666997715830803,0.01495134923607111,-0.0006209866842254996,-0.013412858359515667
0.03364937752485275,0.004798386245965958,-0.019666997715830803,0.01495134923607111,-0.0006209866842254996,-0.013412858359515667
0.035090766847133636,0.004742522723972797,-0.0200622770935297,0.015370153822004795,-0.0008846300188452005,-0.013613751158118248
0.03531131520867348,0.0042846715077757835,-0.019747257232666016,0.017323274165391922,-0.0008731602574698627,-0.01403952855616808
0.03599569573998451,0.00421440415084362,-0.02013285644352436,0.017510905861854553,-0.0008247847435995936,-0.013731184415519238
0.03494150936603546,0.0040490892715752125,-0.019978618249297142,0.01721835695207119,-0.0008968302863650024,-0.013809398747980595
0.03450765088200569,0.004295689519494772,-0.01950003206729889,0.017232831567525864,-0.0008832252933643758,-0.01392372976988554
0.03475194424390793,0.004518354777246714,-0.019691677764058113,0.016618972644209862,-0.0007892200956121087,-0.014187989756464958
0.035464122891426086,0.004558927845209837,-0.020571189001202583,0.017080040648579597,-0.0007968738209456205,-0.013715127483010292
0.03395302593708038,0.004344800487160683,-0.020478516817092896,0.01713666506111622,-0.0007879534969106317,-0.013995652087032795
0.03592768684029579,0.004020368214696646,-0.01930437982082367,0.017286140471696854,-0.0007318562129512429,-0.0138994250446558
0.03598569333553314,0.00431504100561142,-0.020391304045915604,0.017182394862174988,-0.0006867176271043718,-0.014150763861835003
0.034820280969142914,0.0041930400766432285,-0.020419517531991005,0.016467655077576637,-0.0007021622150205076,-0.014904586598277092
0.03556238114833832,0.0040526194497942924,-0.020032456144690514,0.017007945105433464,-0.0006844538729637861,-0.014344116672873497
0.03557337820529938,0.004367040004581213,-0.019906537607312202,0.01700950413942337,-0.0006590008269995451,-0.013769730925559998
0.03488875553011894,0.004448675084859133,-0.02035430818796158,0.016898004338145256,-0.0006619382183998823,-0.014136350713670254
0.035303130745887756,0.004572492558509111,-0.019419925287365913,0.016357753425836563,-0.0006241917726583779,-0.014238527044653893
0.03592831641435623,0.004149579908698797,-0.020376941189169884,0.016437415033578873,-0.000615455734077841,-0.014268405735492706
0.035477545112371445,0.004251062870025635,-0.020893311128020287,0.01664123870432377,-0.0006330349133349955,-0.01425724197179079
0.03498944267630577,0.004248589742928743,-0.02136571891605854,0.016352497041225433,-0.0006624084198847413,-0.014191529713571072
0.03605261072516441,0.004077176563441753,-0.020768508315086365,0.017176667228341103,-0.0006867804331704974,-0.013989703729748726
0.036908749490976334,0.00408140430226922,-0.02078278176486492,0.01703748106956482,-0.0006675352924503386,-0.014500525780022144
0.03545478358864784,0.004156214650720358,-0.020865676924586296,0.017263466492295265,-0.0008515569497831166,-0.014698619022965431
0.03504406660795212,0.0044972263276577,-0.021373165771365166,0.0170680470764637,-0.0008585149189457297,-0.014994691126048565
0.036170605570077896,0.004580594599246979,-0.020640471950173378,0.016285566613078117,-0.0008481054683215916,-0.014844082295894623
0.03538933023810387,0.004125792067497969,-0.02070409432053566,0.01664561778306961,-0.0007729646749794483,-0.014577868394553661
0.03694548085331917,0.003896774258464575,-0.02110615186393261,0.016438836231827736,-0.0007813600241206586,-0.014332509599626064
0.036526694893836975,0.0043016355484724045,-0.020927423611283302,0.01665601134300232,-0.0007103240350261331,-0.014627204276621342
0.036526694893836975,0.0043016355484724045,-0.020927423611283302,0.01665601134300232,-0.0007103240350261331,-0.014627204276621342
0.036007266491651535,0.004208187106996775,-0.02064761146903038,0.016908802092075348,-0.0006593830767087638,-0.014588906429708004
0.03672616928815842,0.004637862555682659,-0.021668754518032074,0.0169734675437212,-0.0006888607167638838,-0.014663594774901867
0.03688701242208481,0.004529876168817282,-0.02093399316072464,0.016706325113773346,-0.0006872445228509605,-0.014961987733840942
0.035876642912626266,0.00430472893640399,-0.020848698914051056,0.017208170145750046,-0.0006660408689640462,-0.01434844546020031
0.03659900277853012,0.00407536793500185,-0.020987972617149353,0.016968166455626488,-0.0008487271261401474,-0.014316804707050323
0.036510009318590164,0.00398164801299572,-0.021284321323037148,0.01725318655371666,-0.0009000739664770663,-0.01419293973594904
0.03665059804916382,0.004384547937661409,-0.02052754908800125,0.017349805682897568,-0.0009183084475807846,-0.014188638888299465
0.03630376234650612,0.004630089271813631,-0.020890552550554276,0.017392558977007866,-0.0010757860727608204,-0.014375072903931141
0.03665252402424812,0.005202841013669968,-0.021351981908082962,0.018185019493103027,-0.0011026605498045683,-0.01496961060911417
0.036648642271757126,0.004566346760839224,-0.02098335139453411,0.017873549833893776,-0.0010714884847402573,-0.015135866589844227
0.036729421466588974,0.0040275477804243565,-0.020600009709596634,0.0172360111027956,-0.0009952622931450605,-0.015063885599374771
0.03739818558096886,0.003931364044547081,-0.02078111842274666,0.01773012802004814,-0.0009245193796232343,-0.014778063632547855
0.0376020185649395,0.004409576300531626,-0.02092115394771099,0.017105288803577423,-0.000833362340927124,-0.015143128111958504
0.03734050691127777,0.004446186125278473,-0.02085646614432335,0.01739354431629181,-0.0007153172045946121,-0.015013353899121284
0.03673986718058586,0.0043074931018054485,-0.021220659837126732,0.01766388677060604,-0.0007235442753881216,-0.015247194096446037
0.035890910774469376,0.004362727049738169,-0.02095581777393818,0.017819497734308243,-0.0007296142866834998,-0.01496703177690506
0.03775782510638237,0.004462382756173611,-0.021342307329177856,0.01779782958328724,-0.000747014710213989,-0.015109154395759106
0.03797120228409767,0.004063064698129892,-0.020953113213181496,0.017261387780308723,-0.0008362095104530454,-0.015234647318720818
0.03733915090560913,0.003853305708616972,-0.02090808004140854,0.018141500651836395,-0.0008786693797446787,-0.015066155232489109
0.037603460252285004,0.004234811756759882,-0.020947782322764397,0.018552452325820923,-0.0008345605456270278,-0.015005668625235558
0.03756660968065262,0.004178998060524464,-0.021218810230493546,0.018296461552381516,-0.0008397226920351386,-0.015199724584817886
0.037268344312906265,0.0042658159509301186,-0.021209686994552612,0.017944877967238426,-0.0008076676749624312,-0.015146618708968163
0.03821681812405586,0.0047213188372552395,-0.021694861352443695,0.017199179157614708,-0.000920416961889714,-0.014937917701900005
0.03789940103888512,0.00426360173150897,-0.02150608040392399,0.017430057749152184,-0.0008561029681004584,-0.014937207102775574
0.03789940103888512,0.00426360173150897,-0.02150608040392399,0.017430057749152184,-0.0008561029681004584,-0.014937207102775574
0.037510693073272705,0.0043822769075632095,-0.021267438307404518,0.017607523128390312,-0.0008579327259212732,-0.015158627182245255
0.037618305534124374,0.003956794738769531,-0.02117793820798397,0.01766512542963028,-0.0008327500545419753,-0.015450600534677505
0.039289772510528564,0.004338269587606192,-0.02175050601363182,0.01797044649720192,-0.0008621625020168722,-0.01538906991481781
0.038376301527023315,0.004113159608095884,-0.021956242620944977,0.018098993226885796,-0.0008689393289387226,-0.015020155347883701
0.037159088999032974,0.004364561289548874,-0.020954571664333344,0.018416080623865128,-0.0008444717968814075,-0.016180720180273056
0.038102887570858,0.00471513532102108,-0.0218037161976099,0.017746496945619583,-0.0008014990598894656,-0.014871812425553799
0.03867395222187042,0.004093344323337078,-0.02258746512234211,0.01789139397442341,-0.0009405646123923361,-0.015076428651809692
0.03969192877411842,0.004154647700488567,-0.022115841507911682,0.018299104645848274,-0.0009422583971172571,-0.015425409190356731
0.03925842046737671,0.004210477229207754,-0.021017013117671013,0.017786936834454536,-0.0008773244335316122,-0.015871284529566765
0.03811807930469513,0.00405540456995368,-0.02155187353491783,0.018009118735790253,-0.0008760771597735584,-0.015831952914595604
0.037804584950208664,0.0043578362092375755,-0.02225244604051113,0.017804879695177078,-0.0008579280111007392,-0.01601863093674183
0.039410438388586044,0.004325250629335642,-0.02149135433137417,0.017364954575896263,-0.0008916714577935636,-0.015673764050006866
0.03946663811802864,0.004298940300941467,-0.021316377446055412,0.017774146050214767,-0.0008947935421019793,-0.015619738027453423
0.0389680378139019,0.004429883323609829,-0.022373300045728683,0.017489569261670113,-0.0008956575766205788,-0.015506536699831486
0.03904053568840027,0.0040689557790756226,-0.022366046905517578,0.01802809163928032,-0.0008288356475532055,-0.0158799197524786
0.03917432948946953,0.0039235129952430725,-0.022180410102009773,0.01848551072180271,-0.0008479324169456959,-0.016173265874385834
0.039005346596241,0.003918456379324198,-0.02144770510494709,0.018371883779764175,-0.0008564847521483898,-0.015768464654684067
0.038636308163404465,0.003921665251255035,-0.022054899483919144,0.018684562295675278,-0.0008537860703654587,-0.015723494812846184
0.03919500857591629,0.004307338502258062,-0.022277241572737694,0.0183224119246006,-0.0008446716819889843,-0.015651041641831398
0.03925056383013725,0.004338470287621021,-0.022256039083003998,0.01833139732480049,-0.0008375109755434096,-0.0158736202865839
0.03940265625715256,0.004498051479458809,-0.02205190248787403,0.01870710588991642,-0.0008305815863423049,-0.015781057998538017
0.04021722823381424,0.004158738534897566,-0.02201940305531025,0.018362073227763176,-0.0007775826379656792,-0.015496209263801575
0.03934195637702942,0.0038955032359808683,-0.02224290557205677,0.01820285990834236,-0.0007888103718869388,-0.015464242547750473
0.03792435675859451,0.004021496046334505,-0.02262275479733944,0.018399694934487343,-0.0008009641896933317,-0.01589466817677021
0.03892016410827637,0.003969613928347826,-0.022083641961216927,0.018355024978518486,-0.0008456202922388911,-0.016095522791147232
0.038789503276348114,0.003829446854069829,-0.022272726520895958,0.018628887832164764,-0.0008560937130823731,-0.01603289693593979
0.038789503276348114,0.003829446854069829,-0.022272726520895958,0.018628887832164764,-0.0008560937130823731,-0.01603289693593979
0.03992412984371185,0.0038463494274765253,-0.022601347416639328,0.018631218001246452,-0.0008623365429230034,-0.016051379963755608
0.04006233811378479,0.0043107192032039165,-0.022410616278648376,0.018220240250229836,-0.000866964808665216,-0.01610393635928631
0.038550954312086105,0.004386956337839365,-0.022393692284822464,0.018430521711707115,-0.0010279840789735317,-0.016218276694417
0.04013180360198021,0.004242779221385717,-0.022447580471634865,0.019176052883267403,-0.0010163161205127835,-0.016026807948946953
0.03970088064670563,0.004098329693078995,-0.022521590813994408,0.018451718613505363,-0.0009448850760236382,-0.015930280089378357
0.03930964320898056,0.003984788898378611,-0.02259664237499237,0.01831350289285183,-0.0009585147490724921,-0.015673255547881126
0.039620593190193176,0.0039705391973257065,-0.022130513563752174,0.018672779202461243,-0.0008298176107928157,-0.015727419406175613
0.039878349751234055,0.004098942503333092,-0.022273391485214233,0.019184749573469162,-0.0008326407405547798,-0.015945585444569588
0.039723943918943405,0.004073231015354395,-0.022630415856838226,0.019000519067049026,-0.0008169470238499343,-0.015858110040426254
0.03974715247750282,0.0039673252031207085,-0.022446608170866966,0.019100364297628403,-0.0007985510164871812,-0.015706002712249756
0.03976923227310181,0.004258801229298115,-0.022535568103194237,0.019367864355444908,-0.0007649246254004538,-0.016240404918789864
0.0392799936234951,0.004095070064067841,-0.022229382768273354,0.019307153299450874,-0.0007724983152002096,-0.01663675718009472
0.03974102810025215,0.003930076956748962,-0.02252744697034359,0.01902739517390728,-0.0007891078130342066,-0.016513073816895485
0.039910703897476196,0.004256577230989933,-0.022684680297970772,0.019322136417031288,-0.0008024511625990272,-0.01626216620206833
0.039702434092760086,0.004294333513826132,-0.022827062755823135,0.019060630351305008,-0.0007667681784369051,-0.017727207392454147
0.04076329246163368,0.004021822940558195,-0.022321974858641624,0.01931750401854515,-0.0009974935092031956,-0.016470540314912796
0.04042231664061546,0.003962995018810034,-0.022496279329061508,0.01987238973379135,-0.00099472317378968,-0.016002614051103592
0.040224991738796234,0.004320542793720961,-0.022975225001573563,0.01916300132870674,-0.0009190680575557053,-0.016561290249228477
0.04035637155175209,0.004189683124423027,-0.023227443918585777,0.019185800105333328,-0.0009123833733610809,-0.016255958005785942
0.04041871055960655,0.004128537606447935,-0.023061523213982582,0.01988070271909237,-0.0009225161629728973,-0.01632515713572502
0.040963973850011826,0.003867881838232279,-0.022506901994347572,0.02022380568087101,-0.0009293922921642661,-0.01659875549376011
