davideferrari95/blind_handover_controller/data/Test 60 - [2024-02-07 -- 15-43-33]/joint_states_data.csv
shoulder_pan_joint,shoulder_lift_joint,elbow_joint,wrist_1_joint,wrist_2_joint,wrist_3_joint
0.005457508843392134,0.0006810216000303626,-0.0072955661453306675,0.006996343843638897,0.0,0.004818879533559084
0.005457508843392134,0.0006810216000303626,-0.0072955661453306675,0.006996343843638897,0.0,0.004818879533559084
0.004984877537935972,0.0007027178071439266,-0.00719277560710907,0.007250411901623011,0.0,0.0047437879256904125
0.005245459731668234,0.000715375819709152,-0.006715335883200169,0.00735886488109827,0.0,0.00551970861852169
0.005245459731668234,0.000715375819709152,-0.006715335883200169,0.00735886488109827,0.0,0.00551970861852169
0.005116727668792009,0.0005975600215606391,-0.007677164394408464,0.006534576416015625,0.0,0.005344984587281942
0.0057547204196453094,0.0005973059451207519,-0.008309734053909779,0.006363357417285442,0.0,0.004945032298564911
0.005405582021921873,0.0006883390014991164,-0.007496081758290529,0.006635802797973156,0.0,0.005042890552431345
0.004956090357154608,0.001272296067327261,-0.00715784914791584,0.006483899429440498,0.0,0.004977373871952295
0.005135661456733942,0.001445854315534234,-0.007569664623588324,0.006122089922428131,0.0,0.00481394724920392
0.004996905103325844,0.0013064626837149262,-0.00767879094928503,0.006102933548390865,0.0,0.004691214766353369
0.005263199098408222,0.0011484690476208925,-0.007418252527713776,0.006070602219551802,0.0,0.004680836107581854
0.005469451658427715,0.0010167408036068082,-0.00807179044932127,0.006215495523065329,0.0,0.004464074037969112
0.005862453021109104,0.0010710012866184115,-0.00801775511354208,0.006337960250675678,0.0,0.00471325870603323
0.00567396217957139,0.0013128566788509488,-0.007347827311605215,0.006464179139584303,0.0,0.004823941271752119
0.005517424549907446,0.0012989368988201022,-0.007146791554987431,0.007153081241995096,0.0,0.004739662632346153
0.005174490623176098,0.00158554851077497,-0.007912950590252876,0.007095951121300459,0.0,0.00471086660400033
0.0054420786909759045,0.0017110668122768402,-0.007950102910399437,0.00659630773589015,0.0,0.004958353471010923
0.0054420786909759045,0.0017110668122768402,-0.007950102910399437,0.00659630773589015,0.0,0.004958353471010923
0.005085662007331848,0.0013819249579682946,-0.007008829154074192,0.006675740238279104,0.0,0.00496801920235157
0.005085662007331848,0.0013819249579682946,-0.007008829154074192,0.006675740238279104,0.0,0.00496801920235157
0.005269012879580259,0.0014292467385530472,-0.008100202307105064,0.007280164398252964,0.0,0.0052904835902154446
0.004694357514381409,0.0013743482995778322,-0.008171822875738144,0.0070720249786973,0.0,0.004972115159034729
0.0050217811949551105,0.0015913889510557055,-0.007121286820620298,0.006713527254760265,0.0,0.004549749195575714
0.004999775905162096,0.0019107603002339602,-0.00833144597709179,0.006757334340363741,0.0,0.004874060861766338
0.004999775905162096,0.0019107603002339602,-0.00833144597709179,0.006757334340363741,0.0,0.004874060861766338
0.0048151020891964436,0.0018305247649550438,-0.008020850829780102,0.007226954214274883,0.0,0.004857697524130344
0.005203747656196356,0.0015963190235197544,-0.007324804086238146,0.007151053287088871,0.0,0.00493278494104743
0.00492845568805933,0.0015965080820024014,-0.007667367812246084,0.006897039711475372,0.0,0.005024963524192572
0.0048590851947665215,0.0015357013326138258,-0.00811676774173975,0.00736106326803565,0.0,0.004913525190204382
0.005335369147360325,0.0018207547254860401,-0.008036799728870392,0.007683407980948687,0.0,0.004808090161532164
0.004971454851329327,0.0020368106197565794,-0.007733033038675785,0.007180703803896904,0.0,0.0050450898706912994
0.005314401350915432,0.002307435730472207,-0.008070411160588264,0.006580804940313101,0.0,0.005041081923991442
0.005065154749900103,0.00225046300329268,-0.008438341319561005,0.006726635619997978,0.0,0.004917592741549015
0.004858002066612244,0.0022073560394346714,-0.008043824695050716,0.00703886104747653,0.0,0.005058359354734421
0.005023457109928131,0.0021117515861988068,-0.00774396164342761,0.006746219005435705,0.0,0.005061618052423
0.0054398030042648315,0.0020713387057185173,-0.008593796752393246,0.006420588120818138,0.0,0.004823705181479454
0.004998764023184776,0.0021374907810240984,-0.00782059971243143,0.006960413418710232,0.0,0.004534252919256687
0.005266436375677586,0.0024497038684785366,-0.00726282736286521,0.007133493199944496,0.0,0.004587261471897364
0.005123812239617109,0.0024270948488265276,-0.008101793937385082,0.0069862487725913525,0.0,0.004954459611326456
0.00489270081743598,0.0025292295031249523,-0.008611795492470264,0.006481208372861147,0.0,0.005465359892696142
0.005080444272607565,0.00206204317510128,-0.007826128043234348,0.006250334437936544,0.0,0.005017110146582127
0.005080444272607565,0.00206204317510128,-0.007826128043234348,0.006250334437936544,0.0,0.005017110146582127
0.0053735701367259026,0.0019902086351066828,-0.007710191421210766,0.006766813807189465,0.0,0.004645303823053837
0.0047246841713786125,0.002359547419473529,-0.008046131581068039,0.006595836021006107,0.0,0.005025438964366913
0.0047246841713786125,0.002359547419473529,-0.008046131581068039,0.006595836021006107,0.0,0.005025438964366913
0.005117780063301325,0.002349311951547861,-0.007786967325955629,0.006504144985228777,0.0,0.005534914322197437
0.005052818916738033,0.002533766208216548,-0.00839957781136036,0.00668485788628459,0.0,0.005677578505128622
0.0048671904951334,0.0025310846976935863,-0.008094915188848972,0.006858463864773512,0.0,0.0051329657435417175
0.004712788853794336,0.0023808060213923454,-0.007764260284602642,0.006659902166575193,0.0,0.00463747326284647
0.005041312891989946,0.0021248916164040565,-0.0079588508233428,0.007405062206089497,0.0,0.004902403336018324
0.005041312891989946,0.0021248916164040565,-0.0079588508233428,0.007405062206089497,0.0,0.004902403336018324
0.005125429946929216,0.0023039167281240225,-0.008167773485183716,0.007252673152834177,0.0,0.005336218513548374
0.0053023239597678185,0.002594725927338004,-0.007815833203494549,0.00720964465290308,0.0,0.0057919262908399105
0.005111674778163433,0.002455976326018572,-0.0081910640001297,0.006540616042912006,0.0,0.005442791152745485
0.004818253219127655,0.002485227771103382,-0.008425338193774223,0.006680029444396496,0.0,0.0049223885871469975
0.004782973788678646,0.0021870408672839403,-0.007659595925360918,0.007280266378074884,0.0,0.004648630972951651
0.004885951057076454,0.0022951948922127485,-0.007294421084225178,0.007267603650689125,0.0,0.004728680942207575
0.005101008806377649,0.0025642327964305878,-0.007653254549950361,0.006593083497136831,0.0,0.005181135609745979
0.005307151470333338,0.0028024238999933004,-0.007834257557988167,0.006974059622734785,0.0,0.0057994709350168705
0.0047340989112854,0.002668882953003049,-0.008114042691886425,0.006830345373600721,0.0,0.005811430513858795
0.004585084971040487,0.0026442077942192554,-0.007851336151361465,0.006550755817443132,0.0,0.0050696092657744884
0.004912915173918009,0.002570507815107703,-0.008185608312487602,0.006474464200437069,0.0,0.004646002314984798
0.004958541132509708,0.0024311072193086147,-0.007948058657348156,0.006589517928659916,0.0,0.004717197269201279
0.005179805215448141,0.0028508813120424747,-0.00751170190051198,0.0070839752443134785,0.0,0.004762634634971619
0.005378072150051594,0.0030403779819607735,-0.007203059736639261,0.007391450926661491,0.0,0.005281064193695784
0.004976938478648663,0.003022492164745927,-0.007600960321724415,0.006712053902447224,0.0,0.005701446905732155
0.004956990014761686,0.0027985505294054747,-0.007664291188120842,0.006389177870005369,0.0,0.005194322671741247
0.004973116330802441,0.002883319742977619,-0.007438466884195805,0.0063730161637067795,0.0,0.004726195242255926
0.005077518057078123,0.002985000843182206,-0.008471784181892872,0.007321827579289675,0.0,0.0046611870639026165
0.005426563788205385,0.002848660806193948,-0.007861924357712269,0.006732826121151447,3.944503077946138e-06,0.005231581162661314
0.0053366790525615215,0.0030461582355201244,-0.007395862136036158,0.0062601612880826,2.575478958988242e-07,0.005596972536295652
0.005282685160636902,0.0030427707824856043,-0.00743167195469141,0.006828246638178825,1.68160365632275e-08,0.0050572887994349
0.005282685160636902,0.0030427707824856043,-0.00743167195469141,0.006828246638178825,1.68160365632275e-08,0.0050572887994349
0.00505375862121582,0.0029173956718295813,-0.007539371494203806,0.007006986532360315,1.0979670506117145e-09,0.004611719399690628
0.00520439213141799,0.0031879073940217495,-0.007401742041110992,0.006584611255675554,7.168940441282246e-11,0.0046545579098165035
0.005533789284527302,0.0030071416404098272,-0.007536340970546007,0.006231594830751419,4.6808056562708256e-12,0.004902648273855448
0.005618958733975887,0.0031469352543354034,-0.007483952213078737,0.006569188553839922,3.056232025268335e-13,0.005275641568005085
0.005485368426889181,0.002987447427585721,-0.008088093250989914,0.0072821928188204765,1.995501203513883e-14,0.005461846478283405
0.005190372467041016,0.002718942705541849,-0.007677426561713219,0.006978781893849373,1.3029197378728393e-15,0.005048112478107214
0.005269855726510286,0.0026638773269951344,-0.007080297451466322,0.00661002192646265,8.507135039334673e-17,0.004744415637105703
0.005003937985748053,0.002880252432078123,-0.006573473569005728,0.0070193251594901085,5.5545517276986955e-18,0.00474842032417655
0.004968704655766487,0.003182946937158704,-0.00736189354211092,0.006850854028016329,3.626725315865645e-19,0.00479576550424099
0.005857315845787525,0.003118392312899232,-0.00803688820451498,0.007056851405650377,2.3679923962167134e-20,0.005146627314388752
0.005296287592500448,0.003039018949493766,-0.007547713350504637,0.006593018304556608,1.5461298118323201e-21,0.005463631357997656
0.005062038544565439,0.0032320639584213495,-0.007527349051088095,0.00669252872467041,1.0095122423872948e-22,0.005188483279198408
0.005076313391327858,0.002997532719746232,-0.007826516404747963,0.007433175574988127,6.591393557890203e-24,0.005078758113086224
0.005791288800537586,0.003049192950129509,-0.006792024709284306,0.007888141088187695,4.303709061485686e-25,0.004998672287911177
0.005377908702939749,0.002918916754424572,-0.0065042912028729916,0.007243793923407793,2.8100143727369924e-26,0.005021421238780022
0.005066729616373777,0.002952749142423272,-0.006902061868458986,0.006487969309091568,1.8347385096714613e-27,0.005709579214453697
0.0055890679359436035,0.003242946695536375,-0.007240492384880781,0.006202558521181345,1.1979532217568947e-28,0.005618775263428688
0.005293149035423994,0.003640882670879364,-0.0076910448260605335,0.006748739629983902,7.821778530823496e-30,0.005343072582036257
0.005423258990049362,0.00320578389801085,-0.007176845334470272,0.006978771649301052,5.107062630735057e-31,0.005250562448054552
0.005121360532939434,0.0031062662601470947,-0.007065837271511555,0.006806919351220131,3.3345471593702486e-32,0.005476691760122776
0.005919518880546093,0.002996610477566719,-0.007666699588298798,0.006638628896325827,2.177221065563278e-33,0.005345298442989588
0.0054013533517718315,0.0025594872422516346,-0.0076364693231880665,0.007290113251656294,1.4215697438706587e-34,0.005347291938960552
0.005459976848214865,0.0009814476361498237,-0.007147328462451696,0.00680462084710598,6.060374610661216e-37,0.005106601398438215
0.005207876209169626,0.0007748829084448516,-0.008304724469780922,0.0066517069935798645,3.95699164823489e-38,0.004908586386591196
0.005293165799230337,0.0003893953107763082,-0.007810061331838369,0.006976388394832611,2.583632833211167e-39,0.005360247101634741
0.005705711897462606,0.0005993795930407941,-0.007259737234562635,0.007408111356198788,1.6869251303081445e-40,0.005486096255481243
0.0059101516380906105,0.0015695508336648345,-0.007310896646231413,0.007437570486217737,1.1014205929593062e-41,0.005770967807620764
0.005555236712098122,0.001573415705934167,-0.007673399057239294,0.007221638690680265,7.188661121986312e-43,0.005202459171414375
0.005688490346074104,0.0014451812021434307,-0.007598402444273233,0.006858282722532749,4.764414778704378e-44,0.005056182853877544
0.005491804331541061,0.0012054136022925377,-0.00746845593675971,0.007042618002742529,2.802596928649634e-45,0.0048606679774820805
0.006027877796441317,0.001051402767188847,-0.007486746646463871,0.00684002973139286,0.0,0.005210801027715206
0.00564581761136651,0.0008075795485638082,-0.008636141195893288,0.00658796401694417,0.0,0.005566996056586504
0.005544133018702269,0.0006838981062173843,-0.0078089674934744835,0.006618763320147991,0.0,0.00546810170635581
0.005544133018702269,0.0006838981062173843,-0.0078089674934744835,0.006618763320147991,0.0,0.00546810170635581
0.005247301422059536,0.0006704744882881641,-0.007109128404408693,0.00693614361807704,0.0,0.005054272245615721
0.005286255851387978,0.0006286672432906926,-0.006839856039732695,0.0068811378441751,0.0,0.0053628114983439445
0.005693607963621616,0.0006534106214530766,-0.00787782110273838,0.006457284092903137,0.0,0.005157714243978262
0.005825850181281567,0.000650611415039748,-0.00783476047217846,0.006437887437641621,0.0,0.00521200243383646
0.005529564339667559,0.0006211737636476755,-0.008132867515087128,0.00646169064566493,0.0,0.005388089921325445
0.005638016853481531,0.000561738561373204,-0.008052432909607887,0.0065031712874770164,0.0,0.0055260928347706795
0.005149529781192541,0.0004966964479535818,-0.008466918021440506,0.0065211704932153225,0.0,0.005367937497794628
0.0054482221603393555,0.000532899925019592,-0.007981316186487675,0.006542101968079805,0.0,0.005043769720941782
0.005677803885191679,0.0005411375313997269,-0.007644831668585539,0.006406101863831282,0.0,0.005257705692201853
0.0061567737720906734,0.0005219181766733527,-0.007046116050332785,0.006947075016796589,0.0,0.005266869440674782
0.005582369398325682,0.0005483129643835127,-0.00805647112429142,0.006612362805753946,0.0,0.0057494440115988255
0.005233348812907934,0.0006465329206548631,-0.007835145108401775,0.006531731691211462,0.0,0.005422012414783239
0.005418255925178528,0.00070479343412444,-0.007106303703039885,0.006642822176218033,0.0,0.005136062391102314
0.0056383139453828335,0.0006578278262168169,-0.008059141226112843,0.0068281362764537334,0.0,0.005511085502803326
0.005521513521671295,0.0007019296172074974,-0.007385461125522852,0.006687142886221409,0.0,0.005883622914552689
0.005596732255071402,0.0008317960309796035,-0.007234685588628054,0.006410435773432255,0.0,0.005532355047762394
0.0053929821588099,0.0008629988878965378,-0.007509967312216759,0.006535932421684265,0.0,0.005239162594079971
0.005228916183114052,0.0008583309827372432,-0.007682305760681629,0.007057312875986099,0.0,0.005398134235292673
0.0063495212234556675,0.0008632937679067254,-0.0074221366085112095,0.007388310972601175,0.0,0.0056174201890826225
0.005868108943104744,0.0009829493938013911,-0.007327274419367313,0.006604944355785847,0.0,0.005877912510186434
0.0053291586227715015,0.0009897301206365228,-0.007608355954289436,0.006151129025965929,0.0,0.005907549522817135
0.0052340407855808735,0.0009759447420947254,-0.008283556438982487,0.006618259008973837,0.0,0.005278289783746004
0.005629693623632193,0.0009656535112299025,-0.007523742038756609,0.006817128509283066,0.0,0.005362318363040686
0.005629693623632193,0.0009656535112299025,-0.007523742038756609,0.006817128509283066,0.0,0.005362318363040686
0.005606572609394789,0.0010005455696955323,-0.007462548092007637,0.005968672223389149,0.0,0.005139299668371677
0.005606572609394789,0.0010005455696955323,-0.007462548092007637,0.005968672223389149,0.0,0.005139299668371677
0.0055410051718354225,0.0009806338930502534,-0.008298027329146862,0.005834154784679413,0.0,0.005266476888209581
0.005513992626219988,0.0009696055785752833,-0.007411861326545477,0.006192560773342848,0.0,0.005462540313601494
0.005459923762828112,0.0009667918202467263,-0.007017575670033693,0.006715700961649418,0.0,0.005485714878886938
0.0056356219574809074,0.00106203299947083,-0.008321219123899937,0.00672396644949913,0.0,0.0055684843100607395
0.005549595691263676,0.0010391541291028261,-0.008472862653434277,0.0063058314844965935,0.0,0.005482370499521494
0.006083923391997814,0.000944460101891309,-0.007644754368811846,0.006503016222268343,0.0,0.005559652112424374
0.005800287704914808,0.0009559676982462406,-0.007465059403330088,0.006924256216734648,0.0,0.005498899612575769
0.005967933218926191,0.0009457473643124104,-0.00782215315848589,0.0072979433462023735,0.0,0.005436166655272245
0.006297787185758352,0.000938808370847255,-0.008122235536575317,0.006915783043950796,0.0,0.005471558775752783
0.005634717643260956,0.0009337032097391784,-0.00787702202796936,0.0063165477477014065,0.0,0.005131920799612999
0.005939492955803871,0.0010664225555956364,-0.007476608268916607,0.006669243797659874,0.0,0.00528811477124691
0.005869291722774506,0.0010435264557600021,-0.008310368284583092,0.00735150370746851,0.0,0.005815398413687944
0.006124214734882116,0.0010529906721785665,-0.008199977688491344,0.007325080223381519,0.0,0.006324892397969961
0.006182710640132427,0.001161591149866581,-0.007737065199762583,0.006954097654670477,0.0,0.005763095337897539
0.006013394799083471,0.001131947385147214,-0.007785742171108723,0.00689846882596612,0.0,0.00536609161645174
0.006014217156916857,0.0012132305419072509,-0.00795319676399231,0.007704624440521002,0.0,0.005770770832896233
0.006015272811055183,0.0012102657929062843,-0.007459070533514023,0.006766832899302244,0.0,0.005833403207361698
0.006311038509011269,0.0012652763398364186,-0.007619340904057026,0.006562533788383007,0.0,0.00556923309341073
0.005951403174549341,0.0012921887682750821,-0.008467395789921284,0.0069166263565421104,0.0,0.005408366210758686
0.006363994441926479,0.0012753111077472568,-0.007814125157892704,0.007184605114161968,0.0,0.005451303906738758
0.005643387790769339,0.0013201246038079262,-0.008057396858930588,0.007002517580986023,0.0,0.005300958175212145
0.005916505586355925,0.001288353931158781,-0.007936584763228893,0.00675590755417943,0.0,0.005467478651553392
0.006604318507015705,0.0013915208401158452,-0.007992282509803772,0.006956022698432207,0.0,0.005574182141572237
0.006604318507015705,0.0013915208401158452,-0.007992282509803772,0.006956022698432207,0.0,0.005574182141572237
0.006126729771494865,0.001340419752523303,-0.007809000555425882,0.0068519338965415955,0.0,0.005396622698754072
0.006262863986194134,0.001316110952757299,-0.007552090100944042,0.006844683084636927,0.0,0.005678172688931227
0.005745295435190201,0.0013771008234471083,-0.008432809263467789,0.00688419071957469,0.0,0.005803869571536779
0.006033462937921286,0.0013286565663293004,-0.007851609960198402,0.006797196809202433,0.0,0.005855302792042494
0.006316574290394783,0.0012618314940482378,-0.008122047409415245,0.006577533669769764,0.0,0.005513099022209644
0.00608192291110754,0.0013222602428868413,-0.007800689898431301,0.006379528436809778,0.0,0.0055746231228113174
0.0062424479983747005,0.0012900218134745955,-0.008219070732593536,0.006762984208762646,0.0,0.006052697077393532
0.006195785943418741,0.001272596069611609,-0.00826113298535347,0.006919185630977154,0.0,0.0060119228437542915
0.00597662478685379,0.001388152944855392,-0.00841496977955103,0.006798007525503635,0.0,0.006200565956532955
0.00726315937936306,0.0013147132704034448,-0.008715285919606686,0.006533835083246231,0.0,0.005772769916802645
0.0057501234114170074,0.001504908432252705,-0.007934361696243286,0.00648345286026597,0.0,0.005853844340890646
0.005586643703281879,0.0015309026930481195,-0.007805029395967722,0.006651599891483784,0.0,0.005890900734812021
0.005852799396961927,0.0015334377530962229,-0.007658874616026878,0.006680373102426529,0.0,0.005845243576914072
0.006078170146793127,0.001551653491333127,-0.008206547237932682,0.006599035579711199,0.0,0.0060751838609576225
0.006525848992168903,0.0014777989126741886,-0.008214413188397884,0.006661717314273119,0.0,0.005579860880970955
0.0064785717986524105,0.001482712454162538,-0.008289197459816933,0.006625778507441282,0.0,0.005758791696280241
0.005819106008857489,0.0014042480615898967,-0.007802437990903854,0.006909964140504599,0.0,0.005980325862765312
0.00582793029025197,0.001336511573754251,-0.007924895733594894,0.0073028565384447575,0.0,0.005980467889457941
0.006142708472907543,0.0015011279610916972,-0.007832678034901619,0.006653491873294115,0.0,0.0058660623617470264
0.006142708472907543,0.0015011279610916972,-0.007832678034901619,0.006653491873294115,0.0,0.0058660623617470264
0.005912333261221647,0.0015906980261206627,-0.008276870474219322,0.0072666313499212265,0.0,0.00555179500952363
0.006203426979482174,0.001623858348466456,-0.007803827058523893,0.006876557134091854,0.0,0.005721496883779764
0.005852552130818367,0.001660868409089744,-0.007877870462834835,0.006665274500846863,0.0,0.005730465054512024
0.006152757443487644,0.001549264183267951,-0.008358071558177471,0.006565324030816555,0.0,0.005707515403628349
0.006152757443487644,0.001549264183267951,-0.008358071558177471,0.006565324030816555,0.0,0.005707515403628349
0.006044423207640648,0.001374423154629767,-0.007978777401149273,0.006839414592832327,0.0,0.005841292906552553
0.006026059854775667,0.0014602195005863905,-0.007613138761371374,0.006801759824156761,0.0,0.00608862703666091
0.006007086485624313,0.0016093398444354534,-0.00818411074578762,0.0066296132281422615,0.0,0.006208539009094238
0.006221212912350893,0.0017513573402538896,-0.00850361306220293,0.0066275023855268955,0.0,0.006142491940408945
0.006147556006908417,0.0016127798007801175,-0.007693340070545673,0.006684941705316305,0.0,0.00624989066272974
0.006358051672577858,0.0016848439117893577,-0.007656274363398552,0.007467994466423988,0.0,0.005785238463431597
0.006369116250425577,0.0016937106847763062,-0.007678276859223843,0.00709120836108923,0.0,0.005964183714240789
0.006091119255870581,0.001481335610151291,-0.008201890625059605,0.006477369926869869,0.0,0.005804415792226791
0.006423141807317734,0.0015469735953956842,-0.0085074994713068,0.006474894005805254,0.0,0.006430049892514944
0.006831569131463766,0.0016607641009613872,-0.008029790595173836,0.007023202255368233,0.0,0.006740376353263855
0.006018052808940411,0.00196038163267076,-0.00784151628613472,0.007451137527823448,0.0,0.0065291766077280045
0.005966391880065203,0.0021534047555178404,-0.007985968142747879,0.007007929962128401,0.0,0.005905114579945803
0.005690643098205328,0.002082067308947444,-0.007764607202261686,0.006456159055233002,0.0,0.0058523970656096935
0.006295646075159311,0.0017338492907583714,-0.007444485556334257,0.006593975238502026,0.0,0.006454676855355501
0.0065014478750526905,0.0016725455643609166,-0.0077131325379014015,0.006985189858824015,0.0,0.006430912762880325
0.006429316010326147,0.001556835719384253,-0.008174913004040718,0.007027520798146725,0.0,0.006150632631033659
0.005920461378991604,0.0015762405237182975,-0.007769480813294649,0.006917888764292002,0.0,0.006039699539542198
0.006290689576417208,0.0016342931194230914,-0.008190746419131756,0.006836344487965107,0.0,0.006185299251228571
0.006875704042613506,0.0021130982786417007,-0.008037561550736427,0.006899866741150618,0.0,0.006702492944896221
0.006294766440987587,0.0018963454058393836,-0.007511012721806765,0.006675533950328827,0.0,0.006393456365913153
0.006313667632639408,0.0018319535301998258,-0.007472591940313578,0.006572504993528128,0.0,0.006472625304013491
0.005911251064389944,0.0017343942308798432,-0.008018627762794495,0.006375675089657307,0.0,0.00653739832341671
0.006278004962950945,0.0017543780850246549,-0.007706732954829931,0.006856909953057766,0.0,0.0061929733492434025
0.006265440955758095,0.0019106048857793212,-0.007286331616342068,0.006848389748483896,0.0,0.005900515243411064
0.006238092202693224,0.0019082530634477735,-0.007463408168405294,0.007063271943479776,0.0,0.006200797855854034
0.006021515000611544,0.002039977116510272,-0.007859313860535622,0.007056861184537411,0.0,0.005946185439825058
0.006014419253915548,0.001999516040086746,-0.008138083852827549,0.00698308227583766,0.0,0.0059869782999157906
0.006341444794088602,0.002007266040891409,-0.007017936557531357,0.00651912996545434,0.0,0.006445154082030058
0.006605800241231918,0.0019661958795040846,-0.00811372697353363,0.0062857880257070065,0.0,0.0065331351943314075
0.006605800241231918,0.0019661958795040846,-0.00811372697353363,0.0062857880257070065,0.0,0.0065331351943314075
0.0061702183447778225,0.0017321276245638728,-0.007900944910943508,0.00662048626691103,0.0,0.0062686121091246605
0.005887082777917385,0.001772299874573946,-0.00751830218359828,0.006864926777780056,0.0,0.006377874407917261
0.006202788557857275,0.0017828212585300207,-0.0075373356230556965,0.007295483257621527,0.0,0.006648346781730652
0.006431989371776581,0.0018476627301424742,-0.007811288814991713,0.0066147660836577415,0.0,0.006245293188840151
0.006425849162042141,0.0018675554310902953,-0.008210395462810993,0.006372736766934395,0.0,0.006210741586983204
0.0063834283500909805,0.0019165243720635772,-0.007591841276735067,0.006835169158875942,0.0,0.006314851343631744
0.005827622022479773,0.0017504042480140924,-0.007580315228551626,0.007337550166994333,0.0,0.006052196491509676
0.006286741700023413,0.0018230145797133446,-0.007921255193650723,0.0073005398735404015,0.0,0.00635120552033186
0.006718606222420931,0.0016659422544762492,-0.007575346622616053,0.007168643642216921,0.0,0.006338806357234716
0.006997271440923214,0.001728082075715065,-0.0073236399330198765,0.007410142570734024,0.0,0.0060434103943407536
0.006162712350487709,0.00175070995464921,-0.00746960798278451,0.007131813559681177,0.0,0.006219430360943079
0.006092775147408247,0.0018888916820287704,-0.007846897467970848,0.007288746535778046,0.0,0.0065486193634569645
0.006777382921427488,0.0018745225388556719,-0.007681602146476507,0.006742571480572224,0.0,0.0067381225526332855
0.0066445753909647465,0.001631774939596653,-0.007532848045229912,0.006511332932859659,0.0,0.006680996157228947
0.006347076501697302,0.0014475298812612891,-0.007504556328058243,0.00706698140129447,0.0,0.0066842022351920605
0.0061726439744234085,0.001314849709160626,-0.008150742389261723,0.00732531538233161,0.0,0.006486035883426666
0.006758685689419508,0.0012418136466294527,-0.00789971649646759,0.007068668492138386,0.0,0.006347158923745155
0.006818796508014202,0.0010130780283361673,-0.00713851535692811,0.006666724104434252,0.0,0.006302150897681713
0.0065049072727561,0.0011293524876236916,-0.007179062347859144,0.007047820836305618,0.0,0.006461979355663061
0.006570180878043175,0.0015207743272185326,-0.008199209347367287,0.006977473385632038,0.0,0.006579110398888588
0.0070112296380102634,0.0015914894174784422,-0.008159391582012177,0.005996622610837221,0.0,0.006956286728382111
0.0066620479337871075,0.001395431929267943,-0.007884281687438488,0.00630856491625309,0.0,0.00669612642377615
0.006359731778502464,0.001280875178053975,-0.00832463800907135,0.006801918148994446,0.0,0.006744099780917168
0.006570570170879364,0.0012021524598821998,-0.008205930702388287,0.006992501672357321,0.0,0.006171013228595257
0.006845161318778992,0.0011414627078920603,-0.007471906021237373,0.006584441754966974,0.0,0.0063714319840073586
0.007113182917237282,0.0009470963850617409,-0.008328304626047611,0.006790454033762217,0.0,0.006844119634479284
0.007113182917237282,0.0009470963850617409,-0.008328304626047611,0.006790454033762217,0.0,0.006844119634479284
0.007118521723896265,0.001034868648275733,-0.008598635904490948,0.006969798356294632,0.0,0.0071362718008458614
0.006893995217978954,0.0010575216729193926,-0.007736682891845703,0.006778180133551359,0.0,0.006927357986569405
0.006468777544796467,0.0015335138887166977,-0.007688446436077356,0.006642022170126438,0.0,0.006826888304203749
0.006755766458809376,0.0014313317369669676,-0.008298584260046482,0.006637550890445709,0.0,0.006837283261120319
0.006973482668399811,0.0013328504282981157,-0.007092022802680731,0.0066721742041409016,0.0,0.00662056403234601
0.006972144357860088,0.0011660171439871192,-0.0088582094758749,0.006807155907154083,0.0,0.006680503953248262
0.0066838194616138935,0.0010489196283742785,-0.008217748254537582,0.006621574983000755,0.0,0.0068764956668019295
0.007356850430369377,0.0010227684397250414,-0.008013798855245113,0.006698092445731163,0.0,0.0069649359211325645
0.007622008677572012,0.0010049237171187997,-0.007367602549493313,0.0068052890710532665,0.0,0.006643609143793583
0.007475106045603752,0.0009566499502398074,-0.007342309225350618,0.007253278512507677,0.0,0.006452981848269701
0.007271940354257822,0.0010925258975476027,-0.007941273041069508,0.007038900163024664,0.0,0.006670757196843624
0.007415539585053921,0.0010906070237979293,-0.008256183005869389,0.0068825469352304935,0.0,0.00672051589936018
0.007512157317250967,0.0015519267180934548,-0.007543574087321758,0.00659088883548975,0.0,0.007161824032664299
0.00753233814612031,0.0015473803505301476,-0.008014904335141182,0.007485661190003157,0.0,0.006601580418646336
0.007542915642261505,0.0014199084835126996,-0.008004949428141117,0.007303827907890081,0.0,0.006626206450164318
0.007858979515731335,0.001322590745985508,-0.007864502258598804,0.006909335032105446,0.0,0.006785580888390541
0.007801792584359646,0.001238323631696403,-0.00740545941516757,0.0065357922576367855,0.0,0.007142459973692894
0.007685513701289892,0.001203153165988624,-0.007276457734405994,0.006705208215862513,0.0,0.006942431442439556
0.0075364443473517895,0.0012775328941643238,-0.008026746101677418,0.007325523067265749,0.0,0.007109217811375856
0.008273771032691002,0.0013785427436232567,-0.0081256665289402,0.006934203673154116,0.0,0.007420544512569904
0.00794791430234909,0.0017049774760380387,-0.0076634944416582584,0.0065753706730902195,0.0,0.0070509822107851505
0.0075249033980071545,0.0015914447139948606,-0.007630257401615381,0.006799728609621525,0.0,0.006780034396797419
0.007625783793628216,0.0015825467417016625,-0.008160791359841824,0.007628877181559801,0.0,0.0068339998833835125
0.007562650367617607,0.0014739815378561616,-0.007511498872190714,0.006972747854888439,0.0,0.007407639175653458
0.007723301183432341,0.0013717985711991787,-0.007890954613685608,0.006423733662813902,0.0,0.007349880412220955
0.0076895905658602715,0.0014469411689788103,-0.008468562737107277,0.007065862882882357,0.0,0.007037379313260317
0.0076543670147657394,0.0013832234544679523,-0.008440817706286907,0.007613669149577618,0.0,0.006993982475250959
0.008092383854091167,0.001536669209599495,-0.007913189008831978,0.007156566251069307,0.0,0.006842695642262697
0.00822374876588583,0.0014657977735623717,-0.008729293942451477,0.006708639673888683,0.0,0.0071812220849096775
0.008035095408558846,0.001404362148605287,-0.00854026060551405,0.0072433557361364365,0.0,0.0072850389406085014
0.008154725655913353,0.0014783462975174189,-0.007914159446954727,0.00745960371568799,0.0,0.007928003557026386
0.008154725655913353,0.0014783462975174189,-0.007914159446954727,0.00745960371568799,0.0,0.007928003557026386
0.008100301027297974,0.0015309497248381376,-0.008249498903751373,0.0072758435271680355,0.0,0.007811694871634245
0.00740982498973608,0.0014207877684384584,-0.008803759701550007,0.00738683482632041,0.0,0.007155110128223896
0.007459245156496763,0.0014550670748576522,-0.007765115704387426,0.006969546899199486,0.0,0.006714426446706057
0.008220347575843334,0.0014036120846867561,-0.008072921074926853,0.007087130565196276,0.0,0.007007958833128214
0.008349121548235416,0.0014497945085167885,-0.00872949231415987,0.007895398885011673,0.0,0.007280159741640091
0.007873968221247196,0.001381192123517394,-0.008546881377696991,0.007250944152474403,0.0,0.008081589825451374
0.007787744980305433,0.0014131400967016816,-0.008069753646850586,0.0068718367256224155,0.0,0.007177292834967375
0.008231068961322308,0.0014396238839253783,-0.007695514243096113,0.0073124985210597515,0.0,0.006815606262534857
0.00803609099239111,0.0015200729249045253,-0.008393805474042892,0.007443618029356003,0.0,0.006790876388549805
0.00749263446778059,0.001721176435239613,-0.008418752811849117,0.007369989063590765,0.0,0.007348022423684597
0.008342386223375797,0.0017688885563984513,-0.008145375177264214,0.007059823255985975,0.0,0.007319494150578976
0.008584994822740555,0.001698327250778675,-0.008130010217428207,0.0073480140417814255,0.0,0.007622112054377794
0.007325370330363512,0.001728706993162632,-0.008779093623161316,0.007706251461058855,0.0,0.007585763931274414
0.007259867154061794,0.0015784689458087087,-0.008419794030487537,0.007621409837156534,0.0,0.007474937010556459
0.008086374029517174,0.0015543099725618958,-0.00814775563776493,0.007365760393440723,0.0,0.00684431754052639
0.008136287331581116,0.0016088606789708138,-0.008673103526234627,0.007429789286106825,0.0,0.007202265318483114
0.007495671045035124,0.0017954122740775347,-0.008544516749680042,0.007292414549738169,0.0,0.008276665583252907
0.007931094616651535,0.0017459304071962833,-0.00852026417851448,0.0071714213117957115,0.0,0.007720456924289465
0.008323995396494865,0.0015903605381026864,-0.009406406432390213,0.00730066979303956,0.0,0.00693159457296133
0.008329780772328377,0.001458380720578134,-0.008579328656196594,0.007487442344427109,0.0,0.006787520833313465
0.007743703201413155,0.0015124122146517038,-0.008520027622580528,0.007019581273198128,0.0,0.007182843051850796
0.008108377456665039,0.0015309022273868322,-0.009038474410772324,0.006898560561239719,0.0,0.00802054163068533
0.008256767876446247,0.001465482753701508,-0.008969355374574661,0.007033661473542452,0.0,0.007980850525200367
0.008523727767169476,0.001661324524320662,-0.008490928448736668,0.007372317835688591,0.0,0.007611627224832773
0.008258056826889515,0.001544232596643269,-0.00898372195661068,0.007028764579445124,0.0,0.008097842335700989
0.00861017219722271,0.001342285773716867,-0.008745786733925343,0.006876212544739246,0.0,0.00831601768732071
0.00812578946352005,0.0012572332052513957,-0.00848955288529396,0.007352222688496113,0.0,0.00827554240822792
0.00812578946352005,0.0012572332052513957,-0.00848955288529396,0.007352222688496113,0.0,0.00827554240822792
0.008207076229155064,0.0014977955725044012,-0.009112028405070305,0.007178205065429211,0.0,0.008588244207203388
0.008207076229155064,0.0014977955725044012,-0.009112028405070305,0.007178205065429211,0.0,0.008588244207203388
0.008017865009605885,0.0014525658916682005,-0.008569486439228058,0.0069510312750935555,0.0,0.00848577730357647
0.007655608933418989,0.0015920600853860378,-0.00853731483221054,0.0077818878926336765,0.0,0.007970083504915237
0.008341377601027489,0.0015133630950003862,-0.009449338540434837,0.007868640124797821,0.0,0.007736130617558956
0.008474783040583134,0.0015119053423404694,-0.0094393165782094,0.006830418482422829,0.0,0.008072465658187866
0.007976916618645191,0.0013741177972406149,-0.008205810561776161,0.006671952549368143,0.0,0.007825428619980812
0.008372972719371319,0.001291906926780939,-0.009099865332245827,0.007358395028859377,0.0,0.0075120883993804455
0.008808049373328686,0.0013332694070413709,-0.00897861085832119,0.007754994090646505,0.0,0.007808450609445572
0.008319911547005177,0.0013397801667451859,-0.00841190293431282,0.007042118813842535,0.0,0.007676065433770418
0.007917785085737705,0.0014454240445047617,-0.009845614433288574,0.0069267661310732365,0.0,0.007939210161566734
0.00877512339502573,0.0013668531319126487,-0.009143678471446037,0.007608453277498484,0.0,0.008362856693565845
0.008582754991948605,0.0015273308381438255,-0.008917666040360928,0.0074523622170090675,0.0,0.008425233885645866
0.007871165871620178,0.0014070027973502874,-0.00869869627058506,0.0076260436326265335,0.0,0.007957770489156246
0.008616451174020767,0.0013379612937569618,-0.009342215023934841,0.007142330054193735,0.0,0.007849124260246754
0.009179685264825821,0.001349370344541967,-0.008844705298542976,0.007698714733123779,0.0,0.007739778608083725
0.008184737525880337,0.0012745652347803116,-0.008392160758376122,0.007669142447412014,0.0,0.007551723159849644
0.0082017220556736,0.001228163717314601,-0.009473091922700405,0.0073857661336660385,0.0,0.007850009948015213
0.008898148313164711,0.001323276199400425,-0.009029587730765343,0.007380673196166754,0.0,0.007745515089482069
0.008790739811956882,0.001255617244169116,-0.009439649991691113,0.008083764463663101,0.0,0.008162692189216614
0.0086640240624547,0.0013875763397663832,-0.009197870269417763,0.007740067318081856,0.0,0.008266979828476906
0.008904416114091873,0.001498900237493217,-0.008857585489749908,0.007393678650259972,0.0,0.008199630305171013
0.009011717513203621,0.0014437432400882244,-0.008420209400355816,0.007980178110301495,0.0,0.008261456154286861
0.00842091254889965,0.0016423710621893406,-0.008848387748003006,0.007941989228129387,0.0,0.008615627884864807
0.009444043971598148,0.0016382106114178896,-0.009255841374397278,0.007764668203890324,0.0,0.008014238439500332
0.00866756122559309,0.0013947844272479415,-0.008840581402182579,0.007552469149231911,0.0,0.008889613673090935
0.008137376978993416,0.0014602283481508493,-0.009082598611712456,0.007761033251881599,0.0,0.008846154436469078
0.009345166385173798,0.0015517027350142598,-0.009071697480976582,0.00792370829731226,0.0,0.008485788479447365
0.009042407386004925,0.0016106440452858806,-0.00866878405213356,0.007523966487497091,0.0,0.008295833133161068
0.008580134250223637,0.0018751730676740408,-0.009640293195843697,0.008079704828560352,0.0,0.008504346944391727
0.009006461128592491,0.0018878894625231624,-0.008998761884868145,0.007959611713886261,2.078319994325284e-06,0.008479840122163296
0.009269333444535732,0.0016849621897563338,-0.008648157119750977,0.008120628073811531,1.3569945167546393e-07,0.00843408890068531
0.00919547863304615,0.0016814068658277392,-0.009046870283782482,0.007195109035819769,8.860204125937798e-09,0.009349925443530083
0.00919547863304615,0.0016814068658277392,-0.009046870283782482,0.007195109035819769,8.860204125937798e-09,0.009349925443530083
0.008874425664544106,0.0015580453909933567,-0.009290942922234535,0.007451754529029131,5.785080192666214e-10,0.008990226313471794
0.009794225916266441,0.0015074097318574786,-0.009005555883049965,0.008043100126087666,3.777243795521912e-11,0.008949628099799156
0.009250141680240631,0.001574394409544766,-0.00897836871445179,0.007646262180060148,2.4662702435840345e-12,0.00881336908787489
0.009530004113912582,0.0015742734540253878,-0.009323706850409508,0.0073040565475821495,1.6102982662580256e-13,0.00888314563781023
0.009546115063130856,0.0014911866746842861,-0.00859340000897646,0.007957388646900654,1.0514098001523225e-14,0.008985912427306175
0.009279078803956509,0.001494476106017828,-0.009035462513566017,0.00815227348357439,6.864954280359032e-16,0.00870061106979847
0.00859495997428894,0.0013681882992386818,-0.009365243837237358,0.007494797930121422,4.482324648941121e-17,0.009058194234967232
0.009436137974262238,0.001409132150001824,-0.009835438802838326,0.007209855131804943,2.9266377991065166e-18,0.008634368889033794
0.009561145678162575,0.001396280713379383,-0.008835837244987488,0.007636630907654762,1.910885313448264e-19,0.008545544929802418
0.009330479428172112,0.0017485481221228838,-0.009053952991962433,0.008356349542737007,1.2476714953751804e-20,0.009175899438560009
0.010101059451699257,0.0016839323798194528,-0.00773970689624548,0.00834109727293253,8.146403747326551e-22,0.00890829786658287
0.009735912084579468,0.001953474013134837,-0.010149369947612286,0.007953706197440624,5.319019609020059e-23,0.008868572302162647
0.00927333440631628,0.0017767056124284863,-0.00995425321161747,0.007649858016520739,3.472939624851969e-24,0.008603446185588837
0.009460346773266792,0.0016461265040561557,-0.009278818033635616,0.007690763100981712,2.267581411614897e-25,0.008788648061454296
0.009415674954652786,0.001518918201327324,-0.00867545884102583,0.007190185133367777,1.4805685055090028e-26,0.008603788912296295
0.00907704047858715,0.001462416723370552,-0.00934768095612526,0.007409382611513138,9.667055133316068e-28,0.008627118542790413
0.009836147539317608,0.0015870433999225497,-0.009197531268000603,0.00830264762043953,6.311895947576467e-29,0.009398289024829865
0.009563188999891281,0.0015298080397769809,-0.00915263220667839,0.007773134391754866,4.121216990141102e-30,0.00901145301759243
0.009430831298232079,0.0019033026183024049,-0.009548620320856571,0.00714741600677371,2.6908603236933037e-31,0.00877417717128992
0.00985791441053152,0.0017246451461687684,-0.009757399559020996,0.0070195007137954235,1.756939554081879e-32,0.009471883997321129
0.009968871250748634,0.0017063148552551866,-0.008974154479801655,0.007856323383748531,1.1471559370888469e-33,0.008192247711122036
0.010122494772076607,0.0015926483320072293,-0.01063260156661272,0.007668738253414631,4.890505632394114e-36,0.009054173715412617
0.009759467095136642,0.0016911665443331003,-0.009197377599775791,0.008146148175001144,3.193150693667938e-37,0.009435240179300308
0.009284828789532185,0.001600669464096427,-0.009062650613486767,0.008013032376766205,2.0848989388508642e-38,0.009358838200569153
0.00973665714263916,0.0018265957478433847,-0.009244713000953197,0.007902320474386215,1.3612899918698792e-39,0.009003611281514168
0.010072906501591206,0.00170637178234756,-0.009113560430705547,0.007678022608160973,8.888296029365882e-41,0.009470886550843716
0.010145128704607487,0.0019043332431465387,-0.008919689804315567,0.007799877785146236,5.802776940769067e-42,0.009030821733176708
0.010092431679368019,0.0017420921940356493,-0.009945765137672424,0.008153603412210941,3.783505853677006e-43,0.00950035359710455
0.01026782114058733,0.0017896415665745735,-0.009415370412170887,0.0076491739600896835,2.5223372357846707e-44,0.00978786963969469
0.01026782114058733,0.0017896415665745735,-0.009415370412170887,0.0076491739600896835,2.5223372357846707e-44,0.00978786963969469
0.010028542950749397,0.0017970468616113067,-0.009260931052267551,0.007922637276351452,1.401298464324817e-45,0.00937593448907137
0.01024911180138588,0.001836485811509192,-0.009263023734092712,0.008118197321891785,-7.564339284726884e-06,0.008845558390021324
0.010579895228147507,0.0017715510912239552,-0.009699893184006214,0.008021744899451733,-0.00012070457160007209,0.009457387961447239
0.009894995018839836,0.0018311148742213845,-0.00933773722499609,0.007818728685379028,-0.00012475157564040273,0.009772613644599915
0.010337862186133862,0.0016657885862514377,-0.009381162002682686,0.0076540750451385975,-0.00012185647938167676,0.009401893243193626
0.01033413503319025,0.0016997175989672542,-0.009565343149006367,0.007672678213566542,-0.00011867413559230044,0.009500582702457905
0.010036857798695564,0.001560325501486659,-0.009247871115803719,0.008107285015285015,-0.00011562672443687916,0.009181661531329155
0.010432502254843712,0.001594494329765439,-0.009535851888358593,0.007870445027947426,-0.00012944168702233583,0.009818606078624725
0.009836091659963131,0.001613133936189115,-0.009680033661425114,0.008201767690479755,-0.0001315889967372641,0.009921909309923649
0.009972037747502327,0.0016572315944358706,-0.009493222460150719,0.008001348935067654,-0.00012879673158749938,0.009583982639014721
0.010555258020758629,0.0018695713952183723,-0.009297505021095276,0.0077128722332417965,-0.00012581826013047248,0.009219429455697536
0.01002784539014101,0.001723861088976264,-0.009301481768488884,0.007747783325612545,-0.00014207808999344707,0.009514394216239452
0.010529664345085621,0.0017097812378779054,-0.0090659623965621,0.007822628132998943,-0.00014016433851793408,0.009933329187333584
0.010884752497076988,0.001716057537123561,-0.00925392098724842,0.007836643606424332,-0.00013719349226448685,0.009725716896355152
0.009893935173749924,0.001605928293429315,-0.010443123057484627,0.007526889443397522,-0.00015217674081213772,0.009588439017534256
0.010041619651019573,0.0016276868991553783,-0.009046024642884731,0.006856510415673256,-0.00015017106488812715,0.009767935611307621
0.010504666715860367,0.0016155167249962687,-0.008928106166422367,0.007502119056880474,-0.0001473097800044343,0.009613034315407276
0.010099764913320541,0.0018841348355636,-0.00956746470183134,0.007996288128197193,-0.0002734954177867621,0.009667608886957169
0.010423108004033566,0.0022173156030476093,-0.009300319477915764,0.007874904200434685,-0.0002518337860237807,0.010316836647689342
0.01024826429784298,0.0019527998520061374,-0.009825630113482475,0.008326450362801552,-0.0002736998430918902,0.00984408799558878
0.009887685999274254,0.0017883434193208814,-0.009780843742191792,0.008374844677746296,-0.00027099455473944545,0.009860268794000149
0.009931565262377262,0.0017303741769865155,-0.009088307619094849,0.007990391924977303,-0.0002587289782240987,0.010026758536696434
0.010896466672420502,0.001776262535713613,-0.010085729882121086,0.00798352062702179,-0.00026705037453211844,0.01043963897973299
0.01039964146912098,0.0018510130466893315,-0.01010201871395111,0.008756875991821289,-0.00027412635972723365,0.010216434486210346
0.0101954136043787,0.0023211040534079075,-0.008906702511012554,0.00870615616440773,-0.00026386536774225533,0.010277809575200081
0.0101954136043787,0.0023211040534079075,-0.008906702511012554,0.00870615616440773,-0.00026386536774225533,0.010277809575200081
0.010235428810119629,0.0020717699080705643,-0.00989338755607605,0.008326340466737747,-0.00025333280791528523,0.010499902069568634
0.010193675756454468,0.001946561736986041,-0.009688583202660084,0.008760545402765274,-0.0002605741028673947,0.010483612306416035
0.01038099080324173,0.0019054543226957321,-0.009321904741227627,0.00825992226600647,-0.0002668147499207407,0.010051306337118149
0.010048315860331059,0.0017275793943554163,-0.010360359214246273,0.008386485278606415,-0.0002582813904155046,0.010362457484006882
0.010272333398461342,0.0017432858003303409,-0.009362949058413506,0.008535952307283878,-0.00024940146249718964,0.010003368370234966
0.010185709223151207,0.001879488816484809,-0.009396126493811607,0.008676144294440746,-0.0002410547895124182,0.010350619442760944
0.010453552007675171,0.0019374109106138349,-0.010875641368329525,0.008714254945516586,-0.00023324544599745423,0.010451189242303371
0.01071253977715969,0.0020859939977526665,-0.009859181009232998,0.008959797210991383,-0.00022592554159928113,0.01059057004749775
0.010356726124882698,0.0020360208582133055,-0.009204352274537086,0.008857827633619308,-0.0002349015703657642,0.010359450243413448
0.010980882681906223,0.002075692405924201,-0.009779087267816067,0.008493256755173206,-0.00023789670376572758,0.0104566290974617
0.012206651270389557,0.0020862282253801823,-0.009747807867825031,0.008771931752562523,-0.00022690676269121468,0.010065415874123573
0.012988890521228313,0.0020596077665686607,-0.009441768750548363,0.008506620302796364,-0.0002160741714760661,0.01038727443665266
0.011918137781322002,0.00199379725381732,-0.010004689916968346,0.008672799915075302,-0.0002061759732896462,0.010179736651480198
0.011729829013347626,0.00197586533613503,-0.010070773772895336,0.008973526768386364,-0.0001971412857528776,0.010323203168809414
0.012871010228991508,0.0019343949388712645,-0.009229064919054508,0.009113403968513012,-0.00022160029038786888,0.010914118960499763
0.012010251171886921,0.0019885608926415443,-0.010740390978753567,0.009223888628184795,-0.00021717892377637327,0.011272170580923557
0.0120795127004385,0.0020006224513053894,-0.01117657870054245,0.008659504354000092,-0.0002090631751343608,0.009437652304768562
0.011963499709963799,0.0021840964909642935,-0.010178028605878353,0.008383677341043949,-0.00020128829055465758,0.009483523666858673
0.011914744041860104,0.001936089713126421,-0.010357334278523922,0.008902246132493019,-0.00019405473722144961,0.009964666329324245
0.012338939122855663,0.0017821119399741292,-0.010289435274899006,0.009049941785633564,-0.0002144020254490897,0.010478447191417217
0.012506556697189808,0.0020487229339778423,-0.010763486847281456,0.008651796728372574,-0.00020434487669263035,0.010687926784157753
0.012566340155899525,0.0019000791944563389,-0.010508355684578419,0.008834829553961754,-0.00019793961837422103,0.010657653212547302
0.012705091387033463,0.002071177354082465,-0.01129219587892294,0.008488038554787636,-0.00019191054161638021,0.010815288871526718
0.012610732577741146,0.0020445813424885273,-0.01057539600878954,0.008588443510234356,-0.00018623704090714455,0.010937084443867207
0.012529149651527405,0.002031184732913971,-0.010475673712790012,0.00892432127147913,-0.0002033185592154041,0.011064455844461918
0.012969214469194412,0.0022664987482130527,-0.011191143654286861,0.00896602775901556,-0.00020073734049219638,0.011098549701273441
0.012373695150017738,0.0021541290916502476,-0.010879270732402802,0.008368071168661118,-0.0001954880717676133,0.011009654961526394
0.012836022302508354,0.0020730956457555294,-0.010124384425580502,0.008761897683143616,-0.00019033337594009936,0.010784052312374115
0.012836022302508354,0.0020730956457555294,-0.010124384425580502,0.008761897683143616,-0.00019033337594009936,0.010784052312374115
0.012203428894281387,0.002004933776333928,-0.010886154137551785,0.008849294856190681,-0.00018543204350862652,0.010752878151834011
0.012864412739872932,0.002042030915617943,-0.010559315793216228,0.00826395582407713,-0.0001807759836083278,0.0109561737626791
0.012764820829033852,0.001990911550819874,-0.011058622039854527,0.008577888831496239,-0.00018918930436484516,0.011190572753548622
0.013191775418817997,0.0020106416195631027,-0.011109819635748863,0.008986047469079494,-0.00018584367353469133,0.0111346784979105
0.012709292583167553,0.0019592056050896645,-0.010603092610836029,0.008994079194962978,-0.00017875252524390817,0.011446216143667698
0.012455012649297714,0.001905422075651586,-0.010915741324424744,0.008673720993101597,-0.0001719403371680528,0.010893577709794044
0.013139765709638596,0.0018818306270986795,-0.010703330859541893,0.008864221163094044,-0.0001656126114539802,0.010930289514362812
0.012740996666252613,0.0019477461464703083,-0.010267737321555614,0.00872967392206192,-0.00015973328845575452,0.011471027508378029
0.013109995983541012,0.0019288216717541218,-0.010551506653428078,0.00873752310872078,-0.00016937674081418663,0.01126974169164896
0.012806870974600315,0.002012446755543351,-0.010431266389787197,0.008408520370721817,-0.00017794522864278406,0.011057186871767044
0.013345836661756039,0.0019631432369351387,-0.010570140555500984,0.008684102445840836,-0.00017316329467575997,0.0114188427105546
0.013252321630716324,0.0019829939119517803,-0.01100723072886467,0.008355033583939075,-0.0001939301291713491,0.011709162965416908
0.013239786960184574,0.001940511865541339,-0.010270670987665653,0.008419998921453953,-0.00018979262677021325,0.011578374542295933
0.013368649408221245,0.002232216065749526,-0.010704517364501953,0.009392350912094116,-0.00018434959929436445,0.011533888056874275
0.013356408104300499,0.0020030622836202383,-0.010361763648688793,0.00926875602453947,-0.00020132586359977722,0.011518532410264015
0.013721635565161705,0.0020951086189597845,-0.011371273547410965,0.009190988726913929,-0.0001988238946069032,0.01160026527941227
0.013582243584096432,0.0018734034383669496,-0.011303314007818699,0.0091305673122406,-0.00019403266196604818,0.011554350145161152
0.013705241493880749,0.0019980724900960922,-0.011040803045034409,0.009357500821352005,-0.00028481337358243763,0.012126190587878227
0.013340791687369347,0.0018375494983047247,-0.010273298248648643,0.008956515230238438,-0.00027420028345659375,0.01197210606187582
0.0138024240732193,0.0020625304896384478,-0.011042643338441849,0.009405759163200855,-0.0002588622155599296,0.011505549773573875
0.014165648259222507,0.0022686633747071028,-0.010524834506213665,0.009137067012488842,-0.0002548218471929431,0.011590124107897282
0.013517243787646294,0.0022509447298943996,-0.01128597091883421,0.009538247250020504,-0.00026337854797020555,0.012598846107721329
0.014210935682058334,0.002207668963819742,-0.010261881165206432,0.009632840752601624,-0.00025243620621040463,0.012089356780052185
0.013726137578487396,0.002081054262816906,-0.010556943714618683,0.008806446567177773,-0.0002608966897241771,0.012166718021035194
0.013874253258109093,0.0020053910557180643,-0.010613339953124523,0.008758876472711563,-0.00026807852555066347,0.012505024671554565
0.013707156293094158,0.001833673333749175,-0.010428397916257381,0.008836666122078896,-0.00025828173966147006,0.012196490541100502
0.014058217406272888,0.001887026708573103,-0.010847462341189384,0.00920165330171585,-0.00026553566567599773,0.012002455070614815
0.01404348574578762,0.002262848662212491,-0.010313904844224453,0.009113293141126633,-0.0002717094903346151,0.01182226650416851
0.01446311455219984,0.0025687559973448515,-0.011187461204826832,0.009960305877029896,-0.00026284795603714883,0.012563657946884632
0.01446311455219984,0.0025687559973448515,-0.011187461204826832,0.009960305877029896,-0.00026284795603714883,0.012563657946884632
0.013980317860841751,0.0024139792658388615,-0.010721149854362011,0.009617417119443417,-0.00025365606416016817,0.011976560577750206
0.014124084264039993,0.002241755835711956,-0.010275100357830524,0.00933521706610918,-0.0002450270112603903,0.011151082813739777
0.014198350720107555,0.0021169206593185663,-0.010073629207909107,0.009862651117146015,-0.00023772259010002017,0.012239116244018078
0.014363099820911884,0.0019244258292019367,-0.01031667273491621,0.009437325410544872,-0.0002636839053593576,0.012074531055986881
0.01427907682955265,0.001891329768113792,-0.010311681777238846,0.009717866778373718,-0.00025155075127258897,0.012480242177844048
0.014410517178475857,0.002007916336879134,-0.010813607834279537,0.009967177174985409,-0.00023839071218390018,0.012212231755256653
0.014083322137594223,0.0020323405042290688,-0.010842583142220974,0.009579736739397049,-0.00022640392126049846,0.012577378191053867
0.014364419505000114,0.0022711469791829586,-0.009839476086199284,0.009829597547650337,-0.00021555641433224082,0.012657711282372475
0.014302350580692291,0.0021395450457930565,-0.010220964439213276,0.009857187047600746,-0.00020570059132296592,0.012757702730596066
0.014622492715716362,0.00207864330150187,-0.01094716414809227,0.009186532348394394,-0.00019670635811053216,0.01300820242613554
0.01463489979505539,0.0019468774553388357,-0.01046998705714941,0.009152836166322231,-0.00022359038121066988,0.012879522517323494
0.014792487025260925,0.0018770175520330667,-0.010767288506031036,0.009624592028558254,-0.00021689877030439675,0.013047570362687111
0.014486524276435375,0.0019346801564097404,-0.010152895003557205,0.009501704014837742,-0.0002086656604660675,0.012935158796608448
0.014667312614619732,0.002184005919843912,-0.010577334091067314,0.008993489667773247,-0.00020091055193915963,0.013000549748539925
0.014615979976952076,0.0026668570935726166,-0.010989374481141567,0.00943165272474289,-0.00020951824262738228,0.013164528645575047
0.015383096411824226,0.0023789182305336,-0.011012068018317223,0.009297988377511501,-0.00021708503481931984,0.013156456872820854
0.015456780791282654,0.0023128960747271776,-0.010405066423118114,0.00896859634667635,-0.00021078740246593952,0.013331042602658272
0.015927888453006744,0.0020468388684093952,-0.010653541423380375,0.009214704856276512,-0.00021831503545399755,0.013218685984611511
0.015057439915835857,0.0019860160537064075,-0.010160986334085464,0.009643763303756714,-0.000224889547098428,0.013159044086933136
0.015158428810536861,0.001904372125864029,-0.01082764845341444,0.009388365782797337,-0.000241169793298468,0.012987922877073288
0.01527386624366045,0.0020988546311855316,-0.010596987791359425,0.00958801805973053,-0.0002493111533112824,0.013319681398570538
0.015373887494206429,0.0023290920071303844,-0.010244373232126236,0.010103010572493076,-0.0002818082575686276,0.013199917040765285
0.015037646517157555,0.002230323851108551,-0.010484561324119568,0.009176644496619701,-0.0003097441222053021,0.013171748258173466
0.015809940174221992,0.0020654015243053436,-0.011447192169725895,0.010584008879959583,-0.0005768898408859968,0.013073467649519444
0.01618407480418682,0.002033284166827798,-0.011737038381397724,0.009870626963675022,-0.0007814166019670665,0.013125387020409107
0.01585363782942295,0.001867173588834703,-0.011116025038063526,0.009445120580494404,-0.0007484983070753515,0.013495041988790035
0.015557358041405678,0.002249572891741991,-0.011337709613144398,0.009837953373789787,-0.0006615997408516705,0.013495746068656445
0.016445321962237358,0.002843997674062848,-0.011084655299782753,0.00976442638784647,-0.0006806108285672963,0.013181120157241821
0.015814991667866707,0.0030138215515762568,-0.010849582962691784,0.009921643882989883,-0.0006195618188939989,0.013008582405745983
0.016792291775345802,0.0026649795472621918,-0.011685141362249851,0.009602192789316177,-0.0006033072131685913,0.012974602170288563
0.016792291775345802,0.0026649795472621918,-0.011685141362249851,0.009602192789316177,-0.0006033072131685913,0.012974602170288563
0.016667941585183144,0.002155465539544821,-0.01116716768592596,0.009772860445082188,-0.0005467679584398866,0.013505364768207073
0.016667941585183144,0.002155465539544821,-0.01116716768592596,0.009772860445082188,-0.0005467679584398866,0.013505364768207073
0.017107294872403145,0.001985048409551382,-0.011095313355326653,0.010001088492572308,-0.000508291064761579,0.013452054001390934
0.015512188896536827,0.0020394916646182537,-0.010753761045634747,0.009732380509376526,-0.0004766564234159887,0.013228150084614754
0.015998728573322296,0.0024978406727313995,-0.011515995487570763,0.010262979194521904,-0.0004103061219211668,0.01355185266584158
0.01631275750696659,0.0027659141924232244,-0.011343634687364101,0.010003381408751011,-0.00037460640305653214,0.014576135203242302
0.016778452321887016,0.0023671616800129414,-0.011005429551005363,0.009491559118032455,-0.0003457012353464961,0.013845060020685196
0.016773678362369537,0.0021979266311973333,-0.011577724479138851,0.010010595433413982,-0.0003764546709135175,0.012914825230836868
0.016687914729118347,0.001975489314645529,-0.011140464805066586,0.010467186570167542,-0.00035897974157705903,0.0134423254057765
0.016858862712979317,0.0019950189162045717,-0.011988701298832893,0.009784483350813389,-0.0003643821401055902,0.013668824918568134
0.01648799516260624,0.0023579674307256937,-0.011409977450966835,0.009885408915579319,-0.0003682703245431185,0.01424591988325119
0.016991859301924706,0.002381735946983099,-0.011286809109151363,0.01016384270042181,-0.0003494835109449923,0.014100334607064724
0.016677167266607285,0.002653661882504821,-0.011598208919167519,0.009635328315198421,-0.00035428680712357163,0.014283559285104275
0.01690666750073433,0.0026077916845679283,-0.01142649631947279,0.010280556976795197,-0.0003580402990337461,0.014037009328603745
0.016801413148641586,0.0023563469294458628,-0.012063649483025074,0.009896592237055302,-0.00034240720560774207,0.013937345705926418
0.017065078020095825,0.0020840719807893038,-0.011523066088557243,0.009646376594901085,-0.0003514637646730989,0.014359028078615665
0.01710539683699608,0.0020673496183007956,-0.011232942342758179,0.010307113640010357,-0.0003995404113084078,0.014323443174362183
0.01654425635933876,0.0022933988366276026,-0.011872169561684132,0.010523914359509945,-0.00038832120480947196,0.014165493659675121
0.017331179231405258,0.002547899493947625,-0.011836642399430275,0.010769062675535679,-0.00041565491119399667,0.014088607393205166
0.017072513699531555,0.002464357763528824,-0.012514150701463223,0.01054720114916563,-0.0003966903022956103,0.014238506555557251
0.01725718379020691,0.002236805623397231,-0.012098981998860836,0.010535978712141514,-0.00039963447488844395,0.014193698763847351
0.01665860041975975,0.0021628597751259804,-0.011596042662858963,0.011297385208308697,-0.0003815129166468978,0.014295660890638828
0.017358407378196716,0.002045499160885811,-0.011493228375911713,0.010494539514183998,-0.000448957784101367,0.014444930478930473
0.017347995191812515,0.00222936668433249,-0.012435384094715118,0.010948022827506065,-0.00048329748096875846,0.014371138997375965
0.017272206023335457,0.0026208434719592333,-0.011793757788836956,0.011291088536381721,-0.00044129154412075877,0.014404826797544956
0.017272206023335457,0.0026208434719592333,-0.011793757788836956,0.011291088536381721,-0.00044129154412075877,0.014404826797544956
0.017255723476409912,0.002809728728607297,-0.012527361512184143,0.010312351398169994,-0.00044100399827584624,0.014364990405738354
0.016929898411035538,0.002567900810390711,-0.012397389858961105,0.010671943426132202,-0.000440275325672701,0.014377010986208916
0.01753041334450245,0.002223091898486018,-0.012010429985821247,0.010241207666695118,-0.0004092019808012992,0.014191556721925735
0.01708914525806904,0.002102847211062908,-0.012636846862733364,0.010307024233043194,-0.0004352675750851631,0.014313340187072754
0.017053868621587753,0.0021945841144770384,-0.011809338815510273,0.010281294584274292,-0.0004141235549468547,0.014419471845030785
0.01723436266183853,0.0021993007976561785,-0.012607520446181297,0.009580201469361782,-0.0003890280204359442,0.014765161089599133
0.01710181124508381,0.0023735840804874897,-0.011935326270759106,0.009739566594362259,-0.0003919130831491202,0.014526288956403732
0.01744716428220272,0.0023337015882134438,-0.012359309941530228,0.010096210986375809,-0.00039399060187861323,0.01443709246814251
0.01692805625498295,0.0021865798626095057,-0.012296995148062706,0.01025516726076603,-0.0003750035830307752,0.014439132995903492
0.017591072246432304,0.002246181247755885,-0.01205908227711916,0.009979181922972202,-0.0003676494234241545,0.014698443934321404
0.017625147476792336,0.00198157224804163,-0.01231016032397747,0.01015765592455864,-0.00034448623773641884,0.014572209678590298
0.01719052530825138,0.002057968406006694,-0.01174162421375513,0.010568692348897457,-0.00032027819543145597,0.014535467140376568
0.017703965306282043,0.0019197893561795354,-0.011577329598367214,0.010342505760490894,-0.00029900489607825875,0.014686527661979198
0.01753106527030468,0.0023490884341299534,-0.012565144337713718,0.010660508647561073,-0.00032164916046895087,0.016356436535716057
0.01749246008694172,0.002757145557552576,-0.012499596923589706,0.009974241256713867,-0.00031573267187923193,0.01468600146472454
0.01748180389404297,0.0025073701981455088,-0.012316293083131313,0.010111256502568722,-0.00029908359283581376,0.01434935163706541
0.017369095236063004,0.0025335417594760656,-0.011580710299313068,0.010514185763895512,-0.0002834350161720067,0.014379104599356651
0.01779952459037304,0.002293284283950925,-0.012614240869879723,0.010714789852499962,-0.0002692982379812747,0.01493654865771532
0.017789913341403008,0.002149481326341629,-0.012470334768295288,0.011158575303852558,-0.00029352688579820096,0.015596920624375343
0.017565542832016945,0.0023665253538638353,-0.012995091266930103,0.010497957468032837,-0.00028530601412057877,0.015412217006087303
0.01824582926928997,0.0024237819015979767,-0.012827074155211449,0.009927676059305668,-0.00027326043345965445,0.015959177166223526
0.01806711219251156,0.002454973990097642,-0.012415454722940922,0.011055881157517433,-0.0002867494767997414,0.016207175329327583
0.017536386847496033,0.002283465350046754,-0.012048549950122833,0.010593392886221409,-0.0003024196485057473,0.015492269769310951
0.017153501510620117,0.0023497086949646473,-0.012454137206077576,0.010786304250359535,-0.00032066626590676606,0.015071184374392033
0.017817074432969093,0.0025197055656462908,-0.012506161816418171,0.010256401263177395,-0.00032798192114569247,0.014913939870893955
0.017723742872476578,0.002466740319505334,-0.012584798038005829,0.010338658466935158,-0.00034904119092971087,0.015407253056764603
0.01822936162352562,0.002943939995020628,-0.012360622175037861,0.01101183146238327,-0.0003421483270358294,0.016144676133990288
0.01798575557768345,0.003014098620042205,-0.012593689374625683,0.01023421622812748,-0.0003685425326693803,0.016625739634037018
0.01762169972062111,0.002605054061859846,-0.01270290557295084,0.010255556553602219,-0.0003552445559762418,0.016503918915987015
0.01762169972062111,0.002605054061859846,-0.01270290557295084,0.010255556553602219,-0.0003552445559762418,0.016503918915987015
0.018328743055462837,0.002598655642941594,-0.012335089966654778,0.010473326779901981,-0.0005931534105911851,0.015935203060507774
0.018366441130638123,0.0026649809442460537,-0.012602418661117554,0.010049546137452126,-0.0005406184354797006,0.016036516055464745
0.017997784540057182,0.0027331809978932142,-0.012123932130634785,0.010793020017445087,-0.0005668021040037274,0.015653125941753387
0.01808413304388523,0.0025604981929063797,-0.01305176131427288,0.011315444484353065,-0.0005231788381934166,0.016476348042488098
0.018022185191512108,0.002606553491204977,-0.012272072024643421,0.0103157889097929,-0.00047759851440787315,0.01653430424630642
0.01784893497824669,0.0023698806762695312,-0.012767634354531765,0.010267266072332859,-0.00043879763688892126,0.016274958848953247
0.017645061016082764,0.002447169739753008,-0.012766838073730469,0.010471737943589687,-0.00046416991972364485,0.0158753152936697
0.01791965588927269,0.0025979834608733654,-0.012788371182978153,0.010151863098144531,-0.00043971394188702106,0.015964824706315994
0.018211551010608673,0.0027826789300888777,-0.012955554760992527,0.010650903917849064,-0.00041149830212816596,0.01578187383711338
0.01861386187374592,0.002701663179323077,-0.01249327976256609,0.010146613232791424,-0.00038628693437203765,0.016018399968743324
0.01774546317756176,0.0029366447124630213,-0.012835764326155186,0.010311979800462723,-0.0003639622882474214,0.01658853515982628
0.01911149173974991,0.0029130654875189066,-0.012606175616383553,0.010587194003164768,-0.0003440759901423007,0.016551731154322624
0.018480883911252022,0.0029173989314585924,-0.01310271117836237,0.010433665476739407,-0.0003489856026135385,0.016758034005761147
0.017940280959010124,0.0026784990914165974,-0.012596444226801395,0.01016092300415039,-0.0003529356326907873,0.016440587118268013
0.01831122674047947,0.0026337257586419582,-0.013029582798480988,0.01031430158764124,-0.0003377532702870667,0.016640806570649147
0.018564293161034584,0.0027326480485498905,-0.013129454106092453,0.010661102831363678,-0.0003227013221476227,0.015658970922231674
0.018855120986700058,0.00256364862434566,-0.012539325281977654,0.011285997927188873,-0.00028724936419166625,0.015518748201429844
0.019624274224042892,0.002580486936494708,-0.012847784906625748,0.010597988031804562,-0.0002519641420803964,0.016422411426901817
0.019196154549717903,0.0026761447079479694,-0.012703520245850086,0.010509920306503773,-0.0002374073228565976,0.01697736606001854
0.01927778124809265,0.0025121569633483887,-0.013239789754152298,0.010714446194469929,-0.0002254279825137928,0.017470339313149452
0.01942153088748455,0.0030796893406659365,-0.013175619766116142,0.011499428190290928,-0.00024567381478846073,0.01683134399354458
0.019285734742879868,0.0030561441089957952,-0.012589400634169579,0.011748352088034153,-0.00023514438362326473,0.017077479511499405
0.01968718320131302,0.0027592438273131847,-0.013293580152094364,0.011513181030750275,-0.00022534093295689672,0.016666438430547714
0.019310373812913895,0.0027368469163775444,-0.012973406352102757,0.011926501989364624,-0.0002475632936693728,0.016678348183631897
0.019409852102398872,0.002663989085704088,-0.013325500302016735,0.011695184744894505,-0.00024232965370174497,0.01677977479994297
0.019839059561491013,0.0027830677572637796,-0.013424272648990154,0.011809795163571835,-0.00023362261708825827,0.017223387956619263
0.019610390067100525,0.0028638869989663363,-0.013066927902400494,0.01153896376490593,-0.0002552902151364833,0.01718953065574169
0.019073903560638428,0.002866817871108651,-0.01330446358770132,0.011213651858270168,-0.0002484380383975804,0.016604997217655182
0.01969326287508011,0.0026829044800251722,-0.013056197203695774,0.011393025517463684,-0.00024055191897787154,0.016911957412958145
0.01969326287508011,0.0026829044800251722,-0.013056197203695774,0.011393025517463684,-0.00024055191897787154,0.016911957412958145
0.019966239109635353,0.002549349330365658,-0.013293953612446785,0.011263467371463776,-0.0003132738347630948,0.016972852870821953
0.01940000429749489,0.0027662813663482666,-0.012962204404175282,0.01114070974290371,-0.000298356608254835,0.01713572070002556
0.019655654206871986,0.0029148913454264402,-0.013669300824403763,0.011509387753903866,-0.0003285995335318148,0.01703796535730362
0.019734924659132957,0.003455498954281211,-0.013014894910156727,0.011735563166439533,-0.00031600851798430085,0.016748834401369095
0.01989560015499592,0.0028778337873518467,-0.013667772524058819,0.011535129509866238,-0.00032322469633072615,0.016732439398765564
0.0200282484292984,0.0027612694539129734,-0.013216875493526459,0.011324956081807613,-0.0003288279694970697,0.016896413639187813
0.02025686204433441,0.0022787461057305336,-0.013480566442012787,0.011366108432412148,-0.00031391074298880994,0.017302952706813812
0.01984391175210476,0.0021999564487487078,-0.013151941820979118,0.011867077089846134,-0.0003306434955447912,0.017779234796762466
0.01976238191127777,0.0023786346428096294,-0.013766779564321041,0.012398172169923782,-0.0003256068448536098,0.017630338668823242
0.02047545090317726,0.0027296163607388735,-0.01364078652113676,0.012785735540091991,-0.00041744220652617514,0.01768399216234684
0.020766127854585648,0.0027292598970234394,-0.01330168079584837,0.011853925883769989,-0.00047489904682151973,0.017368562519550323
0.020054558292031288,0.0027266587130725384,-0.0137449586763978,0.01122906431555748,-0.00045590949594043195,0.017161644995212555
0.020426928997039795,0.0027085384353995323,-0.013429209589958191,0.011254329234361649,-0.00048698295722715557,0.017046425491571426
0.020297851413488388,0.0024542915634810925,-0.013864405453205109,0.011464095674455166,-0.0005039715324528515,0.01780662126839161
0.02060886099934578,0.0026404550299048424,-0.013671964406967163,0.011353421956300735,-0.0004873921861872077,0.017869004979729652
0.020847436040639877,0.0031639558728784323,-0.014437018893659115,0.011175761930644512,-0.0006756542134098709,0.018070438876748085
0.021553272381424904,0.003206268884241581,-0.013792842626571655,0.011284928768873215,-0.0007140426896512508,0.017756780609488487
0.020791105926036835,0.0026580269914120436,-0.01351552177220583,0.011523203924298286,-0.0007346352795138955,0.018403513357043266
0.020522143691778183,0.002725625643506646,-0.014367240481078625,0.011904267594218254,-0.0007895233575254679,0.018823206424713135
0.02115054242312908,0.0026126904413104057,-0.01393973920494318,0.011835477314889431,-0.0008700578473508358,0.01874905824661255
0.021069826558232307,0.002644994994625449,-0.014456324279308319,0.0114428186789155,-0.0008460034732706845,0.018236476927995682
0.02130289375782013,0.0028274166397750378,-0.013828331604599953,0.011965309269726276,-0.0007964086253196001,0.018480686470866203
0.0210984256118536,0.0030896763782948256,-0.014558435417711735,0.011254067532718182,-0.0007102543604560196,0.018193110823631287
0.021575814113020897,0.0029586120508611202,-0.014371104538440704,0.012140658684074879,-0.0006822911091148853,0.017683932557702065
0.021764276549220085,0.0029688451904803514,-0.014881819486618042,0.012283929623663425,-0.0006593212019652128,0.018083669245243073
0.021691108122467995,0.0028923198115080595,-0.014200053177773952,0.012521859258413315,-0.0006240635993890464,0.018444137647747993
0.021691108122467995,0.0028923198115080595,-0.014200053177773952,0.012521859258413315,-0.0006240635993890464,0.018444137647747993
0.022204149514436722,0.003058502683416009,-0.014930672943592072,0.012537341564893723,-0.000651588081382215,0.01933852955698967
0.022253742441534996,0.002957975259050727,-0.01438099518418312,0.011887413449585438,-0.0005934088258072734,0.019454265013337135
0.02176511101424694,0.0028584932442754507,-0.015367165207862854,0.012337867170572281,-0.0006121600163169205,0.01889677718281746
0.021159034222364426,0.0027514230459928513,-0.01426379382610321,0.011839702725410461,-0.0005674480344168842,0.01862751692533493
0.021871671080589294,0.0028269586618989706,-0.01456750463694334,0.011746469885110855,-0.0005853481707163155,0.018597109243273735
0.023050302639603615,0.0030774176120758057,-0.013982344418764114,0.012078719213604927,-0.000549433461856097,0.018622413277626038
0.022585509344935417,0.0030586596112698317,-0.014818066731095314,0.011982986703515053,-0.0005871417233720422,0.019176684319972992
0.022532455623149872,0.002635511104017496,-0.01466818805783987,0.012676226906478405,-0.0005822477978654206,0.01934124156832695
0.022613491863012314,0.002716189017519355,-0.015377374365925789,0.0116646196693182,-0.0005674375570379198,0.019019514322280884
0.022928571328520775,0.0030286647379398346,-0.014987712725996971,0.012149396352469921,-0.0005960433627478778,0.01919829286634922
0.02274131029844284,0.0035311549436300993,-0.014833013527095318,0.012293806299567223,-0.0006171158165670931,0.01929742656648159
0.022650234401226044,0.0033333590254187584,-0.013337790034711361,0.012432584539055824,-0.0005771712749265134,0.019090590998530388
0.022606946527957916,0.0029424307867884636,-0.015027712099254131,0.012476581148803234,-0.0006372217321768403,0.01923268288373947
0.022789722308516502,0.002692420268431306,-0.015409871935844421,0.012199013493955135,-0.0005905727157369256,0.021224673837423325
0.02326965145766735,0.0027939900755882263,-0.01521793007850647,0.012027858756482601,-0.000524100789334625,0.01897306740283966
0.02323436178267002,0.0029408170375972986,-0.015282941050827503,0.011805446818470955,-0.000550215772818774,0.01865873672068119
0.02343902550637722,0.003107804572209716,-0.015170312486588955,0.012015099637210369,-0.000571444455999881,0.018828092142939568
0.02302834577858448,0.003250107867643237,-0.015547478571534157,0.011910823173820972,-0.0005421460955403745,0.018806271255016327
0.023351870477199554,0.0028882059268653393,-0.01486202236264944,0.011450708843767643,-0.0005667799268849194,0.019303876906633377
0.0234359260648489,0.0030588272493332624,-0.014859105460345745,0.011958995833992958,-0.0005294916918501258,0.019288785755634308
0.02367410995066166,0.0035306366626173258,-0.014694667421281338,0.01183326169848442,-0.0005327211692929268,0.019066395238041878
0.023600095883011818,0.003089018166065216,-0.01538299210369587,0.01237769890576601,-0.0004367592337075621,0.01956850290298462
0.023271555081009865,0.0029158489778637886,-0.015655947849154472,0.012224148027598858,-0.00039810448652133346,0.019646501168608665
0.023685242980718613,0.0029333787970244884,-0.014579803682863712,0.012785214930772781,-0.0003657189372461289,0.019641369581222534
0.02413899637758732,0.0029121513944119215,-0.015362451784312725,0.012758179567754269,-0.00039658797322772443,0.01968543604016304
0.02422763779759407,0.003179387655109167,-0.01464352011680603,0.013017706573009491,-0.0003768550232052803,0.019770318642258644
0.023715149611234665,0.0027486581820994616,-0.01547939796000719,0.012384410947561264,-0.0003527454973664135,0.019740385934710503
0.02382771484553814,0.002789965132251382,-0.015377686358988285,0.012610758654773235,-0.000371775240637362,0.019712060689926147
0.023584360256791115,0.0030470762867480516,-0.015794578939676285,0.012611879967153072,-0.0003630473220255226,0.019976280629634857
0.023662125691771507,0.0031057335436344147,-0.016057046130299568,0.012072676792740822,-0.000344045547535643,0.020162897184491158
0.023662125691771507,0.0031057335436344147,-0.016057046130299568,0.012072676792740822,-0.000344045547535643,0.020162897184491158
0.02420148439705372,0.0032492426689714193,-0.01550623681396246,0.012108082883059978,-0.00032627509790472686,0.02024482935667038
0.025049852207303047,0.0033266167156398296,-0.015564784407615662,0.012442425824701786,-0.0003514797135721892,0.02023131772875786
0.024143898859620094,0.0030142730101943016,-0.015178932808339596,0.01268703117966652,-0.00033768219873309135,0.020007299259305
0.02424597553908825,0.003015831345692277,-0.01589488424360752,0.012326386757194996,-0.00032271945383399725,0.020397750660777092
0.022567637264728546,0.0030477293767035007,-0.015537828207015991,0.012555300258100033,-0.0003098267479799688,0.02069137804210186
0.024461453780531883,0.002950184978544712,-0.01632232964038849,0.012684300541877747,-0.0002721644123084843,0.02069495990872383
0.025012260302901268,0.00279228575527668,-0.015431767329573631,0.012671107426285744,-0.00025546635151840746,0.020537812262773514
0.02451157383620739,0.00283645186573267,-0.015732508152723312,0.013230628333985806,-0.0002772991138044745,0.020564280450344086
0.02458271011710167,0.0031426413916051388,-0.015665313228964806,0.012740792706608772,-0.00027437254902906716,0.02041824720799923
0.02475634030997753,0.0031498800963163376,-0.016196832060813904,0.01274198666214943,-0.00029400933999568224,0.021635953336954117
0.024836180731654167,0.0035319982562214136,-0.015819232910871506,0.012201101519167423,-0.0002906117297243327,0.020948201417922974
0.024712830781936646,0.0032836825121194124,-0.015933547168970108,0.013240466825664043,-0.0002978749107569456,0.02004436030983925
0.024540992453694344,0.0029839565977454185,-0.01632452756166458,0.01257397886365652,-0.00030345498817041516,0.020363586023449898
0.02442527934908867,0.0029371469281613827,-0.015804588794708252,0.01289029885083437,-0.00039266637759283185,0.02078648842871189
0.02468956634402275,0.0028831062372773886,-0.015945211052894592,0.012665076181292534,-0.0004482244548853487,0.021305358037352562
0.025495726615190506,0.002945719286799431,-0.015163632109761238,0.012765911407768726,-0.00041325544589199126,0.021462129428982735
0.025223087519407272,0.002750120824202895,-0.016188567504286766,0.012960469350218773,-0.00044920609798282385,0.02136741578578949
0.025101179257035255,0.00284397229552269,-0.015963565558195114,0.012539445422589779,-0.0004702547157648951,0.021592866629362106
0.024855930358171463,0.002926729153841734,-0.016397671774029732,0.012707358226180077,-0.0004841366608161479,0.02086661383509636
0.02499699406325817,0.0029337492305785418,-0.016621369868516922,0.012523925863206387,-0.0004845306684728712,0.02030625008046627
0.025657841935753822,0.0030826767906546593,-0.016444891691207886,0.012717820703983307,-0.0006562993512488902,0.02140161767601967
0.025256186723709106,0.0032284383196383715,-0.015815874561667442,0.013088456355035305,-0.0005974941304884851,0.02180391736328602
0.02576749585568905,0.0032514312770217657,-0.01633268967270851,0.012982954271137714,-0.0005387096316553652,0.02146744914352894
0.025820624083280563,0.003204014152288437,-0.01591874659061432,0.013009604066610336,-0.0005601574666798115,0.02178037539124489
0.025616277009248734,0.0033361727837473154,-0.016619190573692322,0.013663609512150288,-0.0005231661489233375,0.022400440648198128
0.02584778517484665,0.0031570694409310818,-0.01623985357582569,0.013390321284532547,-0.0005170731456018984,0.02251787856221199
0.025589175522327423,0.0029123646672815084,-0.016550682485103607,0.01346016488969326,-0.0005109764751978219,0.021408628672361374
0.025721920654177666,0.0031819224823266268,-0.016619769856333733,0.013568689115345478,-0.00047897116746753454,0.021184951066970825
0.02622038684785366,0.0033301333896815777,-0.015898004174232483,0.013654617592692375,-0.0004517625202424824,0.021581128239631653
0.02622038684785366,0.0033301333896815777,-0.015898004174232483,0.013654617592692375,-0.0004517625202424824,0.021581128239631653
0.026407752186059952,0.0035408800467848778,-0.01661451905965805,0.013276664540171623,-0.0004831287369597703,0.021585267037153244
0.026211047545075417,0.003355165245011449,-0.01622265949845314,0.01377726998180151,-0.0005077645182609558,0.0212611872702837
0.02602854184806347,0.003496684832498431,-0.017333630472421646,0.013294304721057415,-0.0004863402573391795,0.02156299352645874
0.026737095788121223,0.0032531791366636753,-0.016581058502197266,0.013660969212651253,-0.00048391876043751836,0.02180957794189453
0.026211176067590714,0.003555791452527046,-0.016643524169921875,0.01364734023809433,-0.00048042272101156414,0.02183145098388195
0.026189524680376053,0.0031999715138226748,-0.017261415719985962,0.013911829330027103,-0.0005525537417270243,0.021873200312256813
0.026802092790603638,0.003342625219374895,-0.016791660338640213,0.013858454301953316,-0.000661035010125488,0.02174774929881096
0.02662726119160652,0.0033779770601540804,-0.017130136489868164,0.013953208923339844,-0.0006174729787744582,0.023291049525141716
0.02561136521399021,0.0034613320603966713,-0.01633247174322605,0.013959567062556744,-0.0006418562261387706,0.021748535335063934
0.026390090584754944,0.0032396982423961163,-0.017039969563484192,0.014341120608150959,-0.0006656350451521575,0.021662961691617966
0.02678077481687069,0.0034536535385996103,-0.017508670687675476,0.014495068229734898,-0.000818793720100075,0.021886121481657028
0.026588981971144676,0.0036646611988544464,-0.01706290990114212,0.014439587481319904,-0.0008554580854251981,0.022061999887228012
0.02546505443751812,0.003728431649506092,-0.017649022862315178,0.01425924152135849,-0.0008630931843072176,0.02238907665014267
0.027311626821756363,0.0037332300562411547,-0.01727764494717121,0.01379989180713892,-0.0008675952558405697,0.022462479770183563
0.027298828586935997,0.0032957016956061125,-0.017148923128843307,0.013813058845698833,-0.0009222718072123826,0.02206660807132721
0.02738511934876442,0.0034575650934129953,-0.01735328696668148,0.014044222421944141,-0.0008094205404631793,0.02212340198457241
0.02685348503291607,0.0032854133751243353,-0.017305618152022362,0.013907313346862793,-0.0007159246015362442,0.022444993257522583
0.02603243850171566,0.0033434457145631313,-0.017099715769290924,0.01425362192094326,-0.0006324449786916375,0.022612111642956734
0.026655711233615875,0.0033863652497529984,-0.01741882413625717,0.01394984032958746,-0.000611413037404418,0.022684156894683838
0.027537064626812935,0.0036068507470190525,-0.017645858228206635,0.013684582896530628,-0.000594461162108928,0.02287418022751808
0.027051689103245735,0.0036915321834385395,-0.017111150547862053,0.013313784264028072,-0.0006027527269907296,0.0225453432649374
0.027217760682106018,0.0036750214640051126,-0.017171228304505348,0.013788193464279175,-0.0005726381787098944,0.022124044597148895
0.027936270460486412,0.003599135670810938,-0.01691020093858242,0.013303685933351517,-0.0004902169457636774,0.02278262749314308
0.02690408192574978,0.003671335754916072,-0.01740093342959881,0.013940499164164066,-0.0004733352398034185,0.023329326882958412
0.02729153446853161,0.0036941743455827236,-0.017410272732377052,0.013249021954834461,-0.0004689986817538738,0.023259667679667473
0.02729153446853161,0.0036941743455827236,-0.017410272732377052,0.013249021954834461,-0.0004689986817538738,0.023259667679667473
0.0268457792699337,0.0032943449914455414,-0.017130047082901,0.013778488151729107,-0.0004337148857302964,0.0222341138869524
0.027008526027202606,0.0030274256132543087,-0.01760830730199814,0.013284293003380299,-0.00045936647802591324,0.021850580349564552
0.027411790564656258,0.0029954444617033005,-0.016738543286919594,0.013859969563782215,-0.00043548308894969523,0.02213473804295063
0.02765517681837082,0.003117260755971074,-0.017115646973252296,0.013122527860105038,-0.00045067057362757623,0.02316132001578808
0.02767830528318882,0.003400626825168729,-0.01774442382156849,0.013382951728999615,-0.00043673711479641497,0.023365847766399384
0.027883050963282585,0.003384691895917058,-0.017003081738948822,0.013466693460941315,-0.00041257907287217677,0.023042989894747734
0.02818249724805355,0.0034098136238753796,-0.017575792968273163,0.014065248891711235,-0.00042883792775683105,0.022907834500074387
0.02802538312971592,0.003195389872416854,-0.017226725816726685,0.014083817601203918,-0.00042683864012360573,0.023568419739603996
0.027676451951265335,0.003499866696074605,-0.01742742583155632,0.013979239389300346,-0.00039215313154272735,0.02334170788526535
0.028147149831056595,0.003423909656703472,-0.01743721403181553,0.014829135499894619,-0.0004230926570016891,0.022692108526825905
0.027623821049928665,0.0034140266943722963,-0.017176510766148567,0.013285284861922264,-0.00040020543383434415,0.02207343652844429
0.02767929434776306,0.0031759419944137335,-0.017603401094675064,0.013306757435202599,-0.000430919521022588,0.022326841950416565
0.027708768844604492,0.0031930580735206604,-0.016991037875413895,0.01333761215209961,-0.0004571538302116096,0.021751554682850838
0.027848228812217712,0.0033657520543783903,-0.017252517864108086,0.013574567623436451,-0.0005287649109959602,0.022879708558321
0.028330858796834946,0.0034202057868242264,-0.01760805770754814,0.013147889636456966,-0.0005523492582142353,0.023749597370624542
0.02696189284324646,0.003540279343724251,-0.017125869169831276,0.0138733284547925,-0.0005825823755003512,0.02348441816866398
0.02869373746216297,0.0035035524051636457,-0.017121313139796257,0.014555180445313454,-0.0006065093330107629,0.02290170080959797
0.02869373746216297,0.0035035524051636457,-0.017121313139796257,0.014555180445313454,-0.0006065093330107629,0.02290170080959797
0.02828201837837696,0.0033316435292363167,-0.017556149512529373,0.014039816334843636,-0.0007199007668532431,0.023867907002568245
0.028328629210591316,0.003111547091975808,-0.016937045380473137,0.013694263063371181,-0.0007500584470108151,0.023966897279024124
0.027980152517557144,0.00315130059607327,-0.017445407807826996,0.013953737914562225,-0.000761292059905827,0.023686319589614868
0.0298183411359787,0.0032405818346887827,-0.017104696482419968,0.013951328583061695,-0.0006911055534146726,0.02386477030813694
0.0298183411359787,0.0032405818346887827,-0.017104696482419968,0.013951328583061695,-0.0006911055534146726,0.02386477030813694
0.029003595933318138,0.0036505726166069508,-0.017343847081065178,0.014001409523189068,-0.0006479735020548105,0.024206945672631264
0.029003595933318138,0.0036505726166069508,-0.017343847081065178,0.014001409523189068,-0.0006479735020548105,0.024206945672631264
0.028045952320098877,0.0038209990598261356,-0.016945192590355873,0.014266707934439182,-0.0006468616775237024,0.02389557473361492
0.029517702758312225,0.003516141092404723,-0.01757584512233734,0.015009974129498005,-0.0006814379012212157,0.02414632961153984
0.029517702758312225,0.003516141092404723,-0.01757584512233734,0.015009974129498005,-0.0006814379012212157,0.02414632961153984
0.029060056433081627,0.0032924863044172525,-0.01790459454059601,0.014394235797226429,-0.0006357263191603124,0.023710865527391434
0.029683297500014305,0.0035760810133069754,-0.01793038658797741,0.014936019666492939,-0.0006555217551067472,0.023803073912858963
0.03018922172486782,0.0037252900656312704,-0.017681069672107697,0.014552734792232513,-0.0006102878251112998,0.024244818836450577
0.03040703758597374,0.003738658269867301,-0.018167106434702873,0.01492752879858017,-0.0006566561060026288,0.02433086559176445
0.029225241392850876,0.0037225759588181973,-0.017735818400979042,0.01442398875951767,-0.0006882922607474029,0.02448558807373047
0.02925429865717888,0.0037969008553773165,-0.016733700409531593,0.01456544641405344,-0.0006171318236738443,0.024620259180665016
0.03014451451599598,0.003875895868986845,-0.018547648563981056,0.013901899568736553,-0.0006216780748218298,0.02446296252310276
0.030196940526366234,0.0038818763568997383,-0.018529396504163742,0.014544340781867504,-0.0005847127176821232,0.02434089407324791
0.030006663873791695,0.0038783173076808453,-0.01797688752412796,0.014002004638314247,-0.0005732903373427689,0.02392953634262085
0.030090607702732086,0.0034855427220463753,-0.01878623478114605,0.014851539395749569,-0.000562256493140012,0.024344513192772865
0.029873710125684738,0.003442915854975581,-0.01795610412955284,0.01432613842189312,-0.0005412270547822118,0.024769024923443794
0.03022792376577854,0.0035391724668443203,-0.018361952155828476,0.01489160768687725,-0.0005508975591510534,0.02499442733824253
0.03038295917212963,0.003602726384997368,-0.01809367723762989,0.014185800217092037,-0.0005405053379945457,0.025029074400663376
0.030239680781960487,0.0036139418371021748,-0.01784368045628071,0.014597500674426556,-0.0005704009672626853,0.024778394028544426
0.030255815014243126,0.0037315075751394033,-0.018478713929653168,0.014792914502322674,-0.0007097111665643752,0.025403043255209923
0.0305650532245636,0.003609258448705077,-0.01850561425089836,0.014499244280159473,-0.0008460505050607026,0.025300465524196625
0.03063328005373478,0.0035700977314263582,-0.018416494131088257,0.014957364648580551,-0.0007677522371523082,0.02532229572534561
0.030667806044220924,0.004195946268737316,-0.01846381649374962,0.014339554123580456,-0.0007784714689478278,0.02591823972761631
0.030423587188124657,0.004155561327934265,-0.018712280318140984,0.014586606994271278,-0.0006989495595917106,0.025013625621795654
0.030423587188124657,0.004155561327934265,-0.018712280318140984,0.014586606994271278,-0.0006989495595917106,0.025013625621795654
0.030820898711681366,0.0034989870619028807,-0.01882288046181202,0.0145610012114048,-0.0007068265695124865,0.025087356567382812
0.030835991725325584,0.003435774240642786,-0.01874649152159691,0.015016661956906319,-0.0006531680701300502,0.02563704550266266
0.03115067631006241,0.00435255141928792,-0.018743053078651428,0.014508025720715523,-0.0006179852643981576,0.025853145867586136
0.03149809315800667,0.0042230295948684216,-0.018957674503326416,0.014717886224389076,-0.0006320825195871294,0.024496151134371758
0.03134579211473465,0.003920267801731825,-0.017797498032450676,0.01469111442565918,-0.0006355541408993304,0.024228112772107124
0.03140304610133171,0.0038155512884259224,-0.018612880259752274,0.01517917774617672,-0.0006599798216484487,0.02559627965092659
0.03143928945064545,0.003838535398244858,-0.01873820088803768,0.01516321487724781,-0.0006424903986044228,0.026131296530365944
0.03172013908624649,0.004241824150085449,-0.01846507005393505,0.015252025797963142,-0.000592312659136951,0.025477364659309387
0.03162485361099243,0.004251356236636639,-0.0191179271787405,0.01568806730210781,-0.0006737501244060695,0.025680024176836014
0.03216753154993057,0.004113746341317892,-0.019058283418416977,0.015505552291870117,-0.0006046335911378264,0.027220966294407845
0.0321909636259079,0.0040359292179346085,-0.01840905472636223,0.015177443623542786,-0.0005852986359968781,0.02660827897489071
0.03211723268032074,0.0039503732696175575,-0.018994636833667755,0.014579437673091888,-0.0005693003186024725,0.02542779967188835
0.03251852095127106,0.0038931735325604677,-0.018442684784531593,0.015246553346514702,-0.0005592704983428121,0.024973340332508087
0.033340733498334885,0.0038933176547288895,-0.018456732854247093,0.015036225318908691,-0.0005483521963469684,0.02569153718650341
0.03345469757914543,0.00420927070081234,-0.019109131768345833,0.01563306152820587,-0.0005691501428373158,0.026933182030916214
0.02992900274693966,0.004259683191776276,-0.01866166666150093,0.015398779883980751,-0.0005358087946660817,0.02701997198164463
0.032403890043497086,0.0037419223226606846,-0.01883869618177414,0.015247163362801075,-0.0005234379786998034,0.02665400318801403
0.03349493071436882,0.0038588489405810833,-0.019229715690016747,0.014702499844133854,-0.0005407219869084656,0.02657400816679001
0.03252400830388069,0.0041827852837741375,-0.0189822968095541,0.015167033299803734,-0.0005109197809360921,0.026639975607395172
0.03318360820412636,0.00407918356359005,-0.01864475943148136,0.014738650992512703,-0.00046799928531982005,0.026220543310046196
0.034368693828582764,0.0038908435963094234,-0.019088540226221085,0.015867477282881737,-0.0004974192124791443,0.026813507080078125
0.03213208168745041,0.0038403761573135853,-0.019209017977118492,0.014963872730731964,-0.0004929843125864863,0.026389049366116524
0.03334495425224304,0.004017947241663933,-0.019645335152745247,0.014137624762952328,-0.0005452107870951295,0.02660203166306019
0.033655937761068344,0.0039050141349434853,-0.019162222743034363,0.014783917926251888,-0.0006006172043271363,0.02713577263057232
0.033980559557676315,0.0037004381883889437,-0.01915697567164898,0.01426316611468792,-0.0006323505658656359,0.026907648891210556
0.03371395170688629,0.003498926293104887,-0.019400766119360924,0.014989430084824562,-0.0006573452265001833,0.026819035410881042
0.03371395170688629,0.003498926293104887,-0.019400766119360924,0.014989430084824562,-0.0006573452265001833,0.026819035410881042
0.03358263149857521,0.0036000057589262724,-0.018975665792822838,0.01513576228171587,-0.000793851853813976,0.02680610492825508
0.03324980288743973,0.0038117768708616495,-0.0199067872017622,0.015415073372423649,-0.0008352111908607185,0.02700326032936573
0.03326062113046646,0.004015348851680756,-0.019179346039891243,0.015155753120779991,-0.0007311502122320235,0.02730160392820835
0.03326062113046646,0.004015348851680756,-0.019179346039891243,0.015155753120779991,-0.0007311502122320235,0.02730160392820835
0.033609602600336075,0.003862848272547126,-0.01927322894334793,0.015061590820550919,-0.0006443111342377961,0.027035273611545563
0.0338670089840889,0.003643736941739917,-0.019871382042765617,0.015278477221727371,-0.0006644537206739187,0.026606550440192223
0.033778272569179535,0.003618828719481826,-0.020447272807359695,0.015854645520448685,-0.0006062494358047843,0.026835281401872635
0.03355580195784569,0.0035263877362012863,-0.01954086311161518,0.015323950909078121,-0.0006267096614465117,0.027566077187657356
0.03364722803235054,0.003816520795226097,-0.019748615100979805,0.015278627164661884,-0.0005858527729287744,0.027614017948508263
0.033331498503685,0.0037810541689395905,-0.01939123496413231,0.01523841917514801,-0.0005022506229579449,0.02713594399392605
0.03285229206085205,0.003535584080964327,-0.019320515915751457,0.015836192294955254,-0.0005281924386508763,0.026271309703588486
0.03490745276212692,0.003617505542933941,-0.02013860084116459,0.015387033112347126,-0.0004905994283035398,0.02609933912754059
0.035603173077106476,0.0039878846146166325,-0.020533103495836258,0.015811722725629807,-0.000520046625752002,0.027290694415569305
0.034554194658994675,0.0039643775671720505,-0.020000088959932327,0.015793008729815483,-0.0005443898262456059,0.027608167380094528
0.032833032310009,0.0038636368699371815,-0.019960207864642143,0.016406655311584473,-0.0006831779610365629,0.027813520282506943
0.03381115943193436,0.004204214550554752,-0.020483167842030525,0.01675342582166195,-0.0007544318214058876,0.02812262810766697
0.03488178551197052,0.004129130393266678,-0.020389877259731293,0.01642349176108837,-0.0007831579423509538,0.027959248051047325
0.03455144912004471,0.0040563358925282955,-0.021108107641339302,0.016186410561203957,-0.0007900722557678819,0.027863025665283203
0.035192910581827164,0.003983654081821442,-0.021220656111836433,0.015507909469306469,-0.0008523486903868616,0.02704239822924137
0.0350976400077343,0.0044372607953846455,-0.021023279055953026,0.015841621905565262,-0.0008985917083919048,0.02714375965297222
0.03446856886148453,0.00449149077758193,-0.02011759951710701,0.015899866819381714,-0.0008350730058737099,0.02847946807742119
0.034184280782938004,0.004360920283943415,-0.0205977950245142,0.016055112704634666,-0.000839442596770823,0.028989277780056
0.03486873582005501,0.003985720686614513,-0.02135312743484974,0.01561841182410717,-0.0007620000396855175,0.028142301365733147
0.03511480242013931,0.0040964242070913315,-0.02104189433157444,0.015893101692199707,-0.0007104659453034401,0.028255566954612732
0.035231269896030426,0.004021256696432829,-0.02140324003994465,0.016239214688539505,-0.0006834621308371425,0.028462165966629982
0.03445669636130333,0.004290950018912554,-0.021351199597120285,0.016400987282395363,-0.0006539562018588185,0.028439143672585487
0.03499087691307068,0.004045737907290459,-0.021184878423810005,0.015751462429761887,-0.0006769594619981945,0.028241019695997238
0.03536983206868172,0.00446922704577446,-0.020923808217048645,0.015777651220560074,-0.0006812371429987252,0.028503036126494408
0.035575877875089645,0.004209241829812527,-0.021220076829195023,0.015239816159009933,-0.0006408230983652174,0.028640620410442352
0.035575877875089645,0.004209241829812527,-0.021220076829195023,0.015239816159009933,-0.0006408230983652174,0.028640620410442352
0.03546976298093796,0.004383584018796682,-0.021581502631306648,0.01565868780016899,-0.0006440814468078315,0.02881086990237236
0.03561257943511009,0.0041330549865961075,-0.021336810663342476,0.015614824369549751,-0.0006094872951507568,0.02847200632095337
0.0358114130795002,0.003962927032262087,-0.021349189803004265,0.01617392711341381,-0.0006183588993735611,0.02879703789949417
0.03575202822685242,0.004103089217096567,-0.021644430235028267,0.015997322276234627,-0.0005765228997915983,0.028125852346420288
0.03624430671334267,0.004248079843819141,-0.022003082558512688,0.016137171536684036,-0.0005859644734300673,0.028782041743397713
0.035965703427791595,0.004449147265404463,-0.021259238943457603,0.01644955575466156,-0.0005924536962993443,0.029062509536743164
0.03525477275252342,0.004591832868754864,-0.021247487515211105,0.016308888792991638,-0.000580732012167573,0.02911568246781826
0.03587290644645691,0.004116462077945471,-0.022145703434944153,0.016551455482840538,-0.0006667228299193084,0.029205700382590294
0.036546990275382996,0.003921159543097019,-0.022018739953637123,0.01577242836356163,-0.0006512351101264358,0.028974605724215508
0.03618480637669563,0.004313359037041664,-0.021716434508562088,0.015997452661395073,-0.0006752668996341527,0.028860624879598618
0.03619766980409622,0.004415586590766907,-0.021434860303997993,0.015973636880517006,-0.000615414697676897,0.02903834916651249
0.03632868826389313,0.004233625717461109,-0.021548183634877205,0.016399241983890533,-0.0006353531498461962,0.028902143239974976
0.03677970916032791,0.004106496460735798,-0.022361135110259056,0.01667974703013897,-0.0005882789846509695,0.028851758688688278
0.036504097282886505,0.0045739468187093735,-0.022198917344212532,0.01657720096409321,-0.0006527766236104071,0.028882160782814026
0.03657153248786926,0.004644088912755251,-0.02154100127518177,0.01673940010368824,-0.0006872746162116528,0.02902010828256607
0.03616427257657051,0.004305108450353146,-0.021810119971632957,0.016291974112391472,-0.0006985398940742016,0.029154449701309204
0.03687198460102081,0.0044860998168587685,-0.021920178085565567,0.01699184626340866,-0.0006505057099275291,0.029105374589562416
0.037807464599609375,0.004280547611415386,-0.02158113196492195,0.017458375543355942,-0.0006693546893075109,0.029203014448285103
0.03740502521395683,0.004311424680054188,-0.02130074054002762,0.01706933043897152,-0.0007549493457190692,0.02987630106508732
0.035540319979190826,0.004488701466470957,-0.021230682730674744,0.016862649470567703,-0.000806647352874279,0.03008575178682804
0.03710252791643143,0.004236653912812471,-0.021209631115198135,0.01625584065914154,-0.0008304827497340739,0.028302446007728577
0.03790659084916115,0.0038288442883640528,-0.021037593483924866,0.015961358323693275,-0.0009269093279726803,0.02884562499821186
0.03818611800670624,0.0037478250451385975,-0.02171376161277294,0.01659841649234295,-0.000939244229812175,0.029794631525874138
0.03696247935295105,0.004237018525600433,-0.0219518281519413,0.016293160617351532,-0.00083358702249825,0.02978440746665001
0.036405034363269806,0.0041653430089354515,-0.02114998549222946,0.01708720065653324,-0.000835716724395752,0.031049488112330437
0.037998031824827194,0.004154013004153967,-0.021335363388061523,0.017643027007579803,-0.0007442670175805688,0.03093791753053665
0.037998031824827194,0.004154013004153967,-0.021335363388061523,0.017643027007579803,-0.0007442670175805688,0.03093791753053665
0.03859373927116394,0.0040865009650588036,-0.021950706839561462,0.01697552762925625,-0.0007541324011981487,0.029043443500995636
0.037792712450027466,0.003905537072569132,-0.022088229656219482,0.01750865764915943,-0.0006877972045913339,0.02879701741039753
0.0388629175722599,0.004248128272593021,-0.021651241928339005,0.017114412039518356,-0.0006062042084522545,0.029909463599324226
0.03774058818817139,0.004203551448881626,-0.021182026714086533,0.017834395170211792,-0.0005852730828337371,0.03077762946486473
0.03747812658548355,0.004421824123710394,-0.021561678498983383,0.017726339399814606,-0.0006150687695480883,0.03018905222415924
0.03840279579162598,0.00428256718441844,-0.022247163578867912,0.017200056463479996,-0.0006422254955396056,0.02976522408425808
