davideferrari95/blind_handover_controller/data/Test 257 - [2024-02-08 -- 12-46-22]/joint_states_data.csv
shoulder_pan_joint,shoulder_lift_joint,elbow_joint,wrist_1_joint,wrist_2_joint,wrist_3_joint
0.0050273495726287365,0.0061323558911681175,-0.007243399508297443,0.003068959340453148,-0.0,0.00538307148963213
0.004963776096701622,0.006552987731993198,-0.006438765209168196,0.0030318594072014093,-0.0,0.005512646399438381
0.004963776096701622,0.006552987731993198,-0.006438765209168196,0.0030318594072014093,-0.0,0.005512646399438381
0.0051135532557964325,0.006112264469265938,-0.006556540261954069,0.002910613315179944,-0.0,0.005091844126582146
0.0052867429330945015,0.006234422791749239,-0.00701955147087574,0.002830332377925515,-0.0,0.005207815207540989
0.005562160164117813,0.005032144486904144,-0.006815447472035885,0.00287414388731122,-0.0,0.005653545260429382
0.005166417453438044,0.007015555165708065,-0.006518309470266104,0.002837926847860217,-0.0,0.005643551237881184
0.005147935356944799,0.00608521094545722,-0.006157510448247194,0.0032675783149898052,-0.0,0.005806290078908205
0.005310275591909885,0.005018794909119606,-0.0066989269107580185,0.0031098141334950924,-0.0,0.005243850406259298
0.005148446653038263,0.0059818364679813385,-0.006875045131891966,0.0031264994759112597,-0.0,0.005155125632882118
0.0053661600686609745,0.00553789222612977,-0.00638884911313653,0.0027288433630019426,-0.0,0.005135939456522465
0.005273022688925266,0.005664939992129803,-0.006257557775825262,0.0025148652493953705,-0.0,0.005334070883691311
0.005791457369923592,0.006007962394505739,-0.006226597353816032,0.00240486697293818,-0.0,0.005524376407265663
0.005385469179600477,0.005766636226326227,-0.007200722582638264,0.002595212310552597,-0.0,0.005532635375857353
0.005385469179600477,0.005766636226326227,-0.007200722582638264,0.002595212310552597,-0.0,0.005532635375857353
0.005021752789616585,0.005691800266504288,-0.006555876694619656,0.0029876655898988247,-0.0,0.005899451673030853
0.005759665742516518,0.005344443488866091,-0.006346455775201321,0.0029705355409532785,-0.0,0.005743775051087141
0.005531418602913618,0.005713184364140034,-0.006441917736083269,0.0029996614903211594,-0.0,0.005577485542744398
0.005250983871519566,0.005921981297433376,-0.006492563523352146,0.002911915769800544,-0.0,0.005205764435231686
0.005121756810694933,0.005968577694147825,-0.0066235181875526905,0.002609724411740899,-0.0,0.005924924276769161
0.005430507007986307,0.005617043934762478,-0.006976361386477947,0.002475275192409754,-0.0,0.005522600375115871
0.005101916380226612,0.0051649478264153,-0.006848389748483896,0.002306379145011306,-0.0,0.005168721079826355
0.00527915870770812,0.0053726257756352425,-0.006828681565821171,0.002386350417509675,-0.0,0.005364194978028536
0.005258922465145588,0.005454943981021643,-0.006629053503274918,0.002552842954173684,-0.0,0.005282572004944086
0.005032483953982592,0.0056272391229867935,-0.006670342292636633,0.0026008589193224907,-0.0,0.005374112166464329
0.004729690495878458,0.00524487579241395,-0.006827725097537041,0.00274626724421978,-0.0,0.0055602239444851875
0.004824288655072451,0.005256598349660635,-0.00726276682689786,0.0025967229157686234,-0.0,0.0051934802904725075
0.004889556206762791,0.005560033023357391,-0.006831733975559473,0.0024729440920054913,-0.0,0.0051476056687533855
0.005246859509497881,0.006029830314218998,-0.00715502118691802,0.002374557312577963,-0.0,0.005035686772316694
0.005023179575800896,0.005529750604182482,-0.0065898410975933075,0.0024222740903496742,-0.0,0.00541417533531785
0.00514256302267313,0.006078050471842289,-0.007086615543812513,0.0023512395564466715,-0.0,0.005824489053338766
0.004969271831214428,0.0054814512841403484,-0.006859086453914642,0.002464466029778123,-0.0,0.0058677480556070805
0.004837161861360073,0.005389486905187368,-0.006687827408313751,0.0023497832007706165,-0.0,0.005658067297190428
0.005103740841150284,0.0057993680238723755,-0.006123677361756563,0.002437029965221882,-0.0,0.0051389895379543304
0.005416488740593195,0.005889727268368006,-0.00642579747363925,0.0025537502951920033,-0.0,0.0051660421304404736
0.005034179892390966,0.005231441929936409,-0.007244478445500135,0.002420879900455475,-0.0,0.005251655355095863
0.0049590799026191235,0.005336147733032703,-0.006642757449299097,0.002519426867365837,-0.0,0.005293000023812056
0.0049590799026191235,0.005336147733032703,-0.006642757449299097,0.002519426867365837,-0.0,0.005293000023812056
0.0051643820479512215,0.005701601505279541,-0.0062606181018054485,0.0026646910700947046,-0.0,0.005229849833995104
0.004945110529661179,0.005273079499602318,-0.00717851473018527,0.0024066900368779898,-0.0,0.005663163028657436
0.0054071503691375256,0.005177737679332495,-0.007825860753655434,0.002363970736041665,-0.0,0.005368546117097139
0.00525082740932703,0.005096217151731253,-0.006997229997068644,0.0021408500615507364,-0.0,0.0057473997585475445
0.005283667240291834,0.005692843347787857,-0.006099787540733814,0.0022308838088065386,-0.0,0.005409307777881622
0.005304299760609865,0.005339540541172028,-0.00605348963290453,0.002282001543790102,-0.0,0.00528199365362525
0.004873854573816061,0.005995971616357565,-0.007051577791571617,0.00228595151565969,-0.0,0.0054772598668932915
0.0049773454666137695,0.005647537298500538,-0.007432220969349146,0.0023853080347180367,-0.0,0.005121437832713127
0.005436568986624479,0.0053129419684410095,-0.007201382424682379,0.0021592113189399242,-0.0,0.005226567387580872
0.005174236837774515,0.005433546844869852,-0.006752003915607929,0.002206072909757495,-0.0,0.005142697133123875
0.005012840498238802,0.005251014139503241,-0.007319030351936817,0.002284823451191187,-0.0,0.005523974541574717
0.004947812296450138,0.005461402237415314,-0.007093696389347315,0.0024454097729176283,-0.0,0.005478182807564735
0.005676562432199717,0.0055250851437449455,-0.006675879471004009,0.0022202450782060623,-0.0,0.005352361593395472
0.005437357816845179,0.005090008955448866,-0.006841693073511124,0.002294610720127821,-0.0,0.005061994772404432
0.005319533403962851,0.004907908383756876,-0.007450418081134558,0.0021657005418092012,-0.0,0.005257343407720327
0.005137721076607704,0.005823777988553047,-0.007478163577616215,0.0021688241977244616,-0.0,0.00544731505215168
0.004965354688465595,0.005578321870416403,-0.006936465390026569,0.00228359317407012,-0.0,0.005186766851693392
0.005184350069612265,0.005417429376393557,-0.006751874927431345,0.0021320257801562548,-0.0,0.005397368222475052
0.005009025800973177,0.00494102668017149,-0.007044958416372538,0.0022504834923893213,-0.0,0.00518008042126894
0.0059604160487651825,0.005104733165353537,-0.008125568740069866,0.0021162249613553286,-0.0,0.005404156167060137
0.005480743944644928,0.005428464151918888,-0.006820617243647575,0.002211269922554493,-0.0,0.0055099790915846825
0.005343922879546881,0.0053006564266979694,-0.006402617786079645,0.0021698002237826586,-0.0,0.005268326960504055
0.005479632411152124,0.005312534049153328,-0.006862579379230738,0.0020959312096238136,-0.0,0.005304964259266853
0.0050252871587872505,0.0050721969455480576,-0.007846938446164131,0.0021560147870332003,-0.0,0.005136738996952772
0.005004948936402798,0.005171645898371935,-0.0075093708001077175,0.0021060488652437925,-0.0,0.005724801681935787
0.005321992561221123,0.004935205914080143,-0.0070539251901209354,0.002276185667142272,-0.0,0.0055185481905937195
0.005152415484189987,0.005061022005975246,-0.0070679024793207645,0.002559332875534892,-0.0,0.005768115166574717
0.005334489047527313,0.0056858547031879425,-0.007477509323507547,0.002498982008546591,-0.0,0.005431309342384338
0.005334489047527313,0.0056858547031879425,-0.007477509323507547,0.002498982008546591,-0.0,0.005431309342384338
0.005032543558627367,0.0053480579517781734,-0.007642628159373999,0.0024537076242268085,-0.0,0.005426477640867233
0.004871401935815811,0.005346857476979494,-0.007300460711121559,0.0022084384690970182,-0.0,0.005522554274648428
0.0055876015685498714,0.005444674752652645,-0.007374458946287632,0.0020846750121563673,-0.0,0.0051522632129490376
0.005474448204040527,0.005003713071346283,-0.007206226699054241,0.0019141054945066571,-0.0,0.005618759896606207
0.005357660818845034,0.004959474317729473,-0.007263685576617718,0.001927063218317926,-0.0,0.005611883010715246
0.0051988279446959496,0.005218758247792721,-0.007672133855521679,0.0017944772262126207,-0.0,0.004666752181947231
0.005275200121104717,0.0048960731364786625,-0.007707302924245596,0.0018068357603624463,-0.0,0.0053835054859519005
0.005202750209718943,0.0046037472784519196,-0.007041466888040304,0.0017292223637923598,-0.0,0.00539940083399415
0.0053581721149384975,0.004640193190425634,-0.0074132587760686874,0.0018126709619536996,-0.0,0.00537132378667593
0.005495978053659201,0.0048227193765342236,-0.007808661554008722,0.0020047517027705908,-0.0,0.005216657649725676
0.005613704677671194,0.005204819142818451,-0.007702341303229332,0.0020281746983528137,-0.0,0.005628840532153845
0.0051106340251863,0.005098617170006037,-0.006897881627082825,0.0021853798534721136,-0.0,0.0054710786789655685
0.005301645491272211,0.00490608811378479,-0.006703530438244343,0.0020414546597748995,-0.0,0.005471708718687296
0.005637063644826412,0.0046228328719735146,-0.006757702678442001,0.0021447923500090837,-0.0,0.005728008691221476
0.005526465829461813,0.00451763765886426,-0.007470554672181606,0.0020188461057841778,-0.0,0.005429123993963003
0.005591293331235647,0.0046433210372924805,-0.007238559424877167,0.0020044646225869656,-0.0,0.005539099685847759
0.00548468716442585,0.004535794258117676,-0.007002980913966894,0.002165421610698104,-0.0,0.005559323821216822
0.00557668274268508,0.0049957470037043095,-0.007051045540720224,0.0021114980336278677,-0.0,0.005556929390877485
0.005786560475826263,0.005370683036744595,-0.00759340962395072,0.0020516226068139076,-0.0,0.005482952110469341
0.005737856961786747,0.0048656766302883625,-0.006497051566839218,0.0020019621588289738,-0.0,0.005675071384757757
0.0055588623508811,0.0043693180195987225,-0.0071889255195856094,0.0019522905349731445,-0.0,0.005404103081673384
0.005657639820128679,0.004415087401866913,-0.007008935324847698,0.0019241741392761469,-0.0,0.005428788717836142
0.005472428631037474,0.0041702124290168285,-0.007222307380288839,0.0018996294820681214,-0.0,0.005424985662102699
0.005637936759740114,0.004511385690420866,-0.0068510486744344234,0.0018920166185125709,-0.0,0.005483000539243221
0.005956626031547785,0.004772045649588108,-0.007121428847312927,0.0019318033009767532,-0.0,0.0055916886776685715
0.006095606368035078,0.005038517061620951,-0.006499066017568111,0.0019320532446727157,-0.0,0.005655927117913961
0.006119483150541782,0.004338377621024847,-0.006693795323371887,0.001969187520444393,-0.0,0.005398144945502281
0.006119483150541782,0.004338377621024847,-0.006693795323371887,0.001969187520444393,-0.0,0.005398144945502281
0.00571588147431612,0.0043518804013729095,-0.0070653208531439304,0.0020222521852701902,-0.0,0.005461291875690222
0.005989972967654467,0.0045472667552530766,-0.006817491725087166,0.0019244743743911386,-0.0,0.005265344399958849
0.005958816967904568,0.004435025621205568,-0.006677072960883379,0.0019867615774273872,-0.0,0.0051893386989831924
0.005551869515329599,0.004563610535115004,-0.006689273286610842,0.002026177477091551,-0.0,0.00562204560264945
0.006213728804141283,0.005034311208873987,-0.006922510452568531,0.0020630049984902143,-0.0,0.005473436322063208
0.00560119841247797,0.005061531439423561,-0.006515096873044968,0.0023260691668838263,-0.0,0.0058156950399279594
0.005690877791494131,0.004362256731837988,-0.00651121512055397,0.0020735315047204494,-0.0,0.0056905969977378845
0.00608132453635335,0.004993799142539501,-0.007308644708245993,0.0019384353654459119,-0.0,0.00588871818035841
0.005689605139195919,0.005173115525394678,-0.006814607884734869,0.0019416831200942397,-0.0,0.005842129699885845
0.005577857606112957,0.005033513065427542,-0.006517128087580204,0.0019061258062720299,-0.0,0.005544883199036121
0.005395614076405764,0.005288451444357634,-0.0065964763052761555,0.002134027425199747,-0.0,0.005631868727505207
0.005991966463625431,0.004951472859829664,-0.00690437201410532,0.0021848201286047697,-0.0,0.005502582993358374
0.005662756506353617,0.004785522352904081,-0.007315289694815874,0.0021260029170662165,-0.0,0.005798498168587685
0.005699914414435625,0.0049273171462118626,-0.006859969347715378,0.0018531393725425005,-0.0,0.00588485412299633
0.006092362571507692,0.005168855655938387,-0.006323067471385002,0.0018115881830453873,-0.0,0.0058727259747684
0.005646091885864735,0.004952658899128437,-0.0066359154880046844,0.0017878370126709342,-0.0,0.005984531715512276
0.005983531009405851,0.0055341580882668495,-0.007211471442133188,0.0019684128928929567,-0.0,0.006330899894237518
0.005796208046376705,0.005279337987303734,-0.006905105896294117,0.002074593910947442,-0.0,0.005866650491952896
0.0060628727078437805,0.004979648161679506,-0.006715480703860521,0.0020493753254413605,-0.0,0.005817219614982605
0.006482591852545738,0.005018492694944143,-0.005847231484949589,0.002154638059437275,-0.0,0.00542445806786418
0.005935808643698692,0.0049280342645943165,-0.006256730295717716,0.0020818195771425962,-0.0,0.005967714823782444
0.006483377888798714,0.004979385994374752,-0.007049430627375841,0.001987095922231674,-0.0,0.005541443824768066
0.005739145912230015,0.005648592486977577,-0.006495711859315634,0.0019427924416959286,-0.0,0.005903943907469511
0.005764399655163288,0.005159636959433556,-0.006213866174221039,0.0018934811232611537,-0.0,0.005781890358775854
0.006402898114174604,0.004907721187919378,-0.00627876864746213,0.0018775047501549125,-0.0,0.005885819438844919
0.005898780655115843,0.00472533842548728,-0.006785466335713863,0.00190863071475178,-0.0,0.005880104377865791
0.005898780655115843,0.00472533842548728,-0.006785466335713863,0.00190863071475178,-0.0,0.005880104377865791
0.006490879692137241,0.004675291944295168,-0.00728957774117589,0.0019493778236210346,-0.0,0.005985367577522993
0.00605591107159853,0.00520935608074069,-0.007084699347615242,0.0021329198498278856,-0.0,0.005704249255359173
0.005851906258612871,0.005394638981670141,-0.006422652862966061,0.001961610047146678,-0.0,0.005775460973381996
0.006190919782966375,0.005062545649707317,-0.0066092959605157375,0.0020048310980200768,-0.0,0.005504874512553215
0.006162444595247507,0.0048329392448067665,-0.007077482528984547,0.001906632911413908,-0.0,0.00574813736602664
0.006543687544763088,0.0050968509167432785,-0.006908651441335678,0.002108594635501504,-0.0,0.0064198169857263565
0.006334013305604458,0.004945209249854088,-0.006617460399866104,0.0020056352950632572,-0.0,0.006293696351349354
0.00599694112315774,0.005491869989782572,-0.006362529005855322,0.0019993558526039124,-0.0,0.006236168555915356
0.006577301770448685,0.0050907800905406475,-0.006613676901906729,0.0016828454099595547,-0.0,0.005764116533100605
0.006491533480584621,0.0053474572487175465,-0.006850487552583218,0.001673237537033856,-0.0,0.006118873134255409
0.006326280068606138,0.00509782787412405,-0.00690315430983901,0.0016651091864332557,-0.0,0.006396671291440725
0.006140625104308128,0.005431078374385834,-0.006562414113432169,0.0017731009284034371,-0.0,0.006272962316870689
0.006056781858205795,0.005221541505306959,-0.006627385970205069,0.0019881585612893105,-0.0,0.005949333775788546
0.006457505747675896,0.004951174836605787,-0.006483471021056175,0.002030240138992667,-0.0,0.005638516042381525
0.006710045505315065,0.005196571350097656,-0.0065186843276023865,0.002301342785358429,-0.0,0.005624041892588139
0.006910733878612518,0.00522509403526783,-0.00651160953566432,0.002399290446192026,-0.0,0.005787970032542944
0.006790873594582081,0.005105665419250727,-0.006689609494060278,0.0023247257340699434,-0.0,0.006265201140195131
0.0063600558787584305,0.005403198767453432,-0.006432554684579372,0.00215145293623209,-0.0,0.006323324982076883
0.00671152351424098,0.005159554537385702,-0.00635263416916132,0.0021227954421192408,-0.0,0.005779157392680645
0.0067159514874219894,0.005215553566813469,-0.006136858370155096,0.001941318390890956,-0.0,0.006269873585551977
0.006617126986384392,0.005227814894169569,-0.006580864079296589,0.0018988321535289288,-0.0,0.006839048583060503
0.0064685349352657795,0.005573469679802656,-0.006848430726677179,0.002011631615459919,-0.0,0.006464391481131315
0.006771056447178125,0.0052956342697143555,-0.006782812532037497,0.001979638123884797,-0.0,0.00626481045037508
0.006797756068408489,0.005134946666657925,-0.006211808416992426,0.001989139709621668,-0.0,0.0059226336888968945
0.007095776032656431,0.005707252770662308,-0.006132154725492001,0.001996078994125128,-0.0,0.005984384100884199
0.006478541065007448,0.00522891478613019,-0.007035511080175638,0.002098287455737591,-0.0,0.006939034443348646
0.00707815820351243,0.005444854963570833,-0.00698254955932498,0.0023670790251344442,-0.0,0.006869572214782238
0.007596217095851898,0.005155102349817753,-0.006438237614929676,0.0023617183323949575,-0.0,0.0064142546616494656
0.007596217095851898,0.005155102349817753,-0.006438237614929676,0.0023617183323949575,-0.0,0.0064142546616494656
0.006818062625825405,0.0053043910302221775,-0.0061205667443573475,0.0023332913406193256,-0.0,0.00567267183214426
0.006785833742469549,0.0055722263641655445,-0.006891473662108183,0.0021956402342766523,-0.0,0.005937832873314619
0.006753583904355764,0.005102618131786585,-0.006926878355443478,0.0020095929503440857,-0.0,0.006355780176818371
0.007282334845513105,0.005092273931950331,-0.0066149188205599785,0.0017201084410771728,-0.0,0.0065978351049125195
0.007055933121591806,0.005095821339637041,-0.006703877821564674,0.001644232077524066,-0.0,0.006429596338421106
0.006784302182495594,0.004938589408993721,-0.006530125625431538,0.0017757138703018427,-0.0,0.0063925874419510365
0.007267745211720467,0.005326881073415279,-0.0068939924240112305,0.0025007782969623804,-0.0,0.0062235756777226925
0.0069152070209383965,0.005152784287929535,-0.006766272243112326,0.0027286733966320753,-0.0,0.007166619412600994
0.007111466955393553,0.005260962061583996,-0.006662278436124325,0.002449894556775689,-0.0,0.005800499580800533
0.007120821624994278,0.00512118311598897,-0.007483330555260181,0.0023896382190287113,-0.0,0.0060150520876049995
0.0073494818061590195,0.005523983854800463,-0.007066832389682531,0.002326896646991372,-0.0,0.006414487957954407
0.007306093815714121,0.005373385269194841,-0.006675037555396557,0.0024221769999712706,-0.0,0.006611587014049292
0.00717640295624733,0.0050825150683522224,-0.0065796878188848495,0.0022422808688133955,-0.0,0.006490553263574839
0.006794818677008152,0.005136106163263321,-0.006921169813722372,0.002264635404571891,-0.0,0.0063514625653624535
0.007086767815053463,0.004847479518502951,-0.007273190189152956,0.002091985894367099,-0.0,0.006274607963860035
0.0072607193142175674,0.004695016425102949,-0.006788949947804213,0.002174129243940115,-0.0,0.006372053641825914
0.007192446384578943,0.004957679659128189,-0.006402949802577496,0.0021332609467208385,-0.0,0.006475638132542372
0.007154418621212244,0.004863451700657606,-0.006868363823741674,0.0021402048878371716,-0.0,0.00661727087572217
0.007100701332092285,0.004879704676568508,-0.007402926217764616,0.0024391189217567444,-0.0,0.006424723658710718
0.007570731919258833,0.005012677051126957,-0.0066840751096606255,0.0026634354144334793,-0.0,0.0065764328464865685
0.007309796754270792,0.004927182570099831,-0.00668066693469882,0.0025596129707992077,-0.0,0.006613532081246376
0.007096848916262388,0.004819427616894245,-0.0068168374709784985,0.002472884487360716,-0.0,0.006446016486734152
0.007506853435188532,0.004751815460622311,-0.008044975809752941,0.002171132480725646,-0.0,0.006248933263123035
0.007586942985653877,0.004975588992238045,-0.007531174458563328,0.0020671854726970196,-0.0,0.006499756593257189
0.007620260119438171,0.005027623847126961,-0.006713970098644495,0.001921775285154581,-0.0,0.0068845925852656364
0.0071970755234360695,0.005157028790563345,-0.006423223298043013,0.002268477575853467,-0.0,0.006793068256229162
0.007043452933430672,0.004960293881595135,-0.007119849324226379,0.002505055395886302,-0.0,0.0063936770893633366
0.007835464552044868,0.004806555807590485,-0.0073218801990151405,0.002501922193914652,-0.0,0.006337026599794626
0.007835464552044868,0.004806555807590485,-0.0073218801990151405,0.002501922193914652,-0.0,0.006337026599794626
0.0071050748229026794,0.0051430449821054935,-0.006573845632374287,0.0023928771261125803,-0.0,0.0068136779591441154
0.0071050748229026794,0.0051430449821054935,-0.006573845632374287,0.0023928771261125803,-0.0,0.0068136779591441154
0.007301238365471363,0.0050081065855920315,-0.007121477276086807,0.0023093007039278746,-0.0,0.006804156582802534
0.00745629845187068,0.004481631796807051,-0.0074323201552033424,0.002435089321807027,-0.0,0.006934146862477064
0.007253591436892748,0.004410894121974707,-0.006837590131908655,0.0025733551010489464,-0.0,0.007001119200140238
0.007224824745208025,0.004524941556155682,-0.007181408349424601,0.0024460754357278347,-1.0100081908603897e-06,0.006875454913824797
0.007651543710380793,0.004780896939337254,-0.007651957683265209,0.0023173466324806213,-6.594631685175045e-08,0.006657301913946867
0.007441459223628044,0.004749702755361795,-0.007404759991914034,0.002483464078977704,-2.811395005686279e-10,0.007041591685265303
0.007208846975117922,0.004871072247624397,-0.006953140255063772,0.0024015079252421856,-1.8356399733576723e-11,0.006786064710468054
0.007369562052190304,0.004666821099817753,-0.007372284773737192,0.002392946742475033,-1.1985416999149567e-12,0.006958446931093931
0.007368498481810093,0.004653753712773323,-0.008113947696983814,0.002634977689012885,-7.825620170322581e-14,0.006820854730904102
0.007334748283028603,0.005174687597900629,-0.007547739893198013,0.0026218905113637447,-5.109570400249272e-15,0.007046977523714304
0.0071686552837491035,0.004982376005500555,-0.007498924620449543,0.002653902629390359,-3.336184581851075e-16,0.007013289257884026
0.008196147158741951,0.005076578352600336,-0.007821280509233475,0.0027075002435594797,-2.178290311343875e-17,0.007259255740791559
0.007854432798922062,0.005030037369579077,-0.007932845503091812,0.0027084634639322758,-1.4222678903062063e-18,0.007346423342823982
0.0074734981171786785,0.004799379035830498,-0.0075760199688375,0.002435133093968034,-9.286392906910289e-20,0.006994092836976051
0.007336510345339775,0.00476460438221693,-0.007430014666169882,0.002308470197021961,-6.0633510200809e-21,0.007377979811280966
0.008088253438472748,0.005091002210974693,-0.007632317487150431,0.0023446751292794943,-3.958934929779905e-22,0.0071778143756091595
0.007652494125068188,0.004880695603787899,-0.008249962702393532,0.0022937559988349676,-2.584901548904761e-23,0.006848015356808901
0.007446156814694405,0.004911016207188368,-0.0074134026654064655,0.0024253344163298607,-1.68775587659155e-24,0.006848253775388002
0.007605196442455053,0.005250637419521809,-0.006840002257376909,0.0026250393129885197,-1.1019839573684538e-25,0.007032699882984161
0.007571299560368061,0.004899149294942617,-0.007588420994579792,0.002541223308071494,-7.195167960897783e-27,0.007553453091531992
0.007605659309774637,0.004350336268544197,-0.008129834197461605,0.0025757565163075924,-4.697930542993506e-28,0.007423066068440676
0.007839701138436794,0.004527206066995859,-0.0074312156066298485,0.0025904576759785414,-3.0674129742447524e-29,0.007268284913152456
0.007561753503978252,0.005077539477497339,-0.0074744862504303455,0.002881002379581332,-1.307686213736099e-31,0.007689671125262976
0.007561753503978252,0.005077539477497339,-0.0074744862504303455,0.002881002379581332,-1.307686213736099e-31,0.007689671125262976
0.008235951885581017,0.005404513794928789,-0.00827582087367773,0.003142970148473978,-8.538256849127442e-33,0.0070337699726223946
0.00769861601293087,0.005466454196721315,-0.008262610994279385,0.0028597009368240833,-5.5748714983834525e-34,0.006376831792294979
0.00769861601293087,0.005466454196721315,-0.008262610994279385,0.0028597009368240833,-5.5748714983834525e-34,0.006376831792294979
0.008097968064248562,0.004973929841071367,-0.007888366468250751,0.002546892035752535,-3.6399928736618416e-35,0.0065287635661661625
0.007810561917722225,0.0045730420388281345,-0.007954045198857784,0.002372161252424121,-2.3766551085249027e-36,0.006846730597317219
0.008014149963855743,0.005015902686864138,-0.007641923148185015,0.0025479935575276613,-1.5517859242784478e-37,0.007291540037840605
0.007685367949306965,0.0054287719540297985,-0.007336503826081753,0.002520678099244833,-1.0132053513838982e-38,0.0072576492093503475
0.008040497079491615,0.005150602664798498,-0.007524996064603329,0.002789268968626857,-6.615502024108175e-40,0.007228123489767313
0.008323741145431995,0.004863681737333536,-0.008446924388408661,0.0026634535752236843,-4.3195025162812486e-41,0.007333778310567141
0.00791927333921194,0.004642912186682224,-0.007097343448549509,0.002832637634128332,-1.8357009882655104e-43,0.007137398235499859
0.0076565854251384735,0.004714113660156727,-0.007184195797890425,0.003126424038782716,-1.2611686178923354e-44,0.007034477777779102
0.00817761942744255,0.005140736699104309,-0.008337977342307568,0.0031026063952594995,-1.401298464324817e-45,0.0073752510361373425
0.008228903636336327,0.005185742396861315,-0.007692696526646614,0.002707134000957012,-0.0,0.007533773314207792
0.008808419108390808,0.005066025536507368,-0.0073290555737912655,0.0027224598452448845,-0.0,0.0074234833009541035
0.008043157868087292,0.004801890812814236,-0.008063036948442459,0.0027831480838358402,-0.0,0.0071103558875620365
0.008090153336524963,0.004785354249179363,-0.008052374236285686,0.002894022734835744,-0.0,0.007789018098264933
0.008238064125180244,0.005113901570439339,-0.00754547631368041,0.0028032248374074697,-0.0,0.007844987325370312
0.009065103717148304,0.005490400828421116,-0.007419844623655081,0.0027706180699169636,-0.0,0.007236648350954056
0.008612546138465405,0.005156946834176779,-0.007591219153255224,0.0027220468036830425,-0.0,0.007171185687184334
0.008270660415291786,0.0049129812978208065,-0.007420490495860577,0.002804460469633341,-0.0,0.007889112457633018
0.00833661574870348,0.004820709116756916,-0.007765964139252901,0.003265255130827427,-0.0,0.007931962609291077
0.008589858189225197,0.004764477722346783,-0.008185165002942085,0.0031279590912163258,-0.00010869962716242298,0.007524458691477776
0.008413980714976788,0.004745804704725742,-0.007803450804203749,0.0031928473617881536,-0.00012010083446511999,0.007785007357597351
0.00798176322132349,0.005062411539256573,-0.00818226020783186,0.003102291841059923,-0.00011837069178000093,0.007897580042481422
0.008737982250750065,0.005048339255154133,-0.0077322921715676785,0.0028183036483824253,-0.0001158892409875989,0.00746429106220603
0.008553474210202694,0.004847434349358082,-0.007820960134267807,0.002747818361967802,-0.00011345803795848042,0.0071197147481143475
0.008186847902834415,0.005057522561401129,-0.00832720659673214,0.0027942650485783815,-0.00011112364154541865,0.007869578897953033
0.007710653357207775,0.00501801585778594,-0.0077735185623168945,0.0027524568140506744,-0.0001088828212232329,0.008310692384839058
0.008753834292292595,0.004813219420611858,-0.007375337183475494,0.002803785726428032,-0.0001067307821358554,0.007821338251233101
0.008880955167114735,0.005186404101550579,-0.008071234449744225,0.002810359001159668,-0.00010466208914294839,0.0074717821553349495
0.008639613166451454,0.005162722431123257,-0.008425901643931866,0.0030174008570611477,-0.00011864524276461452,0.00802942831069231
0.008639613166451454,0.005162722431123257,-0.008425901643931866,0.0030174008570611477,-0.00011864524276461452,0.00802942831069231
0.008552715182304382,0.004431936424225569,-0.007497628219425678,0.0031168314162641764,-0.0001153911798610352,0.008327335119247437
0.008552715182304382,0.004431936424225569,-0.007497628219425678,0.0031168314162641764,-0.0001153911798610352,0.008327335119247437
0.008734588511288166,0.005007951520383358,-0.007563409395515919,0.0030650030821561813,-0.00011331984569551423,0.007779625244438648
0.008690457791090012,0.004565184935927391,-0.00800440926104784,0.0030056359246373177,-0.00011131785140605643,0.007128724828362465
0.008853225037455559,0.004552896600216627,-0.007708326447755098,0.003017088631168008,-0.00010938508785329759,0.008008351549506187
0.009089685045182705,0.00517704151570797,-0.007401834707707167,0.0030900912825018167,-0.00010751820082077757,0.008629712276160717
0.008749923668801785,0.0049172998405992985,-0.007600347511470318,0.003017580835148692,-0.00010571403981884941,0.008199368603527546
0.008944142609834671,0.004400809295475483,-0.00802889559417963,0.002856798004359007,-0.00011664319754345343,0.008689923211932182
0.00869385339319706,0.004393036011606455,-0.007734389975667,0.0029969634488224983,-0.00011500943219289184,0.008496806025505066
0.009468520060181618,0.004639181308448315,-0.008383380249142647,0.0032789153046905994,-0.0001132158431573771,0.008045664988458157
0.010116488672792912,0.004905720241367817,-0.007781167048960924,0.0036801439709961414,-0.00011146422912133858,0.008664253167808056
0.008910350501537323,0.004874344915151596,-0.007722606882452965,0.0037643578834831715,-0.00010976502380799502,0.00840122438967228
0.00985682476311922,0.004620410036295652,-0.007664327044039965,0.003573887748643756,-0.00010811675747390836,0.007803561631590128
0.009247600100934505,0.004540923051536083,-0.008863958530128002,0.0033954589162021875,-0.00010651732009137049,0.008034992963075638
0.00965584721416235,0.004714926704764366,-0.007901514880359173,0.0031941928900778294,-0.00010496430331841111,0.007836837321519852
0.00991265568882227,0.004752690438181162,-0.008034136146306992,0.003370417281985283,-0.00010345617920393124,0.008008520118892193
0.009110680781304836,0.004645545035600662,-0.007863017730414867,0.003262969432398677,-0.00011389522114768624,0.007993093691766262
0.008932222612202168,0.005139084067195654,-0.008493414148688316,0.0032917470671236515,-0.00011308173998259008,0.00796927884221077
0.009417470544576645,0.005052737891674042,-0.007837816141545773,0.0034665362909436226,-0.00011157490371260792,0.008594850078225136
0.009591106325387955,0.004652791190892458,-0.0074514769949018955,0.003685958683490753,-0.00011006210843333974,0.008400560356676579
0.009578266181051731,0.004887591581791639,-0.0088528823107481,0.0035911486484110355,-0.00010858690075110644,0.008567934855818748
0.009310157969594002,0.004833619110286236,-0.008696157485246658,0.0035442791413515806,-0.00010715050302678719,0.008977703750133514
0.009563776664435863,0.004882476292550564,-0.008767014369368553,0.0032804100774228573,-0.0001327054196735844,0.008368125185370445
0.00940130464732647,0.004868457093834877,-0.008011087775230408,0.0032938257791101933,-0.00015461044677067548,0.008309047669172287
0.009231197647750378,0.0051147546619176865,-0.008505781181156635,0.003333987668156624,-0.00015193919534794986,0.0085828248411417
0.00989292562007904,0.004512033890932798,-0.008520002476871014,0.003563047619536519,-0.00014788763655815274,0.008654776960611343
0.009809956885874271,0.0045631458051502705,-0.008392727933824062,0.0037652100436389446,-0.0001439520565327257,0.008853643201291561
0.009573948569595814,0.004679450765252113,-0.008511234074831009,0.0038224831223487854,-0.00014021460083313286,0.009233014658093452
0.00996275246143341,0.004751814529299736,-0.0088811619207263,0.0038339991588145494,-0.00013666608720086515,0.009066388942301273
0.01028142124414444,0.005121875088661909,-0.008432246744632721,0.0038407007232308388,-0.0001525840925751254,0.008643215522170067
0.009497635997831821,0.004680390004068613,-0.00822439044713974,0.0038198218680918217,-0.00015157039160840213,0.008685298264026642
0.009497635997831821,0.004680390004068613,-0.00822439044713974,0.0038198218680918217,-0.00015157039160840213,0.008685298264026642
0.010284091345965862,0.004472160246223211,-0.008169288747012615,0.003343844087794423,-0.0001447848044335842,0.008796474896371365
0.00934852659702301,0.004645451903343201,-0.008077962324023247,0.003398718312382698,-0.00014153293159324676,0.008527474477887154
0.010116961784660816,0.004717521369457245,-0.008510611020028591,0.003721558256074786,-0.0001384227944072336,0.008831411600112915
0.010257416404783726,0.00427972013130784,-0.008736957795917988,0.003835062263533473,-0.0001354467385681346,0.009165497496724129
0.009756349958479404,0.004420584067702293,-0.008334257639944553,0.0038370389956980944,-0.0001502750237705186,0.008454138413071632
0.010129421949386597,0.004480304196476936,-0.008456693962216377,0.004223869182169437,-0.00014833197928965092,0.008559011854231358
0.010330932214856148,0.004556386731564999,-0.00923919677734375,0.004056532867252827,-0.00014541165728587657,0.009074236266314983
0.01000119186937809,0.004090868402272463,-0.008441639132797718,0.0038862358778715134,-0.00014253775589168072,0.008715779520571232
0.010859581641852856,0.004405467305332422,-0.008162331767380238,0.0038292123936116695,-0.00013977094204165041,0.00870632566511631
0.01019593607634306,0.004172118846327066,-0.008276546373963356,0.0038077854551374912,-0.00013710935309063643,0.0088337492197752
0.009973948821425438,0.004290045239031315,-0.008698320016264915,0.0040856110863387585,-0.00015024663298390806,0.00894851516932249
0.010625846683979034,0.005011823959648609,-0.008641396649181843,0.004229333251714706,-0.00014851585729047656,0.009135949425399303
0.01021086610853672,0.004505131393671036,-0.008634081110358238,0.004499992821365595,-0.0001459073246223852,0.008687132969498634
0.010431754402816296,0.004478744231164455,-0.009132769890129566,0.004179740324616432,-0.0001433299039490521,0.008801230229437351
0.010124029591679573,0.004197180736809969,-0.008668934926390648,0.003907472360879183,-0.000140838063089177,0.008817863650619984
0.009884200990200043,0.004253183491528034,-0.007935212925076485,0.003819188801571727,-0.00013843098713550717,0.009019425138831139
0.01039904449135065,0.00420193187892437,-0.008886716328561306,0.0037751493509858847,-0.000167905876878649,0.009385955519974232
0.010490440763533115,0.004418318625539541,-0.008999205194413662,0.004043880850076675,-0.00016635925567243248,0.010117433033883572
0.010219513438642025,0.0046413131058216095,-0.008318590931594372,0.004188723396509886,-0.00016072123253252357,0.008461853489279747
0.010149120353162289,0.004563951399177313,-0.008830266073346138,0.0043238489888608456,-0.0001551975292386487,0.008493472822010517
0.010149120353162289,0.004563951399177313,-0.008830266073346138,0.0043238489888608456,-0.0001551975292386487,0.008493472822010517
0.010043798014521599,0.004069865215569735,-0.008620157837867737,0.004252468701452017,-0.0001594229688635096,0.009652749635279179
0.010366007685661316,0.004081560764461756,-0.009215069003403187,0.004008809570223093,-0.0001678081025602296,0.010035542771220207
0.010135245509445667,0.0041275289840996265,-0.00911593809723854,0.003874785266816616,-0.00016359549772460014,0.00977935642004013
0.010135245509445667,0.0041275289840996265,-0.00911593809723854,0.003874785266816616,-0.00016359549772460014,0.00977935642004013
0.010408545844256878,0.004473498556762934,-0.008888540789484978,0.003809930756688118,-0.000158840004587546,0.00949154980480671
0.009891210123896599,0.004745131358504295,-0.008462036028504372,0.004212662577629089,-0.00015430449275299907,0.009477728046476841
0.009690510109066963,0.004420139826834202,-0.008994474075734615,0.004259617067873478,-0.0001500177604611963,0.00960792787373066
0.00987287051975727,0.004018796607851982,-0.009078707545995712,0.004441098775714636,-0.00016398794832639396,0.009728401899337769
0.01087129209190607,0.004267417825758457,-0.008651911281049252,0.0042221699841320515,-0.00016539635544177145,0.010488067753612995
0.009945128113031387,0.00417703902348876,-0.008719959296286106,0.004233236890286207,-0.00016152842727024108,0.010102909058332443
0.010202888399362564,0.004040202125906944,-0.00887156743556261,0.003939608111977577,-0.00015367334708571434,0.009748797863721848
0.009886933490633965,0.004133658949285746,-0.008963939733803272,0.004286437761038542,-0.00015001434076111764,0.010453847236931324
0.009949459694325924,0.004408758599311113,-0.009465017355978489,0.0048508187755942345,-0.00014652493700850755,0.009453672915697098
0.01016136072576046,0.004201396834105253,-0.008878061547875404,0.005223092623054981,-0.00016228407912421972,0.00952902715653181
0.010003111325204372,0.003947710618376732,-0.008390591479837894,0.004913760349154472,-0.0001599243696546182,0.010381403379142284
0.009904514066874981,0.003825524589046836,-0.009421597234904766,0.004465389531105757,-0.00015652882575523108,0.010056264698505402
0.010582955554127693,0.00434299698099494,-0.009324603714048862,0.004505102057009935,-0.00015320345119107515,0.010046933777630329
0.009761864319443703,0.00415649451315403,-0.009312329813838005,0.004295198246836662,-0.00015001186693552881,0.009984082542359829
0.010222290642559528,0.004289750475436449,-0.009399957954883575,0.004419991746544838,-0.0001469498674850911,0.010682398453354836
0.010911442339420319,0.004279294051229954,-0.009508742019534111,0.005092274863272905,-0.0001628037862246856,0.0105734346434474
0.010027678683400154,0.004087468609213829,-0.008842602372169495,0.005177255719900131,-0.00017462621326558292,0.010475503280758858
0.010181237012147903,0.003897934453561902,-0.009862520731985569,0.00470266118645668,-0.0001692435471341014,0.009989146143198013
0.010299211367964745,0.004033548291772604,-0.009198841638863087,0.004446582403033972,-0.0001631828345125541,0.010135678574442863
0.009955097921192646,0.004078339319676161,-0.008838589303195477,0.004801774863153696,-0.00015747621364425868,0.010342550463974476
0.010736183263361454,0.004418781027197838,-0.00914283748716116,0.005006138700991869,-0.00015215152234304696,0.009924037382006645
0.010357900522649288,0.004126584157347679,-0.009836530312895775,0.004774552769958973,-0.00014717494195792824,0.010529394261538982
0.010485637001693249,0.004461591597646475,-0.00919883418828249,0.00494339456781745,-0.00014251323591452092,0.01025689672678709
0.010801931843161583,0.004464017227292061,-0.009340131655335426,0.005390992388129234,-0.00016211294860113412,0.010119476355612278
0.010175134055316448,0.00432008458301425,-0.009360573254525661,0.005100996233522892,-0.00016058982873801142,0.010560237802565098
0.010175134055316448,0.00432008458301425,-0.009360573254525661,0.005100996233522892,-0.00016058982873801142,0.010560237802565098
0.010382696986198425,0.004024602007120848,-0.009484638459980488,0.004442654084414244,-0.00015616070595569909,0.010601287707686424
0.010568181984126568,0.003876473056152463,-0.009270754642784595,0.004327764734625816,-0.00015178545436356217,0.010066434741020203
0.01019150298088789,0.0038110336754471064,-0.009460833854973316,0.004912387114018202,-0.0001476359466323629,0.00974354986101389
0.010852882638573647,0.004025190137326717,-0.008996715769171715,0.0052148522809147835,-0.00014370698772836477,0.009804027155041695
0.011349352076649666,0.004016330931335688,-0.009189991280436516,0.005350384395569563,-0.00015144106873776764,0.010531346313655376
0.010318580083549023,0.0038550239987671375,-0.010196094401180744,0.005206461530178785,-0.00015840984997339547,0.010300933383405209
0.010942371562123299,0.004248998127877712,-0.009215686470270157,0.005412622820585966,-0.0001515238982392475,0.009899378754198551
0.010981863364577293,0.004145659506320953,-0.010299807414412498,0.005663059651851654,-0.00014796778850723058,0.010815585032105446
0.011951396241784096,0.003989250864833593,-0.00977188628166914,0.005784240085631609,-0.00014457260840572417,0.010519049130380154
0.011483270674943924,0.003907653037458658,-0.009481114335358143,0.005208862945437431,-0.00016017045709304512,0.01090840995311737
0.011949332430958748,0.003898014547303319,-0.010524914599955082,0.005146327428519726,-0.00015788705786690116,0.010814216919243336
0.012589147314429283,0.004466358572244644,-0.00983566977083683,0.005134752485901117,-0.00015457742847502232,0.010872774757444859
0.01266034971922636,0.004477958660572767,-0.009620778262615204,0.005084874574095011,-0.0001513337338110432,0.01094781793653965
0.012380012311041355,0.0043078153394162655,-0.010085678659379482,0.005286486819386482,-0.0001482185471104458,0.010766198858618736
0.012204515747725964,0.004246308468282223,-0.009785356931388378,0.005245990585535765,-0.0001452288997825235,0.010319110937416553
0.012496143579483032,0.004179535433650017,-0.009907134808599949,0.00566059397533536,-0.00016848382074385881,0.010911455377936363
0.012766157276928425,0.00397436274215579,-0.010645465925335884,0.0053976839408278465,-0.00016610737657174468,0.009517297148704529
0.012515919283032417,0.004307406023144722,-0.010282179340720177,0.005038846749812365,-0.00016043589857872576,0.009727678261697292
0.012855425477027893,0.004619945771992207,-0.010051202028989792,0.005268907640129328,-0.00015492833335883915,0.010438711382448673
0.012579362839460373,0.0046820444986224174,-0.009970449842512608,0.005207962356507778,-0.00014977206592448056,0.010507994331419468
0.012746887281537056,0.00444077467545867,-0.010304751805961132,0.005774153862148523,-0.00014494748029392213,0.010512138716876507
0.012156359851360321,0.004063847474753857,-0.01043738704174757,0.00553506426513195,-0.0001404237700626254,0.010876496322453022
0.012795528396964073,0.004172757267951965,-0.01065960805863142,0.00529572693631053,-0.0001361740578431636,0.010872862301766872
0.012586252763867378,0.004040189553052187,-0.00965967308729887,0.005512699019163847,-0.00013217392552178353,0.011248883791267872
0.013018607161939144,0.004354541655629873,-0.010722667910158634,0.00606936402618885,-0.00012840231647714972,0.011266080662608147
0.013352124020457268,0.004538834095001221,-0.010210078209638596,0.005850910674780607,-0.00014651416859123856,0.011202909052371979
0.012913677841424942,0.0043030004017055035,-0.009600207209587097,0.005906401202082634,-0.0001455486344639212,0.01139008067548275
0.012913677841424942,0.0043030004017055035,-0.009600207209587097,0.005906401202082634,-0.0001455486344639212,0.01139008067548275
0.01278896164149046,0.004004705231636763,-0.010296816937625408,0.005396015476435423,-0.00014191812078934163,0.011023052036762238
0.012822050601243973,0.004343943204730749,-0.010793730616569519,0.005649109836667776,-0.0001382961345370859,0.011342895217239857
0.013464490883052349,0.0042738537304103374,-0.009764974936842918,0.005784622393548489,-0.00013484351802617311,0.011641476303339005
0.012177052907645702,0.004386641550809145,-0.009676221758127213,0.006205386482179165,-0.00013155836495570838,0.011591143906116486
0.012649968266487122,0.004456513095647097,-0.010259452275931835,0.005911900196224451,-0.0001470189745305106,0.011511892080307007
0.012898338958621025,0.004093772731721401,-0.009753611870110035,0.00581943616271019,-0.0001461695064790547,0.011243412271142006
0.012958046980202198,0.004130365327000618,-0.009815043769776821,0.0058455029502511024,-0.0001398543536197394,0.011864382773637772
0.013225674629211426,0.004250352270901203,-0.009621567092835903,0.005707041826099157,-0.0001368177472613752,0.011553707532584667
0.011787034571170807,0.004294539801776409,-0.009438001550734043,0.005377359688282013,-0.000133909605210647,0.011201451532542706
0.013499969616532326,0.0044342526234686375,-0.011170599609613419,0.005735105834901333,-0.00014739624748472124,0.011019241996109486
0.013965911231935024,0.004656862001866102,-0.010520885698497295,0.005956828128546476,-0.0001466383400838822,0.011264451779425144
0.013277599588036537,0.004809889011085033,-0.010286959819495678,0.006182241719216108,-0.00014385518443305045,0.01156862173229456
0.013630090281367302,0.004656048025935888,-0.010258907452225685,0.00631718197837472,-0.00016638776287436485,0.011545650660991669
0.013087240047752857,0.004248574376106262,-0.010255258530378342,0.005994840525090694,-0.00016855946159921587,0.011949319392442703
0.013463584706187248,0.003990356810390949,-0.011158140376210213,0.00616675429046154,-0.00016300247807521373,0.011722618713974953
0.013468953780829906,0.004253576975315809,-0.011133463121950626,0.0065014599822461605,-0.00015733818872831762,0.01218713540583849
0.013753298670053482,0.004661276005208492,-0.011324219405651093,0.00643395259976387,-0.00016692871577106416,0.01175135187804699
0.013216164894402027,0.004738817922770977,-0.011235449463129044,0.006434975657612085,-0.00017545510490890592,0.011630379594862461
0.01370171271264553,0.004790414124727249,-0.009911732748150826,0.00635891268029809,-0.00017081624537240714,0.01188808586448431
0.013331647031009197,0.004392553120851517,-0.010367867536842823,0.006139122415333986,-0.00016563614190090448,0.012018834240734577
0.013573483563959599,0.004169350955635309,-0.010799727402627468,0.0062806797213852406,-0.00018054695101454854,0.012218434363603592
0.013689357787370682,0.004149463959038258,-0.010307596065104008,0.0062958779744803905,-0.00018162232299800962,0.011909824796020985
0.013868662528693676,0.004551257472485304,-0.01078792754560709,0.005994734354317188,-0.0001769316295394674,0.012400244362652302
0.013866622932255268,0.004652487579733133,-0.010198080912232399,0.006382174789905548,-0.00019506261742208153,0.012624740600585938
0.013885091990232468,0.0046146707609295845,-0.010496249422430992,0.00676144240424037,-0.0001913755404530093,0.01231252308934927
0.013724211603403091,0.00419836537912488,-0.010998522862792015,0.0071861580945551395,-0.00018651565187610686,0.012448147870600224
0.013749375008046627,0.0038453738670796156,-0.011046914383769035,0.006890484131872654,-0.00024561514146625996,0.012205268256366253
0.014132990501821041,0.003938755951821804,-0.010437194257974625,0.0063396054320037365,-0.0002897203667089343,0.011865075677633286
0.01371078286319971,0.004002994857728481,-0.010864952579140663,0.006249792408198118,-0.0003236313059460372,0.01191889401525259
0.014132792130112648,0.003985563293099403,-0.010516188107430935,0.006968468893319368,-0.00031172699527814984,0.012220267206430435
0.014132792130112648,0.003985563293099403,-0.010516188107430935,0.006968468893319368,-0.00031172699527814984,0.012220267206430435
0.013993656262755394,0.0043068877421319485,-0.010438652709126472,0.007127630058676004,-0.0003409227938391268,0.013476288877427578
0.01431963685899973,0.00458927545696497,-0.01060271356254816,0.006640427280217409,-0.00032627765904180706,0.01245205570012331
0.014270533807575703,0.004709211643785238,-0.010327339172363281,0.006106776650995016,-0.00034879110171459615,0.01253412663936615
0.01449517346918583,0.00424392381682992,-0.011005538515746593,0.005989248398691416,-0.00033770111622288823,0.012846928089857101
0.014192624017596245,0.003910668194293976,-0.010473912581801414,0.006298976484686136,-0.0005133598460815847,0.012595592066645622
0.014360625296831131,0.00417085038498044,-0.010895631276071072,0.006373514421284199,-0.00048291293205693364,0.012328779324889183
0.014727599918842316,0.004862774629145861,-0.011081770993769169,0.006414078641682863,-0.0004785330093000084,0.012846576049923897
0.014299395494163036,0.004511613864451647,-0.011583159677684307,0.0062588974833488464,-0.00044186756713315845,0.012835117988288403
0.014840801246464252,0.004545092117041349,-0.011251081712543964,0.007023996207863092,-0.0004718575510196388,0.01319003477692604
0.014687594026327133,0.004272731952369213,-0.010127981193363667,0.007038823328912258,-0.0004428139654919505,0.013196034356951714
0.015098116360604763,0.004092603921890259,-0.01079024188220501,0.006979955360293388,-0.000468976708361879,0.013059381395578384
0.01468320656567812,0.003963918890804052,-0.010395367629826069,0.00687367981299758,-0.0005035769427195191,0.012480138801038265
0.014716431498527527,0.004353129770606756,-0.010314231738448143,0.006943028885871172,-0.0005538399564102292,0.012775484472513199
0.014615803956985474,0.004585082642734051,-0.011283122934401035,0.007422612048685551,-0.0005763405351899564,0.013441038317978382
0.014910521917045116,0.004385996609926224,-0.010763517580926418,0.0067318277433514595,-0.0005464818677864969,0.01309169176965952
0.01464150007814169,0.004571957979351282,-0.01038679014891386,0.006351916119456291,-0.0005568951601162553,0.012890012934803963
0.01520717516541481,0.0044257682748138905,-0.010458806529641151,0.006826745346188545,-0.0006647640839219093,0.012757410295307636
0.015102952718734741,0.004132658243179321,-0.010329104959964752,0.007184223737567663,-0.0007910508429631591,0.013145307078957558
0.015110614709556103,0.0044020237401127815,-0.011228460818529129,0.00718836160376668,-0.000811842386610806,0.012829702347517014
0.015046239830553532,0.004678170662373304,-0.011394771747291088,0.007449229247868061,-0.0008227849029935896,0.013497197069227695
0.014839098788797855,0.004789669532328844,-0.010235926136374474,0.006785206962376833,-0.0009908446809276938,0.013487466610968113
0.015143128111958504,0.004568697419017553,-0.010813544504344463,0.007235484663397074,-0.0011277302401140332,0.013892232440412045
0.015345084480941296,0.004538037348538637,-0.010394043289124966,0.008024274371564388,-0.0011376346228644252,0.0138440802693367
0.015423261560499668,0.004444255493581295,-0.010258207097649574,0.007269734051078558,-0.001295673195272684,0.013600743375718594
0.015415210276842117,0.004108330234885216,-0.010770739987492561,0.0067850337363779545,-0.0013403312768787146,0.013207904994487762
0.01577589102089405,0.003964843228459358,-0.010662495158612728,0.007201440166682005,-0.0013084104284644127,0.01329576876014471
0.01577589102089405,0.003964843228459358,-0.010662495158612728,0.007201440166682005,-0.0013084104284644127,0.01329576876014471
0.015387172810733318,0.004289783071726561,-0.010553303174674511,0.0070027802139520645,-0.0013525951653718948,0.01352870836853981
0.01592887192964554,0.004613932222127914,-0.01051550917327404,0.007150346878916025,-0.0014601636212319136,0.013677544891834259
0.015684373676776886,0.004521646071225405,-0.010832373052835464,0.007211252115666866,-0.0015173694118857384,0.014107102528214455
0.015624509193003178,0.0044790999963879585,-0.010521027259528637,0.007397169712930918,-0.00151747465133667,0.013681216165423393
0.015284987166523933,0.004120010416954756,-0.010897456668317318,0.007294641807675362,-0.0013890047557651997,0.013535835780203342
0.015464136376976967,0.003761471016332507,-0.010492048226296902,0.007313872221857309,-0.0012989991810172796,0.013629118911921978
0.015954267233610153,0.003544970415532589,-0.01047657709568739,0.007236177567392588,-0.0010893058497458696,0.013824465684592724
0.015761513262987137,0.0034990995191037655,-0.010299963876605034,0.00724906986579299,-0.0010276633547618985,0.013714199885725975
0.016178801655769348,0.0036626888904720545,-0.010302536189556122,0.0072893197648227215,-0.0009857387049123645,0.013806330040097237
0.016040802001953125,0.004185906611382961,-0.010801278986036777,0.007170169148594141,-0.0009627380641177297,0.013834777288138866
0.015572753734886646,0.003894659923389554,-0.010590896010398865,0.007726309821009636,-0.0009658974013291299,0.013996347784996033
0.016410818323493004,0.004145510029047728,-0.011011957190930843,0.007501902058720589,-0.001067264936864376,0.014712248928844929
0.016403155401349068,0.0042149038054049015,-0.009976298548281193,0.007393940351903439,-0.0012414433294907212,0.0134006068110466
0.01655782014131546,0.004083563107997179,-0.010753666050732136,0.007014981471002102,-0.0012361842673271894,0.013692952692508698
0.016514301300048828,0.0039766407571733,-0.011047146283090115,0.007327738218009472,-0.0010303541785106063,0.013779285363852978
0.016308637335896492,0.004017534665763378,-0.010798756033182144,0.007478071842342615,-0.0009895064868032932,0.014381775632500648
0.016887247562408447,0.004084005951881409,-0.011024955660104752,0.00779678812250495,-0.0008692761766724288,0.014289564453065395
0.016319936141371727,0.004571647383272648,-0.011171055026352406,0.0076129743829369545,-0.0008441298268735409,0.014609790407121181
0.01653674989938736,0.0043142312206327915,-0.011578286066651344,0.008226126432418823,-0.0007772246608510613,0.014098075218498707
0.016392817720770836,0.003952028229832649,-0.012356819584965706,0.008327505551278591,-0.0007028543041087687,0.014171428047120571
0.01674393191933632,0.004075204487890005,-0.011594675481319427,0.007778300903737545,-0.0006403669249266386,0.014184541068971157
0.0172561164945364,0.004191013053059578,-0.011824010871350765,0.007957511581480503,-0.000588021706789732,0.014250514097511768
0.016639715060591698,0.0043212249875068665,-0.011608714237809181,0.008174433372914791,-0.0005435872008092701,0.014265851117670536
0.01702238619327545,0.004574017133563757,-0.011462192982435226,0.007583998143672943,-0.0005062668933533132,0.014496926218271255
0.016847142949700356,0.004747631959617138,-0.012399062514305115,0.007269923109561205,-0.0003730800817720592,0.014529799111187458
0.01710817776620388,0.004592294339090586,-0.011831716634333134,0.007889235392212868,-0.0003389453049749136,0.01441513653844595
0.01714647002518177,0.004622424952685833,-0.012675442732870579,0.00786279421299696,-0.0003148208779748529,0.0141530130058527
0.017188411206007004,0.004677433054894209,-0.01234481856226921,0.007586099207401276,-0.00029419950442388654,0.014494194649159908
0.01756838709115982,0.004425887018442154,-0.012716192752122879,0.007373842876404524,-0.0002761351061053574,0.014721478335559368
0.017011111602187157,0.004563780035823584,-0.011929702945053577,0.007508666254580021,-0.0002601641172077507,0.014738724566996098
0.017011111602187157,0.004563780035823584,-0.011929702945053577,0.007508666254580021,-0.0002601641172077507,0.014738724566996098
0.017460444942116737,0.004342465195804834,-0.011916305869817734,0.007612693589180708,-0.000245938659645617,0.014398648403584957
0.017553549259901047,0.004436415154486895,-0.013022012077271938,0.008716429583728313,-0.00023318958119489253,0.014589299447834492
0.01716974377632141,0.0044443183578550816,-0.012289491482079029,0.00903001707047224,-0.00022169726435095072,0.014731988310813904
0.017687493935227394,0.004039163235574961,-0.012843000702559948,0.009126079268753529,-0.00021128510707058012,0.015043131075799465
0.017535513266921043,0.004405052866786718,-0.011856109835207462,0.00904882326722145,-0.00020180753199383616,0.014739605598151684
0.017655009403824806,0.004182139411568642,-0.012152030132710934,0.008832152932882309,-0.00019314377277623862,0.014951673336327076
0.017777062952518463,0.004416174255311489,-0.01238404680043459,0.00906496960669756,-0.0001851933338912204,0.014753766357898712
0.01800161600112915,0.004293115809559822,-0.012660844251513481,0.008591528981924057,-0.000171106934431009,0.015241584740579128
0.01786317117512226,0.0045122429728507996,-0.012118339538574219,0.008519727736711502,-0.0001648383040446788,0.015388328582048416
0.017908642068505287,0.004120094235986471,-0.012838614173233509,0.008551972918212414,-0.00015901305596344173,0.015204578638076782
0.01819915883243084,0.0044412086717784405,-0.012461409904062748,0.008496503345668316,-0.00015358523523900658,0.01551831141114235
0.017637625336647034,0.0046729836612939835,-0.012956840917468071,0.008201638236641884,-0.00014851585729047656,0.01552778109908104
0.017867976799607277,0.004310354590415955,-0.012654409743845463,0.008241105824708939,-0.00014377028855960816,0.015343643724918365
0.017939673736691475,0.00437130918726325,-0.013013508170843124,0.007674448192119598,-0.00013931861030869186,0.015084761194884777
0.018010208383202553,0.004562515765428543,-0.012902587652206421,0.007931886240839958,-0.00013513471640180796,0.015275978483259678
0.018305908888578415,0.004621016327291727,-0.012331490404903889,0.00892660766839981,-0.0001311943487962708,0.015452487394213676
0.017782870680093765,0.004348921123892069,-0.012866160832345486,0.008672059513628483,-0.0001274778478546068,0.015323705971240997
0.018108122050762177,0.004539803136140108,-0.012542406097054482,0.008154955692589283,-0.00012396562669891864,0.01606684923171997
0.0185544490814209,0.00427603954449296,-0.013313055038452148,0.008203195407986641,-0.00012064196198480204,0.014804384671151638
0.01776965707540512,0.004169268533587456,-0.012420110404491425,0.008933846838772297,-0.00011749199620680884,0.014951342716813087
0.018338575959205627,0.00483216205611825,-0.012620657682418823,0.009090491570532322,-0.00011450214515207335,0.015508235432207584
0.01870020292699337,0.004367226269096136,-0.012355120852589607,0.008548964746296406,-0.00011166078184032813,0.015617428347468376
0.017746295779943466,0.004485558718442917,-0.012422609142959118,0.008539656177163124,-0.00010895719606196508,0.015438899397850037
0.018228136003017426,0.004181243013590574,-0.01274661161005497,0.008723008446395397,-0.00010638127423590049,0.015882015228271484
0.01850619725883007,0.004470448940992355,-0.012126784771680832,0.008064815774559975,-0.00010392435069661587,0.01596643403172493
0.018354807049036026,0.004236225038766861,-0.012545655481517315,0.008077922277152538,-0.00010157853830605745,0.01588698849081993
0.019141582772135735,0.00425746152177453,-0.011967628262937069,0.008573254570364952,-9.933600813383237e-05,0.01580519787967205
0.018200373277068138,0.00457732193171978,-0.01259604748338461,0.008944353088736534,-9.719060471979901e-05,0.01602371595799923
0.018664807081222534,0.004283263348042965,-0.01241601537913084,0.008650693111121655,-9.513567056274042e-05,0.015639379620552063
0.018664807081222534,0.004283263348042965,-0.01241601537913084,0.008650693111121655,-9.513567056274042e-05,0.015639379620552063
0.018340816721320152,0.004452866036444902,-0.01262636948376894,0.008633228950202465,-9.316600335296243e-05,0.015513896942138672
0.016331611201167107,0.0045674643479287624,-0.013006052933633327,0.009439809247851372,-9.127624798566103e-05,0.016081295907497406
0.019184723496437073,0.004430021159350872,-0.012215456925332546,0.008986190892755985,-8.946164598455653e-05,0.01600557379424572
0.01918799988925457,0.004273174796253443,-0.012395006604492664,0.009127427823841572,-8.771769353188574e-05,0.015989983454346657
0.018712157383561134,0.004466632381081581,-0.012537350878119469,0.009465719573199749,-8.604054164607078e-05,0.01587589830160141
0.018806403502821922,0.004647093825042248,-0.013381710276007652,0.00951832439750433,-8.442629041383043e-05,0.01583944633603096
0.01854272000491619,0.004450493026524782,-0.012698420323431492,0.009494621306657791,-8.137297118082643e-05,0.016131151467561722
0.01939108967781067,0.0042760637588799,-0.01283925212919712,0.009339068084955215,-7.99275585450232e-05,0.016499705612659454
0.019596287980675697,0.004285809583961964,-0.012519663199782372,0.008907300420105457,-7.853276474634185e-05,0.016566162928938866
0.018802646547555923,0.00435550045222044,-0.012956948950886726,0.009393465705215931,-7.718559936620295e-05,0.01677726022899151
0.018902285024523735,0.004554064944386482,-0.012433864176273346,0.009165951982140541,-7.588408334413543e-05,0.01618335209786892
0.018768945708870888,0.004691289272159338,-0.01318582333624363,0.00879240408539772,-7.462564099114388e-05,0.016219886019825935
0.018705209717154503,0.004509488586336374,-0.012838716618716717,0.009231043048202991,-7.340828597079962e-05,0.01589828170835972
0.01927347667515278,0.0046517797745764256,-0.012739559635519981,0.009676508605480194,-7.222998101497069e-05,0.016291353851556778
0.01954965479671955,0.0043191066943109035,-0.012637958861887455,0.009090821258723736,-7.10889944457449e-05,0.016177674755454063
0.01934180036187172,0.004504574462771416,-0.0125759057700634,0.009396258741617203,-6.998343451414257e-05,0.01605917513370514
0.019831931218504906,0.004609965719282627,-0.012842210941016674,0.009165788069367409,-6.891167140565813e-05,0.016871696338057518
0.019649330526590347,0.004647403489798307,-0.012421333231031895,0.009153406135737896,-6.787231541238725e-05,0.016682203859090805
0.01889844238758087,0.004582543391734362,-0.012833815068006516,0.009317944757640362,-6.686378765152767e-05,0.01664554700255394
0.01946701854467392,0.003749437863007188,-0.0123696094378829,0.009715327061712742,-6.588487303815782e-05,0.016334667801856995
0.019920330494642258,0.003466595895588398,-0.013273803517222404,0.009862728416919708,-6.493419641628861e-05,0.01656774990260601
0.019764529541134834,0.0036214785650372505,-0.012384626083076,0.010307024233043194,-6.401049176929519e-05,0.016603216528892517
0.01980004273355007,0.004316259641200304,-0.012940265238285065,0.01006892416626215,-6.311274046311155e-05,0.01647886261343956
0.01984594389796257,0.004046815913170576,-0.012355396524071693,0.009994340129196644,-6.223990931175649e-05,0.017855005338788033
0.02003462240099907,0.0037891878746449947,-0.012653636746108532,0.009843637235462666,-6.139077595435083e-05,0.016556162387132645
0.020333854481577873,0.004328711424022913,-0.013111433014273643,0.009922326542437077,-6.0564561863429844e-05,0.016301801428198814
0.020372502505779266,0.004187606740742922,-0.012992770411074162,0.009852839633822441,-5.976024112896994e-05,0.016630079597234726
0.02025505155324936,0.003936463035643101,-0.01309318095445633,0.009933234192430973,-5.8977017033612356e-05,0.01676848903298378
0.02034570463001728,0.003886698978021741,-0.012403314933180809,0.010232703760266304,-5.821407830808312e-05,0.01703900843858719
0.02034570463001728,0.003886698978021741,-0.012403314933180809,0.010232703760266304,-5.821407830808312e-05,0.01703900843858719
0.02081964537501335,0.004036363214254379,-0.013119499199092388,0.009956130757927895,-5.7470646424917504e-05,0.01667160540819168
0.020597685128450394,0.004107209853827953,-0.012982443906366825,0.010229138657450676,-5.6745910114841536e-05,0.01693219505250454
0.02048054151237011,0.004050223156809807,-0.013081821613013744,0.009085753001272678,-5.53499958186876e-05,0.01713559590280056
0.020794901996850967,0.004022642038762569,-0.013702129013836384,0.00940524972975254,-5.46775154361967e-05,0.016963763162493706
0.02069721184670925,0.0036302939988672733,-0.013562233187258244,0.009792051278054714,-5.4021122195990756e-05,0.01733720488846302
0.02055922895669937,0.003516975324600935,-0.013149697333574295,0.00988958403468132,-5.338029222912155e-05,0.01767682284116745
0.020882826298475266,0.0040118638426065445,-0.013821715489029884,0.010029003024101257,-5.795627657789737e-05,0.017546221613883972
0.021215632557868958,0.004214023239910603,-0.013482299633324146,0.010029809549450874,-6.22226289124228e-05,0.01773095689713955
0.0206487774848938,0.004056713543832302,-0.013875512406229973,0.009859036654233932,-6.183235382195562e-05,0.017572710290551186
0.02086547575891018,0.003915239125490189,-0.013566148467361927,0.01023956574499607,-6.115317955845967e-05,0.017444072291254997
0.021130060777068138,0.003922687377780676,-0.014066668227314949,0.01000971719622612,-6.046979615348391e-05,0.01753603294491768
0.021580025553703308,0.003917373716831207,-0.013294833712279797,0.00988175068050623,-5.980025161989033e-05,0.017504410818219185
0.021234314888715744,0.004283789545297623,-0.014033294282853603,0.010706562548875809,-7.702822585997637e-06,0.017680175602436066
0.02131585404276848,0.004174251575022936,-0.01228446513414383,0.010517923161387444,-5.029393150834949e-07,0.01788509078323841
0.021798696368932724,0.003588469233363867,-0.01471772138029337,0.009811313822865486,-3.2838340047192105e-08,0.018255462870001793
0.021786710247397423,0.003541068872436881,-0.013891736976802349,0.010472382418811321,-2.1441091124785316e-09,0.018744105473160744
0.021552519872784615,0.004161184187978506,-0.014130143448710442,0.010409194976091385,-1.3999500170225332e-10,0.017989423125982285
0.02157970704138279,0.004138987045735121,-0.01398136094212532,0.010316667146980762,-9.140673461194293e-12,0.01783800683915615
0.020697396248579025,0.004000316374003887,-0.014711039140820503,0.010341698303818703,-5.968206614678784e-13,0.017270466312766075
0.02177632972598076,0.003939741291105747,-0.013769985176622868,0.01049462053924799,-4.390965841594152e-05,0.017276348546147346
0.022132227197289467,0.0035248752683401108,-0.01436750590801239,0.010959286242723465,-5.073961438029073e-05,0.017664747312664986
0.02182306908071041,0.0035581588745117188,-0.01373421773314476,0.011219763197004795,-5.8178244216833264e-05,0.017942851409316063
0.02217218279838562,0.0041858237236738205,-0.0141828628256917,0.010365442372858524,-5.9967216657241806e-05,0.018323369324207306
0.022688312456011772,0.0041069211438298225,-0.014118539169430733,0.010273716412484646,-3.2614658266538754e-05,0.018440837040543556
0.022098777815699577,0.003919295966625214,-0.0142643628641963,0.010496413335204124,-2.12950408240431e-06,0.018070077523589134
0.02131129801273346,0.0038635171949863434,-0.013968590646982193,0.01012060884386301,-1.3904140416798327e-07,0.01811007410287857
0.021736320108175278,0.004011822398751974,-0.014618338085711002,0.010835218243300915,-0.0004644198343157768,0.018199509009718895
0.021736320108175278,0.004011822398751974,-0.014618338085711002,0.010835218243300915,-0.0004644198343157768,0.018199509009718895
0.02213488519191742,0.0035531024914234877,-0.01411027368158102,0.010709647089242935,-0.000619496451690793,0.018516523763537407
0.022287383675575256,0.0035883276723325253,-0.014237846247851849,0.010582385584712029,-0.0005854064365848899,0.01809285581111908
0.021908363327383995,0.004160249140113592,-0.014417034573853016,0.01022469624876976,-0.0006005653995089233,0.017779342830181122
0.022898249328136444,0.004036192782223225,-0.013815169222652912,0.010512840934097767,-0.000587967864703387,0.017523949965834618
0.022660575807094574,0.003498848993331194,-0.014469590969383717,0.010830889455974102,-0.0005457786610350013,0.01788748987019062
0.021827248856425285,0.003588987048715353,-0.014400217682123184,0.0100667430087924,-0.0005853411857970059,0.017592623829841614
0.022419877350330353,0.003805040381848812,-0.01466213446110487,0.010378571227192879,-0.0005810681032016873,0.01861199364066124
0.022374022752046585,0.0038944671396166086,-0.014222139492630959,0.010235304944217205,-0.000566492963116616,0.018614336848258972
0.022246558219194412,0.00381083064712584,-0.01480361633002758,0.01057314034551382,-0.0005567854386754334,0.01874428428709507
0.022409826517105103,0.0037761731073260307,-0.013856073841452599,0.01053223479539156,-0.0005461035179905593,0.018752971664071083
0.022574443370103836,0.003758347826078534,-0.014684967696666718,0.010425685904920101,-0.000504781142808497,0.018471110612154007
0.022737734019756317,0.0037666892167180777,-0.014360480941832066,0.009755686856806278,-0.0005295880255289376,0.01863681711256504
0.02284667082130909,0.004206114914268255,-0.014974554069340229,0.010271912440657616,-0.0004970325971953571,0.01859280653297901
0.022679978981614113,0.0041578286327421665,-0.014521325007081032,0.01075055543333292,-0.0005166756454855204,0.018450051546096802
0.022666871547698975,0.004053480923175812,-0.015197688713669777,0.010622650384902954,-0.00047183517017401755,0.01857985369861126
0.02260868437588215,0.003924858290702105,-0.014261276461184025,0.01094084233045578,-0.0004276223189663142,0.01884966343641281
0.02298174425959587,0.003966549877077341,-0.01488426886498928,0.010766041465103626,-0.0003905263147316873,0.01881401054561138
0.022832704707980156,0.004149224609136581,-0.014472710900008678,0.010977057740092278,-0.00035931600723415613,0.01927737519145012
0.022914912551641464,0.004428584594279528,-0.014817788265645504,0.011126956902444363,-0.0003945691860280931,0.01933499425649643
0.02221265807747841,0.004084025509655476,-0.014327147975564003,0.010886666364967823,-0.00037145763053558767,0.018654653802514076
0.02256632409989834,0.0038495983462780714,-0.014920658431947231,0.011389338411390781,-0.00034778573899529874,0.01907845214009285
0.023222966119647026,0.0043764724396169186,-0.014547123573720455,0.01174821238964796,-0.0003532483533490449,0.01927773840725422
0.023176461458206177,0.004663955885916948,-0.014977509155869484,0.011446158401668072,-0.0003576221060939133,0.019197983667254448
0.02261560596525669,0.004190892446786165,-0.014075870625674725,0.012114227749407291,-0.0003398920816835016,0.019359387457370758
0.022814122959971428,0.004038847517222166,-0.015006428584456444,0.011493572033941746,-0.0003565834485925734,0.01968037337064743
0.022814122959971428,0.004038847517222166,-0.015006428584456444,0.011493572033941746,-0.0003565834485925734,0.01968037337064743
0.022947998717427254,0.003991742618381977,-0.014646124094724655,0.011648605577647686,-0.00034994876477867365,0.019486218690872192
0.022783882915973663,0.004564809147268534,-0.01509461086243391,0.011737083084881306,-0.0003352569474373013,0.01971198245882988
0.02431032992899418,0.0046560196205973625,-0.014685635454952717,0.012086048722267151,-0.00030969156068749726,0.02006147801876068
0.02338356524705887,0.004038934595882893,-0.014877223409712315,0.011644497513771057,-0.00032595914672128856,0.01979062519967556
0.022656051442027092,0.004366872366517782,-0.014959702268242836,0.012254402972757816,-0.0003456000122241676,0.019866393879055977
0.023064492270350456,0.004341732244938612,-0.014850948005914688,0.011891920119524002,-0.0003388964105397463,0.019648725166916847
0.02314826473593712,0.004234070889651775,-0.015017000027000904,0.0114976204931736,-0.0003652074665296823,0.020190179347991943
0.023448605090379715,0.004434042610228062,-0.014805951155722141,0.011352211236953735,-0.00035028907586820424,0.020414499565958977
0.024538526311516762,0.0041436259634792805,-0.015189767815172672,0.010949657298624516,-0.00044552914914675057,0.020457295700907707
0.02362227439880371,0.004370746668428183,-0.014994925819337368,0.01157600898295641,-0.0005005926941521466,0.019839555025100708
0.024290435016155243,0.004323979839682579,-0.014861045405268669,0.011391391977667809,-0.0004566328425426036,0.02000179886817932
0.023591704666614532,0.004406103398650885,-0.01524354238063097,0.01083832886070013,-0.0004756203561555594,0.02041245624423027
0.023522868752479553,0.004308868665248156,-0.014850933104753494,0.01146742980927229,-0.0004544128314591944,0.020245825871825218
0.023774147033691406,0.0042064315639436245,-0.015143310651183128,0.011782645247876644,-0.000420256081270054,0.02022518962621689
0.02393190935254097,0.004149405285716057,-0.015191604383289814,0.011751078069210052,-0.0004460807249415666,0.02054193615913391
0.023406028747558594,0.004017632920295,-0.015608307905495167,0.011712309904396534,-0.00042372269672341645,0.02039104886353016
0.024225885048508644,0.00432122265920043,-0.015278905630111694,0.011986260302364826,-0.00042509243940003216,0.020650088787078857
0.024938659742474556,0.004628579132258892,-0.015424244105815887,0.012455937452614307,-0.00042541863513179123,0.020731521770358086
0.024346455931663513,0.004181233234703541,-0.015173942781984806,0.012228524312376976,-0.0004331642994657159,0.020369496196508408
0.024413906037807465,0.0038386068772524595,-0.015644902363419533,0.012672310695052147,-0.00040537011227570474,0.020555997267365456
0.02407936565577984,0.004257775377482176,-0.015369591303169727,0.012327142059803009,-0.00044171701301820576,0.020463546738028526
0.023684222251176834,0.004301990382373333,-0.015994301065802574,0.012537317350506783,-0.00041252729715779424,0.02059352956712246
0.02445978857576847,0.004237532150000334,-0.015452803112566471,0.012219300493597984,-0.00044292473467066884,0.019997313618659973
0.025008296594023705,0.004476658999919891,-0.01635974645614624,0.011952973902225494,-0.0004174680507276207,0.020440593361854553
0.02478647790849209,0.00418950617313385,-0.01598436012864113,0.012077860534191132,-0.0004329558287281543,0.021261565387248993
0.024671686813235283,0.004430889617651701,-0.01576000452041626,0.011515074409544468,-0.0004205469158478081,0.021655092015862465
0.024671686813235283,0.004430889617651701,-0.01576000452041626,0.011515074409544468,-0.0004205469158478081,0.021655092015862465
0.024963606148958206,0.004505370277911425,-0.016032500192523003,0.012151923961937428,-0.000398128351662308,0.021111583337187767
0.024787984788417816,0.004352891352027655,-0.016191799193620682,0.01234650332480669,-0.00044667889596894383,0.02015918865799904
0.025272943079471588,0.004608417861163616,-0.01591087505221367,0.012289706617593765,-0.00045982751180417836,0.020863957703113556
0.02504785545170307,0.004751605913043022,-0.016217591241002083,0.012154888361692429,-0.00046722247498109937,0.021883785724639893
0.025280561298131943,0.004744723439216614,-0.0161114614456892,0.012328186072409153,-0.00046516756992787123,0.021383147686719894
0.02592902071774006,0.0041228607296943665,-0.01670488901436329,0.011684920638799667,-0.0004888598341494799,0.020961709320545197
0.025805393233895302,0.004137404728680849,-0.017017390578985214,0.012340310029685497,-0.0005710293771699071,0.021142547950148582
0.025683600455522537,0.004590325523167849,-0.01670455001294613,0.012180290184915066,-0.0006532224360853434,0.02215123176574707
0.0252718273550272,0.004725310951471329,-0.01690138876438141,0.012659003026783466,-0.0006341072730720043,0.021944653242826462
0.025467542931437492,0.00439912686124444,-0.016802949830889702,0.01254592090845108,-0.0006590053089894354,0.021088028326630592
0.025656763464212418,0.0045814248733222485,-0.017099108546972275,0.011531325988471508,-0.0006818311521783471,0.020582005381584167
0.026001866906881332,0.0045992969535291195,-0.0164419487118721,0.011988366022706032,-0.0007329172804020345,0.02085721306502819
0.02623029239475727,0.004610569681972265,-0.016459695994853973,0.011738291010260582,-0.0007856932934373617,0.02149246446788311
0.0262456052005291,0.004618484992533922,-0.017323927953839302,0.011621039360761642,-0.0007439853507094085,0.022136131301522255
0.026500139385461807,0.004428503569215536,-0.01711089536547661,0.01173806469887495,-0.0007374070701189339,0.02169007994234562
0.02654801309108734,0.0046173399314284325,-0.01758691295981407,0.01181065198034048,-0.000682126497849822,0.021648619323968887
0.02694159746170044,0.0044251419603824615,-0.017256909981369972,0.012667343951761723,-0.0006813228246755898,0.021907135844230652
0.02686517871916294,0.0047972602769732475,-0.016979841515421867,0.01240202784538269,-0.0006412540678866208,0.021986855193972588
0.026724856346845627,0.004317325074225664,-0.016842788085341454,0.012685311026871204,-0.0006219953647814691,0.02178213931620121
0.026663491502404213,0.004438983742147684,-0.016899358481168747,0.012261832132935524,-0.0006305286078713834,0.02181030996143818
0.027048325166106224,0.004489748738706112,-0.017516402527689934,0.011936900205910206,-0.0006338233943097293,0.021992642432451248
0.02720237895846367,0.004416211508214474,-0.017080195248126984,0.011952285654842854,-0.000615733559243381,0.022397641092538834
0.027247337624430656,0.00438545411452651,-0.01731100119650364,0.012222816236317158,-0.0006224786629900336,0.02235472947359085
0.027729352936148643,0.0046729822643101215,-0.018003826960921288,0.012591669335961342,-0.0005898653180338442,0.02225928008556366
0.02756465971469879,0.00493075605481863,-0.017322484403848648,0.012295139953494072,-0.0006453539244830608,0.02240997739136219
0.027569198980927467,0.004821755923330784,-0.01800999790430069,0.0125545933842659,-0.0006868364289402962,0.02280249446630478
0.027569198980927467,0.004821755923330784,-0.01800999790430069,0.0125545933842659,-0.0006868364289402962,0.02280249446630478
0.027677146717905998,0.004287366755306721,-0.017509838566184044,0.012927496805787086,-0.0007117391214706004,0.02283596433699131
0.02805265411734581,0.00422637490555644,-0.01748650334775448,0.012315704487264156,-0.0006454859976656735,0.0226131659001112
0.02878361940383911,0.004708592314273119,-0.01808038167655468,0.012795956805348396,-0.0006578955799341202,0.02233182266354561
0.025501525029540062,0.004846740048378706,-0.01782873086631298,0.013376203365623951,-0.0005644123302772641,0.02243165299296379
0.028674785047769547,0.004499694332480431,-0.01826792024075985,0.012368402443826199,-0.000577193743083626,0.022629279643297195
0.029136568307876587,0.004398827441036701,-0.017717670649290085,0.012656290084123611,-0.0005205179331824183,0.022713959217071533
0.027945570647716522,0.004043172113597393,-0.017574453726410866,0.012472358532249928,-0.0005474037607200444,0.022604521363973618
0.028332455083727837,0.0036131052765995264,-0.01772276684641838,0.013156029395759106,-0.0005069082835689187,0.022836066782474518
0.029424704611301422,0.0034637940116226673,-0.01798414997756481,0.013478746637701988,-0.0005306822131387889,0.022517874836921692
0.029527965933084488,0.003544015809893608,-0.01797468028962612,0.01355329155921936,-0.0005323180230334401,0.022571701556444168
0.02890554815530777,0.003488288726657629,-0.017478544265031815,0.01330429408699274,-0.0005254969582892954,0.02291286736726761
0.0278927069157362,0.0037767391186207533,-0.018007386475801468,0.014089110307395458,-0.0005730962730012834,0.023217380046844482
0.028904005885124207,0.0038507019635289907,-0.01817338913679123,0.013976959511637688,-0.0005207517533563077,0.023440416902303696
0.029511267319321632,0.0035507914144545794,-0.017815789207816124,0.013655221089720726,-0.0005541892605833709,0.022868962958455086
0.028749236837029457,0.003568738466128707,-0.017914511263370514,0.013466013595461845,-0.0005077454261481762,0.022285301238298416
0.029008788987994194,0.003917634021490812,-0.017340386286377907,0.013550021685659885,-0.0005362824886105955,0.022265277802944183
0.028935085982084274,0.00392899289727211,-0.01736220344901085,0.013956811279058456,-0.000550833239685744,0.023171307519078255
0.02860407344996929,0.0035806407686322927,-0.017799172550439835,0.013756892643868923,-0.0005288055981509387,0.02345028705894947
0.02860407344996929,0.0035806407686322927,-0.017799172550439835,0.013756892643868923,-0.0005288055981509387,0.02345028705894947
0.028931165114045143,0.003471397329121828,-0.017678983509540558,0.014013644307851791,-0.0005788948037661612,0.02319001406431198
0.028993474319577217,0.003794402815401554,-0.017740817740559578,0.013070392422378063,-0.0006660110666416585,0.02332708239555359
0.02916707471013069,0.004056619945913553,-0.01747853308916092,0.013328955508768559,-0.0006936548161320388,0.023524457588791847
0.029003150761127472,0.0038457908667623997,-0.018090378493070602,0.012892050668597221,-0.0006795740919187665,0.02337149903178215
0.029010970145463943,0.0034373989328742027,-0.017393557354807854,0.013554857112467289,-0.0010552775347605348,0.022624513134360313
0.029010970145463943,0.0034373989328742027,-0.017393557354807854,0.013554857112467289,-0.0010552775347605348,0.022624513134360313
0.02890789695084095,0.0036543654277920723,-0.017776809632778168,0.01423483807593584,-0.001044254982843995,0.022449076175689697
0.028742412105202675,0.003901517717167735,-0.017835084348917007,0.01406719908118248,-0.001093624741770327,0.022911902517080307
0.028848497197031975,0.003906766884028912,-0.017328795045614243,0.014191980473697186,-0.0010378067381680012,0.0240476056933403
0.02752920612692833,0.003517486620694399,-0.018080394715070724,0.0141593087464571,-0.0008873281767591834,0.024330852553248405
0.02993018552660942,0.0035940322559326887,-0.017970969900488853,0.014384525828063488,-0.0008448652806691825,0.024122970178723335
0.030008189380168915,0.003756259335204959,-0.017985334619879723,0.014116247184574604,-0.0007999632507562637,0.023949068039655685
0.030098484829068184,0.0038655607495456934,-0.01731121353805065,0.014061416499316692,-0.0006865134346298873,0.023804038763046265
0.029571939259767532,0.003937492612749338,-0.018296604976058006,0.0143344197422266,-0.0006473710527643561,0.02399652823805809
0.028849564492702484,0.003940282855182886,-0.017827138304710388,0.014469468966126442,-0.0006723336991854012,0.024019164964556694
0.02933427132666111,0.003912349231541157,-0.017346886917948723,0.014553702436387539,-0.0006957934238016605,0.02384086325764656
0.030387695878744125,0.003970090765506029,-0.018282843753695488,0.014332449063658714,-0.0006760148680768907,0.024024706333875656
0.02997022122144699,0.004300659988075495,-0.0187786053866148,0.01424847636371851,-0.0008352614822797477,0.024079568684101105
0.030047843232750893,0.004287089221179485,-0.018376285210251808,0.014536464586853981,-0.000853361445479095,0.02445308491587639
0.03044183738529682,0.00402113888412714,-0.018513375893235207,0.014587067067623138,-0.0008602123125456274,0.024426758289337158
0.031008386984467506,0.00383452489040792,-0.017917083576321602,0.014695007354021072,-0.000857566250488162,0.02421293780207634
0.029873866587877274,0.003698692424222827,-0.018494879826903343,0.014874887652695179,-0.0008477215887978673,0.0249920766800642
0.029525652527809143,0.003629509126767516,-0.01852150447666645,0.01463526114821434,-0.0007728399941697717,0.02364867366850376
0.030460702255368233,0.0038821136113256216,-0.017937254160642624,0.014323171228170395,-0.0007263036677613854,0.0236744936555624
0.030217595398426056,0.004035793710500002,-0.019074471667408943,0.01404470857232809,-0.0006891899392940104,0.024134758859872818
0.030539723113179207,0.003945489414036274,-0.01903012953698635,0.014003601856529713,-0.0006634391029365361,0.024499256163835526
0.030539723113179207,0.003945489414036274,-0.01903012953698635,0.014003601856529713,-0.0006634391029365361,0.024499256163835526
0.03020167537033558,0.004048285540193319,-0.01857691816985607,0.014115503057837486,-0.000661105674225837,0.024769971147179604
0.029962768778204918,0.004346546716988087,-0.018445126712322235,0.014202616177499294,-0.0006187417893670499,0.024728132411837578
0.029962768778204918,0.004346546716988087,-0.018445126712322235,0.014202616177499294,-0.0006187417893670499,0.024728132411837578
0.03052048571407795,0.0042684790678322315,-0.01915387436747551,0.01516904216259718,-0.0005500769475474954,0.02445923537015915
0.030345799401402473,0.004350028466433287,-0.019126638770103455,0.015434140339493752,-0.0004904736997559667,0.024433091282844543
0.030341632664203644,0.004329152405261993,-0.018479110673069954,0.01540826354175806,-0.0005183324683457613,0.024647312238812447
0.030210107564926147,0.004098044242709875,-0.018823202699422836,0.014885513111948967,-0.0004791184328496456,0.02459685131907463
0.031185971572995186,0.00427120691165328,-0.018161773681640625,0.014738538302481174,-0.00047553956392221153,0.024790409952402115
0.029970329254865646,0.0040525225922465324,-0.01885966584086418,0.014877645298838615,-0.0004441346391104162,0.024822324514389038
0.031046327203512192,0.004267316777259111,-0.019153350964188576,0.014487221837043762,-0.0004438071046024561,0.024522753432393074
0.03100288100540638,0.004248346667736769,-0.018265562132000923,0.014969846233725548,-0.0004429780237842351,0.024241173639893532
0.030962906777858734,0.004448771011084318,-0.01899249292910099,0.014825799502432346,-0.0004209906328469515,0.024404171854257584
0.030795900151133537,0.004366916138678789,-0.018980229273438454,0.014903903938829899,-0.0003949413076043129,0.025017008185386658
0.03090880624949932,0.004038612358272076,-0.018364479765295982,0.01406367588788271,-0.00036370556335896254,0.025276726111769676
0.03125067427754402,0.004099997691810131,-0.019005749374628067,0.014381946995854378,-0.00039908947655931115,0.025284521281719208
0.0312051959335804,0.004139067605137825,-0.019276687875390053,0.01453517097979784,-0.0003754118806682527,0.02477991208434105
0.03134690225124359,0.004325059242546558,-0.018666349351406097,0.01499759592115879,-0.0004057021869812161,0.024352559819817543
0.03142314776778221,0.004492953419685364,-0.019056789577007294,0.014618835411965847,-0.0003845004830509424,0.024614863097667694
0.03127229958772659,0.004536513239145279,-0.019465193152427673,0.01436606701463461,-0.0004074021999258548,0.025219982489943504
0.03151058033108711,0.004447119776159525,-0.018827660009264946,0.01394558884203434,-0.00039139302680268884,0.02520832233130932
0.0317298099398613,0.004515763372182846,-0.01892142929136753,0.014779147692024708,-0.00048439917736686766,0.02495615743100643
0.03182001784443855,0.004486607853323221,-0.01901751011610031,0.01394445076584816,-0.0005194497061893344,0.02632959373295307
0.03155028074979782,0.004523808602243662,-0.01861853525042534,0.014588474296033382,-0.0005333604058250785,0.02594059705734253
0.03159497678279877,0.0045023406855762005,-0.019381597638130188,0.01410326361656189,-0.0005262729828245938,0.025409188121557236
0.03174242004752159,0.004330308176577091,-0.01895746774971485,0.014855212531983852,-0.0005481094121932983,0.024273354560136795
0.03174242004752159,0.004330308176577091,-0.01895746774971485,0.014855212531983852,-0.0005481094121932983,0.024273354560136795
0.03281806781888008,0.004125026520341635,-0.0184758510440588,0.014802527613937855,-0.0005170837393961847,0.025831369683146477
0.03264182060956955,0.004327159374952316,-0.019310520961880684,0.01555948331952095,-0.0006413924274966121,0.02642711251974106
0.031185928732156754,0.0044299159198999405,-0.019455408677458763,0.015220584347844124,-0.0006684036925435066,0.026095909997820854
0.031539592891931534,0.004606653470546007,-0.018692385405302048,0.015842268243432045,-0.0006192286964505911,0.02551484853029251
0.03244766965508461,0.004765455145388842,-0.019113047048449516,0.01565680466592312,-0.0005570653011091053,0.025105036795139313
0.032611459493637085,0.004364266991615295,-0.018811669200658798,0.015956277027726173,-0.0005831200978718698,0.025239819660782814
0.03350260481238365,0.004256884101778269,-0.018881341442465782,0.016224509105086327,-0.0005383520037867129,0.02527182176709175
0.03286745026707649,0.004176328890025616,-0.019369713962078094,0.01623471826314926,-0.0005482776323333383,0.02550523914396763
0.03149552270770073,0.004563669208437204,-0.01884445734322071,0.016036244109272957,-0.0005065917503088713,0.02540486492216587
0.0318298302590847,0.0045627811923623085,-0.019082125276327133,0.015867900103330612,-0.0005309734842739999,0.02568032778799534
0.03289344906806946,0.004214878659695387,-0.019573960453271866,0.015288048423826694,-0.0005644583143293858,0.025819070637226105
0.031428635120391846,0.004290114622563124,-0.019410645589232445,0.015766624361276627,-0.0005739083280786872,0.025740552693605423
0.03314102441072464,0.004533831961452961,-0.020118348300457,0.015526911243796349,-0.0005650966777466238,0.026014966890215874
0.03324948251247406,0.004715076182037592,-0.019616391509771347,0.01585589349269867,-0.0008296143496409059,0.02582508511841297
0.03245142102241516,0.004208870232105255,-0.019276196137070656,0.015703750774264336,-0.0008543523144908249,0.025974541902542114
0.032567549496889114,0.004395818337798119,-0.019500654190778732,0.015796544030308723,-0.0008529318729415536,0.026193911209702492
0.03312215581536293,0.0043286229483783245,-0.019477320834994316,0.015500328503549099,-0.000764319091103971,0.026834143325686455
0.03239750117063522,0.004324811510741711,-0.019610852003097534,0.015110431239008904,-0.0007727256743237376,0.02642592415213585
0.03271112218499184,0.004411025438457727,-0.020521217957139015,0.015433160588145256,-0.0007055550813674927,0.026807529851794243
0.03344191983342171,0.0045528593473136425,-0.020451145246624947,0.015466253273189068,-0.0006598095642402768,0.026959754526615143
0.03337514400482178,0.004584117792546749,-0.018914423882961273,0.01603519544005394,-0.0005785938119515777,0.02672536112368107
0.033345483243465424,0.004415615927428007,-0.020222710445523262,0.015686193481087685,-0.0006077705766074359,0.026448039337992668
0.0328054316341877,0.004657364916056395,-0.020756768062710762,0.01602945663034916,-0.000630968133918941,0.026294982060790062
0.033461153507232666,0.004790524020791054,-0.019573289901018143,0.015517886728048325,-0.0006447332561947405,0.026397334411740303
0.033461153507232666,0.004790524020791054,-0.019573289901018143,0.015517886728048325,-0.0006447332561947405,0.026397334411740303
0.03341013938188553,0.004646627698093653,-0.020613616332411766,0.01577811688184738,-0.00056324532488361,0.027063565328717232
0.03341013938188553,0.004646627698093653,-0.020613616332411766,0.01577811688184738,-0.00056324532488361,0.027063565328717232
0.03296969085931778,0.004870810080319643,-0.019910477101802826,0.01589801535010338,-0.0005665031494572759,0.026202626526355743
0.0342971533536911,0.004317575599998236,-0.0190789345651865,0.01582838036119938,-0.0005984311574138701,0.025480348616838455
0.03355024382472038,0.003947508987039328,-0.020036784932017326,0.01567496731877327,-0.0006350073963403702,0.02617155760526657
0.03390485420823097,0.004414867609739304,-0.020883332937955856,0.016216320917010307,-0.0006543383351527154,0.026958975940942764
0.034728363156318665,0.0046709878370165825,-0.020321572199463844,0.015965361148118973,-0.000615120748989284,0.026454145088791847
0.03536897525191307,0.004633655771613121,-0.020202957093715668,0.01650211028754711,-0.0008800509967841208,0.026856714859604836
0.03310628607869148,0.004662824794650078,-0.020251404494047165,0.016478195786476135,-0.0008976423996500671,0.0282234326004982
0.034893494099378586,0.004711035639047623,-0.020271318033337593,0.016636811196804047,-0.0008271278347820044,0.026958739385008812
0.0344364270567894,0.004381207749247551,-0.02031918242573738,0.016083162277936935,-0.0008881326648406684,0.026467865332961082
0.03413645923137665,0.004292843863368034,-0.020128518342971802,0.016197577118873596,-0.0007538651116192341,0.02696254663169384
0.03459714725613594,0.004961500875651836,-0.019561661407351494,0.01570720598101616,-0.0007076399051584303,0.028446132317185402
0.03460739552974701,0.005054575856775045,-0.020187079906463623,0.016410401090979576,-0.0006734544294886291,0.02854798175394535
0.03437129035592079,0.004896285943686962,-0.020232994109392166,0.016237543895840645,-0.0006948213558644056,0.027991818264126778
0.0341278575360775,0.0047042532823979855,-0.019711744040250778,0.01663241907954216,-0.0006314036436378956,0.027762768790125847
0.03467382490634918,0.004550114274024963,-0.019955651834607124,0.016504427418112755,-0.0006448527565225959,0.027506280690431595
0.03513812646269798,0.004290168639272451,-0.020603107288479805,0.016572045162320137,-0.0006006399635225534,0.02736102044582367
0.03493695706129074,0.004542180337011814,-0.02016613818705082,0.016914362087845802,-0.0005549396737478673,0.027885394170880318
0.03536186367273331,0.004314887803047895,-0.02018383890390396,0.01666104421019554,-0.0005196863203309476,0.02815023809671402
0.03528981655836105,0.003974942024797201,-0.020249435678124428,0.017200177535414696,-0.0004205733130220324,0.02824435383081436
0.03544291481375694,0.003905518213286996,-0.019881965592503548,0.016739005222916603,-0.0004523570532910526,0.028308173641562462
0.035496585071086884,0.004443241283297539,-0.02030586637556553,0.016741035506129265,-0.0004867477691732347,0.028064589947462082
0.034774430096149445,0.004263646900653839,-0.020378820598125458,0.0171404629945755,-0.0005123320734128356,0.028032662346959114
0.0349932424724102,0.004362907260656357,-0.02033383771777153,0.017423557117581367,-0.0006744378479197621,0.028097346425056458
0.036148834973573685,0.004245791118592024,-0.019983407109975815,0.017848115414381027,-0.0007390499231405556,0.028496431186795235
0.036148834973573685,0.004245791118592024,-0.019983407109975815,0.017848115414381027,-0.0007390499231405556,0.028496431186795235
0.03576940298080444,0.003972357604652643,-0.020568575710058212,0.016983890905976295,-0.0007550014415755868,0.02837466634809971
0.03564094752073288,0.004297688603401184,-0.020694976672530174,0.017115309834480286,-0.0006759708048775792,0.0284182857722044
0.03549455851316452,0.004205973353236914,-0.020171580836176872,0.017159126698970795,-0.0006876803236082196,0.028666099533438683
0.0361429899930954,0.0043069650419056416,-0.020249010995030403,0.016622480005025864,-0.0006964357453398407,0.02852633036673069
0.03597153350710869,0.0039688590914011,-0.020627964287996292,0.016983868554234505,-0.0006876438856124878,0.02839590236544609
0.03627459704875946,0.003672792110592127,-0.020699750632047653,0.017073754221200943,-0.000691138266120106,0.028810789808630943
0.03592149168252945,0.003680974943563342,-0.020259086042642593,0.017562175169587135,-0.0006621681968681514,0.028936278074979782
0.03573288768529892,0.004396667238324881,-0.02094883657991886,0.017133386805653572,-0.0006997265154495835,0.02864071913063526
0.03638077527284622,0.004181389696896076,-0.02079223096370697,0.01783512718975544,-0.000654686416964978,0.02975364215672016
0.03749554231762886,0.003943717572838068,-0.020519191399216652,0.01780581660568714,-0.0007303213351406157,0.029705580323934555
0.036616869270801544,0.004319783300161362,-0.020793620496988297,0.018676185980439186,-0.0007567213615402579,0.029643261805176735
0.03565164655447006,0.004178260453045368,-0.02075796388089657,0.01847640611231327,-0.0007524764514528215,0.03065306507050991
0.03638802096247673,0.004024152643978596,-0.020930616185069084,0.017697220668196678,-0.0006947815418243408,0.030108613893389702
0.03629437834024429,0.003945444710552692,-0.02150064893066883,0.018098287284374237,-0.0007103010430000722,0.028912529349327087
0.038131266832351685,0.003921570722013712,-0.020861422643065453,0.017765123397111893,-0.0007326023187488317,0.028820693492889404
0.038161780685186386,0.004371782299131155,-0.020910676568746567,0.017415208742022514,-0.0007541162776760757,0.02973291277885437
0.03664316236972809,0.004259535111486912,-0.021255889907479286,0.017763029783964157,-0.0007722534937784076,0.02982260286808014
0.03608983755111694,0.004311074037104845,-0.021811777725815773,0.017916088923811913,-0.000985027989372611,0.029669303447008133
0.037480905652046204,0.004030552227050066,-0.02157857082784176,0.01843847520649433,-0.0011311814887449145,0.030920490622520447
0.03752660006284714,0.004325957968831062,-0.02101212739944458,0.01861981302499771,-0.00111204176209867,0.030489452183246613
0.03731954097747803,0.004209217615425587,-0.02113623172044754,0.018040787428617477,-0.0010810333769768476,0.029539113864302635
0.03782081976532936,0.004394993185997009,-0.02168164774775505,0.01800033636391163,-0.0009537080186419189,0.028966432437300682
0.03698763996362686,0.004645096603780985,-0.0221328753978014,0.018143929541110992,-0.0008835252374410629,0.029330020770430565
0.03709238022565842,0.004474471788853407,-0.021745329722762108,0.017785582691431046,-0.0008819594513624907,0.030351629480719566
0.03767359256744385,0.004459448624402285,-0.02114804834127426,0.018229009583592415,-0.0009448673808947206,0.030631830915808678
0.03767359256744385,0.004459448624402285,-0.02114804834127426,0.018229009583592415,-0.0009448673808947206,0.030631830915808678
0.03744236379861832,0.004153220448642969,-0.022277822718024254,0.01858748123049736,-0.0009009976638481021,0.030447162687778473
0.03771630674600601,0.004250778816640377,-0.022703101858496666,0.01875661127269268,-0.0010493705049157143,0.030298298224806786
0.037593670189380646,0.004460039548575878,-0.02277812920510769,0.018648959696292877,-0.0009954357519745827,0.030138904228806496
0.037675585597753525,0.004350405652076006,-0.02159346640110016,0.018140653148293495,-0.0009170298581011593,0.030190199613571167
0.038457076996564865,0.0044929347932338715,-0.022056350484490395,0.01827266253530979,-0.0009104289347305894,0.03084660694003105
0.03790844604372978,0.004531956277787685,-0.02292253077030182,0.018271978944540024,-0.000825336086563766,0.030691420659422874
0.03678681701421738,0.0042746784165501595,-0.021636880934238434,0.017518647015094757,-0.0007533717434853315,0.030344977974891663
0.03770547732710838,0.004395066294819117,-0.021302657201886177,0.017878985032439232,-0.0006488176295533776,0.0302652046084404
0.03736420348286629,0.0041177100501954556,-0.02277960442006588,0.01765437424182892,-0.0006720528472214937,0.030637122690677643
0.03859643265604973,0.0046632299199700356,-0.022663841024041176,0.018353288993239403,-0.0006756589282304049,0.029605237767100334
0.0372278094291687,0.00446464354172349,-0.022322291508316994,0.01822393760085106,-0.000694494869094342,0.03165333345532417
0.037164442241191864,0.004527686629444361,-0.022160707041621208,0.018660645931959152,-0.0007524111424572766,0.031783945858478546
0.038435161113739014,0.004555907100439072,-0.022177085280418396,0.018756616860628128,-0.0007728482596576214,0.030951563268899918
0.038241833448410034,0.004601210821419954,-0.022469451650977135,0.018417853862047195,-0.0008009294397197664,0.03137777000665665
0.03856898471713066,0.004679587669670582,-0.022848809137940407,0.019003499299287796,-0.001178879290819168,0.03147941827774048
0.038131896406412125,0.004295474849641323,-0.02263679914176464,0.019024642184376717,-0.0010641580447554588,0.03161207213997841
0.03831431269645691,0.004364718217402697,-0.0226896982640028,0.018756864592432976,-0.0010221368866041303,0.031129203736782074
0.03903564438223839,0.004591275472193956,-0.022594088688492775,0.019066963344812393,-0.0008942391141317785,0.03159942850470543
0.03912258893251419,0.004681458696722984,-0.022737158462405205,0.01916269026696682,-0.0008874839986674488,0.03287887200713158
0.0383613258600235,0.004484163131564856,-0.022555213421583176,0.018804091960191727,-0.0007785078487358987,0.032657019793987274
0.03894558921456337,0.004293690901249647,-0.02242998406291008,0.01902240328490734,-0.0007164761773310602,0.030918551608920097
0.03894050419330597,0.004130102694034576,-0.023023849353194237,0.01859338954091072,-0.0007345621706917882,0.030698705464601517
0.039465468376874924,0.004293412435799837,-0.022810140624642372,0.018623601645231247,-0.0007043652585707605,0.03189380466938019
0.039208512753248215,0.00444403663277626,-0.022964784875512123,0.019395427778363228,-0.0007208894239738584,0.03188745304942131
0.03951847925782204,0.004591308534145355,-0.022524436935782433,0.02039683610200882,-0.0008060697000473738,0.032780759036540985
0.03988732025027275,0.004746037535369396,-0.02231670543551445,0.019223568961024284,-0.0008626654162071645,0.033152807503938675
0.03945613652467728,0.004381602164357901,-0.022384263575077057,0.019231054931879044,-0.0008705247892066836,0.03212529793381691
0.039680175483226776,0.004138097167015076,-0.022845322266221046,0.01902448572218418,-0.0008523894939571619,0.031120695173740387
0.039680175483226776,0.004138097167015076,-0.022845322266221046,0.01902448572218418,-0.0008523894939571619,0.031120695173740387
0.040241364389657974,0.004071134142577648,-0.022764135152101517,0.01860693283379078,-0.0007908623083494604,0.03135478124022484
0.04027815908193588,0.003989702556282282,-0.022857973352074623,0.019639991223812103,-0.0008861036621965468,0.032928191125392914
0.04030432552099228,0.004304823465645313,-0.022717470303177834,0.019702589139342308,-0.0009281436796300113,0.03282866254448891
0.040384575724601746,0.004204475786536932,-0.02242218144237995,0.019349757581949234,-0.0009427951299585402,0.03236100822687149
0.04043852910399437,0.0044305454939603806,-0.02276945672929287,0.019316796213388443,-0.0010984549298882484,0.03328154981136322
0.04081180319190025,0.004251975100487471,-0.023426538333296776,0.019655484706163406,-0.0010897498577833176,0.033001743257045746
0.04118216782808304,0.004450024571269751,-0.023130740970373154,0.019650112837553024,-0.0010485360398888588,0.032695576548576355
0.040900036692619324,0.004199536982923746,-0.023242244496941566,0.02035113424062729,-0.0009143569623120129,0.032628413289785385
0.0418769009411335,0.004098646342754364,-0.02276012673974037,0.01903689093887806,-0.0008084414293989539,0.03263866901397705
0.04205028712749481,0.003844817169010639,-0.022969529032707214,0.018932485952973366,-0.0007574931369163096,0.032826561480760574
0.039473310112953186,0.0038158262614160776,-0.022636141628026962,0.01941482536494732,-0.0007699388661421835,0.03295327350497246
0.04055545851588249,0.004248059820383787,-0.022555164992809296,0.019190989434719086,-0.0007343130419030786,0.03313349932432175
0.041267625987529755,0.004530429374426603,-0.023251354694366455,0.019656961783766747,-0.0007482899818569422,0.03328138217329979
0.04160355031490326,0.004179186653345823,-0.02430095709860325,0.020387448370456696,-0.0009055273840203881,0.03292408585548401
0.04262204095721245,0.003965726122260094,-0.02409110963344574,0.020316898822784424,-0.0008989435154944658,0.033467281609773636
0.04096100106835365,0.00391907524317503,-0.022905467078089714,0.02010854333639145,-0.0008017363143153489,0.03329377621412277
0.04019644111394882,0.004338133614510298,-0.02315261960029602,0.019844746217131615,-0.0007556530763395131,0.03312342241406441
0.04199704900383949,0.004456222523003817,-0.023015527054667473,0.01976875215768814,-0.0007188944728113711,0.03322489559650421
