davideferrari95/blind_handover_controller/data/Test 12 - [2024-02-07 -- 13-13-19]/joint_states_data.csv
shoulder_pan_joint,shoulder_lift_joint,elbow_joint,wrist_1_joint,wrist_2_joint,wrist_3_joint
0.007742822635918856,0.008931013755500317,-0.011735937558114529,-0.0006754758069291711,-0.0005624457262456417,0.006833564955741167
0.006880220957100391,0.00877153780311346,-0.010243628174066544,-0.0006163108628243208,-0.0006145609659142792,0.006795295514166355
0.007054739631712437,0.009326991625130177,-0.011250468902289867,-0.000515741587150842,-0.0006695417105220258,0.006179739721119404
0.0066432226449251175,0.008323363028466702,-0.011236310936510563,-0.0004766861966345459,-0.0010344026377424598,0.006280537694692612
0.0066432226449251175,0.008323363028466702,-0.011236310936510563,-0.0004766861966345459,-0.0010344026377424598,0.006280537694692612
0.0070015545934438705,0.008529198355972767,-0.010282483883202076,-0.000497800821904093,-0.0009784142021089792,0.006758853327482939
0.006833740975707769,0.009067012928426266,-0.01078079454600811,-0.0004725722537841648,-0.0009542907355353236,0.006808866281062365
0.00711487652733922,0.008979828096926212,-0.01097858976572752,-0.00044390972470864654,-0.0008428808068856597,0.0064289686270058155
0.006607901770621538,0.009279797784984112,-0.010846289806067944,-0.00041814797441475093,-0.0007951090228743851,0.006084249820560217
0.006819519679993391,0.008873741142451763,-0.010674999095499516,-0.0003951898543164134,-0.0007569478475488722,0.005964416079223156
0.006912629585713148,0.008529429323971272,-0.010062173008918762,-0.00037461973261088133,-0.0006875639082863927,0.005774466320872307
0.006976721342653036,0.008810481987893581,-0.010727033019065857,-0.0003560864715836942,-0.0006072945543564856,0.006358281243592501
0.007033351808786392,0.008437491953372955,-0.011694065295159817,-0.000339301215717569,-0.0005226410576142371,0.006088465917855501
0.006976483389735222,0.008586367592215538,-0.010230925865471363,-0.0003240271471440792,-0.0005122838774695992,0.005852530710399151
0.006660406477749348,0.008246837183833122,-0.010800040327012539,-0.00031006932840682566,-0.0005047408631071448,0.005485434550791979
0.006871389225125313,0.008190657012164593,-0.010302746668457985,-0.0002972651273012161,-0.0005206844653002918,0.0056479331105947495
0.006584528833627701,0.008791640400886536,-0.009752201847732067,-0.00028547621332108974,-0.0004972856258973479,0.006036187056452036
0.006220731884241104,0.008862433023750782,-0.010556038469076157,-0.000274586898740381,-0.0005189428920857608,0.005591988563537598
0.007062909193336964,0.008709827437996864,-0.009978746064007282,-0.0002644982887431979,-0.0004913539160043001,0.005771004129201174
0.006926653441041708,0.008130962029099464,-0.009687722660601139,-0.00025512429419904947,-0.0005413547623902559,0.005774178542196751
0.006362983025610447,0.008273125626146793,-0.010085716843605042,-0.00024639273760840297,-0.0005675596185028553,0.006196203641593456
0.006574189756065607,0.008781546726822853,-0.009476331993937492,-0.00023823868832550943,-0.0005997654516249895,0.006439474411308765
0.006650200579315424,0.008579380810260773,-0.00941313523799181,-0.00023060725652612746,-0.0006065951893106103,0.006139389239251614
0.006557663902640343,0.008213123306632042,-0.010622133500874043,-0.0002234496787423268,-0.000593547010794282,0.006241542287170887
0.0067350841127336025,0.008189638145267963,-0.00983418244868517,-0.0002167229977203533,-0.0007462159264832735,0.005665123928338289
0.006348631344735622,0.007876063697040081,-0.009417373687028885,-0.0002103899751091376,-0.0006674560718238354,0.005858978256583214
0.006446426268666983,0.008164784871041775,-0.009735974483191967,-0.0002044160064542666,-0.0006907620117999613,0.006009124219417572
0.006446426268666983,0.008164784871041775,-0.009735974483191967,-0.0002044160064542666,-0.0006907620117999613,0.006009124219417572
0.00671739736571908,0.008119210600852966,-0.009580603800714016,-0.00019343160965945572,-0.0006412466173060238,0.006116758566349745
0.00671739736571908,0.008119210600852966,-0.009580603800714016,-0.00019343160965945572,-0.0006412466173060238,0.006116758566349745
0.006779426243156195,0.007959435693919659,-0.00996005441993475,-0.00018837062816601247,-0.0005870645982213318,0.005479000508785248
0.006631186697632074,0.008466074243187904,-0.009684923104941845,-0.0001835677248891443,-0.0005373089225031435,0.005690955091267824
0.006253264844417572,0.008046118542551994,-0.0098594194278121,-0.00017466115241404623,-0.000523315102327615,0.005950440187007189
0.006629244890064001,0.00911738257855177,-0.00933798961341381,-0.00017052431940101087,-0.0004888217663392425,0.005578984040766954
0.006345382891595364,0.009106659330427647,-0.008912995457649231,-0.0001665789313847199,-0.00044260136201046407,0.005897868890315294
0.006170956417918205,0.008564350195229053,-0.010195503942668438,-0.00016281181888189167,-0.0003914927365258336,0.005538437515497208
0.006301570683717728,0.008638639934360981,-0.009697623550891876,-0.00015921152953524143,-0.00035937028587795794,0.00591084873303771
0.006297542247921228,0.008982078172266483,-0.009261161088943481,-0.0001557671494083479,-0.0003945725620724261,0.005813524127006531
0.006342170760035515,0.009210913442075253,-0.010288997553288937,-0.00015246839029714465,-0.0003714506165124476,0.005944846197962761
0.006704676430672407,0.008618256077170372,-0.009535331279039383,-0.00014930650650057942,-0.0003978741297032684,0.005766204092651606
0.006199386902153492,0.008657749742269516,-0.00919365044683218,-0.00014627317432314157,-0.000380685058189556,0.005362869706004858
0.006115801632404327,0.008699066936969757,-0.009716469794511795,-0.00014336050662677735,-0.00038441986544057727,0.005461081862449646
0.006802561227232218,0.00843197200447321,-0.009519744664430618,-0.00012416152458172292,-0.000386887724744156,0.005989525467157364
0.006453892216086388,0.00871982891112566,-0.008919465355575085,-0.00012071277888026088,-0.0004257057444192469,0.005678234621882439
0.006167551502585411,0.009294758550822735,-0.009414998814463615,-0.0001183746790047735,-0.0004391387046780437,0.005961491260677576
0.00602384889498353,0.008549450896680355,-0.009936937130987644,-0.00011618700955295935,-0.0004729049396701157,0.005533336196094751
0.0062330495566129684,0.008227727375924587,-0.009351378306746483,-0.00011408277350710705,-0.00044370885007083416,0.005577708128839731
0.006344811525195837,0.009048553183674812,-0.009285691194236279,-0.0001120535162044689,-0.000474182132165879,0.005768798757344484
0.006200321018695831,0.008860078640282154,-0.009381529875099659,-0.0001100953304558061,-0.0004916187026537955,0.005774755496531725
0.005950933787971735,0.009095960296690464,-0.009147273376584053,-0.00010820441093528643,-0.0004761268792208284,0.005954856984317303
0.005893828347325325,0.008568010292947292,-0.009215980768203735,-7.104976248228922e-05,-0.000614914926700294,0.005766998045146465
0.006215856410562992,0.008796917274594307,-0.009329600259661674,-3.631044091889635e-05,-0.0005527640460059047,0.005638160277158022
0.006745834834873676,0.008834647946059704,-0.009455165825784206,-3.345706863910891e-05,-0.0004929822171106935,0.0053361160680651665
0.006807680707424879,0.008376257494091988,-0.009434828534722328,-3.2706786441849545e-05,-0.0004442900826688856,0.005301246419548988
0.006090826354920864,0.00930812768638134,-0.009838608093559742,-3.211394141544588e-05,-0.00040432289824821055,0.0054124100133776665
0.005742112174630165,0.008685494773089886,-0.009343283250927925,-3.155044396407902e-05,-0.00043493261910043657,0.0053697023540735245
0.006409092340618372,0.008272371254861355,-0.00929444469511509,-1.949936631717719e-05,-0.00041055158362723887,0.005332577507942915
0.006409092340618372,0.008272371254861355,-0.00929444469511509,-1.949936631717719e-05,-0.00041055158362723887,0.005332577507942915
0.006633353885263205,0.008831818588078022,-0.009835701435804367,-1.5004150554887019e-05,-0.0003568308020476252,0.005199683830142021
0.006208167411386967,0.008589083328843117,-0.009461954236030579,-7.4837230386037845e-06,-0.0003347046149428934,0.00533652026206255
0.006046319846063852,0.008928424678742886,-0.009546773508191109,-4.88633645545633e-07,-0.00031516081071458757,0.005249946378171444
0.006281787995249033,0.008745908737182617,-0.009463763795793056,-3.190428543575763e-08,-0.00032196316169574857,0.005338569637387991
0.006619760300964117,0.008317666128277779,-0.009118888527154922,-2.0831218972006127e-09,-0.0003275801136624068,0.005139773245900869
0.006687275134027004,0.008865167386829853,-0.009853130206465721,-1.3601297865761808e-10,-0.0003127756353933364,0.004934078548103571
0.006105419248342514,0.008565879426896572,-0.009702961891889572,-8.880674841338365e-12,-0.0002980692661367357,0.0048391856253147125
0.006339244544506073,0.00856786873191595,-0.010715793818235397,-5.798446033218607e-13,-0.0002846064744517207,0.005107314325869083
0.00660104863345623,0.009035231545567513,-0.010184403508901596,-3.785970967068106e-14,-0.00027230315026827157,0.005257389973849058
0.006271506659686565,0.00856377836316824,-0.009133618324995041,0.0002066147280856967,-0.0002610183728393167,0.005332582630217075
0.0061978669837117195,0.00912523828446865,-0.009215465746819973,0.0010196501389145851,-0.0002816693449858576,0.005530896596610546
0.0061758519150316715,0.008503948338329792,-0.010461278259754181,0.0010760326404124498,-0.00027516420232132077,0.005534205120056868
0.00608086958527565,0.008189103566110134,-0.00970732793211937,0.0010548850987106562,-0.0002653026604093611,0.005157624837011099
0.006342668551951647,0.009074200876057148,-0.009084631688892841,0.0011276446748524904,-0.00025589048163965344,0.004921219311654568
0.006794375833123922,0.008706891909241676,-0.009582473896443844,0.0010919594205915928,-0.00020331484847702086,0.00508941151201725
0.006176769267767668,0.008382994681596756,-0.009709781035780907,0.0010594574268907309,-0.0001889135455712676,0.005419406574219465
0.00601399689912796,0.009158998727798462,-0.009724488481879234,0.001132869627326727,-0.000207678516744636,0.005558995995670557
0.006626075599342585,0.008646983653306961,-0.011762273497879505,0.0011598769342526793,-0.00020808077533729374,0.005535931792110205
0.006830216851085424,0.008304608054459095,-0.011355586349964142,0.0012466599000617862,-0.00020088808378204703,0.005129845812916756
0.006473669316619635,0.00888043362647295,-0.0103979567065835,0.0014806240797042847,-0.00022381603776011616,0.0048704384826123714
0.006390805821865797,0.0087808882817626,-0.010746204294264317,0.00168660341296345,-0.00021803495474159718,0.004863382782787085
0.006915331352502108,0.008063382469117641,-0.010304922237992287,0.0022111034486442804,-0.00021086458582431078,0.005112305749207735
0.007008704822510481,0.008089907467365265,-0.010960811749100685,0.002238043351098895,-0.0002312246069777757,0.005068701226264238
0.006377381272614002,0.008991661481559277,-0.010675227269530296,0.002118920674547553,-0.00022574723698198795,0.005176158156245947
0.0064101149328053,0.008591890335083008,-0.010283287614583969,0.0018709140131250024,-0.0002189967781305313,0.004936853889375925
0.0064101149328053,0.008591890335083008,-0.010283287614583969,0.0018709140131250024,-0.0002189967781305313,0.004936853889375925
0.006605844479054213,0.008357499726116657,-0.010320048779249191,0.0016697965329512954,-0.00034419374424032867,0.004847859498113394
0.006779488176107407,0.008462777361273766,-0.010283319279551506,0.002215523272752762,-0.0003286993014626205,0.004608196672052145
0.006535940803587437,0.007954459637403488,-0.011112254112958908,0.0025534715969115496,-0.0003069023659918457,0.004484246484935284
0.006658022757619619,0.007741586305201054,-0.01050523854792118,0.0025844029150903225,-0.0002873360936064273,0.004824323114007711
0.006856346037238836,0.00887336116284132,-0.011269375681877136,0.002318503800779581,-0.0003203490632586181,0.004786582663655281
0.006709067150950432,0.008618500083684921,-0.010575725696980953,0.0021664146333932877,-0.000305498339002952,0.0045059118419885635
0.006620724685490131,0.007809835020452738,-0.010183613747358322,0.001961137168109417,-0.00028933759313076735,0.004424620885401964
0.006584798451513052,0.007929781451821327,-0.010426896624267101,0.0019894938450306654,-0.0003084017662331462,0.00459912559017539
0.006971396505832672,0.00834300834685564,-0.01030714437365532,0.002225136384367943,-0.0003041094751097262,0.004748535808175802
0.006978641729801893,0.008127933368086815,-0.009988057427108288,0.002380088437348604,-0.0002907646994572133,0.004936477169394493
0.007372668012976646,0.007624016143381596,-0.010255593806505203,0.0023607162293046713,-0.0003073111001867801,0.0046798610128462315
0.00674347672611475,0.008138477802276611,-0.010512979701161385,0.0023574219085276127,-0.00030358642106875777,0.004319760948419571
0.006797806825488806,0.008259640075266361,-0.010071100667119026,0.002318311482667923,-0.0002918808604590595,0.004296659957617521
0.006831151433289051,0.008069152012467384,-0.010511570610105991,0.0024672923609614372,-0.0003108597011305392,0.004241206683218479
0.006839276757091284,0.007497838232666254,-0.009997592307627201,0.0026070475578308105,-0.00030077362316660583,0.004514507483690977
0.006717120297253132,0.008322266861796379,-0.010685552842915058,0.002441433956846595,-0.0002825795963872224,0.004632145632058382
0.006629695184528828,0.007940887473523617,-0.011235598474740982,0.002460181014612317,-0.0002659186429809779,0.004330865107476711
0.006652052979916334,0.00809817761182785,-0.010277792811393738,0.002282216213643551,-0.00029452412854880095,0.004442327655851841
0.006883381400257349,0.007674576714634895,-0.010133247822523117,0.002243424765765667,-0.00028492443379946053,0.004495866596698761
0.007039083633571863,0.008210611529648304,-0.010465028695762157,0.0023450457956641912,-0.00029305621865205467,0.004106869921088219
0.006913994438946247,0.008051757700741291,-0.01023640763014555,0.002241236623376608,-0.00029958237428218126,0.003885701997205615
0.006913994438946247,0.008051757700741291,-0.01023640763014555,0.002241236623376608,-0.00029958237428218126,0.003885701997205615
0.007205152418464422,0.008182459510862827,-0.01061116624623537,0.0023392271250486374,-0.0002872583572752774,0.003787221387028694
0.007478288374841213,0.00825872179120779,-0.010519769042730331,0.002248082309961319,-0.0002983839949592948,0.004504131153225899
0.006753020454198122,0.00768186803907156,-0.009955096989870071,0.002083767903968692,-0.00027771524037234485,0.004067560657858849
0.006828627549111843,0.008362004533410072,-0.009783073328435421,0.0021999876480549574,-0.0002675554424058646,0.0035059673245996237
0.006828627549111843,0.008362004533410072,-0.009783073328435421,0.0021999876480549574,-0.0002675554424058646,0.0035059673245996237
0.007085729390382767,0.008500908501446247,-0.010293073020875454,0.0024458752013742924,-0.000308973656501621,0.0034933420829474926
0.00703442981466651,0.007695602718740702,-0.009821204468607903,0.002322522923350334,-0.0002927818277385086,0.00367936585098505
0.006759583950042725,0.007707324344664812,-0.009579893201589584,0.002226722426712513,-0.00027512924862094223,0.004053413402289152
0.006546505726873875,0.007868053391575813,-0.010155323892831802,0.0021183076314628124,-0.0002974978997372091,0.004229016602039337
0.006953603122383356,0.007861444726586342,-0.010495712049305439,0.0022286002058535814,-0.00029329516110010445,0.004080723039805889
0.00713729253038764,0.007572460919618607,-0.009274972602725029,0.0022325075697153807,-0.00027892470825463533,0.0038829846307635307
0.0070409756153821945,0.007490971125662327,-0.009931152686476707,0.0023912228643894196,-0.0002978979900944978,0.0037283143028616905
0.0066510653123259544,0.008761969394981861,-0.009490102529525757,0.0025475851725786924,-0.0002942328283097595,0.0036868618335574865
0.007056307513266802,0.008054242469370365,-0.008900982327759266,0.0023439419455826283,-0.0002817425993271172,0.003789895214140415
0.007515042554587126,0.007848449051380157,-0.010265760123729706,0.0024751608725637197,-0.000269721815129742,0.0038675121031701565
0.007076917216181755,0.00786183774471283,-0.009883078746497631,0.002354445168748498,-0.00029067351715639234,0.003425244940444827
0.0066499426029622555,0.008042489178478718,-0.00918459054082632,0.0023100764956325293,-0.00028361822478473186,0.003516684053465724
0.006814115215092897,0.008276266977190971,-0.01044234074652195,0.0023485783021897078,-0.00027314393082633615,0.003787827445194125
0.00683056702837348,0.0076786670833826065,-0.009919444099068642,0.0022698857355862856,-0.00026428577257320285,0.003924491815268993
0.007022971753031015,0.008174272254109383,-0.00930765364319086,0.002423827536404133,-0.000300679326755926,0.003480764804407954
0.006797541864216328,0.008158591575920582,-0.010698233731091022,0.002599756931886077,-0.00028515979647636414,0.0034471172839403152
0.0071512917056679726,0.008008223958313465,-0.009954032488167286,0.002778964815661311,-0.0003183276276104152,0.0033146345522254705
0.007438157685101032,0.007548810914158821,-0.009172063320875168,0.0026778425090014935,-0.0003410269564483315,0.003360098460689187
0.007027173414826393,0.008275375701487064,-0.010636991821229458,0.0025919766630977392,-0.00033480633283033967,0.0037099886685609818
0.006547784898430109,0.007810258772224188,-0.009785536676645279,0.002332389121875167,-0.0003522374026942998,0.003608361817896366
0.006755187176167965,0.008210506290197372,-0.009155591949820518,0.0023538123350590467,-0.00034590630093589425,0.0035491837188601494
0.007231371011584997,0.008187913335859776,-0.010761264711618423,0.0023716711439192295,-0.00033070752397179604,0.003610665211454034
0.006910431664437056,0.008172034285962582,-0.010026323609054089,0.0022510476410388947,-0.0004734706017188728,0.003508351044729352
0.006947708781808615,0.0076325577683746815,-0.009320887736976147,0.002106528729200363,-0.000449742452474311,0.003278748830780387
0.006947708781808615,0.0076325577683746815,-0.009320887736976147,0.002106528729200363,-0.000449742452474311,0.003278748830780387
0.007012638263404369,0.007402828894555569,-0.01029209140688181,0.0021061680745333433,-0.0004101949743926525,0.0030707321129739285
0.007390807848423719,0.007486233487725258,-0.009908599779009819,0.0028007053770124912,-0.00041150287142954767,0.0028573013842105865
0.007528252433985472,0.007126763463020325,-0.009955093264579773,0.0025888304226100445,-0.00038622261490672827,0.0030504080932587385
0.00775842135772109,0.0075627779588103294,-0.009690932929515839,0.0024486032780259848,-0.0003381040005479008,0.0027899486012756824
0.007684535346925259,0.007534200791269541,-0.01025999616831541,0.002294523874297738,-0.0003181824286002666,0.002596370643004775
0.007684535346925259,0.007534200791269541,-0.01025999616831541,0.002294523874297738,-0.0003181824286002666,0.002596370643004775
0.007134697400033474,0.00804923102259636,-0.01018605474382639,0.0023698650766164064,-0.000300494022667408,0.00259477854706347
0.007467217743396759,0.007943389937281609,-0.010082527995109558,0.0024344115518033504,-0.00031961448257789016,0.002607877366244793
0.008727299980819225,0.007790303323417902,-0.010832590982317924,0.0024372253101319075,-0.00031461374601349235,0.002515320433303714
0.006846471689641476,0.007361645810306072,-0.010106145404279232,0.0028395086992532015,-0.00030035627423785627,0.0024474479723721743
0.006393084302544594,0.007211033720523119,-0.00981108471751213,0.0030092576052993536,-0.00028670651954598725,0.0025049778632819653
0.0070988270454108715,0.007264525629580021,-0.01050488743931055,0.0029622679576277733,-0.00027423060964792967,0.0024413536302745342
0.0077030896209180355,0.008152944967150688,-0.00993255339562893,0.0027313793543726206,-0.00026278517907485366,0.0025343201123178005
0.007469760719686747,0.007313915994018316,-0.011088499799370766,0.0023749838583171368,-0.0002858466177713126,0.0026547436136752367
0.007364619988948107,0.007158801890909672,-0.011277335695922375,0.0022895210422575474,-0.00027705609682016075,0.0025808115024119616
0.007140450179576874,0.007562199607491493,-0.010159087367355824,0.0024722458329051733,-0.00026692741084843874,0.0023135722149163485
0.007868412882089615,0.007709375582635403,-0.010680746287107468,0.0025428002700209618,-0.00025739334523677826,0.00216787145473063
0.008339816704392433,0.007432500831782818,-0.010605954565107822,0.0024868722539395094,-0.0002485084696672857,0.0020267365034669638
0.007925589568912983,0.007439327891916037,-0.010003602132201195,0.0026389702688902617,-0.0002402163518127054,0.0019257791573181748
0.007060598582029343,0.006882090587168932,-0.010773774236440659,0.002807845361530781,-0.000232460253755562,0.0018415808444842696
0.008110849186778069,0.008144713938236237,-0.009857900440692902,0.003330561798065901,-0.0002084357402054593,0.0017575479578226805
0.007958262227475643,0.007895993068814278,-0.009655870497226715,0.003455233993008733,-0.00018475469551049173,0.0016294758534058928
0.007822896353900433,0.006839602254331112,-0.010836145840585232,0.0033538134302943945,-0.0001765167253324762,0.0016589427832514048
0.00690083671361208,0.00700113270431757,-0.010474367998540401,0.002999290358275175,-0.00016979077190626413,0.0017129377229139209
0.00690083671361208,0.00700113270431757,-0.010474367998540401,0.002999290358275175,-0.00016979077190626413,0.0017129377229139209
0.008115693926811218,0.008140211924910545,-0.010624730959534645,0.0030682263895869255,-0.0001733416720526293,0.001820400939323008
0.008115693926811218,0.008140211924910545,-0.010624730959534645,0.0030682263895869255,-0.0001733416720526293,0.001820400939323008
0.008228844963014126,0.0077419462613761425,-0.01011520903557539,0.0033806958235800266,-0.00018197223835159093,0.0018936506239697337
0.007961186580359936,0.007993979379534721,-0.010902934707701206,0.0032002022489905357,-0.00018540865858085454,0.001830050372518599
0.007840867154300213,0.006868841126561165,-0.010294918902218342,0.0031946920789778233,-0.00018797085795085877,0.001662089372985065
0.007840867154300213,0.006868841126561165,-0.010294918902218342,0.0031946920789778233,-0.00018797085795085877,0.001662089372985065
0.00782052893191576,0.0072529069148004055,-0.010405748151242733,0.003027525031939149,-0.00020189037604723126,0.0016889572143554688
0.007908979430794716,0.007424370385706425,-0.01007288321852684,0.0025891950353980064,-0.00020234622934367508,0.0015718091744929552
0.007697612512856722,0.007461980916559696,-0.010706249624490738,0.00222535477951169,-0.00019786649500019848,0.001469976268708706
0.007926171645522118,0.007092164363712072,-0.010857227258384228,0.0023512186016887426,-0.00031118106562644243,0.0014554498484358191
0.007843823172152042,0.006877749692648649,-0.009951738640666008,0.002363429171964526,-0.00032792420824989676,0.0013683951692655683
0.00783347338438034,0.00704343244433403,-0.01028805784881115,0.00266287918202579,-0.0003348613390699029,0.0013917849864810705
0.008144793100655079,0.007686656899750233,-0.010184841230511665,0.00262622837908566,-0.00031698468956165016,0.0013047888642176986
0.007666535675525665,0.006918315775692463,-0.010259545408189297,0.0026322996709495783,-0.00029951275791972876,0.0011696215951815248
0.008103416301310062,0.006910831667482853,-0.010250774212181568,0.0028159625362604856,-0.0002837744541466236,0.0010388747323304415
0.007930080406367779,0.007455887272953987,-0.010116079822182655,0.002856526058167219,-0.00029153170180507004,0.0009992035338655114
0.007891139946877956,0.007366155739873648,-0.009889793582260609,0.0028559595812112093,-0.0002980732824653387,0.0009823485743254423
0.007727291900664568,0.0068964469246566296,-0.010133129544556141,0.0031755645759403706,-0.00028587502310983837,0.0009842599974945188
0.007859944365918636,0.00729457288980484,-0.009981834329664707,0.00305973831564188,-0.00030740638612769544,0.0010971089359372854
0.00825619325041771,0.0071026962250471115,-0.010505887679755688,0.0030937071423977613,-0.00029927847208455205,0.0010710108326748013
0.008344490081071854,0.008111651986837387,-0.0104795191437006,0.0029366735834628344,-0.00032907939748838544,0.0010635768994688988
0.007726280018687248,0.007215839810669422,-0.01000296976417303,0.0028374074026942253,-0.00034360765130259097,0.0011330172419548035
0.008080319501459599,0.007313969545066357,-0.010440384969115257,0.002910094102844596,-0.00036894375807605684,0.001195841352455318
0.008368645794689655,0.0067727151326835155,-0.010490009561181068,0.0030321686062961817,-0.0003592815191950649,0.0010791246313601732
0.008372140116989613,0.00805341824889183,-0.009691641665995121,0.003171360120177269,-0.00037922681076452136,0.0010389998788014054
0.007856836542487144,0.007923400960862637,-0.010894871316850185,0.0034051844850182533,-0.0003699621884152293,0.0009213595185428858
0.008255531080067158,0.00678247818723321,-0.010408899746835232,0.0032980169635266066,-0.0003968217642977834,0.000804941519163549
0.008290400728583336,0.006502109579741955,-0.010019954293966293,0.0034973432775586843,-0.0003794090007431805,0.0006855198880657554
0.008202053606510162,0.007061622105538845,-0.010425586253404617,0.003642298746854067,-0.0005344284581951797,0.0005948522593826056
0.008202053606510162,0.007061622105538845,-0.010425586253404617,0.003642298746854067,-0.0005344284581951797,0.0005948522593826056
0.00824611634016037,0.007126585114747286,-0.009911679662764072,0.0033701120410114527,-0.0005241809994913638,0.0005633539985865355
0.00814079213887453,0.0068568079732358456,-0.01086361426860094,0.003103746334090829,-0.00048269383842125535,0.0005107976612634957
0.008025509305298328,0.007274084258824587,-0.010416632518172264,0.003205066081136465,-0.0005120188579894602,0.00046665454283356667
0.008842799812555313,0.0073814475908875465,-0.010422968305647373,0.003278125310316682,-0.0004776742134708911,0.00048203853657469153
0.008325223810970783,0.007305428385734558,-0.010501900687813759,0.003602348268032074,-0.0004990727757103741,0.0004628995666280389
0.008353210054337978,0.007365957368165255,-0.010127782821655273,0.0039328779093921185,-0.00047371769323945045,0.0004321933665778488
0.008668553084135056,0.0068036331795156,-0.010360082611441612,0.003988207783550024,-0.0005014051566831768,0.0004044960660394281
0.0086200051009655,0.006973151583224535,-0.010546568781137466,0.0036595375277101994,-0.00050420529441908,0.0003800858394242823
0.008308572694659233,0.007048455998301506,-0.010049156844615936,0.00345415691845119,-0.0004982191603630781,0.00035844952799379826
0.00849135871976614,0.0067731537856161594,-0.010560639202594757,0.0035889798309653997,-0.0005244468920864165,0.0003391466161701828
0.009069113060832024,0.007115790154784918,-0.010147422552108765,0.003331974847242236,-0.0005266842199489474,0.0003218167694285512
0.008329699747264385,0.007105203345417976,-0.010359403677284718,0.0032108209561556578,-0.0005203455802984536,0.00030617162701673806
0.008436874486505985,0.0068312291987240314,-0.010299642570316792,0.003224935382604599,-0.000641635968349874,0.0002919783000834286
0.008589329198002815,0.007468351162970066,-0.00997509341686964,0.0034266000147908926,-0.0006913408287800848,0.00027904295711778104
0.00841549038887024,0.0068114441819489,-0.009735211730003357,0.003585497848689556,-0.0007093803724274039,0.0002672048285603523
0.008665388450026512,0.006624418776482344,-0.010649973526597023,0.0034191037993878126,-0.0006699314690195024,0.00024661089992150664
0.008665388450026512,0.006624418776482344,-0.010649973526597023,0.0034191037993878126,-0.0006699314690195024,0.00024661089992150664
0.008596854284405708,0.006749111693352461,-0.009800936095416546,0.0035581018310040236,-0.0007334020920097828,9.374421642860398e-05
0.008561103604733944,0.007168083917349577,-0.010105110704898834,0.0033404934220016003,-0.0007651294581592083,8.033771155169234e-05
0.008681535720825195,0.006992187350988388,-0.010084886103868484,0.0035266587510704994,-0.0007540917140431702,7.632689812453464e-05
0.009188764728605747,0.007282912265509367,-0.010328833013772964,0.003672246355563402,-0.0007194867939688265,7.318338612094522e-05
0.009053193964064121,0.006598931271582842,-0.01013883762061596,0.003671360434964299,-0.0007284263265319169,7.032145367702469e-05
0.008589335717260838,0.006634684279561043,-0.009952252730727196,0.003295263973996043,-0.0006735885981470346,6.767680315533653e-05
0.009216935373842716,0.007047339808195829,-0.01000921055674553,0.003403827315196395,-0.0007013755384832621,3.482143802102655e-05
0.00919272005558014,0.007117369212210178,-0.010329482145607471,0.003641903167590499,-0.0007195241050794721,3.1615800253348425e-05
0.00919272005558014,0.007117369212210178,-0.010329482145607471,0.003641903167590499,-0.0007195241050794721,3.1615800253348425e-05
0.00921937357634306,0.0064941649325191975,-0.009953725151717663,0.003759136190637946,-0.0006738235242664814,1.4991637726780027e-05
0.009473185986280441,0.006663823034614325,-0.010327237658202648,0.0034442790783941746,-0.0006909964722581208,9.788468560145702e-07
0.009277625940740108,0.006800333969295025,-0.009848838672041893,0.003219488775357604,-0.0006971980910748243,6.391169904418348e-08
0.008981158025562763,0.006600905675441027,-0.010709191672503948,0.003183293156325817,-0.0006572537822648883,4.172977519090182e-09
0.009540220722556114,0.006574870552867651,-0.010220542550086975,0.003538008313626051,-0.0006836959510110319,2.724656056329877e-10
0.00922307651489973,0.0066037531942129135,-0.010095986537635326,0.003837435506284237,-0.0006131874397397041,1.779005762148067e-11
0.009458713233470917,0.006832220125943422,-0.010191801004111767,0.0036109951324760914,-0.0006361510022543371,1.1615635753595144e-12
0.009681958705186844,0.006980246864259243,-0.009887040592730045,0.003553990740329027,-0.000654586823657155,7.584181221410857e-14
0.009355297312140465,0.006582076195627451,-0.009874030947685242,0.0036451963242143393,-0.0006624737870879471,4.9519286749193005e-15
0.008769922889769077,0.0064217159524559975,-0.010526055470108986,0.003675056155771017,-0.000685007544234395,-0.0008426157874055207
0.009298864752054214,0.0072347912937402725,-0.008969930931925774,0.0037405306939035654,-0.0006580027984455228,-0.000982554629445076
0.00964701920747757,0.006947988178580999,-0.010082446970045567,0.003402648027986288,-0.0006808843463659286,-0.0010014509316533804
0.009319650009274483,0.006203357595950365,-0.01095316931605339,0.003475489327684045,-0.000684803060721606,-0.0015066054183989763
0.010030441917479038,0.006644287146627903,-0.010004088282585144,0.0037092827260494232,-0.0006438771379180253,-0.001500929007306695
0.009662371128797531,0.00625826558098197,-0.009531696327030659,0.004415353760123253,-0.0005922096315771341,-0.0016918261535465717
0.009207142516970634,0.006613391451537609,-0.01065481174737215,0.004163670819252729,-0.0006053031538613141,-0.0017453907057642937
0.009053485468029976,0.0070505267940461636,-0.010488923639059067,0.0036194580607116222,-0.0005526408203877509,-0.0017561602871865034
0.009751278907060623,0.006668081507086754,-0.009927194565534592,0.0033629974350333214,-0.0004933783784508705,-0.001793626113794744
0.009536565281450748,0.0063371798023581505,-0.010156601667404175,0.0033102419693022966,-0.0004446432867553085,-0.001878152135759592
0.009544053114950657,0.007080195005983114,-0.010692492127418518,0.003862809156998992,-0.0004638842074200511,-0.001896392903290689
0.010246824473142624,0.006811157334595919,-0.010400987230241299,0.004098665434867144,-0.000444029807113111,-0.0019248304888606071
0.010093295946717262,0.0066999043338000774,-0.010689804330468178,0.004038187209516764,-0.0004113783943466842,-0.0021138801239430904
0.00972994975745678,0.006420779507607222,-0.010005390271544456,0.004344937391579151,-0.00038231172948144376,-0.00370286894030869
0.009701737202703953,0.006521922070533037,-0.010578167624771595,0.00418217433616519,-0.0004123680992051959,-0.004081465303897858
0.009511245414614677,0.006556124426424503,-0.01038369257003069,0.003925851546227932,-0.00039041342097334564,-0.0038489841390401125
0.009540852159261703,0.006627868860960007,-0.010257399640977383,0.004154664929956198,-0.00039343078969977796,-0.0031865232158452272
0.009540852159261703,0.006627868860960007,-0.010257399640977383,0.004154664929956198,-0.00039343078969977796,-0.0031865232158452272
0.010503829456865788,0.006564085837453604,-0.010898125357925892,0.004167051985859871,-0.00039544745231978595,-0.0027496276888996363
0.009861589409410954,0.007285415660589933,-0.009688016027212143,0.0038698874413967133,-0.00033536579576320946,-0.0031796805560588837
0.010096121579408646,0.006787186022847891,-0.01085732039064169,0.00477853137999773,-0.0003649821737781167,-0.0037908144295215607
0.009946176782250404,0.0064518386498093605,-0.010426228865981102,0.00497925141826272,-0.0003989831602666527,-0.004291071090847254
0.01037401519715786,0.006638465449213982,-0.010423733852803707,0.004302702844142914,-0.00042237990419380367,-0.0043324800208210945
0.009887438267469406,0.006753507070243359,-0.010755634866654873,0.003811107948422432,-0.0006449213833548129,-0.004528432618826628
0.009641412645578384,0.006848547607660294,-0.010257501155138016,0.003965368960052729,-0.0008615328115411103,-0.004296962637454271
0.010143183171749115,0.006657472345978022,-0.010696819052100182,0.004192966502159834,-0.0008789213607087731,-0.003962405025959015
0.010615437291562557,0.006470083724707365,-0.010800478048622608,0.004111010115593672,-0.0008538941037841141,-0.0037684652488678694
0.009757999330759048,0.006948414258658886,-0.010817555710673332,0.00420457124710083,-0.0008086084271781147,-0.004034620244055986
0.00992079172283411,0.006901959422975779,-0.011359550058841705,0.004113505594432354,-0.0008478713571093976,-0.004556145519018173
0.010133420117199421,0.0073547447100281715,-0.010419074445962906,0.004409172106534243,-0.0008385652326978743,-0.004329045303165913
0.010360727086663246,0.006772196386009455,-0.010363198816776276,0.004131630063056946,-0.0007545661646872759,-0.004472086206078529
0.010101054795086384,0.006632720585912466,-0.011118871159851551,0.003853247268125415,-0.0007443215581588447,-0.004635706543922424
0.011655480600893497,0.00672447495162487,-0.010443522594869137,0.003690553829073906,-0.0006876817787997425,-0.0042626336216926575
0.009439798071980476,0.006971630733460188,-0.010621029883623123,0.003933703061193228,-0.0006977822631597519,-0.004399804398417473
0.010325828567147255,0.0066155134700238705,-0.010844557546079159,0.004197099711745977,-0.000645626278128475,-0.0049418057315051556
0.011370023712515831,0.00706925243139267,-0.010528621263802052,0.0046001519076526165,-0.0005925922305323184,-0.0050543383695185184
0.010548297315835953,0.006566306110471487,-0.011015508323907852,0.004553809762001038,-0.0006161810015328228,-0.005241557024419308
0.010789536871016026,0.006982359569519758,-0.011055201292037964,0.004213831853121519,-0.0006329048192128539,-0.005549410358071327
0.010511538945138454,0.006833354942500591,-0.0104787927120924,0.0038826861418783665,-0.0006574104772880673,-0.0053872582502663136
0.010511538945138454,0.006833354942500591,-0.0104787927120924,0.0038826861418783665,-0.0006574104772880673,-0.0053872582502663136
0.010221412405371666,0.0067422520369291306,-0.010835825465619564,0.004183556884527206,-0.000627422530669719,-0.005293774884194136
0.010734104551374912,0.007181614171713591,-0.01028887927532196,0.004104299005120993,-0.0008517774986103177,-0.0054623750038445
0.010005515068769455,0.007059152238070965,-0.010643460787832737,0.004297994077205658,-0.0008710995898582041,-0.005639929790049791
0.011408336460590363,0.006411327049136162,-0.01050465740263462,0.0044780271127820015,-0.0008045895374380052,-0.00562688522040844
0.010497786104679108,0.00639925803989172,-0.011154785752296448,0.00444725900888443,-0.000744748511351645,-0.005784588400274515
0.01093701645731926,0.006006214302033186,-0.01116848923265934,0.0043749515898525715,-0.0007389234961010516,-0.006399204023182392
0.010943194851279259,0.0065609002485871315,-0.011361048556864262,0.004408235661685467,-0.0007563983090221882,-0.0065377252176404
0.0107228709384799,0.0066850315779447556,-0.011464799754321575,0.004474608227610588,-0.0007311771041713655,-0.006348430644720793
0.010546714998781681,0.006521199829876423,-0.010938387364149094,0.0048699514009058475,-0.0006990580004639924,-0.005889254622161388
0.010728958994150162,0.006577939726412296,-0.010713324882090092,0.004994010552763939,-0.0007158314110711217,-0.005999472923576832
0.010789860971271992,0.006433828268200159,-0.011087767779827118,0.005147447809576988,-0.0007491523283533752,-0.006121289450675249
0.010878115892410278,0.006877557374536991,-0.01085605937987566,0.004547026939690113,-0.0007873422582633793,-0.0065332758240401745
0.010520696640014648,0.006539104972034693,-0.011091416701674461,0.004510137252509594,-0.0007878051837906241,-0.006782177835702896
0.010863622650504112,0.006635201629251242,-0.010930316522717476,0.0037645914126187563,-0.000773985346313566,-0.006651679053902626
0.010882606729865074,0.006106579210609198,-0.010800853371620178,0.004052202682942152,-0.0008527231402695179,-0.006773821078240871
0.010187651962041855,0.005753270350396633,-0.011232187040150166,0.004412396345287561,-0.0008928166353143752,-0.007167912553995848
0.010708408430218697,0.005516113713383675,-0.01078889425843954,0.005287753883749247,-0.0008301577181555331,-0.007562039885669947
0.010649354197084904,0.005667028948664665,-0.01078612171113491,0.005247778259217739,-0.0007235830998979509,-0.007577650714665651
0.010637208819389343,0.0052307527512311935,-0.011240278370678425,0.004947328940033913,-0.0007294725510291755,-0.007568791508674622
0.01084903720766306,0.005839215591549873,-0.010951259173452854,0.004860540386289358,-0.0006647580885328352,-0.0076318299397826195
0.010769061744213104,0.005558206234127283,-0.01114041730761528,0.0046716369688510895,-0.0006019662832841277,-0.007850944064557552
0.01097112987190485,0.005914580076932907,-0.010669276118278503,0.004717077594250441,-0.0005873747286386788,-0.007659426890313625
0.011070278473198414,0.005736986640840769,-0.010644454509019852,0.004966299515217543,-0.0005748829571530223,-0.006924809422343969
0.010769748128950596,0.005598955787718296,-0.011425601318478584,0.005552512593567371,-0.0005344405071809888,-0.007287957705557346
0.010710708796977997,0.005373576655983925,-0.01143734622746706,0.005138772539794445,-0.00049762730486691,-0.008624352514743805
0.01076577603816986,0.005352642387151718,-0.010860203765332699,0.004785484634339809,-0.00046835551620461047,-0.008316045626997948
0.011143842712044716,0.0055448319762945175,-0.01127307116985321,0.00467747263610363,-0.0003789413894992322,-0.008466963656246662
0.011143842712044716,0.0055448319762945175,-0.01127307116985321,0.00467747263610363,-0.0003789413894992322,-0.008466963656246662
0.011410407721996307,0.005485994275659323,-0.011142007075250149,0.004824046045541763,-0.00034644940751604736,-0.008505309000611305
0.011167132295668125,0.005061949137598276,-0.011552435345947742,0.004900031723082066,-0.00038123250124044716,-0.008539067581295967
0.011525572277605534,0.005415951367467642,-0.01084193866699934,0.004705403000116348,-0.0004340946616139263,-0.008576637133955956
0.011472621001303196,0.005084093660116196,-0.011724591255187988,0.004498982336372137,-0.00042246971861459315,-0.009246977977454662
0.011582679115235806,0.00554202264174819,-0.010651837103068829,0.0041010379791259766,-0.0006101395119912922,-0.009471741504967213
0.011523714289069176,0.005248357076197863,-0.011130974628031254,0.005309990141540766,-0.0006703565013594925,-0.008785268291831017
0.011519864201545715,0.004830502439290285,-0.01128822285681963,0.005407172720879316,-0.000697632844094187,-0.009249918162822723
0.011353963986039162,0.004682369530200958,-0.010682154446840286,0.005305034574121237,-0.0007120072841644287,-0.00913472380489111
0.011310357600450516,0.004797358997166157,-0.011380072683095932,0.004887188319116831,-0.0008599468856118619,-0.009891513735055923
0.011648610234260559,0.005131486803293228,-0.010967443697154522,0.005104865878820419,-0.0010012808488681912,-0.009428456425666809
0.011453766375780106,0.005639990326017141,-0.010942097753286362,0.005099132657051086,-0.0010287404293194413,-0.009453142993152142
0.011160928755998611,0.005204460583627224,-0.011142333038151264,0.005406896583735943,-0.0011921171098947525,-0.009524384513497353
0.012318254448473454,0.00481431744992733,-0.010860291309654713,0.005145368631929159,-0.001304673496633768,-0.009286473505198956
0.011412653140723705,0.005161055829375982,-0.011693117208778858,0.005225850734859705,-0.0012415495002642274,-0.009446948766708374
0.01157220359891653,0.005166556686162949,-0.011036966927349567,0.004965569823980331,-0.0011353568406775594,-0.009424894116818905
0.011405883356928825,0.004769590217620134,-0.01053587906062603,0.005009392276406288,-0.0011724933283403516,-0.009889611974358559
0.011178150773048401,0.0054655070416629314,-0.011481396853923798,0.005272270645946264,-0.0011276399018242955,-0.010723202489316463
0.011839703656733036,0.005283928010612726,-0.011633363552391529,0.005271966569125652,-0.0011106960009783506,-0.010464691556990147
0.011696484871208668,0.0049986084923148155,-0.011643839068710804,0.005358545109629631,-0.0012253832537680864,-0.010779994539916515
0.011636344715952873,0.004987624473869801,-0.011260578408837318,0.005429910961538553,-0.0012289517326280475,-0.010441540740430355
0.011985802091658115,0.004886274691671133,-0.01038456428796053,0.005149081815034151,-0.0011776696192100644,-0.01065977755934
0.011382262222468853,0.004839157219976187,-0.011326315812766552,0.005410900339484215,-0.0011704039061442018,-0.010866164229810238
0.01228390634059906,0.005148033145815134,-0.011451270431280136,0.0053080604411661625,-0.0012444499880075455,-0.01057949848473072
0.011603767052292824,0.004893163684755564,-0.011108324863016605,0.0050513301976025105,-0.0012319247471168637,-0.01032714918255806
0.011908558197319508,0.005049312952905893,-0.011557449586689472,0.005198041908442974,-0.0012475603725761175,-0.010622184723615646
0.012128295376896858,0.004877145402133465,-0.01096342597156763,0.0050815315917134285,-0.0013153791660442948,-0.011071553453803062
0.012128295376896858,0.004877145402133465,-0.01096342597156763,0.0050815315917134285,-0.0013153791660442948,-0.011071553453803062
0.012105743400752544,0.004883531015366316,-0.011211312375962734,0.005193489603698254,-0.0010101139778271317,-0.011007440276443958
0.01202131062746048,0.004874763078987598,-0.011517970822751522,0.005536674056202173,-0.0009473327081650496,-0.011226123198866844
0.012072454206645489,0.004725612699985504,-0.011076262220740318,0.005388032179325819,-0.0008360950741916895,-0.010980721563100815
0.012072454206645489,0.004725612699985504,-0.011076262220740318,0.005388032179325819,-0.0008360950741916895,-0.010980721563100815
0.012179282493889332,0.004540978465229273,-0.011573027819395065,0.005354337859898806,-0.0007834318093955517,-0.011262553744018078
0.012446566484868526,0.004621841944754124,-0.011432756669819355,0.0051636542193591595,-0.0007422086782753468,-0.011537058278918266
0.011996670626103878,0.004663998726755381,-0.011132748797535896,0.005685307085514069,-0.0007488231058232486,-0.011045079678297043
0.012244440615177155,0.004824879113584757,-0.01218433678150177,0.005558808334171772,-0.0006956617580726743,-0.01135769672691822
0.011945625767111778,0.004574062302708626,-0.011269163340330124,0.005967366974800825,-0.0006043713074177504,-0.011231479234993458
0.012178376317024231,0.004591044504195452,-0.011683250777423382,0.005469035357236862,-0.0006531746475957334,-0.011526915244758129
0.012313153594732285,0.0048959702253341675,-0.011367647908627987,0.005127939861267805,-0.0006898606079630554,-0.011501302942633629
0.012760058045387268,0.004401868209242821,-0.010800087824463844,0.005208674818277359,-0.0011556914541870356,-0.012000617571175098
0.01271736528724432,0.004459715913981199,-0.011352963745594025,0.005390581674873829,-0.0012337348889559507,-0.012587467208504677
0.012206235900521278,0.004129729699343443,-0.011431180872023106,0.005969358142465353,-0.0012135771103203297,-0.011794122867286205
0.012538010254502296,0.004464666359126568,-0.011207766830921173,0.005914112087339163,-0.0014090458862483501,-0.011733033694326878
0.012361305765807629,0.005020973272621632,-0.011014232411980629,0.005836262367665768,-0.0013429472455754876,-0.012129826471209526
0.012843088246881962,0.004961987026035786,-0.009680822491645813,0.0055921864695847034,-0.0012772465124726295,-0.012213343754410744
0.012876104563474655,0.004364325199276209,-0.012223295867443085,0.005663914140313864,-0.0014362279325723648,-0.012417525053024292
0.012784402817487717,0.004398620221763849,-0.011921340599656105,0.006111638154834509,-0.0013619859237223864,-0.012175383046269417
0.012795602902770042,0.004512856714427471,-0.011166175827383995,0.005682571325451136,-0.001323825097642839,-0.012141364626586437
0.012367848306894302,0.004568665288388729,-0.01101720705628395,0.005772999022156,-0.001292022760026157,-0.012113390490412712
0.012781747616827488,0.004872065037488937,-0.010757707990705967,0.005511462222784758,-0.0013058397453278303,-0.012206554412841797
0.012661107815802097,0.005243873223662376,-0.012135107070207596,0.005802306812256575,-0.001240624114871025,-0.01239603478461504
0.013405670411884785,0.004987269174307585,-0.011720383539795876,0.005935261026024818,-0.001189865986816585,-0.012896537780761719
0.01208389364182949,0.004799478687345982,-0.011231793090701103,0.006122671067714691,-0.001065874588675797,-0.012328093871474266
0.013055476360023022,0.004645866807550192,-0.011939140036702156,0.006234540604054928,-0.0010275073582306504,-0.011913570575416088
0.013089137151837349,0.005257666110992432,-0.01219096127897501,0.006060396786779165,-0.0012197352480143309,-0.011781900189816952
0.013246341608464718,0.004881224595010281,-0.011883367784321308,0.00615705968812108,-0.001316429697908461,-0.012135270051658154
0.01272911112755537,0.004898437298834324,-0.011728803627192974,0.006054948084056377,-0.0013141657691448927,-0.012632140889763832
0.013280666433274746,0.004861008375883102,-0.012201199308037758,0.005952627398073673,-0.0015511737437918782,-0.012652309611439705
0.013138966634869576,0.004735932685434818,-0.011022412218153477,0.006109015550464392,-0.0014502092963084579,-0.012856381945312023
0.013138966634869576,0.004735932685434818,-0.011022412218153477,0.006109015550464392,-0.0014502092963084579,-0.012856381945312023
0.013534121215343475,0.004294978454709053,-0.01168456394225359,0.006305577699095011,-0.0013478330802172422,-0.012555520981550217
0.01316024549305439,0.00442403182387352,-0.011702392250299454,0.006770910229533911,-0.0011710424441844225,-0.012695024721324444
0.01359409000724554,0.004466960206627846,-0.011805008165538311,0.006413078401237726,-0.0010888748802244663,-0.012585565447807312
0.013378871604800224,0.004544747993350029,-0.011912223882973194,0.00591891398653388,-0.001054110936820507,-0.012357976287603378
0.013584370724856853,0.004562017973512411,-0.011759030632674694,0.006114899646490812,-0.0010485819075256586,-0.01290592085570097
0.013274258933961391,0.004588398616760969,-0.012259564362466335,0.006151683162897825,-0.0010479659540578723,-0.012801198288798332
0.013593371957540512,0.0045094857923686504,-0.012040636502206326,0.00645996630191803,-0.0011145616881549358,-0.013308790512382984
0.013647577725350857,0.004405028652399778,-0.012027652002871037,0.00635180901736021,-0.001122594578191638,-0.013119998387992382
0.013589521870017052,0.004614407662302256,-0.012536309659481049,0.005824679043143988,-0.0011817117920145392,-0.01339589525014162
0.013682618737220764,0.004760552663356066,-0.012208819389343262,0.006039947737008333,-0.0011787957046180964,-0.013152304105460644
0.01359028834849596,0.004341275431215763,-0.01226369570940733,0.005741943139582872,-0.001208461239002645,-0.013493693433701992
0.013736728578805923,0.004392820410430431,-0.011767241172492504,0.006222641561180353,-0.001204226864501834,-0.013557828031480312
0.013540050946176052,0.004947952926158905,-0.012346820905804634,0.006312550976872444,-0.0012243053643032908,-0.013612902723252773
0.014709221199154854,0.004502091556787491,-0.012333070859313011,0.00598103879019618,-0.0012606538366526365,-0.013672289438545704
0.014874019660055637,0.004540158901363611,-0.012347621843218803,0.005906499456614256,-0.0013601221144199371,-0.013756468892097473
0.015181092545390129,0.004574659280478954,-0.012518108822405338,0.006020786240696907,-0.0014839475043118,-0.013708999380469322
0.014681997708976269,0.004519784823060036,-0.01196170225739479,0.006103678606450558,-0.0016371090896427631,-0.0135486526414752
0.014968564733862877,0.004555961582809687,-0.012635107152163982,0.006144113373011351,-0.00174433970823884,-0.013693486340343952
0.014968564733862877,0.004555961582809687,-0.012635107152163982,0.006144113373011351,-0.00174433970823884,-0.013693486340343952
0.01467233244329691,0.004435060545802116,-0.012944117188453674,0.006233290769159794,-0.001879376475699246,-0.014333451166749
0.01467233244329691,0.004435060545802116,-0.012944117188453674,0.006233290769159794,-0.001879376475699246,-0.014333451166749
0.014755704440176487,0.004521702416241169,-0.012516634538769722,0.006535362917929888,-0.001758897677063942,-0.014653065241873264
0.014930975623428822,0.004867227748036385,-0.012146451510488987,0.006849751807749271,-0.0015115974238142371,-0.014698774553835392
0.014892436563968658,0.0045206560753285885,-0.012012535706162453,0.0068342238664627075,-0.0012631266145035625,-0.014726630412042141
0.015107274986803532,0.004799169953912497,-0.01269424520432949,0.006714946590363979,-0.001193189644254744,-0.013859708793461323
0.015080509707331657,0.004833297338336706,-0.012230396270751953,0.006752257235348225,-0.001031088992021978,-0.01334738451987505
0.015041285194456577,0.004897380247712135,-0.01255558617413044,0.006474102381616831,-0.0008269879617728293,-0.013720701448619366
0.014960338361561298,0.004721781238913536,-0.012160265818238258,0.0063180457800626755,-0.0007809522794559598,-0.014237883500754833
0.015268991701304913,0.004383140709251165,-0.01206731516867876,0.007026254665106535,-0.0007928780978545547,-0.014161336235702038
0.015000458806753159,0.004336362238973379,-0.012594880536198616,0.007174887228757143,-0.0008186972117982805,-0.014274152927100658
0.015153161250054836,0.00449796998873353,-0.012455788441002369,0.0068662697449326515,-0.0010551372542977333,-0.014778083190321922
0.015227394178509712,0.004391345661133528,-0.012696291320025921,0.0066557377576828,-0.0012002356816083193,-0.01502352673560381
0.015508050099015236,0.004561443347483873,-0.012036691419780254,0.007086311466991901,-0.0017050415044650435,-0.015243131667375565
0.014905886724591255,0.004453957546502352,-0.012161931954324245,0.0070973969995975494,-0.001736326259560883,-0.014999011531472206
0.015214318409562111,0.004800246097147465,-0.012177927419543266,0.007557006552815437,-0.0017209649085998535,-0.014423292130231857
0.015397008508443832,0.004280487075448036,-0.012291532009840012,0.007106884848326445,-0.001737294951453805,-0.014859518967568874
0.015630440786480904,0.004408952780067921,-0.01232882495969534,0.00693882443010807,-0.001625635428354144,-0.01546846330165863
0.01576656848192215,0.004516121000051498,-0.01206960342824459,0.006676057819277048,-0.001572682405821979,-0.014726999215781689
0.015783410519361496,0.004363819491118193,-0.012490691617131233,0.0072936443611979485,-0.0014959739055484533,-0.015185179188847542
0.01558252889662981,0.004385883919894695,-0.011861113831400871,0.008034120313823223,-0.0015757449436932802,-0.015315722674131393
0.01510835625231266,0.004664369858801365,-0.012248891405761242,0.007581386715173721,-0.001728637726046145,-0.01605716533958912
0.015289139933884144,0.004850311670452356,-0.012279430404305458,0.007485728245228529,-0.0020033770706504583,-0.01643107831478119
0.015255657024681568,0.0046081338077783585,-0.012439058162271976,0.00810467079281807,-0.0021069846116006374,-0.015859492123126984
0.015465965494513512,0.004297856707125902,-0.012471688911318779,0.007811537478119135,-0.001839862554334104,-0.015815820544958115
0.015097443014383316,0.004063967149704695,-0.011790469288825989,0.007149877026677132,-0.0016319641144946218,-0.016251340508461
0.015518113039433956,0.003970031160861254,-0.012324322946369648,0.007170754950493574,-0.0015757331857457757,-0.016540953889489174
0.01507736649364233,0.004176564514636993,-0.01188148744404316,0.008102159947156906,-0.0014119154075160623,-0.016655031591653824
0.015662558376789093,0.004669332876801491,-0.012626170180737972,0.007776700425893068,-0.0014664928894490004,-0.016699735075235367
0.015192022547125816,0.004816022235900164,-0.012671674601733685,0.007428028620779514,-0.0013665296137332916,-0.016179364174604416
0.015192022547125816,0.004816022235900164,-0.012671674601733685,0.007428028620779514,-0.0013665296137332916,-0.016179364174604416
0.016237547621130943,0.004290854558348656,-0.011807833798229694,0.007641659118235111,-0.001260175253264606,-0.016633804887533188
0.01577909104526043,0.0041966792196035385,-0.012511155568063259,0.007236142177134752,-0.0013256203383207321,-0.016861865296959877
0.01577909104526043,0.0041966792196035385,-0.012511155568063259,0.007236142177134752,-0.0013256203383207321,-0.016861865296959877
0.015439092181622982,0.003952946048229933,-0.012455503456294537,0.007891872897744179,-0.0014438332291319966,-0.017162928357720375
0.015783224254846573,0.004085174761712551,-0.01222990732640028,0.008293642662465572,-0.0016039923066273332,-0.017699839547276497
0.015484663657844067,0.004670626483857632,-0.012064267881214619,0.008399173617362976,-0.001797272707335651,-0.01724899560213089
0.015877170488238335,0.004668399691581726,-0.012397829443216324,0.007707097567617893,-0.001683127018623054,-0.01733969897031784
0.015611736103892326,0.004280680324882269,-0.012266534380614758,0.008094558492302895,-0.001634292770177126,-0.017433399334549904
0.015863442793488503,0.004032360389828682,-0.011817937716841698,0.00843768659979105,-0.0014969755429774523,-0.01759764552116394
0.015890348702669144,0.003994892816990614,-0.012457706034183502,0.007985175587236881,-0.001381870242767036,-0.018020570278167725
0.016547169536352158,0.004346944857388735,-0.01202584058046341,0.007874407805502415,-0.0013220226392149925,-0.01773100160062313
0.016029024496674538,0.004377267323434353,-0.011839848011732101,0.007882020436227322,-0.0014095610240474343,-0.017646363005042076
0.016444141045212746,0.004409084562212229,-0.01224509160965681,0.0076028830371797085,-0.0018203179351985455,-0.017994992434978485
0.016520021483302116,0.00413729902356863,-0.011296894401311874,0.007535926066339016,-0.0018669249257072806,-0.017982088029384613
0.016192074865102768,0.0038275406695902348,-0.01314244419336319,0.007113516330718994,-0.001951096928678453,-0.0179975014179945
0.01703382469713688,0.0036901566199958324,-0.012055267579853535,0.007502645719796419,-0.0019328963244333863,-0.017915619537234306
0.015800556167960167,0.00423468230292201,-0.01218790840357542,0.00816144049167633,-0.0019025212386623025,-0.01811368577182293
0.01690439134836197,0.004063050262629986,-0.012465736828744411,0.0072678024880588055,-0.0016932906582951546,-0.018949387595057487
0.016644708812236786,0.0038530726451426744,-0.012015039101243019,0.00732717290520668,-0.0015245621325448155,-0.01880655623972416
0.016821686178445816,0.0041930340230464935,-0.01279392372816801,0.007898695766925812,-0.0012460829457268119,-0.018944423645734787
0.016656048595905304,0.004298530984669924,-0.011947414837777615,0.008171094581484795,-0.0011224800255149603,-0.019287720322608948
0.016777073964476585,0.004042692016810179,-0.012483667582273483,0.007868868298828602,-0.0011762799695134163,-0.01889004558324814
0.017450803890824318,0.003841659752652049,-0.012147877365350723,0.007771374192088842,-0.0011949421605095267,-0.019124232232570648
0.017450803890824318,0.003841659752652049,-0.012147877365350723,0.007771374192088842,-0.0011949421605095267,-0.019124232232570648
0.017130225896835327,0.0037990743294358253,-0.01283813826739788,0.008187837898731232,-0.0013775343541055918,-0.019811762496829033
0.01706424355506897,0.003919609822332859,-0.013120141811668873,0.007800976745784283,-0.0016196995275095105,-0.019301149994134903
0.01710946299135685,0.004011156037449837,-0.012531131505966187,0.007820948027074337,-0.001869605272077024,-0.019519610330462456
0.017371928319334984,0.003968408796936274,-0.012325703166425228,0.008373964577913284,-0.0019537501502782106,-0.020046550780534744
0.017134305089712143,0.004295869264751673,-0.013162991032004356,0.008440643548965454,-0.001898821908980608,-0.020355187356472015
0.016995824873447418,0.004309916403144598,-0.012594612315297127,0.008044464513659477,-0.0019273371435701847,-0.020301679149270058
0.017273733392357826,0.004054524004459381,-0.013051455840468407,0.008197193965315819,-0.0017828672425821424,-0.019842740148305893
0.01725977659225464,0.003474172903224826,-0.01293896697461605,0.00800613034516573,-0.0017947478918358684,-0.020034562796354294
0.017634887248277664,0.003482069121673703,-0.013323788531124592,0.00769144156947732,-0.0016990480944514275,-0.01979616843163967
0.017111122608184814,0.003762894542887807,-0.012977966107428074,0.007667781785130501,-0.0019105840474367142,-0.020018279552459717
0.017319854348897934,0.0038784025236964226,-0.012670719064772129,0.008558601140975952,-0.0018326028948649764,-0.019935745745897293
0.017575901001691818,0.003901501651853323,-0.013083916157484055,0.008226285688579082,-0.002122096251696348,-0.020233135670423508
0.017405308783054352,0.003775291610509157,-0.012873203493654728,0.008406931534409523,-0.00225772219710052,-0.020650368183851242
0.01779375597834587,0.003664495423436165,-0.013481033965945244,0.009069021791219711,-0.002089917892590165,-0.020541444420814514
0.017970263957977295,0.004111635033041239,-0.012518438510596752,0.008482650853693485,-0.0018186635570600629,-0.0205991193652153
0.018342066556215286,0.0036799719091504812,-0.01305182371288538,0.008404036983847618,-0.001407562755048275,-0.021019311621785164
0.018518712371587753,0.0035516980569809675,-0.01324766967445612,0.008460413664579391,-0.001275744172744453,-0.021380221471190453
0.018076809123158455,0.0032558487728238106,-0.013412920758128166,0.008755438029766083,-0.0012828874168917537,-0.021492118015885353
0.018103882670402527,0.0035463625099509954,-0.012996537610888481,0.008655807934701443,-0.0013427131343632936,-0.021519819274544716
0.018650008365511894,0.003844650462269783,-0.013527384027838707,0.00901833176612854,-0.0014488068409264088,-0.02182835340499878
0.018344871699810028,0.003993059042841196,-0.012911029160022736,0.008930930867791176,-0.002033407334238291,-0.021830851212143898
0.018780425190925598,0.003469049697741866,-0.012836912646889687,0.008519813418388367,-0.002082521328702569,-0.0216231532394886
0.01884070225059986,0.0034481696784496307,-0.013123755343258381,0.008602853864431381,-0.0019971139263361692,-0.02176598832011223
0.01836290955543518,0.0035469860304147005,-0.01285612303763628,0.008816744200885296,-0.0018776808865368366,-0.021808117628097534
0.01836290955543518,0.0035469860304147005,-0.01285612303763628,0.008816744200885296,-0.0018776808865368366,-0.021808117628097534
0.018222548067569733,0.0034917599987238646,-0.012977084144949913,0.008830878883600235,-0.0015943081816658378,-0.021892303600907326
0.018338579684495926,0.0033872544299811125,-0.012766916304826736,0.008487761951982975,-0.0015331212198361754,-0.02165387012064457
0.018550293520092964,0.0031740469858050346,-0.01309130247682333,0.007474882993847132,-0.0014797248877584934,-0.020587127655744553
0.01897449418902397,0.0038133091293275356,-0.01316412165760994,0.00888187438249588,-0.0016388894291594625,-0.02255813591182232
0.01852964609861374,0.003842752194032073,-0.013632907532155514,0.008749446831643581,-0.0020876391790807247,-0.02219340391457081
0.01865295320749283,0.003805471584200859,-0.013867899775505066,0.009001364931464195,-0.0021595542784780264,-0.022595670074224472
0.01865295320749283,0.003805471584200859,-0.013867899775505066,0.009001364931464195,-0.0021595542784780264,-0.022595670074224472
0.019620124250650406,0.0036174289416521788,-0.013194471597671509,0.008805658668279648,-0.0022906872909516096,-0.022115174680948257
0.019161544740200043,0.0034336792305111885,-0.013468564487993717,0.009279374964535236,-0.0020547749008983374,-0.022080423310399055
0.018190395087003708,0.003399636596441269,-0.013399144634604454,0.00916617177426815,-0.001859919517301023,-0.02125599794089794
0.019154153764247894,0.0033795798663049936,-0.013834379613399506,0.008594648912549019,-0.001849411753937602,-0.021665353327989578
0.018690166994929314,0.0034613043535500765,-0.012920396402478218,0.00867738388478756,-0.0017184586031362414,-0.022455498576164246
0.018137622624635696,0.0031885162461549044,-0.013448923826217651,0.009066809900105,-0.0018163942731916904,-0.022556934505701065
0.01908220164477825,0.0024306192062795162,-0.013201716355979443,0.008778374642133713,-0.001686911447905004,-0.02221319079399109
0.01939164474606514,0.0021594881545752287,-0.014032094739377499,0.007968339137732983,-0.001630699960514903,-0.022517673671245575
0.019238675013184547,0.0018978496082127094,-0.012949187308549881,0.008737577125430107,-0.001677177962847054,-0.023300109431147575
0.018970424309372902,0.002057492034509778,-0.013639336451888084,0.008955108001828194,-0.0018440817948430777,-0.02311273105442524
0.01914636231958866,0.002664570463821292,-0.013099705800414085,0.008473092690110207,-0.0019550775177776814,-0.022632915526628494
0.01926341839134693,0.0029640484135597944,-0.013474068604409695,0.00922920648008585,-0.0023579036351293325,-0.022059042006731033
0.019448915496468544,0.002743066754192114,-0.013512324541807175,0.009563674218952656,-0.0026427353732287884,-0.02232220396399498
0.019191479310393333,0.0023114276118576527,-0.013957134447991848,0.008870013058185577,-0.0025273272767663,-0.02305424027144909
0.019408337771892548,0.00215512840077281,-0.013455751352012157,0.009104816243052483,-0.0022500529885292053,-0.023836277425289154
0.019774271175265312,0.0018533756956458092,-0.013123961165547371,0.009324798360466957,-0.002051240997388959,-0.023895476013422012
0.019391123205423355,0.0018281190423294902,-0.013492615893483162,0.009558924473822117,-0.0018917603883892298,-0.023450186476111412
0.019289221614599228,0.0022211004979908466,-0.013397637754678726,0.008778360672295094,-0.0018591488478705287,-0.023471001535654068
0.019816260784864426,0.002372958231717348,-0.013702255673706532,0.009827917441725731,-0.001842870027758181,-0.023672208189964294
0.019793499261140823,0.0025629790034145117,-0.013225868344306946,0.00894508883357048,-0.001891742693260312,-0.02360578626394272
0.01946413516998291,0.002317911246791482,-0.014008966274559498,0.008423186838626862,-0.002044368302449584,-0.023777659982442856
0.019903820008039474,0.0019826062489300966,-0.013346169143915176,0.00894897524267435,-0.0021428377367556095,-0.023997854441404343
0.019903820008039474,0.0019826062489300966,-0.013346169143915176,0.00894897524267435,-0.0021428377367556095,-0.023997854441404343
0.020048147067427635,0.001735786208882928,-0.012504608370363712,0.008780729956924915,-0.002311157528311014,-0.02377678081393242
0.01990354247391224,0.001885137753561139,-0.013605148531496525,0.008647379465401173,-0.002187426434829831,-0.023749113082885742
0.02025727555155754,0.0021405937150120735,-0.013596481643617153,0.00930100865662098,-0.001999510917812586,-0.024336878210306168
0.020495960488915443,0.0023763838689774275,-0.013749183155596256,0.008659390732645988,-0.002147185616195202,-0.024642465636134148
0.020198648795485497,0.002136598341166973,-0.013553264550864697,0.00899466685950756,-0.0021390807814896107,-0.024592073634266853
0.02061261609196663,0.0020734895952045918,-0.014122847467660904,0.009191703982651234,-0.0020775622688233852,-0.023721463978290558
0.020316099748015404,0.001897852635011077,-0.013414700515568256,0.009418971836566925,-0.0017896724166348577,-0.02427911013364792
0.02012360841035843,0.0019332350930199027,-0.013814198784530163,0.009292771108448505,-0.0017699230229482055,-0.025135738775134087
0.020756352692842484,0.0017901213141158223,-0.013643083162605762,0.009502538479864597,-0.0016406751237809658,-0.025677980855107307
0.020570769906044006,0.0019736620597541332,-0.013605833053588867,0.009349135681986809,-0.001751692034304142,-0.025282708927989006
0.02042948082089424,0.002363533480092883,-0.013755998574197292,0.009714041836559772,-0.001640562666580081,-0.024461297318339348
0.020448267459869385,0.0023713905829936266,-0.013899460434913635,0.009865888394415379,-0.0017294175922870636,-0.02393311634659767
0.021084103733301163,0.0024982572067528963,-0.013630196452140808,0.009577177464962006,-0.0016905451193451881,-0.024807194247841835
0.02122916281223297,0.0021531495731323957,-0.013910824432969093,0.009944915771484375,-0.0016266023740172386,-0.02578047476708889
0.020959287881851196,0.0019239488756284118,-0.013878388330340385,0.009838794358074665,-0.0016682591522112489,-0.026017265394330025
0.021012119948863983,0.0018892919179052114,-0.013446282595396042,0.009293160401284695,-0.0015477680135518312,-0.02575726993381977
0.021248113363981247,0.0020458856597542763,-0.013663924299180508,0.009205569513142109,-0.0015470320358872414,-0.026361998170614243
0.021235769614577293,0.002242447342723608,-0.013145937584340572,0.009437084197998047,-0.0016011967090889812,-0.026462050154805183
0.020790010690689087,0.002476183697581291,-0.013973786495625973,0.009494280442595482,-0.002009597374126315,-0.025948800146579742
0.021377582103013992,0.0023188090417534113,-0.013522310182452202,0.009029297158122063,-0.0018814411014318466,-0.025687802582979202
0.02159186825156212,0.002237920882180333,-0.01399938389658928,0.010052315890789032,-0.0020532477647066116,-0.026207979768514633
0.02218308486044407,0.0020824973471462727,-0.013383844867348671,0.010041863657534122,-0.0018882228760048747,-0.02693246304988861
0.022090449929237366,0.0020064348354935646,-0.014343195594847202,0.009791838005185127,-0.0018138185841962695,-0.026794008910655975
0.02160302922129631,0.00196964293718338,-0.013999500311911106,0.01020076684653759,-0.00181410217192024,-0.02713221311569214
0.02154824323952198,0.001945383963175118,-0.014530004002153873,0.0107490299269557,-0.0020071440376341343,-0.027001027017831802
0.02151319943368435,0.0021803718991577625,-0.01371359545737505,0.010068041272461414,-0.001899612252600491,-0.02689952217042446
0.021246951073408127,0.002145191188901663,-0.014114978723227978,0.009966633282601833,-0.0018627456156536937,-0.026850251480937004
0.022167393937706947,0.0021201821509748697,-0.014058239758014679,0.010093375109136105,-0.0018555064452812076,-0.02633061818778515
0.022167393937706947,0.0021201821509748697,-0.014058239758014679,0.010093375109136105,-0.0018555064452812076,-0.02633061818778515
0.02205539308488369,0.0019770762883126736,-0.015005318447947502,0.009703547693789005,-0.0018672618316486478,-0.02732834964990616
0.022378642112016678,0.0019381538731977344,-0.014564965851604939,0.009962650015950203,-0.001783153391443193,-0.027618413791060448
0.022872060537338257,0.0019657581578940153,-0.01440985593944788,0.009736079722642899,-0.0018412169301882386,-0.02762194350361824
0.022333187982439995,0.0022498273756355047,-0.015369649045169353,0.01010483130812645,-0.0019805822521448135,-0.027697237208485603
0.023129699751734734,0.0021474773529917,-0.014235490933060646,0.010135209187865257,-0.0019618053920567036,-0.027872251346707344
0.021155765280127525,0.0022097297478467226,-0.01502971351146698,0.010156105272471905,-0.00220865267328918,-0.02805042825639248
0.02162051759660244,0.0020988606847822666,-0.014098210260272026,0.010761884041130543,-0.0020225478801876307,-0.027907872572541237
0.022330259904265404,0.0019904780201613903,-0.014882475137710571,0.010375929065048695,-0.002062204061076045,-0.02795906364917755
0.023148085922002792,0.0019408294465392828,-0.014669964089989662,0.010675872676074505,-0.0018918694695457816,-0.02798290364444256
0.023147476837038994,0.0017955306684598327,-0.015455428510904312,0.011572855524718761,-0.001943733193911612,-0.028540119528770447
0.02232261747121811,0.0017925456631928682,-0.014405876398086548,0.010459971614181995,-0.0018044952303171158,-0.028584137558937073
0.022625913843512535,0.0019438044400885701,-0.014886263757944107,0.010155562311410904,-0.0020237513817846775,-0.028424587100744247
0.022995978593826294,0.0019283283036202192,-0.014419129118323326,0.010500994510948658,-0.0021179714240133762,-0.02822239324450493
0.02304687537252903,0.0020143757574260235,-0.015127861872315407,0.010013539344072342,-0.002376576652750373,-0.028362354263663292
0.023143362253904343,0.0019638328813016415,-0.015018172562122345,0.01065213605761528,-0.0026137609966099262,-0.028833121061325073
0.02308991365134716,0.001922896015457809,-0.01510201022028923,0.0101827597245574,-0.002489276695996523,-0.029298046603798866
0.023133745416998863,0.0018936432898044586,-0.014696885831654072,0.00971321202814579,-0.002477724105119705,-0.02937832474708557
0.023675745353102684,0.0018714657053351402,-0.015136185102164745,0.010232703760266304,-0.0022459751926362514,-0.029325274750590324
0.02348845638334751,0.001856634276919067,-0.014954669401049614,0.010481370612978935,-0.0019486942328512669,-0.029395658522844315
0.02334313653409481,0.0018909481586888433,-0.014984827488660812,0.010715101845562458,-0.002008669776841998,-0.029448017477989197
0.023388013243675232,0.0018730609444901347,-0.015066524967551231,0.01100244652479887,-0.0020113226491957903,-0.029875267297029495
0.023570898920297623,0.001927257515490055,-0.015033780597150326,0.010306129232048988,-0.0020849893335253,-0.02976131998002529
0.02376675046980381,0.0018370503094047308,-0.015367708168923855,0.010317731648683548,-0.0021641755010932684,-0.03004664182662964
0.02405756711959839,0.0016227640444412827,-0.015111085027456284,0.011289317160844803,-0.0024452675133943558,-0.03015912137925625
0.023713765665888786,0.001680766581557691,-0.015212616883218288,0.010575350373983383,-0.0022548639681190252,-0.029519997537136078
0.023713765665888786,0.001680766581557691,-0.015212616883218288,0.010575350373983383,-0.0022548639681190252,-0.029519997537136078
0.023635106161236763,0.0015795864164829254,-0.014596150256693363,0.011391821317374706,-0.0021420198027044535,-0.03027339093387127
0.023862911388278008,0.0017668341752141714,-0.015192260965704918,0.01109069399535656,-0.0019355113618075848,-0.03139665350317955
0.023656195029616356,0.0016532398294657469,-0.014672421850264072,0.010449576191604137,-0.0018670095596462488,-0.03108193539083004
0.02412397786974907,0.001744697685353458,-0.014804976992309093,0.010711165145039558,-0.0020352944266051054,-0.029796628281474113
0.024080950766801834,0.0017608454218134284,-0.01509761344641447,0.011257397942245007,-0.0022253859788179398,-0.030889062210917473
0.024080950766801834,0.0017608454218134284,-0.01509761344641447,0.011257397942245007,-0.0022253859788179398,-0.030889062210917473
0.024208854883909225,0.0018030020873993635,-0.015162681229412556,0.01063491776585579,-0.0025028237141668797,-0.03219637647271156
0.02403249405324459,0.0016449128743261099,-0.015055656433105469,0.010877140797674656,-0.002408362925052643,-0.03290814161300659
0.02416996844112873,0.0016914446605369449,-0.015929657965898514,0.010712631046772003,-0.002352981362491846,-0.03186784312129021
0.02495841309428215,0.0017814295133575797,-0.015309260226786137,0.010309498757123947,-0.0023126297164708376,-0.030812690034508705
0.02514655515551567,0.0016592463944107294,-0.015477271750569344,0.010717828758060932,-0.002147527877241373,-0.031188322231173515
0.024932730942964554,0.00182612135540694,-0.015570909716188908,0.010879581794142723,-0.002277469029650092,-0.031731538474559784
0.024062834680080414,0.0016690229531377554,-0.015606020577251911,0.010454162955284119,-0.002377630677074194,-0.03154803067445755
0.02343601919710636,0.0017128355102613568,-0.01587812229990959,0.010949931107461452,-0.0023734611459076405,-0.03146635368466377
0.02431361936032772,0.0017382901860401034,-0.015601503662765026,0.01085632760077715,-0.0025598350912332535,-0.03145691007375717
0.024765994399785995,0.0018042379524558783,-0.01611228659749031,0.010622826404869556,-0.002513861982151866,-0.031668923795223236
0.024632208049297333,0.001804935629479587,-0.015511497855186462,0.010999550111591816,-0.002349667949602008,-0.031835462898015976
0.024280037730932236,0.0016174945048987865,-0.015697656199336052,0.01051308587193489,-0.002135365502908826,-0.03205987066030502
0.024810155853629112,0.0014701081672683358,-0.015106985345482826,0.011601787060499191,-0.002044513588771224,-0.03235892578959465
0.02534816600382328,0.0015218297485262156,-0.015788216143846512,0.011197605170309544,-0.002122174482792616,-0.03245442360639572
0.02421875298023224,0.0013522411463782191,-0.015521717257797718,0.010977489873766899,-0.0024156237486749887,-0.032523173838853836
0.024223484098911285,0.0014436423080042005,-0.01578366570174694,0.011241834610700607,-0.002631423296406865,-0.032628729939460754
0.02418697625398636,0.0013753699604421854,-0.015527472831308842,0.011109093204140663,-0.0027308776043355465,-0.03272119536995888
0.024537598714232445,0.0015645750099793077,-0.01573524810373783,0.011305756866931915,-0.002489442238584161,-0.03279990330338478
0.025054164230823517,0.0015543627087026834,-0.016285357996821404,0.011235586367547512,-0.0024463259615004063,-0.03328487277030945
0.024855779483914375,0.0014774220762774348,-0.01541737001389265,0.011220986023545265,-0.002022895961999893,-0.03485729172825813
0.02541462704539299,0.0015015887329354882,-0.016025252640247345,0.011812136508524418,-0.0019129684660583735,-0.03451969102025032
0.024855999276041985,0.0014246201608330011,-0.015740318223834038,0.011971424333751202,-0.002104804152622819,-0.0333382710814476
0.024855999276041985,0.0014246201608330011,-0.015740318223834038,0.011971424333751202,-0.002104804152622819,-0.0333382710814476
0.02489393576979637,0.0013557067140936852,-0.015460589900612831,0.011619161814451218,-0.0028116970788687468,-0.033958859741687775
0.02489393576979637,0.0013557067140936852,-0.015460589900612831,0.011619161814451218,-0.0028116970788687468,-0.033958859741687775
0.024900704622268677,0.0014698818558827043,-0.015905527397990227,0.011598577722907066,-0.0029419471975415945,-0.0354590006172657
0.02531309239566326,0.0014304020442068577,-0.016016526147723198,0.011699722148478031,-0.0027087584603577852,-0.03532259166240692
0.025469785556197166,0.0015606520464643836,-0.016333846375346184,0.011458608321845531,-0.0025035294238477945,-0.0333489291369915
0.025177141651511192,0.001643445109948516,-0.01589493453502655,0.011520116589963436,-0.002191305859014392,-0.032972920686006546
0.024967379868030548,0.001553084934130311,-0.016301531344652176,0.01110108569264412,-0.0022063811775296926,-0.0346602126955986
0.025516800582408905,0.001582278055138886,-0.01571844331920147,0.011727310717105865,-0.0022073357831686735,-0.035180192440748215
0.02566097490489483,0.001427901559509337,-0.016505194827914238,0.011926835402846336,-0.0022520541679114103,-0.03515245020389557
0.025484023615717888,0.0013661026023328304,-0.016100501641631126,0.012273840606212616,-0.0024892918299883604,-0.03478625789284706
0.025385424494743347,0.0011903757695108652,-0.016223233193159103,0.01230858825147152,-0.002512585371732712,-0.03479565307497978
0.02580013871192932,0.001135100843384862,-0.01615484245121479,0.012312964536249638,-0.002405842998996377,-0.03515670448541641
0.02550329826772213,0.0012358177918940783,-0.01660298928618431,0.011800193227827549,-0.0023757668677717447,-0.035287417471408844
0.02526037208735943,0.0013138959184288979,-0.016948692500591278,0.01206537988036871,-0.002193186432123184,-0.03573908284306526
0.025763167068362236,0.0013843714259564877,-0.016647297888994217,0.01249927468597889,-0.0022802373860031366,-0.035523295402526855
0.0254906564950943,0.001334449159912765,-0.016785020008683205,0.012266079895198345,-0.002497861860319972,-0.03592032566666603
0.025590913370251656,0.0012295192573219538,-0.016039924696087837,0.012098493985831738,-0.0024960909504443407,-0.035785604268312454
0.0257331021130085,0.00118956808000803,-0.01672663912177086,0.012041162699460983,-0.002848900156095624,-0.03556555137038231
0.026002276688814163,0.0012471505906432867,-0.017048493027687073,0.011534685268998146,-0.002922927960753441,-0.03527894243597984
0.02599192224442959,0.001302935997955501,-0.0165439210832119,0.011698604561388493,-0.003078643698245287,-0.03450660780072212
0.025836963206529617,0.0014185032341629267,-0.017704036086797714,0.011421794071793556,-0.002755258232355118,-0.036209408193826675
0.025803089141845703,0.0013381331227719784,-0.016811473295092583,0.011723054572939873,-0.002708434360101819,-0.036900900304317474
0.02602495066821575,0.0012704163091257215,-0.01734035834670067,0.012051445432007313,-0.0027034501545131207,-0.03610701113939285
0.02681967243552208,0.0012005941243842244,-0.017208056524395943,0.011918053962290287,-0.002707738196477294,-0.036410316824913025
0.026923194527626038,0.0011455010389909148,-0.016708172857761383,0.012019498273730278,-0.002591330325230956,-0.03693629428744316
0.026734599843621254,0.0010961127700284123,-0.016827648505568504,0.011831019073724747,-0.0026126783341169357,-0.036909352988004684
0.025695402175188065,0.0009789010509848595,-0.017062485218048096,0.01237732544541359,-0.00266952789388597,-0.036870017647743225
0.025695402175188065,0.0009789010509848595,-0.017062485218048096,0.01237732544541359,-0.00266952789388597,-0.036870017647743225
0.0263800211250782,0.0009201558423228562,-0.016982879489660263,0.012476871721446514,-0.002580660628154874,-0.03673988953232765
0.02688966877758503,0.0009166138479486108,-0.016899000853300095,0.012320157140493393,-0.0027179615572094917,-0.03659798949956894
0.026453310623764992,0.0009418109548278153,-0.01712869666516781,0.012840596958994865,-0.002797265537083149,-0.036249883472919464
0.027607446536421776,0.0011837189085781574,-0.01686238870024681,0.012985732406377792,-0.0028715787921100855,-0.03838292509317398
0.027444666251540184,0.0011388850398361683,-0.01787882298231125,0.012732871808111668,-0.003027226310223341,-0.03759419173002243
0.027336809784173965,0.0010261887218803167,-0.016962993890047073,0.012674459256231785,-0.0029968495946377516,-0.036305077373981476
0.02674325369298458,0.001005039899609983,-0.017339609563350677,0.012922459281980991,-0.002904751105234027,-0.03644782677292824
0.026300586760044098,0.0009855933021754026,-0.017733875662088394,0.012980817817151546,-0.0026944552082568407,-0.03727659955620766
0.02721407450735569,0.0009721842361614108,-0.01656624861061573,0.013200776651501656,-0.0029058910440653563,-0.03635969012975693
0.027577556669712067,0.0009694090695120394,-0.016951899975538254,0.013418084010481834,-0.0027539366856217384,-0.03911728784441948
0.027375468984246254,0.0010336177656427026,-0.016855251044034958,0.013622594065964222,-0.002615958219394088,-0.038030460476875305
0.02714531309902668,0.0010122719686478376,-0.017456069588661194,0.012889454141259193,-0.0027055649552494287,-0.036456674337387085
0.027073673903942108,0.000911842449568212,-0.017803506925702095,0.012918613851070404,-0.002834777347743511,-0.037356652319431305
0.027147388085722923,0.000806992466095835,-0.016834836453199387,0.01250921469181776,-0.002867891453206539,-0.03781456872820854
0.027560310438275337,0.00036886954330839217,-0.01697554998099804,0.012845122255384922,-0.0028915959410369396,-0.03766235336661339
0.02733655646443367,0.00040042161708697677,-0.017303604632616043,0.013116230256855488,-0.0029324316419661045,-0.03806444630026817
0.0274472925812006,0.0003879802825395018,-0.01723288930952549,0.01361752301454544,-0.0027810281608253717,-0.038354434072971344
0.027752814814448357,0.00033973297104239464,-0.017031829804182053,0.013425835408270359,-0.0024036953691393137,-0.03805284574627876
0.027873627841472626,0.00039799578371457756,-0.016668513417243958,0.013408833183348179,-0.0022240097168833017,-0.03851178288459778
0.02797458879649639,0.0003618044429458678,-0.017150754109025,0.01352124847471714,-0.002273841993883252,-0.038868069648742676
0.028015999123454094,0.00032879551872611046,-0.016840072348713875,0.013668898493051529,-0.0022990847937762737,-0.039266057312488556
0.028457675129175186,0.0003012721717823297,-0.01689017377793789,0.013300342485308647,-0.0027426518499851227,-0.03905227780342102
0.028336888179183006,0.00027799978852272034,-0.017108384519815445,0.012859559617936611,-0.0031189245637506247,-0.03939179703593254
0.028401857241988182,0.0002580666041467339,-0.01683877408504486,0.013404741883277893,-0.0032783891074359417,-0.0384831540286541
0.028501534834504128,0.00024080036382656544,-0.01724664494395256,0.012662171386182308,-0.0031599565409123898,-0.03944283351302147
0.028249502182006836,0.00022570107830688357,-0.016316767781972885,0.013411380350589752,-0.0029261093586683273,-0.04007633775472641
0.028249502182006836,0.00022570107830688357,-0.016316767781972885,0.013411380350589752,-0.0029261093586683273,-0.04007633775472641
0.0284857340157032,0.0002123835147358477,-0.01710587367415428,0.013187755830585957,-0.0027050862554460764,-0.04061788693070412
0.028459737077355385,0.00020055095956195146,-0.016743667423725128,0.013198944739997387,-0.0025775539688766003,-0.039300717413425446
0.02891320362687111,0.00018996688595507294,-0.017066340893507004,0.013050727546215057,-0.002509539946913719,-0.03819287195801735
0.02884184569120407,0.00017183039744850248,-0.016484159976243973,0.013666549697518349,-0.0028804249595850706,-0.040423814207315445
0.02972661890089512,0.00016400210733991116,-0.016828319057822227,0.013397018425166607,-0.0028832401148974895,-0.041962284594774246
0.029547888785600662,0.00011819229257525876,-0.016899684444069862,0.013706166297197342,-0.002844564151018858,-0.041203565895557404
0.028490250930190086,0.00011307801469229162,-0.017251580953598022,0.013302918523550034,-0.003025323385372758,-0.03910106047987938
0.028485741466283798,-4.0698003431316465e-05,-0.01784432679414749,0.01382229384034872,-0.00321392435580492,-0.040228839963674545
0.03001312166452408,-4.084501779288985e-05,-0.01696356199681759,0.013805299997329712,-0.003168849740177393,-0.041477642953395844
0.029429558664560318,-3.909737279172987e-05,-0.017406905069947243,0.014217673800885677,-0.003074158448725939,-0.04055682197213173
0.02985449507832527,-3.746991933439858e-05,-0.017037007957696915,0.01367873977869749,-0.0028268839232623577,-0.041023995727300644
0.029890645295381546,-1.4619924968428677e-06,-0.01698911003768444,0.014073235914111137,-0.0026690433733165264,-0.04176485911011696
0.030217841267585754,-1.96144931408071e-08,-0.017182348296046257,0.013852634467184544,-0.0027261769864708185,-0.04207104071974754
0.029563650488853455,-2.6315347123606614e-10,-0.017092928290367126,0.014214534312486649,-0.002751142717897892,-0.041907697916030884
0.02869069203734398,-3.530539359128393e-12,-0.01776786521077156,0.013835473917424679,-0.0029197949916124344,-0.04154146835207939
0.0294063501060009,-4.736668888605071e-14,-0.017418047413229942,0.014492670074105263,-0.003195374272763729,-0.04196418076753616
0.030372275039553642,-6.354845628534075e-16,-0.016866957768797874,0.014301781542599201,-0.0031915027648210526,-0.04239055886864662
0.03016391582787037,-8.525836600367762e-18,-0.01747797057032585,0.014831604436039925,-0.002844527130946517,-0.04212759807705879
0.03011021763086319,-1.1438496494688204e-19,-0.01757248118519783,0.014400774613022804,-0.002651782939210534,-0.042295731604099274
0.029836909845471382,-1.5346202681162732e-21,-0.018604867160320282,0.014693601056933403,-0.0027524109464138746,-0.042660221457481384
0.03044799715280533,-2.058888781759028e-23,-0.017752306535840034,0.01382760051637888,-0.0030944175086915493,-0.04316280037164688
0.03052522800862789,-2.762262526732185e-25,-0.017218369990587234,0.014138396829366684,-0.0032900713849812746,-0.04322531819343567
0.03070874698460102,-3.705927554656384e-27,-0.018242519348859787,0.013652870431542397,-0.003303979989141226,-0.043152280151844025
0.03070874698460102,-3.705927554656384e-27,-0.018242519348859787,0.013652870431542397,-0.003303979989141226,-0.043152280151844025
0.030908914282917976,-4.9719750268255657e-29,-0.017165927216410637,0.014179551042616367,-0.0033036009408533573,-0.04399804770946503
0.03097635693848133,-6.670538766198788e-31,-0.017785100266337395,0.013497015461325645,-0.0029929501470178366,-0.04389091581106186
0.031371425837278366,-1.200673462775775e-34,-0.017710693180561066,0.013841157779097557,-0.003000088268890977,-0.04311412572860718
0.030957868322730064,-1.6108568426837573e-36,-0.01659896969795227,0.013925984501838684,-0.002954126102849841,-0.044803231954574585
0.03125118091702461,-2.1611699327059068e-38,-0.018544893711805344,0.01371270976960659,-0.0032455048058182,-0.044575415551662445
0.031384773552417755,-2.899482704473052e-40,-0.018098074942827225,0.013902279548346996,-0.0036093504168093204,-0.0424380786716938
0.03156052157282829,-3.890004536965692e-42,-0.018003160133957863,0.013840517029166222,-0.003764548571780324,-0.04384196549654007
0.03147989511489868,-5.184804318001823e-44,-0.01726027950644493,0.014347766526043415,-0.0033507223706692457,-0.04464295879006386
0.031144751235842705,-0.0,-0.017979905009269714,0.014061057940125465,-0.003321413416415453,-0.04673180729150772
0.03188897296786308,-0.0,-0.01829202100634575,0.014567212201654911,-0.003298402763903141,-0.04384314641356468
0.031915247440338135,0.0,-0.017722632735967636,0.014453834854066372,-0.0033380065578967333,-0.04423660784959793
0.03170115873217583,0.0,-0.018428632989525795,0.015132511034607887,-0.0033980926964432,-0.045764628797769547
0.03223709017038345,0.0,-0.01837451197206974,0.014818932861089706,-0.003167293732985854,-0.04605860635638237
0.031945936381816864,0.0,-0.01819050870835781,0.01501680351793766,-0.002911259653046727,-0.045913565903902054
0.030504563823342323,0.0,-0.018431391566991806,0.014931237325072289,-0.002987163607031107,-0.04609194025397301
0.032386720180511475,-0.00013658814714290202,-0.017988210543990135,0.01544917095452547,-0.0033272095024585724,-0.04629344865679741
0.03287801146507263,-0.00016387271170970052,-0.01823391392827034,0.015155700035393238,-0.003685207571834326,-0.04623464122414589
0.03281756490468979,-0.00015853338118176907,-0.01880134455859661,0.015520964749157429,-0.0037685101851820946,-0.04686925560235977
0.03226384520530701,-0.00015314367192331702,-0.018143517896533012,0.014996632933616638,-0.0033617131412029266,-0.04692812263965607
0.03133060783147812,-0.00014810361608397216,-0.018664561212062836,0.015417279675602913,-0.0027962098829448223,-0.047027431428432465
0.03272431343793869,-0.00014338426990434527,-0.018446655943989754,0.01538394670933485,-0.0027882864233106375,-0.04688286408782005
0.032651349902153015,-0.00013895695155952126,-0.018139390274882317,0.016034988686442375,-0.0030809694435447454,-0.04827641323208809
0.03263109177350998,-0.0001585827994858846,-0.018681839108467102,0.016015488654375076,-0.003064506920054555,-0.047582730650901794
0.03356872871518135,-0.0001570066815475002,-0.01829008013010025,0.015463106334209442,-0.002963430481031537,-0.0491839200258255
0.03261280432343483,-0.00015261008229572326,-0.01823466271162033,0.015269485302269459,-0.003242023289203644,-0.04795330390334129
0.03261280432343483,-0.00015261008229572326,-0.01823466271162033,0.015269485302269459,-0.003242023289203644,-0.04795330390334129
0.0326998233795166,-0.0001656940730754286,-0.018167933449149132,0.015305379405617714,-0.0031547127291560173,-0.047369517385959625
0.03310820460319519,-0.0001640924165258184,-0.018590547144412994,0.015076951123774052,-0.0033666191156953573,-0.04920618608593941
0.0334845632314682,-0.00018013316730502993,-0.018782494589686394,0.015709202736616135,-0.0032167115714401007,-0.05039607733488083
0.033330440521240234,-0.00017825195391196758,-0.018322085961699486,0.015485585667192936,-0.0031193934846669436,-0.04792320728302002
0.03307180479168892,-0.00017397927877027541,-0.018860654905438423,0.015648355707526207,-0.00300375884398818,-0.04606655240058899
0.03287448361515999,-0.00027361619868315756,-0.018540935590863228,0.015169426798820496,-0.0029803267680108547,-0.04850682243704796
0.033265989273786545,-0.0002620227460283786,-0.01797473058104515,0.015693631023168564,-0.0031198051292449236,-0.04912183806300163
0.03361218050122261,-0.00029128952883183956,-0.01871686428785324,0.0155782550573349,-0.0031225960701704025,-0.04930218681693077
0.03341461345553398,-0.00028160811052657664,-0.018867433071136475,0.015749936923384666,-0.0034984115045517683,-0.048581622540950775
0.033011823892593384,-0.0002969597699120641,-0.018240109086036682,0.01553287822753191,-0.003733034711331129,-0.04848017543554306
0.0327475368976593,-0.00029737877775914967,-0.01833922229707241,0.015511319041252136,-0.00338326976634562,-0.04893406853079796
0.03315623477101326,-0.00031077663879841566,-0.0185664352029562,0.015483285300433636,-0.0031750050839036703,-0.04841991513967514
0.03205525130033493,-0.00031055236468091607,-0.018545687198638916,0.015589095652103424,-0.003143858164548874,-0.048870399594306946
0.033686332404613495,-0.0004386108194012195,-0.018912412226200104,0.015328381210565567,-0.0033723819069564342,-0.04904516041278839
0.034241266548633575,-0.00046285995631478727,-0.018562711775302887,0.014971251599490643,-0.0033972051460295916,-0.04787314310669899
0.0335024856030941,-0.0004944106331095099,-0.01898706704378128,0.0158270001411438,-0.0035770959220826626,-0.049311693757772446
0.03353139013051987,-0.0004613647470250726,-0.01949233189225197,0.015838831663131714,-0.0036830087192356586,-0.05057896673679352
0.03296506404876709,-0.0004930442664772272,-0.019006066024303436,0.0160458292812109,-0.0035805455408990383,-0.05019958317279816
0.03440413996577263,-0.0004597643855959177,-0.01942998170852661,0.01533469557762146,-0.0034632382448762655,-0.04982772842049599
0.03480304032564163,-0.00048239980242215097,-0.019439682364463806,0.016336746513843536,-0.0036065177991986275,-0.04976906254887581
0.03359522297978401,-0.00045844470150768757,-0.018872741609811783,0.01584983803331852,-0.003729419782757759,-0.051226936280727386
0.03292211517691612,-0.0005061805713921785,-0.01932193525135517,0.015028760768473148,-0.003364851465448737,-0.0511612668633461
0.0341532863676548,-0.0004893398145213723,-0.019845670089125633,0.015125962905585766,-0.0034164232201874256,-0.049357715994119644
0.03403439745306969,-0.0005263856728561223,-0.019481180235743523,0.015736591070890427,-0.003172721015289426,-0.05073755234479904
0.034291014075279236,-0.0005351293948478997,-0.01997831091284752,0.016011951491236687,-0.0032308539375662804,-0.05197989568114281
0.03519511967897415,-0.0005165896727703512,-0.020190054550766945,0.015580088831484318,-0.0032500606030225754,-0.05294625088572502
0.03479161858558655,-0.0005377777852118015,-0.01921062357723713,0.01552874781191349,-0.0034852128010243177,-0.05075230821967125
0.03368286043405533,-0.0005073986831121147,-0.01931700110435486,0.015214823186397552,-0.003709867363795638,-0.051849838346242905
0.03368286043405533,-0.0005073986831121147,-0.01931700110435486,0.015214823186397552,-0.003709867363795638,-0.051849838346242905
0.03544773533940315,-0.0006539245950989425,-0.021244008094072342,0.015290272422134876,-0.003733539953827858,-0.05236874893307686
0.03528307378292084,-0.0006729154265485704,-0.0198241975158453,0.016023311764001846,-0.0035118241794407368,-0.052543602883815765
0.035244911909103394,-0.0006951061077415943,-0.020211687311530113,0.015855697914958,-0.003630543127655983,-0.052255380898714066
0.03484785556793213,-0.0008317825850099325,-0.020151033997535706,0.016486281529068947,-0.0033093758393079042,-0.05258946493268013
0.034938983619213104,-0.0009286025888286531,-0.019718840718269348,0.016540586948394775,-0.0035290850792080164,-0.05314784497022629
0.034854162484407425,-0.0010152992326766253,-0.02034340798854828,0.016005417332053185,-0.0042087724432349205,-0.05204426497220993
0.03644317761063576,-0.0009394353837706149,-0.021008579060435295,0.015499587170779705,-0.0038654112722724676,-0.05348384007811546
0.03587399795651436,-0.0012252610176801682,-0.020948929712176323,0.015060586854815483,-0.003507735673338175,-0.054316699504852295
0.03565691411495209,-0.001128940493799746,-0.019550537690520287,0.015853775665163994,-0.0031431857496500015,-0.053408198058605194
0.03576839715242386,-0.0010922069195657969,-0.020374596118927002,0.016190437600016594,-0.0033193835988640785,-0.05314677953720093
0.03595918416976929,-0.0009863986633718014,-0.02202341891825199,0.01650659367442131,-0.0037243631668388844,-0.05474654212594032
0.03642401844263077,-0.0010089774150401354,-0.02137126587331295,0.016890253871679306,-0.004243120085448027,-0.05346587300300598
0.03624815493822098,-0.0010258295806124806,-0.020464356988668442,0.01701185666024685,-0.004004368558526039,-0.05342947691679001
0.03644321486353874,-0.0010265078162774444,-0.021129822358489037,0.01713685318827629,-0.0037259766831994057,-0.05420892685651779
0.03623568266630173,-0.0013610769528895617,-0.020588867366313934,0.016812777146697044,-0.0036455646622925997,-0.05644529312849045
0.036316875368356705,-0.0012866528704762459,-0.020515598356723785,0.017044270411133766,-0.0036556939594447613,-0.05353415757417679
0.036567769944667816,-0.0014126967871561646,-0.02146090567111969,0.01670009084045887,-0.003690500045195222,-0.053462009876966476
0.03711763024330139,-0.0015185110969468951,-0.022127043455839157,0.016696875914931297,-0.003696390660479665,-0.05507943034172058
0.03698477894067764,-0.0014436359051615,-0.020889822393655777,0.016795989125967026,-0.0036879589315503836,-0.05519910529255867
0.03698623180389404,-0.0015780605608597398,-0.02021033503115177,0.016748227179050446,-0.0036487113684415817,-0.05487940460443497
0.03750363364815712,-0.0014955345541238785,-0.02133936434984207,0.017487332224845886,-0.0037236707285046577,-0.05470215529203415
0.03752715513110161,-0.0015631401911377907,-0.021650196984410286,0.01736476458609104,-0.003367415862157941,-0.05491802468895912
0.038180161267519,-0.001628304016776383,-0.021566569805145264,0.01762864552438259,-0.0033989737275987864,-0.05543974041938782
0.03967894986271858,-0.0015416062669828534,-0.021000444889068604,0.01753360964357853,-0.0033213431015610695,-0.055655233561992645
0.036664772778749466,-0.001851576380431652,-0.02104835957288742,0.017228903248906136,-0.003473743097856641,-0.056040167808532715
0.03729919716715813,-0.0017597634578123689,-0.021512385457754135,0.017966043204069138,-0.0037573000881820917,-0.05577883496880531
0.03888430818915367,-0.002084428211674094,-0.021687710657715797,0.017738211899995804,-0.004237274639308453,-0.05512719973921776
0.03888430818915367,-0.002084428211674094,-0.021687710657715797,0.017738211899995804,-0.004237274639308453,-0.05512719973921776
0.03966093063354492,-0.002221746137365699,-0.021546918898820877,0.016933005303144455,-0.003336131339892745,-0.058422353118658066
0.03780381754040718,-0.0021140328608453274,-0.02131863869726658,0.01745261810719967,-0.0035168970935046673,-0.05785755068063736
0.03780381754040718,-0.0021140328608453274,-0.02131863869726658,0.01745261810719967,-0.0035168970935046673,-0.05785755068063736
0.03844014182686806,-0.002141347387805581,-0.021667640656232834,0.01720816269516945,-0.0037989546544849873,-0.05594080686569214
0.03928331285715103,-0.0020559499971568584,-0.021625233814120293,0.017543509602546692,-0.0038826579693704844,-0.05636737868189812
0.03926299512386322,-0.0022377423010766506,-0.021391605958342552,0.017584802582859993,-0.0035956508945673704,-0.05918695405125618
0.03938310593366623,-0.002508728764951229,-0.021034840494394302,0.017127785831689835,-0.003449207404628396,-0.05705399066209793
0.039419546723365784,-0.002449712948873639,-0.02150399051606655,0.017297441139817238,-0.0036251822020858526,-0.057032886892557144
0.03954848647117615,-0.0025910688564181328,-0.022100377827882767,0.017092177644371986,-0.0034001688472926617,-0.05775079503655434
0.039260655641555786,-0.0027218866162002087,-0.022808091714978218,0.01761684939265251,-0.003476243233308196,-0.05757226422429085
0.039831001311540604,-0.0025332581717520952,-0.02210971713066101,0.018330592662096024,-0.0036569638177752495,-0.05703818425536156
0.039455346763134,-0.0025931454729288816,-0.0211825929582119,0.018315400928258896,-0.0037808427587151527,-0.05833514407277107
0.03962785750627518,-0.0027394758071750402,-0.021268997341394424,0.01853206753730774,-0.004214317072182894,-0.05853874236345291
0.03990054503083229,-0.003152484307065606,-0.02218952588737011,0.018717747181653976,-0.003648912301287055,-0.058320507407188416
0.03938562050461769,-0.0029109616298228502,-0.02239062264561653,0.018037399277091026,-0.0038646264001727104,-0.05753990635275841
0.03934761509299278,-0.003024411154910922,-0.022077469155192375,0.018208373337984085,-0.004240761511027813,-0.058095384389162064
0.04079370200634003,-0.002997283823788166,-0.021712463349103928,0.017645370215177536,-0.004072817973792553,-0.05833883583545685
0.041864629834890366,-0.002945799147710204,-0.022189229726791382,0.017897259443998337,-0.003890417516231537,-0.057860344648361206
0.039604946970939636,-0.002763418946415186,-0.023121342062950134,0.018398428335785866,-0.0038567427545785904,-0.05891460180282593
0.039289843291044235,-0.0029826846439391375,-0.022844498977065086,0.018366048112511635,-0.003862585173919797,-0.060012780129909515
0.041254136711359024,-0.003354815300554037,-0.022298043593764305,0.018919985741376877,-0.004252328537404537,-0.05765148997306824
0.0408223494887352,-0.0033039303962141275,-0.022592175751924515,0.0186941996216774,-0.004180564545094967,-0.05815466493368149
0.041633885353803635,-0.0034745680168271065,-0.022433331236243248,0.017823319882154465,-0.004129669163376093,-0.06071002781391144
0.041690174490213394,-0.003766400972381234,-0.02228539250791073,0.018458547070622444,-0.003992235288023949,-0.06018812954425812
0.04064808413386345,-0.0034067153465002775,-0.023330654948949814,0.018350431695580482,-0.003589476691558957,-0.05924329534173012
0.041447874158620834,-0.003608603263273835,-0.02336055040359497,0.018573107197880745,-0.003925994969904423,-0.059826698154211044
0.04136339947581291,-0.003331480547785759,-0.02262958697974682,0.018279770389199257,-0.003940904047340155,-0.06119865924119949
0.04137715697288513,-0.0033467442262917757,-0.02223665826022625,0.017846684902906418,-0.003680615685880184,-0.06089818477630615
0.04137715697288513,-0.0033467442262917757,-0.02223665826022625,0.017846684902906418,-0.003680615685880184,-0.06089818477630615
0.04114682227373123,-0.003378862515091896,-0.022059740498661995,0.017625506967306137,-0.003487730398774147,-0.0607193261384964
0.041632965207099915,-0.0036055014934390783,-0.022564642131328583,0.01748412474989891,-0.003558265045285225,-0.06101348251104355
0.04189854860305786,-0.004007840529084206,-0.022867729887366295,0.018141720443964005,-0.004076266661286354,-0.06152784079313278
0.04169110581278801,-0.0038480241782963276,-0.02270178683102131,0.01902693510055542,-0.005155846476554871,-0.06179867312312126
0.042079318314790726,-0.0035541069228202105,-0.02212659828364849,0.018849773332476616,-0.004126490093767643,-0.06214335560798645
0.04040311276912689,-0.0034529773984104395,-0.022330552339553833,0.019420970231294632,-0.0034229939337819815,-0.06208767741918564
0.042574357241392136,-0.0036451637279242277,-0.022798854857683182,0.019436392933130264,-0.0034177391789853573,-0.061367932707071304
0.04282369837164879,-0.004136557690799236,-0.02292580157518387,0.019122794270515442,-0.0038992310874164104,-0.06267168372869492
0.04202108457684517,-0.00449863588437438,-0.022933173924684525,0.01924636960029602,-0.003947640769183636,-0.0637839213013649
0.042423490434885025,-0.004062698222696781,-0.02194278873503208,0.01931130886077881,-0.0037750466726720333,-0.06079372391104698
0.04240308329463005,-0.0043600862845778465,-0.022105254232883453,0.019208787009119987,-0.004162792582064867,-0.062070440500974655
0.04294270649552345,-0.004119943827390671,-0.02300037071108818,0.019747521728277206,-0.004054888617247343,-0.06486140936613083
0.04285837337374687,-0.004441417288035154,-0.023056989535689354,0.02019345574080944,-0.0038719174917787313,-0.06198303401470184
0.042809393256902695,-0.004581024870276451,-0.022331342101097107,0.019616859033703804,-0.00372430426068604,-0.06189369037747383
