davideferrari95/blind_handover_controller/data/Test 106 - [2024-02-07 -- 16-22-03]/joint_states_data.csv
shoulder_pan_joint,shoulder_lift_joint,elbow_joint,wrist_1_joint,wrist_2_joint,wrist_3_joint
0.008886455558240414,-0.013095571659505367,-0.0231724064797163,0.04363206401467323,-0.0033950109500437975,0.009095249697566032
0.01005383301526308,-0.012427285313606262,-0.023350030183792114,0.04279972240328789,-0.0031632075551897287,0.008966362103819847
0.01005383301526308,-0.012427285313606262,-0.023350030183792114,0.04279972240328789,-0.0031632075551897287,0.008966362103819847
0.00901126954704523,-0.012789438478648663,-0.022461555898189545,0.0430370457470417,-0.0031988744158297777,0.009104056283831596
0.009119387716054916,-0.012612269259989262,-0.021941695362329483,0.04314693063497543,-0.0035348080564290285,0.009141892194747925
0.009119387716054916,-0.012612269259989262,-0.021941695362329483,0.04314693063497543,-0.0035348080564290285,0.009141892194747925
0.00902089849114418,-0.012701890431344509,-0.02267645299434662,0.04276405647397041,-0.0037421141751110554,0.009400417096912861
0.008792206645011902,-0.012747295200824738,-0.02313682809472084,0.042450740933418274,-0.0030453340150415897,0.009196552447974682
0.008792206645011902,-0.012747295200824738,-0.02313682809472084,0.042450740933418274,-0.0030453340150415897,0.009196552447974682
0.00888375099748373,-0.012774462811648846,-0.021943796426057816,0.04138439521193504,-0.0033206078223884106,0.008632326498627663
0.008494089357554913,-0.012538354843854904,-0.02245696447789669,0.041256602853536606,-0.003388168290257454,0.008769012056291103
0.00887293554842472,-0.012246623635292053,-0.022821903228759766,0.040375132113695145,-0.0035718295257538557,0.00900746788829565
0.009327195584774017,-0.012485348619520664,-0.022958293557167053,0.04031767696142197,-0.003805408952757716,0.009098255075514317
0.00848363246768713,-0.013041279278695583,-0.022365929558873177,0.040551573038101196,-0.003764062887057662,0.009065881371498108
0.008345379494130611,-0.012227308936417103,-0.022803599014878273,0.040619589388370514,-0.0035598655231297016,0.008611675351858139
0.008959473110735416,-0.01282062754034996,-0.023468058556318283,0.040759503841400146,-0.0036131981760263443,0.009082969278097153
0.008623512461781502,-0.012502397410571575,-0.023323889821767807,0.04026525840163231,-0.0032950839959084988,0.008699390105903149
0.00818543042987585,-0.013346167281270027,-0.022899361327290535,0.0402948297560215,-0.002996675670146942,0.008759903721511364
0.008828181773424149,-0.013177630491554737,-0.021820124238729477,0.04027114063501358,-0.0029309610836207867,0.009184915572404861
0.008671044372022152,-0.013387328013777733,-0.021998999640345573,0.03923390805721283,-0.002679620636627078,0.008776266127824783
0.008235917426645756,-0.013081667013466358,-0.022859077900648117,0.040406160056591034,-0.0029257559217512608,0.008798585273325443
0.008829557336866856,-0.013272587209939957,-0.023455824702978134,0.04130324721336365,-0.00302620860747993,0.008934044279158115
0.008262166753411293,-0.013105151243507862,-0.022669067606329918,0.039225418120622635,-0.00343356654047966,0.00888157170265913
0.008554095402359962,-0.013384646736085415,-0.021983914077281952,0.039703238755464554,-0.0034876097925007343,0.008696294389665127
0.008579423651099205,-0.013388628140091896,-0.022600555792450905,0.0398838110268116,-0.0033381229732185602,0.008638756349682808
0.00870856735855341,-0.01310601457953453,-0.022714965045452118,0.040030814707279205,-0.0030213112477213144,0.008828236721456051
0.008577937260270119,-0.013292185962200165,-0.022540003061294556,0.040288038551807404,-0.002575303427875042,0.008620910346508026
0.008679256774485111,-0.013123415410518646,-0.022252684459090233,0.03799876198172569,-0.0024981952738016844,0.008787566795945168
0.008679256774485111,-0.013123415410518646,-0.022252684459090233,0.03799876198172569,-0.0024981952738016844,0.008787566795945168
0.008502651937305927,-0.01357746496796608,-0.022366980090737343,0.037287913262844086,-0.002559041138738394,0.008998247794806957
0.008393879048526287,-0.013236334547400475,-0.023000335320830345,0.038511522114276886,-0.0032134195789694786,0.008725379593670368
0.008888740092515945,-0.013457157649099827,-0.022478554397821426,0.03918519243597984,-0.0032948467414826155,0.008758874610066414
0.008569875732064247,-0.01315154880285263,-0.022251710295677185,0.03811195492744446,-0.0035374651197344065,0.008832904510200024
0.008586037904024124,-0.013117596507072449,-0.022457191720604897,0.0379028283059597,-0.0024430248886346817,0.008993764407932758
0.008972832933068275,-0.013133988715708256,-0.022715497761964798,0.0377301461994648,-0.0022313243243843317,0.008623001165688038
0.008119321428239346,-0.01297425664961338,-0.02242603339254856,0.036588527262210846,-0.0021189372055232525,0.008638621307909489
0.008295270614326,-0.012834868393838406,-0.02241699956357479,0.037147156894207,-0.0023703102488070726,0.008702810853719711
0.00885121338069439,-0.012955625541508198,-0.02187713049352169,0.038228850811719894,-0.0025079853367060423,0.008683676831424236
0.00854086596518755,-0.012823930941522121,-0.0222797729074955,0.03722777217626572,-0.002681522164493799,0.008912305347621441
0.008658964186906815,-0.013114280998706818,-0.022880548611283302,0.036464083939790726,-0.0025321422144770622,0.008428758010268211
0.008378651924431324,-0.012928705662488937,-0.02176775597035885,0.0373973473906517,-0.0023078296799212694,0.008837892673909664
0.008185187354683876,-0.0131980050355196,-0.021050937473773956,0.037045810371637344,-0.002157444367185235,0.008922059088945389
0.008297011256217957,-0.012684302404522896,-0.02153105102479458,0.03828161209821701,-0.002042896579951048,0.008723244071006775
0.008340880274772644,-0.012612496502697468,-0.022005030885338783,0.037739530205726624,-0.0021653727162629366,0.008907518349587917
0.00889769196510315,-0.01236055139452219,-0.021727940067648888,0.036331553012132645,-0.0025371918454766273,0.008722681552171707
0.008632256649434566,-0.01276407390832901,-0.021563895046710968,0.03564927354454994,-0.0027205736842006445,0.0090110395103693
0.008328195661306381,-0.011788797564804554,-0.021268192678689957,0.03669733554124832,-0.002942910883575678,0.008532574400305748
0.00853284914046526,-0.012859022244811058,-0.021448159590363503,0.03695850446820259,-0.0025185206905007362,0.008143467828631401
0.008293897844851017,-0.013439353555440903,-0.02082814648747444,0.03645246475934982,-0.002133583649992943,0.008462142199277878
0.008374371565878391,-0.012541132047772408,-0.02094973996281624,0.036333076655864716,-0.0018293538596481085,0.008293505758047104
0.008378414437174797,-0.012879366055130959,-0.021096449345350266,0.03613322600722313,-0.0016856365837156773,0.008447900414466858
0.008378414437174797,-0.012879366055130959,-0.021096449345350266,0.03613322600722313,-0.0016856365837156773,0.008447900414466858
0.008233146741986275,-0.012581109069287777,-0.02086324244737625,0.03664269670844078,-0.0018325622659176588,0.008430762216448784
0.007716182619333267,-0.01266772672533989,-0.020265473052859306,0.03621703386306763,-0.0022019909229129553,0.008536924608051777
0.008914745412766933,-0.012097743339836597,-0.02108382061123848,0.0359770767390728,-0.0025764633901417255,0.008596330881118774
0.008192096836864948,-0.012144425883889198,-0.021447233855724335,0.03561805561184883,-0.002422706689685583,0.008006277494132519
0.008105126209557056,-0.012882173992693424,-0.021230237558484077,0.03555300831794739,-0.002258510095998645,0.008204403333365917
0.008065678179264069,-0.012265502475202084,-0.020882748067378998,0.036053162068128586,-0.0019727409817278385,0.008274679072201252
0.0082801328971982,-0.012862932868301868,-0.02116541564464569,0.03554050624370575,-0.0019037587335333228,0.008570179343223572
0.008202329277992249,-0.012359244748950005,-0.02096451446413994,0.03544112294912338,-0.0018877059919759631,0.008311842568218708
0.007645847741514444,-0.012416885234415531,-0.020787300541996956,0.03559397906064987,-0.0019885641522705555,0.008573031984269619
0.008112522773444653,-0.012178324162960052,-0.02167292684316635,0.03522694483399391,-0.002270226366817951,0.008338822051882744
0.008334707468748093,-0.01277802512049675,-0.021914882585406303,0.03462668135762215,-0.002165923360735178,0.008634566329419613
0.008474141359329224,-0.012348715215921402,-0.020831666886806488,0.03441903740167618,-0.002126020845025778,0.00833990890532732
0.00807119719684124,-0.012905191630125046,-0.020596174523234367,0.034439146518707275,-0.0021306159906089306,0.0077234115451574326
0.008199729025363922,-0.01226932741701603,-0.021030763164162636,0.034594111144542694,-0.00196294067427516,0.008023247122764587
0.008170334622263908,-0.012744873762130737,-0.02154867723584175,0.03463637828826904,-0.002018439583480358,0.007875816896557808
0.008184798061847687,-0.011977550573647022,-0.02134660631418228,0.0343194417655468,-0.0018589302198961377,0.007491926662623882
0.0084451949223876,-0.01194943767040968,-0.02074640616774559,0.034170400351285934,-0.0017777415923774242,0.007313275709748268
0.008221715688705444,-0.012298516929149628,-0.020902536809444427,0.03464324772357941,-0.0017851508455350995,0.007754536345601082
0.008055800572037697,-0.011724129319190979,-0.021044235676527023,0.03510277718305588,-0.0017391496803611517,0.007543726824223995
0.008062385953962803,-0.0125262551009655,-0.02131769433617592,0.033639661967754364,-0.0015631377464160323,0.007425937335938215
0.008738933131098747,-0.012643360532820225,-0.020877640694379807,0.0343937873840332,-0.0014242887264117599,0.007474473677575588
0.00804047379642725,-0.012329155579209328,-0.020915791392326355,0.033705271780490875,-0.0012680987128987908,0.007879257202148438
0.00797266699373722,-0.012488034553825855,-0.02031002938747406,0.03349839523434639,-0.0011078414972871542,0.0077646225690841675
0.008391330949962139,-0.012299028225243092,-0.020563824102282524,0.033391885459423065,-0.0011054493952542543,0.007992810569703579
0.008520055562257767,-0.013036317192018032,-0.020675307139754295,0.032765984535217285,-0.0011001694947481155,0.007642548065632582
0.008554448373615742,-0.012042362242937088,-0.021270424127578735,0.033117376267910004,-0.0013168174773454666,0.008051510900259018
0.008554448373615742,-0.012042362242937088,-0.021270424127578735,0.033117376267910004,-0.0013168174773454666,0.008051510900259018
0.008299009874463081,-0.01195977721363306,-0.02095360867679119,0.03355537727475166,-0.0016090704593807459,0.007855136878788471
0.008299009874463081,-0.01195977721363306,-0.02095360867679119,0.03355537727475166,-0.0016090704593807459,0.007855136878788471
0.008024104870855808,-0.011958991177380085,-0.020861487835645676,0.03189045935869217,-0.0017176695400848985,0.007824717089533806
0.008211868815124035,-0.012146645225584507,-0.02057207189500332,0.03189413622021675,-0.0016304206801578403,0.007675336208194494
0.008448847569525242,-0.011559344828128815,-0.020322006195783615,0.032486479729413986,-0.001550232176668942,0.00799465086311102
0.008220812305808067,-0.012422092258930206,-0.020434683188796043,0.03242061659693718,-0.001519338577054441,0.00797488447278738
0.008023436181247234,-0.01193626131862402,-0.02049875445663929,0.03291982784867287,-0.0014265700010582805,0.007755874190479517
0.0082167349755764,-0.012086646631360054,-0.020803064107894897,0.031914714723825455,-0.001248918822966516,0.008069237694144249
0.008435549214482307,-0.01214353647083044,-0.02076396904885769,0.031062329187989235,-0.0012039998546242714,0.007968446239829063
0.007830675691366196,-0.012511779554188251,-0.020179079845547676,0.03175879642367363,-0.0012006921460852027,0.00765854399651289
0.0077807242050766945,-0.011924783699214458,-0.02003052458167076,0.032997895032167435,-0.0011052523041144013,0.007621453143656254
0.008499750867486,-0.012178230099380016,-0.021030697971582413,0.03255625441670418,-0.0010017211316153407,0.007532237097620964
0.008345218375325203,-0.011911140754818916,-0.020482053980231285,0.0323447659611702,-0.0009580962941981852,0.007488500792533159
0.008210425265133381,-0.012174672447144985,-0.019487446174025536,0.03236923739314079,-0.0008790573920123279,0.007840939797461033
0.008370948024094105,-0.012344692833721638,-0.020109044387936592,0.03191922977566719,-0.0007650470361113548,0.007754610385745764
0.00840107724070549,-0.012478193268179893,-0.02041710540652275,0.03167470544576645,-0.0007505640969611704,0.007594643626362085
0.008215193636715412,-0.012208303436636925,-0.01943214051425457,0.031045861542224884,-0.0006841977592557669,0.007252823561429977
0.008353717625141144,-0.012051896192133427,-0.020176853984594345,0.03189225122332573,-0.0006574964500032365,0.007181086111813784
0.008248118683695793,-0.012928685173392296,-0.02036743052303791,0.03263482451438904,-0.0006348913884721696,0.007796956691890955
0.008217736147344112,-0.012698622420430183,-0.020008420571684837,0.03177348151803017,-0.0006561552290804684,0.007628256920725107
0.00798924919217825,-0.01278684288263321,-0.01965690404176712,0.030913254246115685,-0.0006336928345263004,0.007411941420286894
0.008345145732164383,-0.012852305546402931,-0.019977737218141556,0.031666453927755356,-0.0006504616467282176,0.007321199402213097
0.008842707611620426,-0.012694115750491619,-0.01925404742360115,0.03205336257815361,-0.0006037988350726664,0.00785202905535698
0.008292748592793941,-0.013028762303292751,-0.019568372517824173,0.03078474849462509,-0.0005445425631478429,0.007963638752698898
0.008224320597946644,-0.012403634376823902,-0.020349111407995224,0.032985836267471313,-0.0005712257698178291,0.006860972847789526
0.008224320597946644,-0.012403634376823902,-0.020349111407995224,0.032985836267471313,-0.0005712257698178291,0.006860972847789526
0.008749114349484444,-0.013086682185530663,-0.020661424845457077,0.03226683661341667,-0.0005282868514768779,0.0065650250762701035
0.008457573130726814,-0.012595871463418007,-0.019555283710360527,0.030823461711406708,-0.00048768401029519737,0.006884993985295296
0.008306155912578106,-0.013188979588449001,-0.020172780379652977,0.030374828726053238,-0.00048401026288047433,0.007211910095065832
0.008731886744499207,-0.012849013321101665,-0.0198148675262928,0.03007914312183857,-0.0004804314230568707,0.00780234532430768
0.008451215922832489,-0.01283599715679884,-0.018611453473567963,0.03073534183204174,-0.00047364222700707614,0.007517857011407614
0.008289928548038006,-0.012966331094503403,-0.01959873177111149,0.030001403763890266,-0.0004371646500658244,0.006697650533169508
0.008574379608035088,-0.012956204824149609,-0.02020837366580963,0.02955738827586174,-0.0004730767977889627,0.006293192971497774
0.009087176993489265,-0.013343170285224915,-0.019822366535663605,0.029675712808966637,-0.00043942860793322325,0.006840677000582218
0.008331364020705223,-0.013325810432434082,-0.020085087046027184,0.029929108917713165,-0.00044000547495670617,0.0075156050734221935
0.009019286371767521,-0.013058525510132313,-0.020639589056372643,0.02993365004658699,-0.00046699782251380384,0.007675796281546354
0.008634035475552082,-0.013134466484189034,-0.020213106647133827,0.029737722128629684,-0.0005867026629857719,0.007650130428373814
0.008455689996480942,-0.01262640580534935,-0.0194807481020689,0.030505001544952393,-0.0005914023495279253,0.007145966403186321
0.00946983601897955,-0.01290307566523552,-0.019753102213144302,0.03064168244600296,-0.0005760286585427821,0.007531596347689629
0.009486367926001549,-0.012950293719768524,-0.01991080492734909,0.030229955911636353,-0.0005871051689609885,0.0070783831179142
0.009027102962136269,-0.013339381664991379,-0.019349100068211555,0.02995041012763977,-0.000593606848269701,0.006815562956035137
0.008473510853946209,-0.012990996241569519,-0.019507039338350296,0.030024845153093338,-0.0005817791097797453,0.006798738148063421
0.009364831261336803,-0.012724661268293858,-0.019496120512485504,0.02974717691540718,-0.0005449643940664828,0.007166943978518248
0.008786357007920742,-0.013361276127398014,-0.020162861794233322,0.030010879039764404,-0.0006484035402536392,0.0072710695676505566
0.008646429516375065,-0.012748013250529766,-0.019901415333151817,0.03007018193602562,-0.0007083306554704905,0.007040919736027718
0.009239057078957558,-0.013562352396547794,-0.018940525129437447,0.02988464944064617,-0.0006613763980567455,0.006355459336191416
0.008960379287600517,-0.012712712399661541,-0.019408494234085083,0.02987992949783802,-0.0006796596571803093,0.006058423779904842
0.00901502650231123,-0.012939688749611378,-0.01991216279566288,0.029474729672074318,-0.0006258384673856199,0.0066578383557498455
0.010288224555552006,-0.012721715494990349,-0.019307341426610947,0.029218584299087524,-0.0005760654457844794,0.0070596616715192795
0.009116900153458118,-0.012870403937995434,-0.01945510506629944,0.029289545491337776,-0.0006108650704845786,0.0069924951530992985
0.008685230277478695,-0.012712749652564526,-0.019554320722818375,0.029777703806757927,-0.0005633289110846817,0.007381715811789036
0.009152267128229141,-0.012171552516520023,-0.01881207339465618,0.028741959482431412,-0.0005022547557018697,0.00668217521160841
0.009152267128229141,-0.012171552516520023,-0.01881207339465618,0.028741959482431412,-0.0005022547557018697,0.00668217521160841
0.009613696485757828,-0.012842442840337753,-0.019391242414712906,0.029762839898467064,-0.0005356741021387279,0.006495141889899969
0.009855207987129688,-0.012476494535803795,-0.019311726093292236,0.030053379014134407,-0.000492274237331003,0.006823946721851826
0.009206721559166908,-0.01286325603723526,-0.01876327395439148,0.029395047575235367,-0.0005066120647825301,0.006901178043335676
0.0096352007240057,-0.01140520628541708,-0.01922290213406086,0.02893981896340847,-0.0004847239179071039,0.006434612907469273
0.009044451639056206,-0.013017836958169937,-0.01876227743923664,0.029113197699189186,-0.00047899907804094255,0.006699779070913792
0.009378494694828987,-0.012417938560247421,-0.018879979848861694,0.029189104214310646,-0.0004508731362875551,0.006757433991879225
0.009577195160090923,-0.012157220393419266,-0.019053475931286812,0.02918878383934498,-0.00042440512333996594,0.0064673274755477905
0.009855220094323158,-0.012192334048449993,-0.018491849303245544,0.029318856075406075,-0.00040077988523989916,0.006440173368901014
0.009676001034677029,-0.012904033996164799,-0.01911952532827854,0.02945236675441265,-0.00037978729233145714,0.006610393524169922
0.009491637349128723,-0.011906840838491917,-0.01913842000067234,0.02903377264738083,-0.00033958040876314044,0.006125129293650389
0.00915528740733862,-0.012347880750894547,-0.018469182774424553,0.028217414394021034,-0.0003150317061226815,0.006140914745628834
0.009843935258686543,-0.012203533202409744,-0.01869238168001175,0.02838207222521305,-0.00029436172917485237,0.006534506566822529
0.009666424244642258,-0.012234477326273918,-0.01862737536430359,0.029598398134112358,-0.00027627593954093754,0.006707833614200354
0.008917340077459812,-0.012740633450448513,-0.018030662089586258,0.02968185767531395,-0.0002602875465527177,0.006447468884289265
0.009103008545935154,-0.011955591849982738,-0.018735673278570175,0.029023410752415657,-0.0002460502728354186,0.006313577760010958
0.009458712302148342,-0.012257338501513004,-0.018663283437490463,0.027855433523654938,-0.00023328968381974846,0.006246662233024836
0.009105895645916462,-0.012013554573059082,-0.018350202590227127,0.02802179381251335,-0.00022178790823090822,0.006166365928947926
0.00907069817185402,-0.011851996183395386,-0.018567096441984177,0.029745889827609062,-0.0002113672235282138,0.006612143944948912
0.009202525950968266,-0.011635172180831432,-0.018402326852083206,0.029829053208231926,-0.0002018822997342795,0.006707426160573959
0.009274071082472801,-0.011625926941633224,-0.018441159278154373,0.029842879623174667,-0.00021210656268522143,0.006282906513661146
0.009160272777080536,-0.012220394797623158,-0.018859803676605225,0.030166804790496826,-0.00022101787908468395,0.005962736438959837
0.009282712824642658,-0.011865608394145966,-0.017874930053949356,0.030154187232255936,-0.0002134315436705947,0.005637140478938818
0.009059974923729897,-0.012051626108586788,-0.01837502419948578,0.028618600219488144,-0.0002053873031400144,0.006231802515685558
0.010009391233325005,-0.011911454610526562,-0.01876698061823845,0.028113728389143944,-0.0001978654763661325,0.006576544139534235
0.00975505169481039,-0.01152747217565775,-0.017993252724409103,0.028852231800556183,-0.00019087076361756772,0.006371311843395233
0.00975505169481039,-0.01152747217565775,-0.017993252724409103,0.028852231800556183,-0.00019087076361756772,0.006371311843395233
0.009773241356015205,-0.010961879976093769,-0.01827744022011757,0.029570534825325012,-0.00017826713155955076,0.00608054269105196
0.009773241356015205,-0.010961879976093769,-0.01827744022011757,0.029570534825325012,-0.00017826713155955076,0.00608054269105196
0.009795709513127804,-0.010996065102517605,-0.018253544345498085,0.02972530387341976,-0.00017256943101529032,0.006145940162241459
0.009532926604151726,-0.010858272202312946,-0.018537010997533798,0.029248058795928955,-0.00016722484724596143,0.005483186338096857
0.009643075056374073,-0.010846815072000027,-0.018022898584604263,0.029198123142123222,-0.00016220116231124848,0.00572972884401679
0.00995329674333334,-0.0110741863027215,-0.01819472201168537,0.0290541835129261,-0.00015747100405860692,0.005461842752993107
0.009851810522377491,-0.011086449958384037,-0.018446700647473335,0.02861129678785801,-0.00014879230002406985,0.006154994945973158
0.009867428801953793,-0.01141829788684845,-0.019072046503424644,0.028076965361833572,-0.00014480207755696028,0.00607635360211134
0.009630732238292694,-0.010839540511369705,-0.018770815804600716,0.028161993250250816,-0.00014102039858698845,0.005456517916172743
0.01060041505843401,-0.010500059463083744,-0.017753273248672485,0.029046624898910522,-0.00013743105228058994,0.005570171866565943
0.010057051666080952,-0.010766933672130108,-0.017975647002458572,0.02885609306395054,-0.00013402012700680643,0.005803121719509363
0.009425998665392399,-0.010657260194420815,-0.018162112683057785,0.028137486428022385,-0.00013077430776320398,0.00626877648755908
0.010284069925546646,-0.010723739862442017,-0.018068388104438782,0.02694682776927948,-0.00012768205488100648,0.0062912884168326855
0.009920584969222546,-0.010382236912846565,-0.018472272902727127,0.02715877816081047,-0.00012473258539102972,0.005725337658077478
0.00927711371332407,-0.011060930788516998,-0.017850734293460846,0.028375785797834396,-0.00012191636778879911,0.005463022273033857
0.01049718726426363,-0.011172846890985966,-0.017661744728684425,0.027982400730252266,-0.00011922445992240682,0.005626663099974394
0.010191459208726883,-0.01124029140919447,-0.018178874626755714,0.028235312551259995,-0.0001166489819297567,0.0061537218280136585
0.009576956741511822,-0.010612870566546917,-0.017834793776273727,0.029121657833456993,-0.00011418232315918431,0.005783061031252146
0.010255583561956882,-0.010779962874948978,-0.018756477162241936,0.02833401970565319,-0.00011181781883351505,0.005747349467128515
0.010041147470474243,-0.010606128722429276,-0.018742941319942474,0.02729267254471779,-0.00010954935714835301,0.0055062249302864075
0.009774703532457352,-0.010971183888614178,-0.017872335389256477,0.02633914351463318,-0.00010737110278569162,0.005439380183815956
0.010114060714840889,-0.010819886811077595,-0.018582936376333237,0.02758093550801277,-0.00010527775157243013,0.005412105470895767
0.010358686558902264,-0.010927707888185978,-0.017569202929735184,0.028272932395339012,-0.00010326450865250081,0.0057188887149095535
0.009565865620970726,-0.01145180407911539,-0.018367035314440727,0.02769368700683117,-0.00010132682655239478,0.005479970946907997
0.010053757578134537,-0.01062000822275877,-0.017601411789655685,0.027598122134804726,-9.946045611286536e-05,0.00535222701728344
0.010513324290513992,-0.0106843626126647,-0.017603786662220955,0.027713298797607422,-9.76616283878684e-05,0.005353294778615236
0.010513324290513992,-0.0106843626126647,-0.017603786662220955,0.027713298797607422,-9.76616283878684e-05,0.005353294778615236
0.010185712948441505,-0.010773913934826851,-0.01831202022731304,0.027372298762202263,-9.4252398412209e-05,0.00523904524743557
0.010114762000739574,-0.011055085808038712,-0.017900513485074043,0.028391296043992043,-9.263544779969379e-05,0.004892939701676369
0.010047750547528267,-0.010697995312511921,-0.018337799236178398,0.02807752601802349,-9.107316873269156e-05,0.005119816865772009
0.010047750547528267,-0.010697995312511921,-0.018337799236178398,0.02807752601802349,-9.107316873269156e-05,0.005119816865772009
0.0101404320448637,-0.010806831531226635,-0.017809392884373665,0.02787366509437561,-8.956261444836855e-05,0.005198724567890167
0.010128944180905819,-0.011372164823114872,-0.017959851771593094,0.027492443099617958,-8.810138388071209e-05,0.004831732716411352
0.009879867546260357,-0.010816637426614761,-0.01844021864235401,0.026973847299814224,-8.668706868775189e-05,0.004858351778239012
0.010531297884881496,-0.011135093867778778,-0.018162358552217484,0.02679401822388172,-8.399045327678323e-05,0.0052676270715892315
0.010142331011593342,-0.010266825556755066,-0.018118122592568398,0.026868155226111412,-8.270402759080753e-05,0.004854255355894566
0.01043099258095026,-0.010807618498802185,-0.01756792701780796,0.02749919891357422,-8.145651372615248e-05,0.004637160338461399
0.009945453144609928,-0.011010518297553062,-0.0181921124458313,0.02711315266788006,-8.024605631362647e-05,0.004632305353879929
0.010268932208418846,-0.010672819800674915,-0.017659727483987808,0.027082396671175957,-6.676570046693087e-05,0.00464258249849081
0.010059056803584099,-0.010971546173095703,-0.017797088250517845,0.027161024510860443,-6.499855953734368e-05,0.004731165710836649
0.00996395107358694,-0.010808617807924747,-0.01824866235256195,0.027122199535369873,-6.402143480954692e-05,0.004657094366848469
0.010611061938107014,-0.010744387283921242,-0.017457783222198486,0.027146542444825172,-6.311999459285289e-05,0.004612157121300697
0.010763418860733509,-0.011025818064808846,-0.018120326101779938,0.02747361548244953,-6.224664684850723e-05,0.004647755529731512
0.010918952524662018,-0.010564071126282215,-0.01789514161646366,0.027296001091599464,-6.139738252386451e-05,0.004656028002500534
0.011241747997701168,-0.010617312043905258,-0.01742568612098694,0.026841409504413605,-6.057096106815152e-05,0.004900621250271797
0.011133267544209957,-0.010529094375669956,-0.017622552812099457,0.02682792954146862,-5.9766472986666486e-05,0.004648144356906414
0.011030729860067368,-0.010364700108766556,-0.017414193600416183,0.02716040425002575,-5.8983085182262585e-05,0.004614110104739666
0.010439707897603512,-0.010658028535544872,-0.01774352788925171,0.027154501527547836,-5.821999002364464e-05,0.004597329534590244
0.010562102310359478,-0.010533115826547146,-0.017699748277664185,0.027180077508091927,-5.747640534536913e-05,0.004586854018270969
0.011360693722963333,-0.01144692674279213,-0.017922667786478996,0.027421219274401665,-5.6044718803605065e-05,0.004449678584933281
0.011360693722963333,-0.01144692674279213,-0.017922667786478996,0.027421219274401665,-5.6044718803605065e-05,0.004449678584933281
0.00995855126529932,-0.010252445936203003,-0.017588108777999878,0.02775106392800808,-5.535531454370357e-05,0.004821978509426117
0.010423583909869194,-0.010077450424432755,-0.01764560304582119,0.02760397642850876,-4.5171764213591814e-05,0.00501509802415967
0.010870201513171196,-0.010383973829448223,-0.017578348517417908,0.027082083746790886,-4.331401942181401e-05,0.00483462680131197
0.010265910997986794,-0.010014069266617298,-0.017520476132631302,0.026211803779006004,-4.271428406354971e-05,0.004345625173300505
0.010630943812429905,-0.010663160122931004,-0.017987525090575218,0.027040164917707443,-4.220788105158135e-05,0.004003071691840887
0.011078650131821632,-0.01023812498897314,-0.017207682132720947,0.02751898020505905,-4.171839100308716e-05,0.0038437896873801947
0.010445065796375275,-0.009546598419547081,-0.017347542569041252,0.026519110426306725,-4.1240444261347875e-05,0.0040738545358181
0.010445065796375275,-0.009546598419547081,-0.017347542569041252,0.026519110426306725,-4.1240444261347875e-05,0.0040738545358181
0.01085922122001648,-0.009936351329088211,-0.017956538125872612,0.02585269883275032,-4.077336780028418e-05,0.004123528487980366
0.010791214182972908,-0.010562350042164326,-0.017239581793546677,0.026750333607196808,-4.031672506243922e-05,0.004334957338869572
0.010924301110208035,-0.009653205052018166,-0.0176121536642313,0.027608957141637802,-3.9870243199402466e-05,0.004038730636239052
0.010755057446658611,-0.009905670769512653,-0.01775492914021015,0.02658146433532238,-5.135746505402494e-06,0.004110227804630995
0.010924354195594788,-0.00911053828895092,-0.017407873645424843,0.025492673739790916,-2.1894495105811984e-08,0.004105695523321629
0.011038362048566341,-0.00980039406567812,-0.017056826502084732,0.026486827060580254,-1.4295541417297386e-09,0.003984720911830664
0.01050131767988205,-0.009590559639036655,-0.017489230260252953,0.026191074401140213,-9.333966932700832e-11,0.003496005665510893
0.010820534080266953,-0.009088839404284954,-0.017546268180012703,0.02600855380296707,1.240871824848e-05,0.003473977092653513
0.010591433383524418,-0.009864920750260353,-0.01724451221525669,0.02657102793455124,2.0644782125600614e-05,0.003675669664517045
0.010668676346540451,-0.009881868027150631,-0.017638279125094414,0.026542384177446365,2.0951429178239778e-05,0.0038113747723400593
0.010861855000257492,-0.009162205271422863,-0.0173154566437006,0.02616441808640957,2.074567601084709e-05,0.0038063786923885345
0.010362532921135426,-0.009842855855822563,-0.017590465024113655,0.02534599043428898,2.0511604816420004e-05,0.003740403801202774
0.01089668832719326,-0.009522601030766964,-0.01792854629456997,0.024600185453891754,2.910000694100745e-05,0.0036958481650799513
0.01097351498901844,-0.009196793660521507,-0.0176108255982399,0.02540004439651966,2.9995819204486907e-05,0.0032433997839689255
0.010531402193009853,-0.009165755473077297,-0.017489351332187653,0.02641887031495571,1.5074888324306812e-05,0.0029903980903327465
0.010656245984137058,-0.00969706755131483,-0.017404677346348763,0.026215091347694397,9.842824510997161e-07,0.0029982351697981358
0.01068200170993805,-0.008942468091845512,-0.017811274155974388,0.025583820417523384,6.426661514069565e-08,0.0033727851696312428
0.010974040254950523,-0.008916685357689857,-0.017597854137420654,0.02560066059231758,4.196150982238578e-09,0.004254251252859831
0.011177622713148594,-0.009363795630633831,-0.017306596040725708,0.02541380189359188,2.739786730820981e-10,0.00413102051243186
0.010825526900589466,-0.00891992636024952,-0.017841095104813576,0.024919195100665092,1.7888848388714074e-11,0.003493628231808543
0.011049267835915089,-0.008542558178305626,-0.017807386815547943,0.02508632279932499,1.1680139277644996e-12,0.003074192674830556
0.011220051907002926,-0.009723909199237823,-0.017506156116724014,0.025497134774923325,2.270801633130759e-05,0.002784397453069687
0.010732668451964855,-0.008670935407280922,-0.017687693238258362,0.025441214442253113,0.00027328895521350205,0.002980428282171488
0.011123573407530785,-0.008645966649055481,-0.016880979761481285,0.025636084377765656,0.0002998516138177365,0.002965213730931282
0.01124514825642109,-0.00809681136161089,-0.017511611804366112,0.025752082467079163,0.0003084105555899441,0.003152201185002923
0.01124514825642109,-0.00809681136161089,-0.017511611804366112,0.025752082467079163,0.0003084105555899441,0.003152201185002923
0.011111709289252758,-0.009602856822311878,-0.017333336174488068,0.024933848530054092,0.0002933338691946119,0.003295999253168702
0.01113627664744854,-0.008751388639211655,-0.017155583947896957,0.026018856093287468,0.00031847364152781665,0.003878264222294092
0.01078107301145792,-0.008611083962023258,-0.01734168455004692,0.02653343789279461,0.00030838671955280006,0.004154473077505827
0.011729232035577297,-0.00897308997809887,-0.016420694068074226,0.026677438989281654,0.0003253842005506158,0.003235202981159091
0.011858436278998852,-0.008066928014159203,-0.017307981848716736,0.026477878913283348,0.00032067327992990613,0.002978816395625472
0.011423518881201744,-0.008248290047049522,-0.01729491725564003,0.026026852428913116,0.00040410098154097795,0.0030118192080408335
0.011287217028439045,-0.009498543106019497,-0.017198583111166954,0.024923499673604965,0.00045452037011273205,0.003164083929732442
0.01104564219713211,-0.008646568283438683,-0.017714835703372955,0.02489628829061985,0.0004903524531982839,0.003062509000301361
0.01150223333388567,-0.008517800830304623,-0.01763506606221199,0.02602708898484707,0.0004234972584526986,0.0025113036390393972
0.011097798123955727,-0.008636709302663803,-0.016974765807390213,0.025295602157711983,0.0004535622720140964,0.002304947702214122
0.011748326942324638,-0.007990487851202488,-0.017009880393743515,0.025567974895238876,0.00042679201578721404,0.0025033364072442055
0.011944873258471489,-0.007625597529113293,-0.01771269366145134,0.026294292882084846,0.0003999431792180985,0.0030394326895475388
0.011539451777935028,-0.00799479614943266,-0.01685326360166073,0.025171227753162384,0.0004022245993837714,0.003567454172298312
0.011410427279770374,-0.008787945844233036,-0.017317386344075203,0.024620726704597473,0.00040377810364589095,0.0030644722282886505
0.011173363775014877,-0.008003306575119495,-0.017224321141839027,0.02458854764699936,0.0003838244010694325,0.002736529568210244
0.011510024778544903,-0.007758813444525003,-0.017248718068003654,0.024703091010451317,0.00036449043545871973,0.0026797123719006777
0.011886592023074627,-0.007578755728900433,-0.01732630282640457,0.025915347039699554,0.0003653835447039455,0.002565153641626239
0.012141386047005653,-0.007807621732354164,-0.016475986689329147,0.02595376968383789,0.00034467491786926985,0.0025969145353883505
0.01150041725486517,-0.007529040332883596,-0.017164267599582672,0.025167876854538918,0.00038019579369574785,0.0032206077594310045
0.010994329117238522,-0.007613583467900753,-0.016698794439435005,0.024770375341176987,0.00040287221781909466,0.0032199425622820854
0.011225794441998005,-0.007904237136244774,-0.01678936369717121,0.024866953492164612,0.00039179742452688515,0.002964347368106246
0.011526106856763363,-0.007420312147587538,-0.016962287947535515,0.02513173222541809,0.00041539911762811244,0.0026503782719373703
0.011246684938669205,-0.007311937864869833,-0.016502749174833298,0.025052661076188087,0.00039869543979875743,0.002328441711142659
0.011764014139771461,-0.008061109110713005,-0.016901986673474312,0.02520233578979969,0.0005744904628954828,0.00232936954125762
0.011704378761351109,-0.008338251151144505,-0.016489611938595772,0.02564731240272522,0.0005357085610739887,0.0026076985523104668
0.011613461188971996,-0.00772567093372345,-0.016815081238746643,0.025391587987542152,0.0005629888037219644,0.003272461472079158
0.011858523823320866,-0.007852147333323956,-0.01723513752222061,0.02531777322292328,0.0005200408049859107,0.0031760300043970346
0.011938188225030899,-0.00789408478885889,-0.017414182424545288,0.025175757706165314,0.0005132285295985639,0.002784580225124955
0.012077384628355503,-0.007703743409365416,-0.01752510480582714,0.025407128036022186,0.0005066879675723612,0.0023260964080691338
0.012077384628355503,-0.007703743409365416,-0.01752510480582714,0.025407128036022186,0.0005066879675723612,0.0023260964080691338
0.01178053580224514,-0.007408716715872288,-0.016820551827549934,0.025146804749965668,0.00047105830162763596,0.002003806410357356
0.012201173231005669,-0.007488654460757971,-0.01741594821214676,0.025396941229701042,0.0004688064509537071,0.0017385854152962565
0.012464648112654686,-0.007787166628986597,-0.017718907445669174,0.024583032354712486,0.0004663232830353081,0.0016199394594877958
0.012614906765520573,-0.007424581330269575,-0.017259569838643074,0.025330355390906334,0.00045021314872428775,0.0017850867006927729
0.012220880948007107,-0.007298204116523266,-0.017278727144002914,0.025886299088597298,0.0004428184765856713,0.0029934891499578953
0.012717762030661106,-0.007104715332388878,-0.01765104942023754,0.025385558605194092,0.0004599337698891759,0.0031210314482450485
0.012312682345509529,-0.00723386462777853,-0.017915600910782814,0.02529730275273323,0.0004909588606096804,0.002694920636713505
0.013031324371695518,-0.007197616156190634,-0.017621373757719994,0.025407271459698677,0.0004920253995805979,0.0024075268302112818
0.012548798695206642,-0.007239313330501318,-0.018050439655780792,0.02504545822739601,0.0007935403264127672,0.0022892740089446306
0.013036142103374004,-0.00745228910818696,-0.017496107146143913,0.025071531534194946,0.0007635581423528492,0.0021536927670240402
0.012915611267089844,-0.007687076926231384,-0.017810003831982613,0.025526711717247963,0.0007552727474831045,0.0022130876313894987
0.013184759765863419,-0.006864502094686031,-0.01785486564040184,0.025785747915506363,0.0007448039832524955,0.002147100633010268
0.012980371713638306,-0.007164016831666231,-0.016799671575427055,0.025636248290538788,0.0007153581827878952,0.0022220276296138763
0.0127957658842206,-0.007664669305086136,-0.017467407509684563,0.02534693479537964,0.0006988504901528358,0.0020423533860594034
0.013069018721580505,-0.007945479825139046,-0.017434824258089066,0.02524988166987896,0.0007416310254484415,0.0019203159026801586
0.012245177291333675,-0.007300235331058502,-0.017771894112229347,0.02511727437376976,0.000679952499922365,0.0018289448926225305
0.013020271435379982,-0.007589664775878191,-0.01772213913500309,0.025419386103749275,0.0006923659238964319,0.0017479890957474709
0.01257937029004097,-0.00768454372882843,-0.0163850337266922,0.025603733956813812,0.0006344372523017228,0.0018241272773593664
0.012934721074998379,-0.008323113434016705,-0.01746390201151371,0.025142967700958252,0.0006480386364273727,0.002254786668345332
0.013032691553235054,-0.008017389103770256,-0.01718144118785858,0.025088617578148842,0.0006645988905802369,0.0021591673139482737
0.012787716463208199,-0.007894488982856274,-0.01754767633974552,0.025343094021081924,0.0006319783278740942,0.00229099509306252
0.01263872254639864,-0.007868519052863121,-0.017489241436123848,0.02500629425048828,0.0006387021276168525,0.0020763969514518976
0.012862341478466988,-0.007652465719729662,-0.016810087487101555,0.024595249444246292,0.000593453471083194,0.001785209751687944
0.013590031303465366,-0.007426640018820763,-0.017555193975567818,0.024486742913722992,0.0006129946559667587,0.0016859142342582345
0.012899138033390045,-0.008129149675369263,-0.016724025830626488,0.024708405137062073,0.0005681989132426679,0.0014593983069062233
0.013559632003307343,-0.008023062720894814,-0.01691952347755432,0.02516530454158783,0.0005910239997319877,0.0014864858239889145
0.013207676820456982,-0.007937544956803322,-0.017181554809212685,0.024701552465558052,0.0006023463793098927,0.0016510032583028078
0.01359567977488041,-0.007678775582462549,-0.016513947397470474,0.024263976141810417,0.000643574632704258,0.001850984524935484
0.01316775195300579,-0.007965926080942154,-0.01744057796895504,0.02409471943974495,0.0006346860900521278,0.0016889084363356233
0.01316775195300579,-0.007965926080942154,-0.01744057796895504,0.02409471943974495,0.0006346860900521278,0.0016889084363356233
0.013664999976754189,-0.00851965881884098,-0.016820397228002548,0.02427671290934086,0.000615808239672333,0.0016637842636555433
0.013118775561451912,-0.007794216275215149,-0.01682382822036743,0.02503989264369011,0.0006382612627930939,0.0014341231435537338
0.013147024437785149,-0.007612023502588272,-0.01679944433271885,0.02429906837642193,0.0007892830763012171,0.0013691281201317906
0.013527839444577694,-0.0081423195078969,-0.017297297716140747,0.025271205231547356,0.000815180130302906,0.0009468377684243023
0.01354225818067789,-0.007803346961736679,-0.016644304618239403,0.02461608499288559,0.0008382259984500706,0.0009140227921307087
0.0136228883638978,-0.007625657599419355,-0.016978979110717773,0.02403176948428154,0.0008540053386241198,0.000910248956643045
0.013800431974232197,-0.007994779385626316,-0.016890155151486397,0.024150798097252846,0.0007932113367132843,0.0009087769431062043
0.013567464426159859,-0.008039439097046852,-0.016863051801919937,0.021905379369854927,0.0007952009327709675,0.001017491682432592
0.013922120444476604,-0.007472848519682884,-0.01705525815486908,0.02390468865633011,0.0007068976410664618,0.0011129071936011314
0.01305170077830553,-0.008121403865516186,-0.016170792281627655,0.024795178323984146,0.0006258452194742858,0.001590925850905478
0.014083161018788815,-0.008378098718822002,-0.016750577837228775,0.02452491968870163,0.0005607979255728424,0.0016116859624162316
0.013474898412823677,-0.0079742930829525,-0.01663031242787838,0.024259688332676888,0.0005865303101018071,0.0014259363524615765
0.013953372836112976,-0.007581666577607393,-0.016876444220542908,0.024121379479765892,0.0005412238533608615,0.001256573130376637
0.013658893294632435,-0.007938509806990623,-0.016830015927553177,0.024107521399855614,0.000564869842492044,0.0010738031705841422
0.014254574663937092,-0.008184188976883888,-0.016285279765725136,0.024464309215545654,0.0005277786403894424,0.0009343715501017869
0.014127250760793686,-0.00814131461083889,-0.016745392233133316,0.024450216442346573,0.00045375555055215955,0.0008268391829915345
0.014020600356161594,-0.00792739074677229,-0.016164258122444153,0.024050503969192505,0.0004623999702744186,0.0006234389147721231
0.013759352266788483,-0.00826022494584322,-0.016641972586512566,0.024375256150960922,0.0004778700531460345,0.0005349779385142028
0.014020309783518314,-0.008054398000240326,-0.016373123973608017,0.02465090900659561,0.0004755058034788817,0.0005656519206240773
0.013819434680044651,-0.007759631145745516,-0.01644980162382126,0.024441611021757126,0.0004908332484774292,0.0005913886707276106
0.014371270313858986,-0.0075906808488070965,-0.01677130162715912,0.023986060172319412,0.0004732319212052971,0.0006179879419505596
0.014035534113645554,-0.007886996492743492,-0.016255397349596024,0.02389853075146675,0.0005695148720405996,0.0007300716824829578
0.01415160857141018,-0.007635462563484907,-0.01663527637720108,0.024251248687505722,0.0006096915458329022,0.0007733589154668152
0.013826523907482624,-0.007301269099116325,-0.016016120091080666,0.024038024246692657,0.0006370560149662197,0.0007055175956338644
0.0140054477378726,-0.008091982454061508,-0.016753463074564934,0.023626629263162613,0.0005815059994347394,0.0007153557380661368
0.01384911872446537,-0.00827394612133503,-0.01637130044400692,0.023795457556843758,0.0006069609080441296,0.00065333500970155
0.01384911872446537,-0.00827394612133503,-0.01637130044400692,0.023795457556843758,0.0006069609080441296,0.00065333500970155
0.013887850567698479,-0.007833629846572876,-0.016603054478764534,0.024073341861367226,0.0005584693280979991,0.0006655047181993723
0.01403701864182949,-0.007685604505240917,-0.016813913360238075,0.02469693496823311,0.0005132760270498693,0.0006182561628520489
0.014077110216021538,-0.008029178716242313,-0.016519922763109207,0.02350461669266224,0.0005020956741645932,0.0005281315534375608
0.014268777333199978,-0.007663314696401358,-0.015995165333151817,0.023130709305405617,0.0004711883666459471,0.000486171105876565
0.014229812659323215,-0.007582038175314665,-0.01687929593026638,0.02321476675570011,0.0004423533391673118,0.00043776907841674984
0.014125549234449863,-0.007605765014886856,-0.016991151496767998,0.023680701851844788,0.00040616837213747203,0.00045728764962404966
0.014229288324713707,-0.007458086125552654,-0.017041733488440514,0.02402685582637787,0.00037141016218811274,0.00043822071165777743
0.014384238049387932,-0.007192452438175678,-0.01657121814787388,0.023992199450731277,0.0004021941567771137,0.0004063997766934335
0.014527836814522743,-0.0070806387811899185,-0.016584353521466255,0.024185430258512497,0.00038180509000085294,0.0004365860659163445
0.014505191706120968,-0.007503937929868698,-0.017220735549926758,0.02452569641172886,0.00040085887303575873,0.00041185831651091576
0.014318697154521942,-0.007896763272583485,-0.017336415126919746,0.023286225274205208,0.0003897436836268753,0.0003868092899210751
0.014173229224979877,-0.007219985593110323,-0.01721765659749508,0.023456139490008354,0.0003678720386233181,0.00041289342334493995
0.014483685605227947,-0.007087987381964922,-0.017253348603844643,0.023216627538204193,0.0003842339792754501,0.00039348172140307724
0.014503969810903072,-0.007332911714911461,-0.016954131424427032,0.023496320471167564,0.0003756539954338223,0.0003732824116013944
0.014357649721205235,-0.007504666224122047,-0.01700560189783573,0.024415280669927597,0.00035773409763351083,0.0003549164393916726
0.014433035627007484,-0.0072836922481656075,-0.016515914350748062,0.023876003921031952,0.00042381996172480285,0.0003385844174772501
0.01453363336622715,-0.007021723780781031,-0.017278270795941353,0.023728027939796448,0.00043773234938271344,0.00034381350269541144
0.01453363336622715,-0.007021723780781031,-0.017278270795941353,0.023728027939796448,0.00043773234938271344,0.00034381350269541144
0.014608540572226048,-0.007213671691715717,-0.017471101135015488,0.023620378226041794,0.00043810956412926316,0.00032129129976965487
0.014660739339888096,-0.007389544043689966,-0.017421940341591835,0.02444986253976822,0.0004073907621204853,0.00030002143466845155
0.014781470410525799,-0.007494116667658091,-0.017354587092995644,0.024325253441929817,0.0003789373440667987,0.0002812700404319912
0.014630707912147045,-0.0071379742585122585,-0.01679469645023346,0.02405124343931675,0.0004089744761586189,0.00026472267927601933
0.014467693865299225,-0.006952538155019283,-0.01736900396645069,0.023802263662219048,0.00038739602314308286,0.0002499887195881456
0.014968928880989552,-0.007473303936421871,-0.01718514785170555,0.02370494045317173,0.0003927274083252996,0.00022499939950648695
0.014968928880989552,-0.007473303936421871,-0.01718514785170555,0.02370494045317173,0.0003927274083252996,0.00022499939950648695
0.01489274762570858,-0.006467871833592653,-0.017305318266153336,0.024250350892543793,0.00037386512849479914,0.00021428261243272573
0.015172818675637245,-0.006630780640989542,-0.016841435804963112,0.023979663848876953,0.00035549947642721236,0.00020453990146052092
0.014981305226683617,-0.0071313874796032906,-0.017374509945511818,0.02357197366654873,0.0003605610691010952,0.0001956451596925035
0.014759141951799393,-0.006728291045874357,-0.01670881360769272,0.023669898509979248,0.0003610040876083076,0.00014415985788218677
0.014742814935743809,-0.006702869199216366,-0.017221739515662193,0.02352903224527836,0.0003658540372271091,0.00013846484944224358
0.014723031781613827,-0.006939946208149195,-0.01717298850417137,0.023937784135341644,0.0003444284666329622,0.00013332650996744633
0.015128515660762787,-0.007120446767657995,-0.017577173188328743,0.024083048105239868,0.00032388544059358537,0.0001285640028072521
0.014954885467886925,-0.006575628183782101,-0.01743805594742298,0.023682380095124245,0.00035295929410494864,0.0001241302816197276
0.0149927269667387,-0.006820173468440771,-0.016895364969968796,0.023077208548784256,0.00036065620952285826,0.00011999238631688058
0.014866952784359455,-0.006920846179127693,-0.017734592780470848,0.02314578928053379,0.0003643515519797802,0.00011612146772677079
0.015125170350074768,-0.007245397660881281,-0.016837095841765404,0.023228462785482407,0.00034816452534869313,0.00011249262752244249
0.014576352201402187,-0.006592140533030033,-0.017120543867349625,0.02313908003270626,0.00033299720962531865,0.00010908376862062141
0.015386992134153843,-0.006187742110341787,-0.01747376099228859,0.022704657167196274,0.00039486674359068274,8.118704135995358e-05
0.014931921847164631,-0.0069046965800225735,-0.017058873549103737,0.02262163907289505,0.000368492299458012,7.725402247160673e-05
0.015756821259856224,-0.007036952301859856,-0.017542332410812378,0.022768421098589897,0.0003409438068047166,7.500249921577051e-05
0.015334236435592175,-0.0065695554949343204,-0.0171855129301548,0.02282802388072014,0.0003716808569151908,1.6559146160943783e-06
0.015396414324641228,-0.0062195477075874805,-0.017449084669351578,0.022584935650229454,0.00035472383024170995,-6.496741843875498e-05
0.01555189024657011,-0.006135903764516115,-0.017315682023763657,0.022677693516016006,0.0003849974600598216,-9.17486977414228e-05
0.01573651097714901,-0.006008640397340059,-0.017101958394050598,0.022646676748991013,0.00036602525506168604,-9.659473289502785e-05
0.015423720702528954,-0.006438816897571087,-0.01800115779042244,0.022693760693073273,0.00038891728036105633,-9.377110109198838e-05
0.015423720702528954,-0.006438816897571087,-0.01800115779042244,0.022693760693073273,0.00038891728036105633,-9.377110109198838e-05
0.015577639453113079,-0.006770618259906769,-0.0175232645124197,0.022658664733171463,0.0003745493886526674,-0.00011687215010169894
0.015545550733804703,-0.005902217235416174,-0.01758919283747673,0.022601976990699768,0.0003395983367227018,-0.00013966327242087573
0.015545550733804703,-0.005902217235416174,-0.01758919283747673,0.022601976990699768,0.0003395983367227018,-0.00013966327242087573
0.016161751002073288,-0.006515125278383493,-0.01717352122068405,0.0225687175989151,0.0003248543362133205,-0.0004943762323819101
0.015500016510486603,-0.006299130618572235,-0.017648277804255486,0.022861843928694725,0.0003468474606052041,-0.000575253099668771
0.016568493098020554,-0.006181962788105011,-0.017295487225055695,0.023073239251971245,0.000324878201354295,-0.0005760860512964427
0.015874061733484268,-0.006367815658450127,-0.017291447147727013,0.023099049925804138,0.0003031777450814843,-0.0005641336319968104
0.016056258231401443,-0.00587761914357543,-0.01748313009738922,0.022927505895495415,0.00028404348995536566,-0.0005746422102674842
0.01617535389959812,-0.005913838744163513,-0.017189664766192436,0.023282481357455254,0.000316896679578349,-0.0005490269977599382
0.015856832265853882,-0.006200318690389395,-0.017406437546014786,0.023959944024682045,0.0003023885074071586,-0.0006748680607415736
0.015966158360242844,-0.0059295236133039,-0.01720271445810795,0.022966867312788963,0.0003055809938814491,-0.0007246188470162451
0.016495689749717712,-0.006170180626213551,-0.017290355637669563,0.022235723212361336,0.0003014603862538934,-0.0007575979107059538
0.01621919870376587,-0.006072269752621651,-0.016666103154420853,0.02241361327469349,0.000318770733429119,-0.0011638280702754855
0.016612177714705467,-0.006208977662026882,-0.016967402771115303,0.02311861328780651,0.0003144590591546148,-0.0012142312480136752
0.016533054411411285,-0.006528525147587061,-0.016711195930838585,0.02308727242052555,0.0003018997667822987,-0.0015738863730803132
0.01639729179441929,-0.005921447183936834,-0.01734583079814911,0.022668417543172836,0.00033355530467815697,-0.001523242681287229
0.01659129559993744,-0.005748971365392208,-0.017320875078439713,0.02293502725660801,0.00032467019627802074,-0.0013589950976893306
0.016325822100043297,-0.005870212335139513,-0.01670318841934204,0.023791233077645302,0.00036024648579768836,-0.0012261619558557868
0.01678914576768875,-0.006145594175904989,-0.017249688506126404,0.02294776402413845,0.00034122331999242306,-0.0011246524518355727
0.01619044877588749,-0.0061503322795033455,-0.016554927453398705,0.022691354155540466,0.0003211655421182513,-0.001190714887343347
0.016726627945899963,-0.005831806920468807,-0.017229774966835976,0.02199377864599228,0.00034038376179523766,-0.0015178751200437546
0.016628574579954147,-0.006332199089229107,-0.017188524827361107,0.022023625671863556,0.00033399625681340694,-0.0016616953071206808
0.01654873974621296,-0.006347323302179575,-0.016881251707673073,0.022658834233880043,0.0003514146665111184,-0.0018592688720673323
0.01676134020090103,-0.006140638142824173,-0.01707201637327671,0.023182479664683342,0.0003451345837675035,-0.0017495204228907824
0.01638481579720974,-0.0060704611241817474,-0.016658205538988113,0.02303878404200077,0.000330003269482404,-0.001630436978302896
0.01677306555211544,-0.0057343668304383755,-0.01720871962606907,0.022945687174797058,0.00031558089540340006,-0.0015166968805715442
0.017042046412825584,-0.005906595848500729,-0.01739586517214775,0.022507144138216972,0.0003023296012543142,-0.0014085988514125347
0.017238574102520943,-0.0059235249646008015,-0.017655637115240097,0.022468287497758865,0.0003539952449500561,-0.0013271304778754711
0.017238274216651917,-0.005690510850399733,-0.017748121172189713,0.022914910688996315,0.0003373406652826816,-0.0016282679280266166
0.017238274216651917,-0.005690510850399733,-0.017748121172189713,0.022914910688996315,0.0003373406652826816,-0.0016282679280266166
0.01681417040526867,-0.006069457158446312,-0.016945907846093178,0.022807244211435318,0.000314404460368678,-0.003059175331145525
0.017450764775276184,-0.005562637001276016,-0.017398491501808167,0.021840451285243034,0.0002939010155387223,-0.003988352138549089
0.017125897109508514,-0.0058870757929980755,-0.0173044316470623,0.022058095782995224,0.00032357859890908003,-0.0037859093863517046
0.016921332105994225,-0.005891646258533001,-0.017555657774209976,0.022434744983911514,0.0003114311257377267,-0.003061490599066019
0.017013948410749435,-0.005926184356212616,-0.01769915036857128,0.02261923812329769,0.0002948478504549712,-0.0025852664839476347
0.017325999215245247,-0.005943198688328266,-0.017273781821131706,0.022257404401898384,0.0002796032349579036,-0.0021436125971376896
0.01731519214808941,-0.006033370271325111,-0.017021847888827324,0.022641729563474655,0.00025335929240100086,-0.0026809554547071457
0.017303146421909332,-0.00584382563829422,-0.017794674262404442,0.0225733183324337,0.00024200203188229352,-0.002888384507969022
0.017610274255275726,-0.005763879977166653,-0.018255073577165604,0.022696226835250854,0.00023161944409366697,-0.0025768184568732977
0.017226669937372208,-0.006089313421398401,-0.017360351979732513,0.022548725828528404,0.00025658594677224755,-0.002631423994898796
0.01771126314997673,-0.005426585208624601,-0.016763830557465553,0.022892922163009644,0.00024870477500371635,-0.0029419087804853916
0.017427990213036537,-0.005091158673167229,-0.017141500487923622,0.022765282541513443,0.00023939940729178488,-0.0032429194543510675
0.017385754734277725,-0.005937295965850353,-0.017639746889472008,0.022549035027623177,0.0002592153032310307,-0.0031875181011855602
0.017786551266908646,-0.00561921251937747,-0.01767137087881565,0.022522760555148125,0.0002539963461458683,-0.002915275050327182
0.017905687913298607,-0.005280607845634222,-0.016604823991656303,0.023058060556650162,0.000245588191319257,-0.0028883065097033978
0.018251685425639153,-0.005049052648246288,-0.01740361750125885,0.022829974070191383,0.00023750285618007183,-0.003061773721128702
0.01800430193543434,-0.005691967438906431,-0.017740972340106964,0.022671902552247047,0.000229919096454978,-0.0035594161599874496
0.018055913969874382,-0.005426240619271994,-0.016961541026830673,0.02229282632470131,0.00022280360281001776,-0.0034617360215634108
0.017938995733857155,-0.005046573467552662,-0.017185812816023827,0.022411823272705078,0.00021680067584384233,-0.003314573084935546
0.01796070672571659,-0.0051636481657624245,-0.017017124220728874,0.02280406281352043,0.00020000958465971053,-0.003298035357147455
0.01845143921673298,-0.005034667439758778,-0.01756739430129528,0.023294420912861824,0.00019104807870462537,-0.003573616500943899
0.018725460395216942,-0.004825936630368233,-0.017442500218749046,0.022969990968704224,0.0001832363341236487,-0.004077925346791744
0.018402710556983948,-0.005185063928365707,-0.01721324771642685,0.02296012081205845,0.00017606404435355216,-0.00453063752502203
0.018402710556983948,-0.005185063928365707,-0.01721324771642685,0.02296012081205845,0.00017606404435355216,-0.00453063752502203
0.01833125576376915,-0.005144081078469753,-0.017541935667395592,0.02304919622838497,0.0002010208845604211,-0.004385214764624834
0.018765129148960114,-0.005010513588786125,-0.01681218296289444,0.0230096448212862,0.00019579131912905723,-0.0043411096557974815
0.018522582948207855,-0.005188542418181896,-0.017274346202611923,0.022034602239727974,0.00018906997865997255,-0.0040376801043748856
0.018926719203591347,-0.005020362790673971,-0.017313459888100624,0.02258882485330105,0.00018268176063429564,-0.003381018992513418
0.018899230286478996,-0.004778713919222355,-0.0170162171125412,0.021835515275597572,0.00017670342640485615,-0.004330523777753115
0.018892524763941765,-0.004502980038523674,-0.01764116995036602,0.021488413214683533,0.00019584766414482147,-0.00512303551658988
0.019233256578445435,-0.005130837671458721,-0.016773151233792305,0.022035909816622734,0.0001932431769091636,-0.004980250261723995
0.018438315019011497,-0.004994668532162905,-0.017003759741783142,0.022766493260860443,0.00018229011038783938,-0.0038318592123687267
0.019221220165491104,-0.00435651745647192,-0.016950173303484917,0.022846462205052376,0.00017716444563120604,-0.0037264120765030384
0.019673865288496017,-0.004407031927257776,-0.017263993620872498,0.022261321544647217,0.0001952826714841649,-0.003740393789485097
0.018834130838513374,-0.00418759323656559,-0.01674172282218933,0.02218915894627571,0.0001915839093271643,-0.0042706448584795
0.019171742722392082,-0.004978647455573082,-0.017649095505475998,0.02213805355131626,0.00018671309226192534,-0.004655848722904921
0.01933116465806961,-0.004971473012119532,-0.01722472347319126,0.022284938022494316,0.00021478203416336328,-0.004679368808865547
0.019064681604504585,-0.0048060487024486065,-0.01685825176537037,0.021973133087158203,0.0002351092844037339,-0.004298783838748932
0.01938701421022415,-0.004158492665737867,-0.016989940777420998,0.021658198907971382,0.00022539492056239396,-0.0049293432384729385
0.019109604880213737,-0.004199315328150988,-0.01643824391067028,0.021842781454324722,0.00021476965048350394,-0.004988884553313255
0.01924852468073368,-0.004532967694103718,-0.016951553523540497,0.02178855612874031,0.00020499216043390334,-0.004721376113593578
0.020000601187348366,-0.0041962009854614735,-0.01694098301231861,0.021557113155722618,0.00019605907436925918,-0.004514362663030624
0.019752923399209976,-0.004530895967036486,-0.017087453976273537,0.021028781309723854,0.00018787189037539065,-0.0046262177638709545
0.019020285457372665,-0.004729726351797581,-0.016967417672276497,0.021373489871621132,0.0001803414197638631,-0.004793453961610794
0.019772788509726524,-0.004520013928413391,-0.016495198011398315,0.0219524335116148,0.00017339122132398188,-0.00507702212780714
0.019951654598116875,-0.004243034869432449,-0.016870059072971344,0.021987944841384888,0.00019591157615650445,-0.005488922819495201
0.019723840057849884,-0.003968711476773024,-0.016384055837988853,0.021846190094947815,0.00019289036572445184,-0.005153629928827286
0.02007931098341942,-0.0038062622770667076,-0.016915220767259598,0.022223519161343575,0.00018648816330824047,-0.005004766397178173
0.02018464356660843,-0.0035978821106255054,-0.017094535753130913,0.022187940776348114,0.00018027845362666994,-0.005215419456362724
0.019907571375370026,-0.004159750882536173,-0.017145486548542976,0.0219589751213789,0.00017445463163312525,-0.0053519378416240215
0.019907571375370026,-0.004159750882536173,-0.017145486548542976,0.0219589751213789,0.00017445463163312525,-0.0053519378416240215
0.020440831780433655,-0.003920816350728273,-0.01641784980893135,0.02152259275317192,0.0001638657267903909,-0.0056304847821593285
0.02020125836133957,-0.0038585320580750704,-0.017042620107531548,0.02173365280032158,0.00015903922030702233,-0.005476424004882574
0.02020125836133957,-0.0038585320580750704,-0.017042620107531548,0.02173365280032158,0.00015903922030702233,-0.005476424004882574
0.020036272704601288,-0.003838806413114071,-0.017083855345845222,0.021802619099617004,0.00015448883641511202,-0.0054036276414990425
0.02028302662074566,-0.003815004136413336,-0.01739208772778511,0.0217782910913229,0.00015019159764051437,-0.005531109869480133
0.0204644575715065,-0.003781042993068695,-0.01740184798836708,0.021686943247914314,0.00016417236474808306,-0.005354404915124178
0.020208973437547684,-0.0033922623842954636,-0.016808750107884407,0.02185523323714733,0.00016170114395208657,-0.0058365692384541035
0.0203629769384861,-0.003467807313427329,-0.01675543189048767,0.02151644416153431,0.0001576783397467807,-0.005444617941975594
0.020192056894302368,-0.003612927393987775,-0.017070481553673744,0.02186037041246891,0.00015382964920718223,-0.00518806092441082
0.02053741179406643,-0.003647004021331668,-0.01670268550515175,0.022124914452433586,0.00015016294491942972,-0.0050496747717261314
0.020964372903108597,-0.003559266682714224,-0.01674603670835495,0.02191159315407276,0.0001466669637011364,-0.0056360033340752125
0.020012062042951584,-0.003495830809697509,-0.017392773181200027,0.02157651260495186,0.0001433298602933064,-0.006060684099793434
0.02022683247923851,-0.003451412310823798,-0.01645757630467415,0.02133980393409729,0.00014014159387443215,-0.006190950516611338
0.020712198689579964,-0.003577732015401125,-0.0170112457126379,0.021782606840133667,0.0001370918471366167,-0.006255056709051132
0.02147163264453411,-0.003828390734270215,-0.01712074503302574,0.021850571036338806,0.00013417207810562104,-0.005929531063884497
0.020521419122815132,-0.0038929202128201723,-0.017647454515099525,0.02132808044552803,0.00013137413770891726,-0.0057443310506641865
0.021074464544653893,-0.0038280063308775425,-0.01718953251838684,0.02113688737154007,0.00012869037163909525,-0.0057750605046749115
0.020843185484409332,-0.003758697770535946,-0.016640404239296913,0.021643199026584625,0.000134976944536902,-0.006273541133850813
0.020078908652067184,-0.003920539282262325,-0.01739705167710781,0.021932873874902725,0.00014070409815758467,-0.006256954278796911
0.021600520238280296,-0.0036046341992914677,-0.016644073650240898,0.020831886678934097,0.00013854300777893513,-0.0060692448168993
0.02138499729335308,-0.003543345257639885,-0.01705736666917801,0.020788539201021194,0.00013596251665148884,-0.006187104154378176
0.02122420072555542,-0.0036494010128080845,-0.017217330634593964,0.020161647349596024,0.0001334448461420834,-0.0065920790657401085
0.021252363920211792,-0.0034903730265796185,-0.016640709713101387,0.019445527344942093,0.00013101668446324766,-0.006828550714999437
0.021324919536709785,-0.003451175056397915,-0.01759270206093788,0.020249271765351295,0.00012867517943959683,-0.0064536272548139095
0.021686356514692307,-0.003177570877596736,-0.017163481563329697,0.021100405603647232,0.00012641592184081674,-0.006149857304990292
0.021751834079623222,-0.0021179630421102047,-0.01723168045282364,0.021004648879170418,0.00012423464795574546,-0.0065534682944417
0.021446634083986282,-0.0015199322951957583,-0.018048055469989777,0.020254451781511307,0.00012212734145577997,-0.006838780827820301
0.020701700821518898,-0.0013732139486819506,-0.018167024478316307,0.020844407379627228,0.00012009029887849465,-0.006795029155910015
0.020701700821518898,-0.0013732139486819506,-0.018167024478316307,0.020844407379627228,0.00012009029887849465,-0.006795029155910015
0.02121260203421116,-0.0012743815314024687,-0.018438752740621567,0.020964685827493668,0.00011812021693913266,-0.0062622083351016045
0.021518981084227562,-0.0008620060398243368,-0.018153579905629158,0.021021027117967606,0.00011621353041846305,-0.006166418083012104
0.02207821048796177,-0.0010502212680876255,-0.017766257748007774,0.020765356719493866,0.0001143676126957871,-0.0064420197159051895
0.021911436691880226,-0.001899409107863903,-0.018596254289150238,0.021493850275874138,0.00011257933510933071,-0.006884411908686161
0.021919142454862595,-0.0017878325888887048,-0.01806492544710636,0.019863003864884377,0.00010916545579675585,-0.006978513207286596
0.021919142454862595,-0.0017878325888887048,-0.01806492544710636,0.019863003864884377,0.00010916545579675585,-0.006978513207286596
0.021688999608159065,-0.0013861190527677536,-0.01789107918739319,0.020266111940145493,0.00010595258936518803,-0.006886747665703297
0.02197258546948433,-0.0011529538314789534,-0.018597472459077835,0.021312924101948738,0.00010441605991218239,-0.006957560312002897
0.022599341347813606,-0.000974593625869602,-0.018376650288701057,0.020913034677505493,0.00010292346269125119,-0.007196513935923576
0.022510817274451256,-0.000962582475040108,-0.017854278907179832,0.021011248230934143,0.00010147291322937235,-0.0076243700459599495
0.022390827536582947,-0.0006876228144392371,-0.018214553594589233,0.020752348005771637,0.00010006266529671848,-0.007561808917671442
0.022477155551314354,-0.0007844104547984898,-0.01782461628317833,0.0206868015229702,9.869107452686876e-05,-0.007936747744679451
0.02247314713895321,-0.0007988333818502724,-0.01788482256233692,0.020547956228256226,9.735660569276661e-05,-0.007343903183937073
0.02266513928771019,-0.000760100141633302,-0.018278732895851135,0.02066764421761036,9.605775267118588e-05,-0.007175368256866932
0.02294408716261387,-0.0010696869576349854,-0.017379337921738625,0.02060507796704769,9.47930893744342e-05,-0.0074066114611923695
0.02259102836251259,-0.0009428871562704444,-0.01757129840552807,0.02068229392170906,9.356131340609863e-05,-0.007953867316246033
0.022873252630233765,-0.0009350205073133111,-0.018261481076478958,0.021249981597065926,9.236109326593578e-05,-0.007861499674618244
0.023227568715810776,-0.000815651030279696,-0.01775759644806385,0.020923543721437454,9.119132300838828e-05,-0.007612226065248251
0.023086756467819214,-0.0008208160288631916,-0.017894968390464783,0.020386816933751106,9.005079482449219e-05,-0.007880364544689655
0.022744731977581978,-0.0007468134281225502,-0.01767737977206707,0.02026466839015484,8.893844642443582e-05,-0.007590375375002623
0.02256542071700096,-0.0006349781178869307,-0.017956018447875977,0.02059839479625225,8.785326645011082e-05,-0.007431690115481615
0.02333030104637146,-0.0006658721249550581,-0.018320124596357346,0.020419111475348473,8.679421443957835e-05,-0.007615405600517988
0.023812009021639824,-0.0006915752892382443,-0.017750680446624756,0.020271925255656242,8.576039545005187e-05,-0.007818041369318962
0.023314837366342545,-0.0007122107199393213,-0.01853058859705925,0.020618986338377,8.475089998682961e-05,-0.008114079013466835
0.023542895913124084,-0.000887503323610872,-0.0183872003108263,0.020613783970475197,8.376495679840446e-05,-0.008885197341442108
0.023950105533003807,-0.0008941958076320589,-0.017738645896315575,0.020530128851532936,8.280164183815941e-05,-0.008947758004069328
0.023770015686750412,-0.0007720286957919598,-0.01807241141796112,0.02053949423134327,8.186022023437545e-05,-0.00936074461787939
0.02366066537797451,-0.0007831316324882209,-0.018062258139252663,0.020771974697709084,8.093997166724876e-05,-0.008553646504878998
0.023997429758310318,-0.0007002958445809782,-0.018177852034568787,0.020406058058142662,8.004021947272122e-05,-0.008622727356851101
0.0240929014980793,-0.0007164506241679192,-0.018488122150301933,0.019950680434703827,2.0339204638730735e-05,-0.008952333591878414
0.0240929014980793,-0.0007164506241679192,-0.018488122150301933,0.019950680434703827,2.0339204638730735e-05,-0.008952333591878414
0.024211548268795013,-0.0006845156894996762,-0.017977068200707436,0.02162015624344349,8.670922824194349e-08,-0.00835467129945755
0.023247849196195602,-0.0007091229781508446,-0.01817546971142292,0.021838799118995667,5.661493052144806e-09,-0.008417703211307526
0.02465571090579033,-0.0007287776679731905,-0.017963198944926262,0.0211989376693964,3.69655028809035e-10,-0.008459703996777534
0.02482936903834343,-0.0006772092892788351,-0.018424643203616142,0.02082349732518196,2.413583222171667e-11,-0.008212863467633724
0.024728847667574883,-0.000838545267470181,-0.018107205629348755,0.020319843664765358,1.5758972902665813e-12,-0.008176294155418873
0.024934956803917885,-0.0008456673240289092,-0.01781705766916275,0.019838303327560425,1.0289482482196688e-13,-0.0076537770219147205
0.02399570681154728,-0.0007357505382969975,-0.018415400758385658,0.02024797350168228,6.718296878289055e-15,-0.007486703339964151
0.023129666224122047,-0.0007538044592365623,-0.017650598660111427,0.020910684019327164,4.3865676404284716e-16,-0.007422402501106262
0.02414240874350071,-0.000759045360609889,-0.017961453646421432,0.02044261060655117,2.8641151870705735e-17,-0.008504108525812626
0.024950886145234108,-0.0007254070951603353,-0.0180051252245903,0.019597193226218224,1.8700626318996707e-18,-0.008421541191637516
0.0245045218616724,-0.000753686937969178,-0.0177830308675766,0.02006414532661438,1.2210173288138924e-19,-0.008425978012382984
0.024347253143787384,-0.000772047380451113,-0.018381206318736076,0.02026386559009552,7.972369974960349e-21,-0.00831480324268341
0.02490933984518051,-0.0007862680940888822,-0.018399126827716827,0.02041397988796234,5.205387919046445e-22,-0.008394933305680752
0.025368086993694305,-0.0007272226503118873,-0.01816401444375515,0.020396525040268898,3.3987463100828463e-23,-0.008345942944288254
0.024421902373433113,-0.0008745913510210812,-0.018357904627919197,0.020571399480104446,2.2191381043747602e-24,-0.00820667203515768
0.02464275062084198,-0.000875901198014617,-0.018059993162751198,0.019376950338482857,1.4489386652909797e-25,-0.008273467421531677
0.02450813353061676,-0.000758364622015506,-0.01876646839082241,0.019662585109472275,9.460533813519536e-27,-0.008660671301186085
0.024653974920511246,-0.0007741007138974965,-0.019135329872369766,0.02028176747262478,6.177052925485167e-28,-0.008649528957903385
0.025060730054974556,-0.0007547848508693278,-0.018800053745508194,0.020696470513939857,4.0331741559763775e-29,-0.00891456101089716
0.025456154718995094,-0.0007108668796718121,-0.01872795820236206,0.020597802475094795,2.633374606237527e-30,-0.008640850894153118
0.02525072917342186,-0.0006379762780852616,-0.01915532909333706,0.020659189671278,1.7194053435508718e-31,-0.008456524461507797
0.025147877633571625,-0.0006319935200735927,-0.0178986806422472,0.02038079872727394,1.1226489002551177e-32,-0.008866045624017715
0.02513088658452034,-0.0005965277669019997,-0.01862558349967003,0.01992468535900116,7.330095785802291e-34,-0.008628210984170437
0.02513088658452034,-0.0005965277669019997,-0.01862558349967003,0.01992468535900116,7.330095785802291e-34,-0.008628210984170437
0.025350362062454224,-0.0006258373614400625,-0.01866777054965496,0.019867731258273125,4.786028406218124e-35,-0.0091905752196908
0.02514096349477768,-0.000650631554890424,-0.018568390980362892,0.01981770247220993,3.124934497910487e-36,-0.009159700945019722
0.025288201868534088,-0.0007995117921382189,-0.01968410424888134,0.019596824422478676,2.0403589474219927e-37,-0.009691545739769936
0.02568795718252659,-0.0008256529690697789,-0.01925685629248619,0.019823169335722923,1.3322085645800534e-38,-0.010553077794611454
0.0249059796333313,-0.0007451965939253569,-0.018957577645778656,0.019863488152623177,5.679462675908484e-41,-0.008873779326677322
0.02532525546848774,-0.0006699786172248423,-0.01878676936030388,0.01966789737343788,3.707835736603466e-42,-0.009318763390183449
0.02483328804373741,-0.0006055970443412662,-0.018501421436667442,0.019996890798211098,2.4242463432819335e-43,-0.009224465116858482
0.02563057281076908,-0.0006039132131263614,-0.018869560211896896,0.01982283405959606,1.5414283107572988e-44,-0.009742657653987408
0.025354208424687386,-0.000580101739615202,-0.018406998366117477,0.019544849172234535,1.401298464324817e-45,-0.00975585076957941
0.024904921650886536,-0.0005358101334422827,-0.018928999081254005,0.01965719647705555,0.0,-0.009426955133676529
0.026452606543898582,-0.0005711226840503514,-0.01951436884701252,0.019721265882253647,0.0,-0.009748823940753937
0.026097804307937622,-0.0005958707770332694,-0.018976258113980293,0.01958976499736309,0.0,-0.010266167111694813
0.02568306401371956,-0.0006045732297934592,-0.018949493765830994,0.01996021904051304,0.0,-0.010050221346318722
0.025278348475694656,-0.0005808058194816113,-0.019088758155703545,0.01988275907933712,0.0,-0.009860171936452389
0.025411661714315414,-0.0007814654381945729,-0.018691012635827065,0.019316107034683228,0.0,-0.009960636496543884
0.025179797783493996,-0.0006753997295163572,-0.018923992291092873,0.019336480647325516,0.0,-0.009851112961769104
0.026477154344320297,-0.0006902096210978925,-0.019415494054555893,0.019096219912171364,0.0,-0.010395805351436138
0.026768850162625313,-0.000623158470261842,-0.01914065144956112,0.01852070726454258,0.0,-0.010229489766061306
0.02641857974231243,-0.0005588031490333378,-0.019085709005594254,0.01898558996617794,0.0,-0.010509283281862736
0.02560586668550968,-0.0005613467073999345,-0.019388685002923012,0.019666317850351334,0.0,-0.010848550125956535
0.02560586668550968,-0.0005613467073999345,-0.019388685002923012,0.019666317850351334,0.0,-0.010848550125956535
0.0255380030721426,-0.0005397178465500474,-0.018712200224399567,0.01964518427848816,0.0,-0.011039813980460167
0.026376133784651756,-0.0005599349387921393,-0.01874583587050438,0.01986273191869259,0.0,-0.01063556969165802
0.026516960933804512,-0.0005267818924039602,-0.01922331377863884,0.019855614751577377,0.0,-0.010912970639765263
0.025938015431165695,-0.0004692535731010139,-0.01900283247232437,0.019636597484350204,2.2237574739847332e-05,-0.010724522173404694
0.02641345001757145,-0.0004971816088072956,-0.01916247233748436,0.019857488572597504,1.4519548585667508e-06,-0.010747120715677738
0.027035348117351532,-0.0005140945431776345,-0.019385892897844315,0.02012052573263645,9.48022815805416e-08,-0.010762333869934082
0.026043500751256943,-0.0004979516379535198,-0.01917007565498352,0.019874416291713715,6.189911250231717e-09,-0.0106979263946414
0.025971369817852974,-0.0006879949360154569,-0.018797123804688454,0.020071525126695633,2.6388563209578386e-11,-0.0110232625156641
0.026210801675915718,-0.0006798393442295492,-0.018799014389514923,0.02006300911307335,1.722984602214872e-12,-0.011039098724722862
0.027083244174718857,-0.00047516037011519074,-0.019196970388293266,0.019901400431990623,1.1249859279815339e-13,-0.01110871508717537
0.02763565443456173,-0.00041833322029560804,-0.019978048279881477,0.02013511024415493,7.345353675075519e-15,-0.011081001721322536
0.02721533738076687,-0.0003747378650587052,-0.019322093576192856,0.019852831959724426,4.795991074000086e-16,-0.011690227314829826
0.02720549702644348,-0.00017922632105182856,-0.018926257267594337,0.019832776859402657,3.131439446968521e-17,-0.011642353609204292
0.02714884653687477,-0.00014488086162600666,-0.01876402087509632,0.020191248506307602,2.044606012954485e-18,-0.011551481671631336
0.02723064459860325,-0.0001247054460691288,-0.0187434833496809,0.020302893593907356,1.3349817499674736e-19,-0.011707345023751259
0.027172980830073357,-0.00010951593867503107,-0.019070249050855637,0.01910662278532982,8.716477097088617e-21,-0.011537924408912659
0.026605870574712753,-9.762747504282743e-05,-0.019637389108538628,0.01917707920074463,5.691236874499245e-22,-0.011137881316244602
0.027634838595986366,-8.806944970274344e-05,-0.019165555015206337,0.019189409911632538,3.715971261443734e-23,-0.011603610590100288
0.02746523544192314,-0.00015704311954323202,-0.018987901508808136,0.018879342824220657,2.4262637902323048e-24,-0.012000859715044498
0.02756853587925434,-0.00014725401706527919,-0.019658518955111504,0.019374318420886993,1.5841769113180274e-25,-0.01171142514795065
0.027287596836686134,-0.00013615377247333527,-0.01937839575111866,0.01988011971116066,1.0343541878141974e-26,-0.011988230049610138
0.027176760137081146,-0.00012657721526920795,-0.019738933071494102,0.020239725708961487,6.753594017329583e-28,-0.011945842765271664
0.027133632451295853,-0.00017030732124112546,-0.019545437768101692,0.01988096721470356,4.409614617346984e-29,-0.011846899054944515
0.027584891766309738,-0.0001663569564698264,-0.019311074167490005,0.020155854523181915,2.8791635160679104e-30,-0.011486707255244255
0.028162602335214615,-0.0001567837462062016,-0.01977558247745037,0.019814003258943558,1.8798880641047934e-31,-0.01147686131298542
0.028162602335214615,-0.0001567837462062016,-0.01977558247745037,0.019814003258943558,1.8798880641047934e-31,-0.01147686131298542
0.0276629775762558,-0.00014046915748622268,-0.01926487684249878,0.02002960443496704,8.014257834387344e-34,-0.01151597872376442
0.0276629775762558,-0.00014046915748622268,-0.01926487684249878,0.02002960443496704,8.014257834387344e-34,-0.01151597872376442
0.027988197281956673,-0.0001335218985332176,-0.01950371079146862,0.019979219883680344,5.232737209503154e-35,-0.011578289791941643
0.02805768884718418,-0.00012722972314804792,-0.02016940899193287,0.01967361383140087,3.4166033162434535e-36,-0.011224119924008846
0.02836923487484455,-0.0001550061715533957,-0.01927444525063038,0.01972636766731739,1.4565515226432982e-38,-0.01130658108741045
0.02836923487484455,-0.0001550061715533957,-0.01927444525063038,0.01972636766731739,1.4565515226432982e-38,-0.01130658108741045
0.028380118310451508,-0.0001486271939938888,-0.019921965897083282,0.01986403577029705,9.510234326787166e-40,-0.011005018837749958
0.02860702946782112,-0.00013729110651183873,-0.01962224952876568,0.019873302429914474,4.053956457291696e-42,-0.011364463716745377
0.02917509898543358,-0.00013224739814177155,-0.019890477880835533,0.019110338762402534,2.6484540975739043e-43,-0.011262146756052971
0.02937542274594307,-0.0001275614049518481,-0.01964118704199791,0.018959956243634224,1.6815581571897805e-44,-0.01116015762090683
0.028864046558737755,-0.00012319594679865986,-0.019011782482266426,0.019395388662815094,-0.0003684085386339575,-0.011154315434396267
0.02884559892117977,-0.00011911954788956791,-0.019409028813242912,0.018853796645998955,-0.0004166407452430576,-0.011687560006976128
0.028927184641361237,-0.0001153040720964782,-0.019767045974731445,0.018922677263617516,-0.00045291995047591627,-0.011832060292363167
0.030009809881448746,-0.00011172572703799233,-0.019390620291233063,0.019029706716537476,-0.00042654405115172267,-0.011554594151675701
0.029819877818226814,-0.00010836272122105584,-0.02019289694726467,0.01924513652920723,-0.0003958699235226959,-0.011611603200435638
0.02687276527285576,-0.00010519615898374468,-0.020244358107447624,0.019643813371658325,-0.00036885213921777904,-0.01142124179750681
0.029366295784711838,-0.00010220962576568127,-0.019498376175761223,0.019527345895767212,-0.0003876085684169084,-0.011643404141068459
0.03023039735853672,-9.93876819848083e-05,-0.01976068504154682,0.019320661202073097,-0.0003775897203013301,-0.011254725977778435
0.029239974915981293,-9.671756561147049e-05,-0.019917504861950874,0.01945195347070694,-0.00035704782931134105,-0.011561103165149689
0.029947811737656593,-9.418721310794353e-05,-0.019407793879508972,0.019199291244149208,-0.00036148150684311986,-0.011606229469180107
0.030868856236338615,-9.178573964163661e-05,-0.019770950078964233,0.018638530746102333,-0.00036494023515842855,-0.011581460945308208
0.030440958216786385,-8.950393385021016e-05,-0.020102279260754585,0.01887952722609043,-0.00034868813236244023,-0.011706911958754063
0.029620636254549026,-8.733270806260407e-05,-0.019625520333647728,0.01908196322619915,-0.0003525839711073786,-0.011672895401716232
0.029620636254549026,-8.733270806260407e-05,-0.019625520333647728,0.01908196322619915,-0.0003525839711073786,-0.011672895401716232
0.029501253738999367,-8.526417514076456e-05,-0.019405273720622063,0.018825212493538857,-0.0003340712282806635,-0.011848839931190014
0.031228739768266678,-8.329151751240715e-05,-0.019796142354607582,0.018993252888321877,-0.00034168295678682625,-0.012037147767841816
0.030681898817420006,-8.140807767631486e-05,-0.01952548697590828,0.018935801461338997,-0.000347466382663697,-0.012315688654780388
0.03070088103413582,-7.960784569149837e-05,-0.018709462136030197,0.01821095310151577,-0.0003754708159249276,-0.01271414291113615
0.030869167298078537,-7.788565562805161e-05,-0.0196157768368721,0.018782543018460274,-0.000360561185516417,-0.012437320314347744
0.031076563522219658,-7.623631972819567e-05,-0.019885864108800888,0.018655704334378242,-0.000377412186935544,-0.012478258460760117
0.030890267342329025,-7.465539238182828e-05,-0.019329607486724854,0.018345432355999947,-0.0003693470498546958,-0.012376757338643074
0.030853480100631714,-7.313868263736367e-05,-0.01960831880569458,0.01851947046816349,-0.0005092884530313313,-0.012250205501914024
0.030749551951885223,-7.16823706170544e-05,-0.019658127799630165,0.01847783289849758,-0.0005250364192761481,-0.012005188502371311
0.03078114613890648,-6.893714453326538e-05,-0.01964394934475422,0.018832208588719368,-0.000513241218868643,-0.01248791441321373
0.03113005869090557,-6.764193676644936e-05,-0.019959062337875366,0.018145879730582237,-0.0005068380851298571,-0.012507164850831032
0.030944909900426865,-6.639448110945523e-05,-0.01969011314213276,0.01830754056572914,-0.0005206546047702432,-0.012713729403913021
0.03135223686695099,-6.519216549349949e-05,-0.020068371668457985,0.019033756107091904,-0.000500002468470484,-0.012845568358898163
0.03160015866160393,-6.403267616406083e-05,-0.019768934696912766,0.019523339346051216,-0.0004684697196353227,-0.012903746217489243
0.0313711054623127,-6.291359022725374e-05,-0.019231339916586876,0.019286364316940308,-0.0004960164660587907,-0.012994186952710152
0.031010715290904045,-6.183299410622567e-05,-0.01976269856095314,0.019172951579093933,-0.0005098975379951298,-0.012823489494621754
0.03251540660858154,-4.736698610940948e-05,-0.021181652322411537,0.018147211521863937,-0.0005040098913013935,-0.012873699888586998
0.03313469514250755,-2.314648918400053e-05,-0.019487813115119934,0.017658788710832596,-0.0005352115258574486,-0.012972531840205193
0.032277632504701614,-7.271799518093758e-07,-0.019397765398025513,0.01823182962834835,-0.0004977575154043734,-0.012765541672706604
0.030652731657028198,-9.756047525399936e-09,-0.020392773672938347,0.01868075132369995,-0.0005237736622802913,-0.01280098408460617
0.03138469159603119,-1.3088982675490968e-10,-0.02061803825199604,0.01909983530640602,-0.0007508940761908889,-0.012852177023887634
0.03240472823381424,-1.7560541779385042e-12,-0.01980084553360939,0.018819870427250862,-0.0007244792650453746,-0.012841599993407726
0.03211822733283043,-2.3559706431846433e-14,-0.02026113122701645,0.018103037029504776,-0.0007210559560917318,-0.01285109855234623
0.03211822733283043,-2.3559706431846433e-14,-0.02026113122701645,0.018103037029504776,-0.0007210559560917318,-0.01285109855234623
0.03270259127020836,-3.160835526879634e-16,-0.02024024724960327,0.019068975001573563,-0.0006686236592940986,-0.013015017844736576
0.03279632329940796,-4.2406642465740605e-18,-0.018875645473599434,0.019132215529680252,-0.0006803388241678476,-0.012826826423406601
0.0326225720345974,-5.689392197109766e-20,-0.01970330812036991,0.01921186037361622,-0.0006966223591007292,-0.012945200316607952
0.03190699219703674,-7.633045886822374e-22,-0.020606933161616325,0.01907270960509777,-0.0006592476856894791,-0.012630537152290344
0.031892795115709305,-1.0240705126209675e-23,-0.019835084676742554,0.018431302160024643,-0.0006856878753751516,-0.012676359154284
0.032283272594213486,-1.373921197951889e-25,-0.019190575927495956,0.018203824758529663,-0.0006895454716868699,-0.012715017423033714
0.0323370136320591,-1.843290601589513e-27,-0.01953943818807602,0.018874816596508026,-0.000686798186507076,-0.012817194685339928
0.03250322863459587,-2.473009754853151e-29,-0.019479108974337578,0.018535029143095016,-0.0006647604168392718,-0.012637859210371971
0.03197449818253517,-4.4513300489411754e-33,-0.02030326798558235,0.018775949254631996,-0.0007402218761853874,-0.01242999080568552
0.03237580880522728,-5.972026728899407e-35,-0.019485630095005035,0.01838102750480175,-0.0007527418783865869,-0.012685838155448437
0.03237597644329071,-8.01223629117887e-37,-0.019664214923977852,0.018666282296180725,-0.0007683119620196521,-0.012751657515764236
0.03226206451654434,-1.074943759125121e-38,-0.019761396571993828,0.01828523352742195,-0.0007052445434965193,-0.01275611948221922
0.032156798988580704,-1.442174340529172e-40,-0.019388223066926003,0.017713867127895355,-0.0007466182578355074,-0.012736535631120205
0.03223606199026108,0.0004461679782252759,-0.01977686397731304,0.018078263849020004,-0.0006726825959049165,-0.012700843624770641
0.03273538127541542,0.00043095677392557263,-0.020299628376960754,0.017908765003085136,-0.0006432452937588096,-0.01282505039125681
0.031864166259765625,0.0003936186258215457,-0.01995192840695381,0.017505185678601265,-0.0006192868459038436,-0.012994972057640553
0.033273641020059586,0.0004332849639467895,-0.01919691450893879,0.017723452299833298,-0.0005584390019066632,-0.012815143913030624
0.03309918940067291,0.0004019836778752506,-0.019618723541498184,0.017661292105913162,-0.0005788780399598181,-0.013073619455099106
0.03260692209005356,0.00042901054257526994,-0.019652174785733223,0.01795702800154686,-0.0005957147222943604,-0.013022078201174736
0.032196108251810074,0.0004081068036612123,-0.019702104851603508,0.018236329779028893,-0.0005811018636450171,-0.013496004976332188
0.03265474736690521,0.00043734442442655563,-0.020345767959952354,0.017858961597085,-0.0006070579402148724,-0.013693788088858128
0.03301176056265831,0.0004877153842244297,-0.02043359912931919,0.018349742516875267,-0.0006135831354185939,-0.013847771100699902
0.0331043042242527,0.0005354586755856872,-0.01950257085263729,0.018674256280064583,-0.0005979823763482273,-0.013767438009381294
0.033694908022880554,0.0005144498427398503,-0.019789721816778183,0.018577177077531815,-0.0005486595910042524,-0.013825641013681889
0.033694908022880554,0.0005144498427398503,-0.019789721816778183,0.018577177077531815,-0.0005486595910042524,-0.013825641013681889
0.033144496381282806,0.0005472508491948247,-0.020245129242539406,0.01862516440451145,-0.0005397437489591539,-0.013269873335957527
0.03325581178069115,0.0005754791782237589,-0.019714079797267914,0.018493404611945152,-0.0005316993338055909,-0.01354545634239912
0.03298928216099739,0.0008377270423807204,-0.019633227959275246,0.0182972252368927,-0.0005873439367860556,-0.012884021736681461
0.03333129361271858,0.0008589796489104629,-0.020160173997282982,0.01819794997572899,-0.0006009138305671513,-0.013312150724232197
0.03353426232933998,0.0008511985652148724,-0.020208528265357018,0.017780227586627007,-0.0005848837899975479,-0.013706364668905735
0.03342841565608978,0.0008321511559188366,-0.019834395498037338,0.018458183854818344,-0.0005731837591156363,-0.013949398882687092
0.033995456993579865,0.0007765660993754864,-0.020136535167694092,0.0183499064296484,-0.0005607974017038941,-0.01423512864857912
0.03499169275164604,0.0008648402290418744,-0.020175442099571228,0.01782691664993763,-0.0005530137568712234,-0.014057270251214504
0.03462967649102211,0.0009116019355133176,-0.019604427739977837,0.017891855910420418,-0.0005439451197162271,-0.013459950685501099
0.03270838409662247,0.0009303813567385077,-0.019936578348279,0.017868854105472565,-0.0005809504073113203,-0.013550550676882267
0.03437753766775131,0.0014114300720393658,-0.019921040162444115,0.01764131709933281,-0.0006666177068836987,-0.013958604075014591
0.03462796285748482,0.0013609965099021792,-0.0201738141477108,0.01704932190477848,-0.0006896626437082887,-0.014346717856824398
0.03564004227519035,0.0012954523554071784,-0.019953526556491852,0.01740172505378723,-0.0007976996712386608,-0.014229245483875275
0.03397011384367943,0.0012327046133577824,-0.019943779334425926,0.017737355083227158,-0.0008883672417141497,-0.014089199714362621
0.034049879759550095,0.001186311594210565,-0.02021300420165062,0.017464900389313698,-0.0008291946141980588,-0.013549478724598885
0.033822495490312576,0.0012831774074584246,-0.020937537774443626,0.017481988295912743,-0.0007230134797282517,-0.013990972191095352
0.03485727310180664,0.0013679804978892207,-0.021075857803225517,0.017723048105835915,-0.0006377552635967731,-0.013799714855849743
0.03470538929104805,0.0019733274821192026,-0.019672108814120293,0.018191097304224968,-0.0006520049064420164,-0.014103466644883156
0.03463532403111458,0.0018331785686314106,-0.019877783954143524,0.018359685316681862,-0.0006008307682350278,-0.014149146154522896
0.03599601238965988,0.0020809180568903685,-0.02076760306954384,0.01773236319422722,-0.000616736535448581,-0.014374624006450176
0.03509358689188957,0.0019022314809262753,-0.02045118622481823,0.017952147871255875,-0.0005765559035353363,-0.015078566037118435
0.03463882580399513,0.002042179461568594,-0.02101055532693863,0.01782234199345112,-0.0005377437337301672,-0.014153801836073399
0.03463882580399513,0.002042179461568594,-0.02101055532693863,0.01782234199345112,-0.0005377437337301672,-0.014153801836073399
0.03473730385303497,0.0022809826768934727,-0.021009650081396103,0.018192222341895103,-0.0004085562832187861,-0.014365842565894127
0.03544751554727554,0.0023275045678019524,-0.02102208323776722,0.018707334995269775,-0.0004439309414010495,-0.014691290445625782
0.0355447493493557,0.0025280623231083155,-0.021739477291703224,0.01892852783203125,-0.0004651220515370369,-0.014830103144049644
0.0355447493493557,0.0025280623231083155,-0.021739477291703224,0.01892852783203125,-0.0004651220515370369,-0.014830103144049644
0.035173799842596054,0.002634321106597781,-0.021447639912366867,0.018779601901769638,-0.00044808469829149544,-0.014453252777457237
0.03521338477730751,0.002755858702585101,-0.02098901942372322,0.017824238166213036,-0.00041929646977223456,-0.014373630285263062
0.03519498184323311,0.00275220675393939,-0.02141411229968071,0.017511049285531044,-0.00043453607941046357,-0.014481596648693085
0.03673887997865677,0.002552102319896221,-0.020268738269805908,0.017061682417988777,-0.0004219803086016327,-0.014939657412469387
0.03623493015766144,0.002891266718506813,-0.02100055292248726,0.016607964411377907,-0.0003994093567598611,-0.014731697738170624
0.03598682954907417,0.0030652242712676525,-0.02143072336912155,0.017231494188308716,-0.0004117255739402026,-0.01469995453953743
0.036339372396469116,0.003461793763563037,-0.021548066288232803,0.018138621002435684,-0.0004332131356932223,-0.015302954241633415
0.036180898547172546,0.0031854298431426287,-0.021491393446922302,0.01860170066356659,-0.00041695369873195887,-0.015149137936532497
0.03685100004076958,0.003297756891697645,-0.02155868522822857,0.01819908805191517,-0.00038809518446214497,-0.015012639574706554
0.037308741360902786,0.0035245222970843315,-0.021523889154195786,0.019076744094491005,-0.00040652233292348683,-0.014698920771479607
0.03533422201871872,0.003613358596339822,-0.022034205496311188,0.01875409111380577,-0.0004223834548611194,-0.015075549483299255
0.035470183938741684,0.003432709025219083,-0.022166846320033073,0.01805533654987812,-0.00042374833719804883,-0.01498119905591011
0.03710316866636276,0.0035176665987819433,-0.02175248973071575,0.01820896565914154,-0.00048612113459967077,-0.014906094409525394
0.036926425993442535,0.003734789090231061,-0.0213509239256382,0.017256958410143852,-0.0005097994580864906,-0.014977998100221157
0.036637239158153534,0.004135442897677422,-0.02187291905283928,0.017558183521032333,-0.0005044951685704291,-0.015110994689166546
0.03663886338472366,0.004510920960456133,-0.022527987137436867,0.018012776970863342,-0.0005205945926718414,-0.015294410288333893
0.03694923222064972,0.004748649895191193,-0.022272393107414246,0.017942726612091064,-0.0005316935712471604,-0.015508999116718769
0.0365762859582901,0.004995761439204216,-0.021259110420942307,0.01927957497537136,-0.0005254932912066579,-0.015528789721429348
0.03665867820382118,0.004714970476925373,-0.021903038024902344,0.01820657216012478,-0.0004936416517011821,-0.015387573279440403
0.03657558187842369,0.004813642706722021,-0.02248106338083744,0.017380231991410255,-0.0005915951333008707,-0.01570160500705242
0.03684530779719353,0.0048193722032010555,-0.022787826135754585,0.017539361491799355,-0.000532285775989294,-0.015548049472272396
0.03731756657361984,0.0049981907941401005,-0.022207321599125862,0.0170252937823534,-0.0005584644386544824,-0.015137598849833012
0.03725513443350792,0.005815017502754927,-0.022128945216536522,0.017782453447580338,-0.000516180822160095,-0.014745903201401234
0.037248384207487106,0.005429439712315798,-0.022318439558148384,0.017667870968580246,-0.0004717661067843437,-0.015031578950583935
0.037248384207487106,0.005429439712315798,-0.022318439558148384,0.017667870968580246,-0.0004717661067843437,-0.015031578950583935
0.03697207570075989,0.005495093762874603,-0.022152461111545563,0.01800048165023327,-0.0005173368263058364,-0.01503896713256836
0.037230439484119415,0.00527911027893424,-0.022233273833990097,0.017700497061014175,-0.0005010997410863638,-0.015227650292217731
0.037230439484119415,0.00527911027893424,-0.022233273833990097,0.017700497061014175,-0.0005010997410863638,-0.015227650292217731
0.038569096475839615,0.005856555886566639,-0.02241736650466919,0.01776382327079773,-0.0005781730869784951,-0.015530074946582317
0.03766033425927162,0.006362964399158955,-0.022239243611693382,0.017831852659583092,-0.0006130540277808905,-0.015442338772118092
0.03737761080265045,0.005965820513665676,-0.022523056715726852,0.017613310366868973,-0.000578973616939038,-0.015361198224127293
0.03752712532877922,0.005619965959340334,-0.02175116539001465,0.01790480688214302,-0.0006020751316100359,-0.015196651220321655
0.03764225170016289,0.005598805379122496,-0.02170960232615471,0.017636403441429138,-0.000799590430688113,-0.01561823207885027
0.03798171877861023,0.0065331896767020226,-0.022852951660752296,0.01784558594226837,-0.0007658799877390265,-0.01591210998594761
0.03775995597243309,0.00634738989174366,-0.02241453155875206,0.01746092364192009,-0.0007317679701372981,-0.01605708710849285
0.03775792568922043,0.006101115606725216,-0.02169005759060383,0.017931895330548286,-0.0006990708643570542,-0.01604173146188259
0.037398990243673325,0.0060321008786559105,-0.022295264527201653,0.018180055543780327,-0.0006980603793635964,-0.016083216294646263
0.039189327508211136,0.00715269660577178,-0.022739669308066368,0.018006987869739532,-0.000655026116874069,-0.016333475708961487
0.03882976621389389,0.007092368323355913,-0.02276415005326271,0.01797214336693287,-0.0006015902035869658,-0.016386324539780617
0.03693380579352379,0.00670995470136404,-0.022327346727252007,0.01701229438185692,-0.0005453287158161402,-0.016251124441623688
0.03752780333161354,0.006543704774230719,-0.021997647359967232,0.016884811222553253,-0.0004870342090725899,-0.016175299882888794
0.037715643644332886,0.006053025368601084,-0.022769249975681305,0.017056360840797424,-0.0005209810333326459,-0.01602182351052761
0.03878698870539665,0.007613346911966801,-0.022462930530309677,0.017067015171051025,-0.000548935669939965,-0.015895646065473557
0.03998706489801407,0.007519588805735111,-0.022198110818862915,0.017184151336550713,-0.0005772539880126715,-0.016431285068392754
0.03842441737651825,0.007144261617213488,-0.022721614688634872,0.016761962324380875,-0.0007182806148193777,-0.01619362086057663
0.037290554493665695,0.007333004847168922,-0.023205449804663658,0.017456425353884697,-0.0008950112387537956,-0.016504013910889626
0.03902154043316841,0.007680320646613836,-0.02290959469974041,0.017407596111297607,-0.0009410723578184843,-0.016019219532608986
0.0391312912106514,0.007568434812128544,-0.02235979214310646,0.017039913684129715,-0.0015216418541967869,-0.016179241240024567
0.03880756348371506,0.007407486904412508,-0.021819597110152245,0.01741638034582138,-0.0014334795996546745,-0.01699701137840748
0.038793157786130905,0.007306906394660473,-0.022828390821814537,0.01699918881058693,-0.0013242759741842747,-0.016344530507922173
0.03882353752851486,0.007760168518871069,-0.023222770541906357,0.01730910874903202,-0.0011350599816069007,-0.016918281093239784
0.03943773731589317,0.007382385898381472,-0.022433822974562645,0.017077207565307617,-0.0009811961790546775,-0.0170118510723114
0.03901733458042145,0.007324375677853823,-0.022766318172216415,0.017078356817364693,-0.0008651503012515604,-0.017094118520617485
0.03870590031147003,0.0075464495457708836,-0.023034201934933662,0.017618751153349876,-0.0006564331124536693,-0.016502289101481438
0.03910571709275246,0.0076971654780209064,-0.023261599242687225,0.017598850652575493,-0.0006503695622086525,-0.016410458832979202
0.038695067167282104,0.007613545749336481,-0.022828470915555954,0.018108971416950226,-0.0006508302176371217,-0.016761187463998795
0.038695067167282104,0.007613545749336481,-0.022828470915555954,0.018108971416950226,-0.0006508302176371217,-0.016761187463998795
0.039309751242399216,0.007632615510374308,-0.022906135767698288,0.01807841844856739,-0.0006305747083388269,-0.01694006286561489
0.040428172796964645,0.007377400994300842,-0.023072663694620132,0.017129618674516678,-0.0006467108614742756,-0.01757034845650196
0.03839529678225517,0.008693364448845387,-0.022389374673366547,0.016449730843305588,-0.0006302896072156727,-0.01740007847547531
0.03839529678225517,0.008693364448845387,-0.022389374673366547,0.016449730843305588,-0.0006302896072156727,-0.01740007847547531
0.03942546248435974,0.00799630954861641,-0.023571711033582687,0.016847629100084305,-0.0006327807786874473,-0.017470112070441246
0.03944413363933563,0.008160188794136047,-0.02340656705200672,0.016622157767415047,-0.000612018455285579,-0.017773812636733055
0.041225168853998184,0.008289552293717861,-0.022800667211413383,0.016637757420539856,-0.0006381048006005585,-0.018070101737976074
0.03760168328881264,0.008156748488545418,-0.0229475200176239,0.01589130237698555,-0.000948290282394737,-0.01720522716641426
0.04016108065843582,0.008476540446281433,-0.02317878045141697,0.0164226945489645,-0.0009568879613652825,-0.01703318953514099
0.04038074240088463,0.008879387751221657,-0.02328062616288662,0.016215713694691658,-0.0009502365137450397,-0.016867240890860558
0.04005550965666771,0.008610494434833527,-0.023378372192382812,0.0170182716101408,-0.0008653308032080531,-0.01710548810660839
0.03996013477444649,0.008617857471108437,-0.022686675190925598,0.016962260007858276,-0.0008784421952441335,-0.017534717917442322
0.04003908485174179,0.008540969341993332,-0.022994881495833397,0.016285473480820656,-0.0008999919518828392,-0.018110496923327446
0.040620747953653336,0.008803420700132847,-0.023130293935537338,0.016292022541165352,-0.0009011549409478903,-0.018350375816226006
0.04064921662211418,0.008213380351662636,-0.023416386917233467,0.015849649906158447,-0.0009010552312247455,-0.017980560660362244
0.04018144682049751,0.008868884295225143,-0.02326679229736328,0.016348712146282196,-0.0008134725503623486,-0.01798325963318348
0.04041691869497299,0.008915597572922707,-0.022798694670200348,0.016438763588666916,-0.0008054592763073742,-0.018127167597413063
0.04094037041068077,0.008698112331330776,-0.022744204849004745,0.016865450888872147,-0.0007975451298989356,-0.018074369058012962
0.04137902334332466,0.009011823683977127,-0.02266962267458439,0.017083685845136642,-0.0007797841099090874,-0.01814780756831169
0.04076918214559555,0.008772139437496662,-0.022861028090119362,0.01680758036673069,-0.0008185662445612252,-0.017933150753378868
0.04154297709465027,0.0088639035820961,-0.02237105183303356,0.016457585617899895,-0.0007593597983941436,-0.01796151138842106
0.04153817892074585,0.009343482553958893,-0.022419290617108345,0.016100451350212097,-0.000789494370110333,-0.01849488541483879
0.041537441313266754,0.008107815869152546,-0.02294459380209446,0.016800163313746452,-0.0008055032230913639,-0.018476754426956177
0.042060162872076035,0.005745116621255875,-0.02388008125126362,0.0165462214499712,-0.0007156431674957275,-0.01844971813261509
0.04201851785182953,0.005267231725156307,-0.023908346891403198,0.01664550229907036,-0.0007095629698596895,-0.01838473044335842
0.04201851785182953,0.005267231725156307,-0.023908346891403198,0.01664550229907036,-0.0007095629698596895,-0.01838473044335842
0.04186457023024559,0.006604465655982494,-0.022691180929541588,0.017016278579831123,-0.0006588424439541996,-0.01826101541519165
0.041998881846666336,0.007043012417852879,-0.02218768559396267,0.01706024259328842,-0.0006713270558975637,-0.01872115768492222
0.042554643005132675,0.00716044707223773,-0.02305317483842373,0.017328985035419464,-0.0006443890742957592,-0.018759263679385185
0.04220469668507576,0.006055829580873251,-0.023586001247167587,0.016941634938120842,-0.0006704559782519937,-0.018558628857135773
